; generated by SuperSlicer 2.4 on 2023-02-15 at 03:56:15 UTC


;
;

;
;
; 

; external perimeters extrusion width = 0.42mm
; perimeters extrusion width = 0.46mm
; infill extrusion width = 0.44mm
; solid infill extrusion width = 0.46mm
; top infill extrusion width = 0.44mm
; support material extrusion width = 0.40mm
; first layer extrusion width = 0.60mm

; object:{"name":"00_BIQU_BX_H2__MAD__BASE","id":"00_BIQU_BX_H2__MAD__BASE.stl id:0 copy 0","object_center":[150.000000,148.500000,0.000000],"boundingbox_center":[150.000000,148.500000,16.750000],"boundingbox_size":[68.500000,60.999760,33.500000]}
; plater:{"center":[150.000000,148.500000,0.000000],"boundingbox_center":[150.000000,148.500000,16.750000],"boundingbox_size":[68.500000,60.999760,33.500000]}

;TYPE:Custom
M104 S0 ; Stops SuperSlicer from sending temp waits separately


; Pre-Processed for Cancel-Object support by preprocess_cancellation v0.2.0
; 1 known objects
EXCLUDE_OBJECT_DEFINE NAME=00_BIQU_BX_H2__MAD__BASE_stl_id_0_copy_0 CENTER=147.039,146.044 POLYGON=[[115.96,118.213],[115.96,178.789],[184.04,178.789],[184.04,118.213]]

M140 S0

print_start EXTRUDER=250 BED=105 CHAMBER=0
M107
G21 ; set units to millimeters
G90 ; use absolute coordinates
M83 ; use relative distances for extrusion
; Filament gcode
;_TOOLCHANGE 0
M107
;LAYER_CHANGE
;Z:0.2
;HEIGHT:0.2
TIMELAPSE_TAKE_FRAME
;BEFORE_LAYER_CHANGE
;0.2


G1 Z0.2 F8400
;AFTER_LAYER_CHANGE
;0.2
G92 E0
G1 E-0.9 F3000
G1 Z0.7 F8400
G1 X113.567 Y115.613
G1 Z0.2
G1 E0.9 F3000
;TYPE:Skirt
;WIDTH:0.44
G1 F1800
G1 X112.891 Y116.34 E0.03279
G1 X112.111 Y117.415 E0.04384
G1 X111.629 Y118.283 E0.03279
G1 X111.29 Y119.066 E0.02818
G1 X110.973 Y120.045 E0.03395
G1 X110.761 Y121.068 E0.03452
G1 X110.661 Y122.109 E0.03452
G1 X110.653 Y174.576 E1.73231
G1 X110.8 Y176.166 E0.05274
G1 X111.233 Y177.781 E0.05519
G1 X111.745 Y178.946 E0.04201
G1 X112.367 Y179.974 E0.03969
G1 X112.863 Y180.625 E0.02702
G1 X113.969 Y181.756 E0.05222
G1 X114.796 Y182.396 E0.03452
G1 X115.687 Y182.942 E0.03452
G1 X116.633 Y183.389 E0.03452
G1 X117.621 Y183.729 E0.03452
G1 X118.641 Y183.961 E0.03452
G1 X119.68 Y184.079 E0.03452
G1 X120.692 Y184.085 E0.0334
G1 X169.996 Y179.554 E1.63474
G1 X171.488 Y179.263 E0.05022
G1 X172.436 Y178.944 E0.03302
G1 X174.023 Y178.138 E0.05876
G1 X174.923 Y177.497 E0.03649
G1 X175.921 Y176.571 E0.04494
G1 X176.434 Y175.974 E0.026
G1 X177.377 Y174.528 E0.05699
G1 X188.35 Y152.756 E0.805
G1 X188.808 Y151.669 E0.03895
G1 X189.071 Y150.781 E0.03059
G1 X189.272 Y149.693 E0.03651
G1 X189.345 Y148.642 E0.03478
G1 X189.303 Y147.59 E0.03478
G1 X189.143 Y146.532 E0.03534
G1 X188.808 Y145.331 E0.04115
G1 X188.35 Y144.244 E0.03895
G1 X177.439 Y122.586 E0.8007
G1 X176.909 Y121.68 E0.03464
G1 X176.133 Y120.666 E0.04218
G1 X174.923 Y119.503 E0.05541
G1 X173.436 Y118.52 E0.05886
G1 X172.664 Y118.149 E0.0283
G1 X171.743 Y117.812 E0.03236
G1 X170.172 Y117.468 E0.05312
G1 X120.769 Y112.918 E1.63805
G1 X119.917 Y112.909 E0.02811
G1 X118.928 Y112.995 E0.03279
G1 X117.629 Y113.268 E0.04383
G1 X115.945 Y113.923 E0.05964
G1 X115.038 Y114.442 E0.03452
G1 X114.206 Y115.047 E0.03395
G1 X113.612 Y115.573 E0.0262
G1 X113.918 Y115.883 F8400
G1 F1800
G1 X113.185 Y116.607 E0.03401
G1 X112.456 Y117.612 E0.04098
G1 X111.665 Y119.194 E0.05841
G1 X111.361 Y120.131 E0.03252
G1 X111.156 Y121.112 E0.03309
G1 X111.059 Y122.109 E0.03309
G1 X111.05 Y174.56 E1.73176
G1 X111.189 Y176.086 E0.0506
G1 X111.599 Y177.628 E0.0527
G1 X112.087 Y178.745 E0.04023
G1 X112.686 Y179.737 E0.03827
G1 X113.161 Y180.363 E0.02595
G1 X114.241 Y181.466 E0.05096
G1 X115.035 Y182.078 E0.03309
G1 X115.89 Y182.601 E0.03309
G1 X116.797 Y183.027 E0.03309
G1 X117.745 Y183.352 E0.03309
G1 X118.723 Y183.572 E0.0331
G1 X119.719 Y183.684 E0.0331
G1 X120.868 Y183.679 E0.03792
G1 X169.959 Y179.159 E1.62772
G1 X171.393 Y178.877 E0.04825
G1 X172.279 Y178.579 E0.03087
G1 X173.827 Y177.793 E0.05732
G1 X174.665 Y177.195 E0.03398
G1 X175.639 Y176.291 E0.04387
G1 X176.13 Y175.718 E0.02492
G1 X177.033 Y174.33 E0.05467
G1 X187.996 Y152.577 E0.80428
G1 X188.427 Y151.556 E0.03661
G1 X188.691 Y150.668 E0.03059
G1 X188.88 Y149.628 E0.0349
G1 X188.949 Y148.621 E0.03334
G1 X188.907 Y147.612 E0.03334
G1 X188.752 Y146.597 E0.03391
G1 X188.427 Y145.444 E0.03954
G1 X187.996 Y144.423 E0.03661
G1 X177.085 Y122.765 E0.8007
G1 X176.568 Y121.883 E0.03375
G1 X175.823 Y120.913 E0.04039
G1 X174.665 Y119.805 E0.05291
G1 X173.236 Y118.862 E0.05653
G1 X171.611 Y118.187 E0.05808
G1 X170.108 Y117.86 E0.0508
G1 X120.732 Y113.314 E1.63715
G1 X118.967 Y113.39 E0.05834
G1 X117.752 Y113.646 E0.04098
G1 X116.109 Y114.285 E0.05822
G1 X115.24 Y114.784 E0.03309
G1 X114.444 Y115.364 E0.03252
G1 X113.961 Y115.841 E0.02241
G1 E-0.9 F3000
G1 Z0.7 F8400
G1 X115.797 Y117.822
G1 Z0.2
G1 E0.9 F3000
;WIDTH:0.604
G1 F1800
G1 X116.062 Y117.577 E0.01685
G1 X116.617 Y117.154 E0.03259
G1 X117.208 Y116.797 E0.03219
G1 X117.967 Y116.453 E0.03889
G1 X118.592 Y116.252 E0.03062
G1 X119.218 Y116.119 E0.02985
G1 X119.908 Y116.045 E0.0324
G1 X120.52 Y116.042 E0.02852
G1 X169.662 Y120.56 E2.30234
G1 X170.214 Y120.649 E0.02612
G1 X170.768 Y120.79 E0.02664
G1 X171.331 Y120.988 E0.02787
G1 X171.836 Y121.217 E0.02585
G1 X172.425 Y121.557 E0.03175
G1 X172.873 Y121.875 E0.02561
G1 X173.279 Y122.218 E0.0248
G1 X173.665 Y122.603 E0.02547
G1 X174.217 Y123.293 E0.04119
G1 X174.667 Y124.045 E0.0409
G1 X185.533 Y145.613 E1.12674
G1 X185.829 Y146.304 E0.03507
G1 X186.051 Y147.06 E0.03672
G1 X186.177 Y147.807 E0.03535
G1 X186.214 Y148.55 E0.03471
G1 X186.169 Y149.26 E0.03318
G1 X186.043 Y149.973 E0.0338
G1 X185.829 Y150.695 E0.03514
G1 X185.533 Y151.387 E0.03507
G1 X174.669 Y172.952 E1.12659
G1 X174.358 Y173.494 E0.02915
G1 X174.045 Y173.943 E0.02553
G1 X173.689 Y174.371 E0.02597
G1 X173.28 Y174.781 E0.02703
G1 X172.894 Y175.108 E0.0236
G1 X172.49 Y175.401 E0.02328
G1 X171.671 Y175.864 E0.04389
G1 X171.182 Y176.071 E0.02475
G1 X170.679 Y176.237 E0.02474
G1 X170.164 Y176.361 E0.0247
G1 X169.661 Y176.44 E0.02375
G1 X120.685 Y180.949 E2.29458
G1 X119.976 Y180.958 E0.03306
G1 X119.274 Y180.89 E0.03293
G1 X118.584 Y180.745 E0.03286
G1 X117.886 Y180.516 E0.03428
G1 X117.245 Y180.223 E0.03291
G1 X116.614 Y179.844 E0.03435
G1 X116.053 Y179.416 E0.03289
G1 X115.548 Y178.935 E0.03252
G1 X115.221 Y178.561 E0.02319
G1 X114.924 Y178.164 E0.02314
G1 X114.477 Y177.407 E0.04104
G1 X114.122 Y176.558 E0.04291
G1 X113.983 Y176.081 E0.02316
G1 X113.881 Y175.601 E0.02292
G1 X113.811 Y175.067 E0.02511
G1 X113.786 Y174.542 E0.02453
G1 X113.835 Y173.708 E0.03898
G1 X114.004 Y172.84 E0.04124
G1 X114.195 Y172.237 E0.02953
G1 X114.422 Y171.706 E0.02691
G1 X114.77 Y171.073 E0.0337
G1 X115.233 Y170.424 E0.03721
G1 X120.923 Y163.774 E0.40829
G1 X120.923 Y133.226 E1.42522
G1 X115.326 Y126.688 E0.4015
G1 X115.009 Y126.283 E0.02397
G1 X114.724 Y125.853 E0.02407
G1 X114.445 Y125.341 E0.02723
G1 X114.126 Y124.565 E0.03915
G1 X113.902 Y123.715 E0.04102
G1 X113.799 Y122.911 E0.03778
G1 X113.799 Y122.094 E0.03816
G1 X113.871 Y121.455 E0.03
G1 X114.013 Y120.801 E0.03122
G1 X114.232 Y120.142 E0.03238
G1 X114.456 Y119.634 E0.02591
G1 X114.792 Y119.036 E0.03199
G1 X115.201 Y118.464 E0.03281
G1 X115.665 Y117.945 E0.03248
G1 X115.753 Y117.863 E0.0056
G1 X116.132 Y118.275 F8400
G1 F1800
G1 X116.432 Y117.998 E0.01902
G1 X116.944 Y117.61 E0.03
G1 X117.483 Y117.286 E0.02931
G1 X118.155 Y116.982 E0.03441
G1 X118.723 Y116.798 E0.02787
G1 X119.32 Y116.671 E0.02848
G1 X119.953 Y116.605 E0.02967
G1 X120.482 Y116.602 E0.02468
G1 X169.6 Y121.118 E2.30124
G1 X170.112 Y121.201 E0.02418
G1 X170.594 Y121.323 E0.02318
G1 X171.133 Y121.513 E0.02668
G1 X171.59 Y121.722 E0.02344
G1 X172.132 Y122.036 E0.02924
G1 X172.537 Y122.325 E0.02321
G1 X172.907 Y122.638 E0.02262
G1 X173.258 Y122.989 E0.02314
G1 X173.746 Y123.597 E0.03638
G1 X174.171 Y124.307 E0.03857
G1 X185.029 Y145.858 E1.12586
G1 X185.296 Y146.48 E0.03157
G1 X185.501 Y147.17 E0.0336
G1 X185.617 Y147.853 E0.03229
G1 X185.653 Y148.532 E0.03174
G1 X185.614 Y149.179 E0.03026
G1 X185.501 Y149.83 E0.03078
G1 X185.296 Y150.52 E0.0336
G1 X185.029 Y151.142 E0.03157
G1 X174.171 Y172.693 E1.12585
G1 X173.878 Y173.204 E0.0275
G1 X173.593 Y173.611 E0.02317
G1 X173.266 Y174.001 E0.02373
G1 X172.907 Y174.361 E0.02373
G1 X172.556 Y174.661 E0.02153
G1 X172.174 Y174.938 E0.02203
G1 X171.437 Y175.354 E0.03948
G1 X170.995 Y175.542 E0.02241
G1 X170.535 Y175.694 E0.02259
G1 X170.065 Y175.808 E0.02258
G1 X169.6 Y175.882 E0.02194
G1 X120.645 Y180.39 E2.29362
G1 X119.986 Y180.397 E0.03075
G1 X119.345 Y180.333 E0.03006
G1 X118.716 Y180.2 E0.03
G1 X118.105 Y179.999 E0.03
G1 X117.519 Y179.733 E0.03
G1 X116.941 Y179.388 E0.03143
G1 X116.428 Y178.998 E0.03002
G1 X115.962 Y178.556 E0.02999
G1 X115.664 Y178.216 E0.02106
G1 X115.383 Y177.84 E0.02191
G1 X114.97 Y177.138 E0.03799
G1 X114.656 Y176.386 E0.03805
G1 X114.524 Y175.934 E0.02194
G1 X114.432 Y175.496 E0.02088
G1 X114.369 Y175.007 E0.02303
G1 X114.347 Y174.531 E0.02221
G1 X114.394 Y173.761 E0.03601
G1 X114.551 Y172.965 E0.03785
G1 X114.726 Y172.421 E0.02665
G1 X114.92 Y171.964 E0.02315
G1 X115.254 Y171.358 E0.03227
G1 X115.667 Y170.779 E0.03319
G1 X121.484 Y163.982 E0.41739
G1 X121.484 Y133.018 E1.44457
G1 X115.757 Y126.327 E0.41089
G1 X115.458 Y125.946 E0.02259
G1 X115.199 Y125.554 E0.02195
G1 X114.958 Y125.113 E0.02342
G1 X114.652 Y124.369 E0.03753
G1 X114.45 Y123.591 E0.03751
G1 X114.358 Y122.859 E0.03442
G1 X114.358 Y122.141 E0.03351
G1 X114.427 Y121.532 E0.02858
G1 X114.558 Y120.936 E0.0285
G1 X114.76 Y120.332 E0.02967
G1 X114.963 Y119.874 E0.0234
G1 X115.273 Y119.326 E0.02939
G1 X115.648 Y118.803 E0.02998
G1 X116.073 Y118.329 E0.02972
G1 X116.088 Y118.315 E0.00094
G1 X116.481 Y118.715 F8400
G1 F1800
G1 X116.801 Y118.421 E0.02028
G1 X117.27 Y118.067 E0.02741
G1 X117.757 Y117.776 E0.02644
G1 X118.342 Y117.511 E0.02999
G1 X118.882 Y117.337 E0.02644
G1 X119.421 Y117.223 E0.02572
G1 X119.996 Y117.164 E0.02697
G1 X120.444 Y117.162 E0.02089
G1 X169.539 Y121.676 E2.30015
G1 X169.987 Y121.748 E0.02116
G1 X170.42 Y121.857 E0.02081
G1 X170.935 Y122.038 E0.02547
G1 X171.344 Y122.226 E0.02098
G1 X171.839 Y122.514 E0.02672
G1 X172.201 Y122.774 E0.02081
G1 X172.535 Y123.058 E0.02045
G1 X172.849 Y123.374 E0.02081
G1 X173.295 Y123.933 E0.03335
G1 X173.674 Y124.568 E0.03451
G1 X184.524 Y146.103 E1.12502
G1 X184.763 Y146.656 E0.02807
G1 X184.958 Y147.314 E0.03203
G1 X185.058 Y147.899 E0.02771
G1 X185.092 Y148.515 E0.02879
G1 X185.058 Y149.101 E0.02735
G1 X184.958 Y149.686 E0.02771
G1 X184.763 Y150.344 E0.03203
G1 X184.524 Y150.896 E0.02807
G1 X173.673 Y172.434 E1.12512
G1 X173.398 Y172.914 E0.02583
G1 X173.141 Y173.278 E0.0208
G1 X172.86 Y173.614 E0.02045
G1 X172.535 Y173.942 E0.02152
G1 X172.201 Y174.226 E0.02045
G1 X171.858 Y174.473 E0.01973
G1 X171.202 Y174.844 E0.03514
G1 X170.806 Y175.013 E0.02009
G1 X170.39 Y175.152 E0.02045
G1 X169.965 Y175.256 E0.02045
G1 X169.539 Y175.324 E0.02009
G1 X120.605 Y179.83 E2.29265
G1 X119.996 Y179.836 E0.02841
G1 X119.417 Y179.776 E0.02715
G1 X118.848 Y179.654 E0.02715
G1 X118.296 Y179.471 E0.02715
G1 X117.766 Y179.229 E0.02715
G1 X117.267 Y178.931 E0.02715
G1 X116.802 Y178.58 E0.02715
G1 X116.375 Y178.176 E0.02742
G1 X116.094 Y177.855 E0.01992
G1 X115.842 Y177.517 E0.01966
G1 X115.48 Y176.904 E0.03322
G1 X115.19 Y176.212 E0.035
G1 X115.071 Y175.808 E0.01966
G1 X114.984 Y175.392 E0.01983
G1 X114.927 Y174.948 E0.0209
G1 X114.908 Y174.522 E0.0199
G1 X114.953 Y173.815 E0.03303
G1 X115.098 Y173.09 E0.03446
G1 X115.247 Y172.628 E0.02268
G1 X115.419 Y172.222 E0.02055
G1 X115.737 Y171.643 E0.03082
G1 X116.101 Y171.135 E0.02918
G1 X122.045 Y164.189 E0.4265
G1 X122.045 Y132.811 E1.46391
G1 X116.187 Y125.967 E0.42027
G1 X115.907 Y125.61 E0.02118
G1 X115.673 Y125.255 E0.01983
G1 X115.471 Y124.885 E0.01965
G1 X115.178 Y124.174 E0.03588
G1 X114.998 Y123.47 E0.03392
G1 X114.917 Y122.809 E0.03108
G1 X114.917 Y122.188 E0.02893
G1 X114.983 Y121.61 E0.02715
G1 X115.103 Y121.072 E0.02572
G1 X115.287 Y120.524 E0.02697
G1 X115.47 Y120.115 E0.0209
G1 X115.754 Y119.616 E0.02679
G1 X116.094 Y119.144 E0.02715
G1 X116.441 Y118.759 E0.02417
G1 X116.856 Y119.136 F8400
G1 F1800
G1 X116.893 Y119.097 E0.00249
G1 X117.185 Y118.832 E0.0184
G1 X117.601 Y118.52 E0.02425
G1 X118.036 Y118.263 E0.02359
G1 X118.51 Y118.047 E0.0243
G1 X119.005 Y117.884 E0.0243
G1 X119.514 Y117.776 E0.0243
G1 X120.031 Y117.724 E0.02425
G1 X120.439 Y117.723 E0.01902
G1 X169.474 Y122.233 E2.29731
G1 X169.869 Y122.297 E0.0187
G1 X170.253 Y122.392 E0.01844
G1 X170.73 Y122.56 E0.02359
G1 X171.09 Y122.726 E0.01848
G1 X171.549 Y122.995 E0.02484
G1 X171.868 Y123.226 E0.01835
G1 X172.166 Y123.481 E0.0183
G1 X172.445 Y123.764 E0.01857
G1 X172.839 Y124.259 E0.0295
G1 X172.85 Y124.275 E0.0009
G1 X173.175 Y124.825 E0.02982
G1 X184.021 Y146.352 E1.12461
G1 X184.233 Y146.84 E0.02479
G1 X184.413 Y147.448 E0.0296
G1 X184.501 Y147.968 E0.02461
G1 X184.531 Y148.492 E0.02448
G1 X184.501 Y149.031 E0.0252
G1 X184.413 Y149.552 E0.02461
G1 X184.233 Y150.16 E0.0296
G1 X184.021 Y150.647 E0.02479
G1 X173.174 Y172.178 E1.12476
G1 X172.914 Y172.628 E0.02426
G1 X172.686 Y172.949 E0.01835
G1 X172.434 Y173.249 E0.0183
G1 X172.157 Y173.527 E0.0183
G1 X171.859 Y173.781 E0.0183
G1 X171.535 Y174.014 E0.01857
G1 X170.987 Y174.325 E0.02941
G1 X170.622 Y174.483 E0.01857
G1 X170.25 Y174.608 E0.0183
G1 X169.869 Y174.703 E0.0183
G1 X169.474 Y174.767 E0.0187
G1 X120.559 Y179.271 E2.29171
G1 X120.044 Y179.276 E0.02403
G1 X119.526 Y179.225 E0.0243
G1 X119.016 Y179.118 E0.0243
G1 X118.521 Y178.957 E0.0243
G1 X118.046 Y178.742 E0.0243
G1 X117.598 Y178.477 E0.0243
G1 X117.181 Y178.165 E0.0243
G1 X116.801 Y177.81 E0.02426
G1 X116.54 Y177.515 E0.01836
G1 X116.305 Y177.201 E0.01832
G1 X115.978 Y176.645 E0.0301
G1 X115.969 Y176.628 E0.00089
G1 X115.722 Y176.032 E0.0301
G1 X115.614 Y175.666 E0.01778
G1 X115.534 Y175.284 E0.01823
G1 X115.486 Y174.896 E0.01823
G1 X115.469 Y174.506 E0.01821
G1 X115.512 Y173.862 E0.0301
G1 X115.515 Y173.843 E0.00089
G1 X115.646 Y173.212 E0.0301
G1 X115.768 Y172.838 E0.01832
G1 X115.914 Y172.486 E0.01778
G1 X116.224 Y171.922 E0.03006
G1 X116.539 Y171.487 E0.02504
G1 X122.606 Y164.396 E0.43537
G1 X122.606 Y132.604 E1.48325
G1 X116.615 Y125.605 E0.42981
G1 X116.379 Y125.304 E0.01783
G1 X116.162 Y124.979 E0.01823
G1 X115.966 Y124.621 E0.01903
G1 X115.724 Y124.04 E0.02938
G1 X115.718 Y124.022 E0.00089
G1 X115.557 Y123.411 E0.02947
G1 X115.553 Y123.392 E0.00089
G1 X115.476 Y122.749 E0.03023
G1 X115.476 Y122.242 E0.02363
G1 X115.533 Y121.725 E0.0243
G1 X115.649 Y121.202 E0.02501
G1 X115.812 Y120.724 E0.02354
G1 X115.973 Y120.364 E0.0184
G1 X116.238 Y119.901 E0.02488
G1 X116.535 Y119.492 E0.02358
G1 X116.816 Y119.18 E0.01959
M104 S250 ; set temperature
G1 E-0.9 F3000
G1 Z0.7 F8400
; printing object 00_BIQU_BX_H2__MAD__BASE.stl id:0 copy 0
EXCLUDE_OBJECT_START NAME=00_BIQU_BX_H2__MAD__BASE_stl_id_0_copy_0
G1 X123.188 Y132.388
G1 Z0.2
G1 E0.9 F3000
;TYPE:External perimeter
G1 F1800
G1 X117.063 Y125.233 E0.43503
G1 X116.848 Y124.958 E0.01613
G1 X116.658 Y124.672 E0.01584
G1 X116.495 Y124.375 E0.01565
G1 X116.274 Y123.844 E0.02658
G1 X116.128 Y123.292 E0.02639
G1 X116.058 Y122.722 E0.02649
G1 X116.059 Y122.267 E0.02102
G1 X116.109 Y121.813 E0.02112
G1 X116.208 Y121.366 E0.02112
G1 X116.356 Y120.931 E0.02122
G1 X116.496 Y120.623 E0.01565
G1 X116.723 Y120.224 E0.02122
G1 X116.992 Y119.853 E0.02112
G1 X117.3 Y119.513 E0.02121
G1 X117.551 Y119.285 E0.01565
G1 X117.918 Y119.009 E0.02121
G1 X118.312 Y118.777 E0.02112
G1 X118.729 Y118.588 E0.02112
G1 X119.163 Y118.446 E0.02112
G1 X119.611 Y118.351 E0.02112
G1 X120.068 Y118.306 E0.02122
G1 X120.407 Y118.305 E0.01566
G1 X169.405 Y122.812 E2.27267
G1 X169.747 Y122.867 E0.016
G1 X170.08 Y122.949 E0.01582
G1 X170.517 Y123.103 E0.0214
G1 X170.825 Y123.246 E0.01572
G1 X171.225 Y123.48 E0.0214
G1 X171.503 Y123.68 E0.01581
G1 X171.765 Y123.904 E0.01591
G1 X172.004 Y124.146 E0.01572
G1 X172.364 Y124.598 E0.02669
G1 X172.662 Y125.1 E0.02698
G1 X183.495 Y146.604 E1.11211
G1 X183.682 Y147.032 E0.02157
G1 X183.847 Y147.588 E0.02678
G1 X183.922 Y148.04 E0.02118
