; generated by SuperSlicer 2.5.59 on 2023-04-01 at 03:35:22 UTC


;
;

;
;
; 

; external perimeters extrusion width = 0.50mm
; perimeters extrusion width = 0.51mm
; infill extrusion width = 0.51mm
; solid infill extrusion width = 0.51mm
; top infill extrusion width = 0.50mm
; first layer extrusion width = 0.67mm

; external perimeters extrusion width = 0.50mm
; perimeters extrusion width = 0.51mm
; infill extrusion width = 0.51mm
; solid infill extrusion width = 0.51mm
; top infill extrusion width = 0.50mm
; first layer extrusion width = 0.67mm

; object:{"name":"300Side Skirt B","id":"300Side Skirt B id:0 copy 0","object_center":[150.000001,148.500000,0.000000],"boundingbox_center":[150.000001,148.500000,10.000000],"boundingbox_size":[67.000114,93.999992,20.000000]}
EXCLUDE_OBJECT_DEFINE NAME=300Side_Skirt_B_id_0_copy_0 CENTER=150.000001,148.500000 POLYGON=[[116.499936,103.500000],[116.505680,103.348680],[116.509568,103.303968],[116.522840,103.198216],[116.538376,103.109824],[116.551728,103.047808],[116.586056,102.919432],[116.592664,102.898072],[116.646136,102.749408],[116.652192,102.734632],[116.712648,102.602464],[116.736096,102.557208],[116.792744,102.458160],[116.837008,102.388864],[116.886808,102.317712],[116.953920,102.231216],[116.995176,102.182560],[117.085728,102.085792],[117.117840,102.054384],[117.231152,101.953976],[117.254624,101.935032],[117.388808,101.837064],[117.404904,101.826416],[117.557144,101.736160],[117.567776,101.730520],[117.734576,101.652248],[117.741928,101.649216],[117.919376,101.586120],[117.925704,101.584216],[118.109760,101.538440],[118.117048,101.537000],[118.303912,101.509640],[118.307600,101.509280],[118.499936,101.500000],[128.613264,101.500000],[128.928360,101.509944],[129.242184,101.539720],[129.553528,101.589200],[129.861112,101.658216],[130.163760,101.746472],[130.460232,101.853640],[180.093664,122.531160],[180.340320,122.648464],[180.578400,122.782328],[180.806784,122.932128],[181.024416,123.097160],[181.230272,123.276656],[181.423408,123.469784],[181.602912,123.675648],[181.767952,123.893280],[181.917744,124.121664],[182.051600,124.359744],[182.168896,124.606400],[182.269104,124.860488],[182.351728,125.120816],[182.416400,125.386184],[182.462800,125.655336],[182.490736,125.927032],[183.494048,143.390496],[183.500064,143.500000],[183.500064,186.500000],[183.494048,186.609488],[183.492992,186.618640],[182.490624,194.446544],[182.462560,194.580912],[182.416320,194.710176],[182.352832,194.831872],[182.273264,194.943744],[182.179136,195.043648],[182.072208,195.129744],[181.954496,195.200368],[181.828240,195.254208],[181.695776,195.290256],[181.559632,195.307824],[121.309648,195.500000],[118.499936,195.500000],[118.307600,195.490720],[118.303912,195.490368],[118.117048,195.462992],[118.109760,195.461568],[117.925704,195.415792],[117.919376,195.413872],[117.741928,195.350784],[117.734576,195.347744],[117.567776,195.269488],[117.557144,195.263840],[117.404904,195.173584],[117.388808,195.162928],[117.254624,195.064976],[117.231152,195.046016],[117.117840,194.945616],[117.085728,194.914208],[116.995176,194.817440],[116.953920,194.768784],[116.886808,194.682288],[116.837008,194.611136],[116.792744,194.541840],[116.736096,194.442800],[116.712648,194.397536],[116.652192,194.265360],[116.646136,194.250592],[116.592664,194.101936],[116.586056,194.080560],[116.551728,193.952192],[116.538376,193.890176],[116.522840,193.801776],[116.509568,193.696032],[116.505680,193.651328],[116.499936,193.500000],[116.499936,103.500000]]
; plater:{"center":[150.000001,148.500000,0.000000],"boundingbox_center":[150.000001,148.500000,10.000000],"boundingbox_size":[67.000114,93.999992,20.000000]}

;TYPE:Custom
SET_PRINT_STATS_INFO TOTAL_LAYER=80

M104 S0 ; Stops SuperSlicer from sending temp waits separately

M109 S0

M140 S0

print_start EXTRUDER=255 BED=105 CHAMBER=0
G21 ; set units to millimeters
G90 ; use absolute coordinates
M82 ; use absolute distances for extrusion
G92 E0
; Filament gcode
;_TOOLCHANGE 0
M107
;LAYER_CHANGE
;Z:0.25
;HEIGHT:0.25
TIMELAPSE_TAKE_FRAME
;BEFORE_LAYER_CHANGE
;0.25


G1 E-0.7 F1800
G1 Z0.2 F8700
G1 Z0.25
SET_PRINT_STATS_INFO CURRENT_LAYER=1
;AFTER_LAYER_CHANGE
;0.25
G92 E0
G1 Z0.45
G1 X115.676 Y96.716
G1 Z0.25
G1 E0.7 F1800
;TYPE:Skirt
;WIDTH:0.6075
G1 F2250
G1 X114.545 Y98.095 E0.80267
G1 X113.601 Y99.851 E0.91745
G1 X113.188 Y101.104 E0.99339
G1 X112.993 Y102.051 E1.04907
G1 X112.89 Y103.346 E1.12385
G1 X112.89 Y194.572 E6.37535
G1 X113.104 Y196.276 E6.4742
G1 X113.627 Y197.83 E6.56863
G1 X114.451 Y199.279 E6.66457
G1 X115.15 Y200.145 E6.72864
G1 X116.875 Y201.589 E6.85812
G1 X118.401 Y202.359 E6.95654
G1 X119.474 Y202.692 E7.02119
G1 X121.127 Y202.926 E7.11728
G1 X181.593 Y202.941 E10.59806
G1 X183.534 Y202.69 E10.71078
G1 X185.104 Y202.145 E10.80642
G1 X186.561 Y201.293 E10.90357
G1 X187.439 Y200.564 E10.96927
G1 X188.549 Y199.279 E11.06701
G1 X189.583 Y197.316 E11.19473
G1 X190.002 Y195.747 E11.28823
G1 X190.11 Y194.572 E11.35617
G1 X190.11 Y126.052 E15.30057
G1 X190.002 Y124.59 E15.38496
G1 X189.77 Y123.404 E15.45452
G1 X189.358 Y122.077 E15.53451
G1 X188.802 Y120.837 E15.61273
G1 X187.867 Y119.334 E15.71465
G1 X186.853 Y118.131 E15.80518
G1 X186.099 Y117.417 E15.86498
G1 X185.021 Y116.589 E15.94321
G1 X183.502 Y115.719 E16.04399
G1 X133.163 Y94.737 E19.18348
G1 X131 Y94.112 E19.31309
G1 X129.167 Y93.903 E19.41929
G1 X122.301 Y93.89 E19.81453
G1 X121.125 Y93.978 E19.8824
G1 X119.412 Y94.39 E19.98385
G1 X117.95 Y95.028 E20.07566
G1 X116.814 Y95.744 E20.15298
G1 X115.727 Y96.672 E20.23522
G1 X116.088 Y97.092 F8700
G1 F2250
G1 X116.044 Y97.13 E20.23859
G1 X114.983 Y98.434 E20.33536
G1 X114.123 Y100.035 E20.43998
G1 X113.73 Y101.215 E20.51156
G1 X113.536 Y102.162 E20.56725
G1 X113.444 Y103.346 E20.63559
G1 X113.444 Y194.572 E25.88709
G1 X113.635 Y196.116 E25.97667
G1 X114.117 Y197.572 E26.06497
G1 X114.883 Y198.931 E26.15476
G1 X115.581 Y199.798 E26.21882
G1 X117.14 Y201.103 E26.33588
G1 X118.566 Y201.83 E26.428
G1 X119.638 Y202.164 E26.49265
G1 X121.186 Y202.375 E26.58259
G1 X181.593 Y202.387 E30.05993
G1 X183.37 Y202.161 E30.16307
G1 X184.84 Y201.657 E30.25256
G1 X186.207 Y200.867 E30.34344
G1 X187.085 Y200.138 E30.40914
G1 X188.117 Y198.931 E30.50055
G1 X189.053 Y197.157 E30.61602
G1 X189.451 Y195.689 E30.70358
G1 X189.556 Y194.572 E30.76817
G1 X189.556 Y126.052 E34.71258
G1 X189.459 Y124.696 E34.79081
G1 X189.226 Y123.51 E34.86038
G1 X188.831 Y122.25 E34.93641
G1 X188.3 Y121.071 E35.01087
G1 X187.438 Y119.685 E35.10484
G1 X186.472 Y118.534 E35.19134
G1 X185.718 Y117.819 E35.25114
G1 X184.691 Y117.033 E35.3256
G1 X183.289 Y116.23 E35.41858
G1 X132.95 Y95.248 E38.55807
G1 X130.871 Y94.651 E38.68259
G1 X129.166 Y94.456 E38.78138
G1 X122.3 Y94.444 E39.17662
G1 X121.171 Y94.53 E39.24177
G1 X119.555 Y94.925 E39.33756
G1 X118.186 Y95.529 E39.4237
G1 X117.12 Y96.206 E39.4964
G1 X116.139 Y97.048 E39.5708
G1 X116.501 Y97.466 F8700
G1 F2250
G1 X116.411 Y97.544 E39.57763
G1 X115.421 Y98.773 E39.66851
G1 X114.646 Y100.219 E39.76296
G1 X114.273 Y101.326 E39.8302
G1 X114.078 Y102.274 E39.88589
G1 X113.998 Y103.346 E39.94779
G1 X113.998 Y194.572 E45.19928
G1 X114.165 Y195.957 E45.27959
G1 X114.607 Y197.314 E45.36177
G1 X115.314 Y198.584 E45.4454
G1 X116.012 Y199.45 E45.50947
G1 X117.405 Y200.617 E45.61409
G1 X118.731 Y201.301 E45.69993
G1 X119.803 Y201.635 E45.76458
G1 X121.246 Y201.824 E45.84837
G1 X181.593 Y201.833 E49.32228
G1 X183.205 Y201.632 E49.41583
G1 X184.577 Y201.17 E49.49916
G1 X185.853 Y200.441 E49.58378
G1 X186.731 Y199.712 E49.64948
G1 X187.686 Y198.584 E49.73457
G1 X188.522 Y196.997 E49.83779
G1 X188.9 Y195.631 E49.9194
G1 X189.002 Y194.572 E49.98066
G1 X189.002 Y126.052 E53.92506
G1 X188.915 Y124.803 E53.99714
G1 X188.683 Y123.617 E54.06671
G1 X188.305 Y122.423 E54.1388
G1 X187.798 Y121.305 E54.20949
G1 X187.009 Y120.035 E54.29551
G1 X186.091 Y118.936 E54.37798
G1 X185.337 Y118.221 E54.43778
G1 X184.36 Y117.477 E54.50848
G1 X183.076 Y116.742 E54.59366
G1 X132.737 Y95.759 E57.73314
G1 X130.742 Y95.19 E57.85258
G1 X129.165 Y95.01 E57.94395
G1 X122.299 Y94.998 E58.33919
G1 X121.218 Y95.082 E58.40162
G1 X119.698 Y95.46 E58.49174
G1 X118.422 Y96.03 E58.57222
G1 X117.425 Y96.667 E58.64031
G1 X116.552 Y97.422 E58.70676
G92 E0
G1 E-0.7 F1800
G1 Z0.45 F8700
G1 X178.066 Y193.646
G1 Z0.25
G1 E0 F1800
;WIDTH:0.675
G1 F2250
G1 X178.222 Y193.674 E0.01024
G1 X178.537 Y193.759 E0.03132
G1 X178.578 Y193.769 E0.03404
G1 X179.013 Y193.922 E0.06383
G1 X179.04 Y193.931 E0.06566
G1 X179.182 Y193.994 E0.07568
G1 X179.377 Y194.081 E0.08947
G1 X179.808 Y194.313 E0.12109
G1 X180.118 Y194.513 E0.1449
G1 X180.509 Y194.812 E0.17668
G1 X180.933 Y195.179 E0.21293
G1 X181.118 Y195.274 E0.22636
G1 X181.312 Y195.33 E0.23938
G1 X181.519 Y195.346 E0.25281
G1 X181.668 Y195.33 E0.2625
G1 X181.711 Y195.325 E0.26528
G1 X181.902 Y195.265 E0.27821
G1 X182.08 Y195.17 E0.29121
G1 X182.24 Y195.036 E0.30469
G1 X182.367 Y194.879 E0.31771
G1 X182.402 Y194.812 E0.32265
G1 X182.46 Y194.702 E0.33067
G1 X182.516 Y194.517 E0.34312
G1 X182.536 Y194.326 E0.35554
G1 X182.536 Y190.929 E0.57494
G1 X182.957 Y190.984 E0.60237
G1 X183.937 Y191.39 E0.6709
G1 X184.779 Y192.036 E0.73944
G1 X185.425 Y192.878 E0.80798
G1 X185.831 Y193.859 E0.87652
G1 X185.893 Y194.326 E0.90694
G1 X185.97 Y194.911 E0.94506
G1 X185.913 Y195.346 E0.97341
G1 X185.831 Y195.963 E1.01359
G1 X185.425 Y196.944 E1.08213
G1 X184.779 Y197.786 E1.15067
G1 X184.434 Y198.051 E1.17881
G1 X183.937 Y198.432 E1.21921
G1 X182.957 Y198.838 E1.28774
G1 X182.431 Y198.907 E1.32201
G1 X181.905 Y198.976 E1.35628
G1 X181.379 Y198.907 E1.39055
G1 X180.853 Y198.838 E1.42482
G1 X179.872 Y198.432 E1.49336
G1 X179.03 Y197.786 E1.5619
G1 X178.384 Y196.944 E1.63043
G1 X177.978 Y195.963 E1.69897
G1 X177.897 Y195.346 E1.73915
G1 X177.839 Y194.911 E1.76751
G1 X177.978 Y193.859 E1.83605
G1 X178.04 Y193.709 E1.84654
G1 X177.945 Y194.346 F8700
G1 F2250
G1 X179.241 Y194.346 E1.93022
G1 X179.656 Y194.57 E1.96069
G1 X179.946 Y194.757 E1.98297
G1 X180.222 Y194.968 E2.00537
G1 X178.148 Y194.968 E2.13932
G1 X178.192 Y195.307 E2.16145
G1 X178.229 Y195.589 E2.17979
G1 X185.58 Y195.589 E2.65449
G1 X185.617 Y195.307 E2.67283
G1 X185.662 Y194.968 E2.69497
G1 X182.657 Y194.968 E2.889
G1 X182.666 Y194.951 E2.89023
G1 X182.737 Y194.815 E2.90011
G1 X182.809 Y194.576 E2.91623
G1 X182.834 Y194.346 E2.93117
G1 X185.595 Y194.346 E3.1095
G1 X185.541 Y193.937 E3.13618
G1 X185.453 Y193.725 E3.15098
G1 X182.834 Y193.725 E3.32013
G1 X182.834 Y193.104 E3.36026
G1 X185.196 Y193.104 E3.51279
G1 X185.165 Y193.029 E3.51802
G1 X184.745 Y192.482 E3.56251
G1 X182.834 Y192.482 E3.68596
G1 X182.834 Y191.861 E3.72608
G1 X184.499 Y191.861 E3.83364
G92 E0
G1 E-0.7 F1800
G1 Z0.45 F8700
G1 X185.695 Y196.21
G1 Z0.25
G1 E0 F1800
G1 F2250
G1 X178.403 Y196.21 E0.47095
G1 X178.645 Y196.793 E0.5117
G1 X178.674 Y196.832 E0.51483
G1 X185.135 Y196.832 E0.93211
G1 X184.659 Y197.453 E0.98269
G1 X179.151 Y197.453 E1.33839
G1 X179.243 Y197.573 E1.34815
G1 X179.896 Y198.074 E1.40135
G1 X184.352 Y198.074 E1.6891
G92 E0
G1 E-0.7 F1800
G1 Z0.45 F8700
G1 X124.959 Y194.708
G1 Z0.25
G1 E0 F1800
G1 F2250
G1 X124.916 Y195.036 E0.02135
G1 X124.821 Y195.76 E0.06854
G1 X124.415 Y196.741 E0.13708
G1 X123.769 Y197.583 E0.20561
G1 X123.423 Y197.848 E0.23376
G1 X122.927 Y198.229 E0.27415
G1 X121.946 Y198.635 E0.34269
G1 X120.894 Y198.773 E0.41123
G1 X119.842 Y198.635 E0.47976
G1 X118.862 Y198.229 E0.5483
G1 X118.02 Y197.583 E0.61684
G1 X117.374 Y196.741 E0.68538
G1 X116.967 Y195.76 E0.75392
G1 X116.872 Y195.036 E0.8011
G1 X116.829 Y194.708 E0.82245
G1 X116.967 Y193.656 E0.89099
G1 X117.374 Y192.675 E0.95953
G1 X118.02 Y191.833 E1.02807
G1 X118.365 Y191.568 E1.05621
G1 X118.862 Y191.187 E1.0966
G1 X119.842 Y190.781 E1.16514
G1 X120.464 Y190.699 E1.20568
G1 X120.464 Y194.326 E1.4399
G1 X120.484 Y194.517 E1.45232
G1 X120.54 Y194.702 E1.46478
G1 X120.633 Y194.879 E1.47773
G1 X120.759 Y195.036 E1.49069
G1 X120.914 Y195.165 E1.50371
G1 X121.097 Y195.265 E1.51719
G1 X121.289 Y195.325 E1.53019
G1 X121.489 Y195.347 E1.54316
G1 X121.689 Y195.33 E1.5561
G1 X121.874 Y195.277 E1.56856
G1 X121.97 Y195.228 E1.5755
G1 X122.066 Y195.18 E1.58244
G1 X122.094 Y195.156 E1.58481
G1 X122.491 Y194.812 E1.61876
G1 X122.814 Y194.565 E1.64499
G1 X122.882 Y194.513 E1.65055
G1 X122.999 Y194.437 E1.65953
G1 X123.192 Y194.313 E1.67435
G1 X123.259 Y194.277 E1.67926
G1 X123.623 Y194.081 E1.70597
G1 X123.96 Y193.931 E1.72978
G1 X124.422 Y193.77 E1.7614
G1 X124.477 Y193.755 E1.76507
G1 X124.78 Y193.674 E1.78534
G1 X124.822 Y193.666 E1.78811
G1 X124.877 Y194.081 E1.81513
G1 X124.951 Y194.641 E1.85164
G1 X123.621 Y194.117 F8700
G1 F2250
G1 X124.581 Y194.117 E1.91362
G1 X124.659 Y194.708 E1.95213
G1 X124.655 Y194.738 E1.95409
G1 X123.083 Y194.738 E2.05557
G1 X123.054 Y194.757 E2.05783
G1 X122.995 Y194.802 E2.06262
G1 X122.679 Y195.043 E2.08827
G1 X122.314 Y195.359 E2.11947
G1 X124.573 Y195.359 E2.26534
G1 X124.53 Y195.682 E2.28637
G1 X124.407 Y195.981 E2.30723
G1 X117.382 Y195.981 E2.76093
G1 X117.258 Y195.682 E2.78179
G1 X117.215 Y195.359 E2.80282
G1 X120.681 Y195.359 E3.02664
G1 X120.545 Y195.246 E3.03808
G1 X120.383 Y195.044 E3.05479
G1 X120.263 Y194.815 E3.07148
G1 X120.239 Y194.738 E3.0767
G1 X117.134 Y194.738 E3.27727
G1 X117.13 Y194.708 E3.27923
G1 X117.208 Y194.117 E3.31774
G1 X120.166 Y194.117 E3.50881
G1 X120.166 Y193.495 E3.54894
G1 X117.357 Y193.495 E3.73037
G1 X117.614 Y192.874 E3.77381
G1 X120.166 Y192.874 E3.93862
G1 X120.166 Y192.253 E3.97875
G1 X118.074 Y192.253 E4.11387
G1 X118.232 Y192.046 E4.13069
G1 X118.547 Y191.805 E4.1563
G1 X118.773 Y191.631 E4.17469
G1 X120.433 Y191.631 E4.28192
G92 E0
G1 E-0.7 F1800
G1 Z0.45 F8700
G1 X124.439 Y196.602
G1 Z0.25
G1 E0 F1800
G1 F2250
G1 X117.643 Y196.602 E0.43886
G1 X118.12 Y197.223 E0.48944
G1 X123.668 Y197.223 E0.84776
G1 X123.556 Y197.37 E0.85968
G1 X123.241 Y197.611 E0.88529
G1 X122.937 Y197.845 E0.91007
G1 X118.851 Y197.845 E1.17393
G1 X119.012 Y197.968 E1.18701
G1 X119.92 Y198.344 E1.25048
G1 X120.847 Y198.466 E1.31084
G1 X122.272 Y198.466 E1.40291
G92 E0
G1 E-0.7 F1800
G1 Z0.45 F8700
G1 X182.536 Y128.399
G1 Z0.25
G1 E0 F1800
G1 F2250
G1 X182.536 Y126.191 E0.14262
G1 X182.509 Y125.736 E0.17205
G1 X182.393 Y125.145 E0.21094
G1 X182.249 Y124.705 E0.24085
G1 X182.053 Y124.286 E0.27072
G1 X181.809 Y123.891 E0.30072
G1 X181.428 Y123.425 E0.3396
G1 X181.382 Y123.381 E0.34367
G1 X181.091 Y123.106 E0.36955
G1 X180.72 Y122.829 E0.39942
G1 X180.318 Y122.598 E0.42939
G1 X179.762 Y122.368 E0.46828
G1 X179.467 Y122.288 E0.48798
G1 X179.314 Y122.247 E0.49825
G1 X178.899 Y122.186 E0.52532
G1 X178.472 Y122.124 E0.5532
G1 X178.749 Y121.762 E0.58262
G1 X178.905 Y121.559 E0.59917
G1 X179.251 Y121.294 E0.62732
G1 X179.747 Y120.913 E0.66771
G1 X180.727 Y120.507 E0.73625
G1 X181.253 Y120.437 E0.77052
G1 X181.779 Y120.368 E0.80479
G1 X182.306 Y120.437 E0.83906
G1 X182.832 Y120.507 E0.87332
G1 X183.812 Y120.913 E0.94186
G1 X184.654 Y121.559 E1.0104
G1 X185.3 Y122.401 E1.07894
G1 X185.706 Y123.381 E1.14748
G1 X185.773 Y123.891 E1.18065
G1 X185.845 Y124.433 E1.21601
G1 X185.809 Y124.705 E1.2337
G1 X185.706 Y125.486 E1.28455
G1 X185.414 Y126.191 E1.33385
G1 X185.3 Y126.466 E1.35309
G1 X184.654 Y127.308 E1.42163
G1 X184.308 Y127.573 E1.44977
G1 X183.812 Y127.954 E1.49016
G1 X183.303 Y128.165 E1.52573
G1 X182.832 Y128.36 E1.5587
G1 X182.603 Y128.39 E1.57362
G1 X184.335 Y127.514 F8700
G1 F2250
G1 X182.834 Y127.514 E1.67056
G1 X182.834 Y126.892 E1.71069
G1 X184.597 Y126.892 E1.82455
G1 X185.04 Y126.316 E1.8715
G1 X185.058 Y126.271 E1.87462
G1 X182.834 Y126.271 E2.01826
G1 X182.834 Y126.182 E2.02401
G1 X182.805 Y125.698 E2.0553
G1 X182.796 Y125.65 E2.0585
G1 X185.315 Y125.65 E2.22122
G1 X185.416 Y125.408 E2.23813
G1 X185.466 Y125.028 E2.26285
G1 X182.669 Y125.028 E2.44348
G1 X182.526 Y124.595 E2.47293
G1 X182.439 Y124.407 E2.48633
G1 X185.54 Y124.407 E2.68664
G1 X185.478 Y123.93 E2.71774
G1 X185.459 Y123.786 E2.72711
G1 X182.095 Y123.786 E2.94436
G1 X182.052 Y123.717 E2.94958
G1 X181.647 Y123.221 E2.99095
G1 X181.587 Y123.164 E2.99629
