; generated by SuperSlicer 2.4 on 2023-02-07 at 00:29:07 UTC


;
;

;
;
; 

; external perimeters extrusion width = 0.42mm
; perimeters extrusion width = 0.46mm
; infill extrusion width = 0.44mm
; solid infill extrusion width = 0.46mm
; top infill extrusion width = 0.44mm
; support material extrusion width = 0.40mm
; first layer extrusion width = 0.60mm

; external perimeters extrusion width = 0.42mm
; perimeters extrusion width = 0.46mm
; infill extrusion width = 0.44mm
; solid infill extrusion width = 0.46mm
; top infill extrusion width = 0.44mm
; support material extrusion width = 0.40mm
; first layer extrusion width = 0.60mm

; object:{"name":"3D-Printable-Tool-Carriage","id":"3D-Printable-Tool-Carriage.stl id:0 copy 0","object_center":[113.075990,151.415665,0.000000],"boundingbox_center":[113.075990,151.415665,12.000000],"boundingbox_size":[66.000000,60.000000,24.000000]}
; object:{"name":"Servo-Arm-01_11_22","id":"Servo-Arm-01_11_22.stl id:1 copy 0","object_center":[181.464458,147.128585,0.000000],"boundingbox_center":[181.464458,147.128585,2.500000],"boundingbox_size":[12.966717,23.199999,5.000000]}
; plater:{"center":[134.011903,151.415665,0.000000],"boundingbox_center":[134.011903,151.415665,12.000000],"boundingbox_size":[107.871826,60.000000,24.000000]}

;TYPE:Custom
M104 S0 ; Stops SuperSlicer from sending temp waits separately


; Pre-Processed for Cancel-Object support by preprocess_cancellation v0.2.0
; 2 known objects
EXCLUDE_OBJECT_DEFINE NAME=3D_Printable_Tool_Carriage_stl_id_0_copy_0 CENTER=113.094,144.595 POLYGON=[[80.286,121.626],[80.286,181.206],[145.866,181.206],[145.866,121.626]]
EXCLUDE_OBJECT_DEFINE NAME=Servo_Arm_01_11_22_stl_id_1_copy_0 CENTER=181.448,148.939 POLYGON=[[175.192,135.739],[175.192,158.518],[187.737,158.518],[187.737,135.739]]

M140 S0

print_start EXTRUDER=238 BED=75 CHAMBER=0
G21 ; set units to millimeters
G90 ; use absolute coordinates
M83 ; use relative distances for extrusion
; Filament gcode
;_TOOLCHANGE 0
M107
;LAYER_CHANGE
;Z:0.2375
;HEIGHT:0.2375
TIMELAPSE_TAKE_FRAME
;BEFORE_LAYER_CHANGE
;0.2375


G1 E-0.8 F3000
G1 Z0.3 F8400
;AFTER_LAYER_CHANGE
;0.2375
G92 E0
G1 Z0.5375
G1 X79.84 Y117.797
G1 Z0.2375
G1 E0.8 F1800
;TYPE:Skirt
;WIDTH:0.44
G1 X78.423 Y118.837 E0.07428
G1 X77.208 Y120.107 E0.07428
G1 X76.232 Y121.569 E0.07428
G1 X75.679 Y122.756 E0.05531
G1 X75.186 Y124.443 E0.07428
G1 X74.993 Y126.307 E0.07915
G1 X75.003 Y171.75 E1.9202
G1 X75.186 Y173.388 E0.06965
G1 X75.679 Y175.076 E0.07428
G1 X76.457 Y176.652 E0.07428
G1 X77.497 Y178.069 E0.07428
G1 X78.768 Y179.284 E0.07428
G1 X79.84 Y180.035 E0.05531
G1 X81.839 Y180.967 E0.09321
G1 X83.251 Y181.341 E0.06173
G1 X107.772 Y186.386 E1.05783
G1 X108.967 Y186.498 E0.05069
G1 X117.185 Y186.498 E0.34726
G1 X118.38 Y186.386 E0.05069
G1 X142.901 Y181.341 E1.05783
G1 X144.68 Y180.838 E0.07813
G1 X185.634 Y162.916 E1.88895
G1 X187.097 Y162.093 E0.07091
G1 X187.956 Y161.445 E0.04549
G1 X188.994 Y160.437 E0.06112
G1 X189.876 Y159.291 E0.06112
G1 X190.585 Y158.03 E0.06112
G1 X191.107 Y156.681 E0.06112
G1 X191.43 Y155.272 E0.06112
G1 X192.998 Y138.94 E0.69327
G1 X193.016 Y137.752 E0.05019
G1 X192.938 Y137.146 E0.02585
G1 X192.658 Y136.122 E0.04483
G1 X192.206 Y135.163 E0.04483
G1 X191.29 Y133.964 E0.06375
G1 X190.839 Y133.55 E0.02585
G1 X189.967 Y132.945 E0.04483
G1 X188.965 Y132.49 E0.04651
G1 X144.498 Y116.921 E1.99079
G1 X143.048 Y116.525 E0.06349
G1 X141.41 Y116.343 E0.06965
G1 X84.967 Y116.333 E2.385
G1 X83.104 Y116.525 E0.07915
G1 X81.416 Y117.018 E0.07428
G1 X79.894 Y117.77 E0.07175
G1 X80.063 Y118.115 F8400
G1 F1800
G1 X78.697 Y119.111 E0.07143
G1 X77.526 Y120.33 E0.07143
G1 X76.584 Y121.734 E0.07143
G1 X76.031 Y122.92 E0.05531
G1 X75.561 Y124.544 E0.07143
G1 X75.382 Y126.307 E0.07487
G1 X75.39 Y171.716 E1.91877
G1 X75.561 Y173.288 E0.0668
G1 X76.031 Y174.911 E0.07143
G1 X76.775 Y176.429 E0.07143
G1 X77.772 Y177.794 E0.07143
G1 X78.99 Y178.966 E0.07143
G1 X80.063 Y179.717 E0.05531
G1 X81.94 Y180.592 E0.08751
G1 X83.33 Y180.96 E0.06077
G1 X107.851 Y186.006 E1.05783
G1 X108.967 Y186.11 E0.04737
G1 X117.185 Y186.11 E0.34726
G1 X118.301 Y186.006 E0.04737
G1 X142.822 Y180.96 E1.05783
G1 X144.524 Y180.483 E0.07469
G1 X185.478 Y162.56 E1.88895
G1 X186.863 Y161.783 E0.06709
G1 X187.96 Y160.928 E0.05877
G1 X188.718 Y160.164 E0.04549
G1 X189.564 Y159.06 E0.05877
G1 X190.243 Y157.846 E0.05877
G1 X190.742 Y156.548 E0.05877
G1 X191.05 Y155.192 E0.05877
G1 X192.612 Y138.903 E0.69143
G1 X192.631 Y137.802 E0.04652
G1 X192.553 Y137.196 E0.02585
G1 X192.288 Y136.238 E0.04197
G1 X191.656 Y135.018 E0.05805
G1 X191.027 Y134.25 E0.04197
G1 X190.576 Y133.836 E0.02585
G1 X189.758 Y133.272 E0.04197
G1 X188.837 Y132.857 E0.0427
G1 X144.369 Y117.288 E1.99079
G1 X142.948 Y116.901 E0.06226
G1 X141.376 Y116.73 E0.0668
G1 X84.967 Y116.721 E2.38357
G1 X83.204 Y116.901 E0.07487
G1 X81.58 Y117.37 E0.07143
G1 X80.117 Y118.088 E0.06889
G1 X81.629 Y120.399 F8400
;WIDTH:0.604
;HEIGHT:0.24
G1 F1800
G1 X82.731 Y119.89 E0.0736
G1 X83.877 Y119.587 E0.07186
G1 X85.04 Y119.482 E0.07085
G1 X88.292 Y119.482 E0.19723
G1 X89.422 Y119.583 E0.06875
G1 X90.614 Y119.9 E0.0748
G1 X91.736 Y120.425 E0.07514
G1 X92.742 Y121.14 E0.07486
G1 X93.509 Y121.905 E0.06569
G1 X94.71 Y123.334 E0.11315
G1 X95.04 Y123.674 E0.02875
G1 X95.113 Y123.706 E0.00483
G1 X95.163 Y123.653 E0.00439
G1 X95.172 Y122.805 E0.05143
G1 X95.242 Y122.212 E0.03621
G1 X95.381 Y121.727 E0.0306
G1 X95.574 Y121.298 E0.02854
G1 X95.915 Y120.779 E0.03767
G1 X96.377 Y120.301 E0.04032
G1 X96.898 Y119.936 E0.03855
G1 X97.412 Y119.695 E0.03448
G1 X97.991 Y119.538 E0.03636
G1 X98.526 Y119.483 E0.03259
G1 X127.632 Y119.484 E1.76503
G1 X128.131 Y119.532 E0.03039
G1 X128.641 Y119.66 E0.03187
G1 X129.244 Y119.929 E0.04008
G1 X129.787 Y120.311 E0.04024
G1 X130.222 Y120.762 E0.038
G1 X130.515 Y121.186 E0.03127
G1 X130.737 Y121.639 E0.03059
G1 X130.907 Y122.199 E0.03544
G1 X130.98 Y122.805 E0.03706
G1 X130.989 Y123.654 E0.05144
G1 X131.011 Y123.693 E0.00272
G1 X131.057 Y123.706 E0.00295
G1 X131.098 Y123.689 E0.00269
G1 X131.443 Y123.333 E0.03003
G1 X132.671 Y121.875 E0.1156
G1 X133.435 Y121.117 E0.06526
G1 X134.395 Y120.438 E0.07132
G1 X135.508 Y119.91 E0.07471
G1 X136.678 Y119.592 E0.07349
G1 X137.846 Y119.483 E0.07117
G1 X141.136 Y119.483 E0.19952
G1 X142.302 Y119.591 E0.071
G1 X143.467 Y119.907 E0.07319
G1 X144.543 Y120.412 E0.07208
G1 X145.613 Y121.173 E0.0796
G1 X146.454 Y122.04 E0.07327
G1 X147.095 Y122.973 E0.06865
G1 X147.573 Y123.997 E0.06851
G1 X147.9 Y125.184 E0.07466
G1 X148.009 Y126.354 E0.07126
G1 X148.008 Y171.491 E2.73716
G1 X147.89 Y172.697 E0.07348
G1 X147.564 Y173.861 E0.07331
G1 X147.041 Y174.952 E0.07334
G1 X146.383 Y175.877 E0.06887
G1 X145.55 Y176.713 E0.07156
G1 X144.608 Y177.383 E0.07005
G1 X143.522 Y177.904 E0.07307
G1 X142.335 Y178.233 E0.07469
G1 X141.114 Y178.349 E0.07437
G1 X137.872 Y178.349 E0.1966
G1 X136.801 Y178.26 E0.06519
G1 X135.442 Y177.896 E0.08533
G1 X134.458 Y177.431 E0.06595
G1 X133.529 Y176.791 E0.0684
G1 X132.645 Y175.929 E0.07486
G1 X131.452 Y174.51 E0.11246
G1 X131.015 Y174.072 E0.0375
G1 X130.578 Y173.767 E0.03233
G1 X130.095 Y173.541 E0.03233
G1 X129.58 Y173.403 E0.03233
G1 X128.965 Y173.349 E0.03747
G1 X121.09 Y173.356 E0.47751
G1 X121.031 Y173.389 E0.00415
G1 X121.01 Y173.5 E0.00683
G1 X121.009 Y179.467 E0.36183
G1 X120.944 Y180.134 E0.04068
G1 X120.76 Y180.796 E0.04165
G1 X120.467 Y181.411 E0.04129
G1 X120.078 Y181.958 E0.04071
G1 X119.634 Y182.405 E0.0382
G1 X119.09 Y182.794 E0.04053
G1 X118.369 Y183.13 E0.04826
G1 X117.681 Y183.303 E0.04301
G1 X117.111 Y183.349 E0.03469
G1 X108.96 Y183.346 E0.49428
G1 X108.308 Y183.274 E0.03979
G1 X107.695 Y183.099 E0.03862
G1 X107.078 Y182.804 E0.04152
G1 X106.559 Y182.439 E0.03843
G1 X106.043 Y181.922 E0.04432
G1 X105.654 Y181.357 E0.04158
G1 X105.385 Y180.777 E0.03876
G1 X105.201 Y180.089 E0.04318
G1 X105.142 Y179.451 E0.03887
G1 X105.142 Y173.5 E0.36088
G1 X105.135 Y173.414 E0.00524
G1 X105.102 Y173.37 E0.00331
G1 X105.062 Y173.356 E0.0026
G1 X97.187 Y173.349 E0.47751
G1 X96.572 Y173.403 E0.03747
G1 X96.057 Y173.541 E0.03233
G1 X95.574 Y173.767 E0.03233
G1 X95.137 Y174.072 E0.03233
G1 X94.7 Y174.51 E0.0375
G1 X93.507 Y175.93 E0.11246
G1 X92.623 Y176.791 E0.07486
G1 X91.694 Y177.431 E0.0684
G1 X90.711 Y177.895 E0.06591
G1 X89.377 Y178.257 E0.08383
G1 X88.28 Y178.349 E0.06673
G1 X85.04 Y178.349 E0.19647
G1 X83.9 Y178.249 E0.0694
G1 X82.734 Y177.942 E0.07313
G1 X81.656 Y177.446 E0.07197
G1 X80.619 Y176.726 E0.07653
G1 X79.731 Y175.831 E0.07649
G1 X79.084 Y174.904 E0.06855
G1 X78.581 Y173.84 E0.07137
G1 X78.253 Y172.651 E0.07478
G1 X78.143 Y171.465 E0.07222
G1 X78.142 Y126.38 E2.73404
G1 X78.248 Y125.214 E0.07096
G1 X78.569 Y124.021 E0.07493
G1 X79.074 Y122.946 E0.07203
G1 X79.717 Y122.016 E0.06856
G1 X80.579 Y121.139 E0.07461
G1 X81.58 Y120.434 E0.07422
G1 X81.885 Y120.89 F8400
G1 F1800
G1 X82.896 Y120.418 E0.06765
G1 X83.995 Y120.128 E0.06894
G1 X85.052 Y120.034 E0.06436
G1 X88.281 Y120.035 E0.19577
G1 X89.304 Y120.123 E0.0623
G1 X90.402 Y120.411 E0.06884
G1 X91.479 Y120.915 E0.07209
G1 X92.402 Y121.576 E0.06885
G1 X93.109 Y122.286 E0.06081
G1 X94.299 Y123.704 E0.11222
G1 X94.688 Y124.105 E0.03387
G1 X94.863 Y124.217 E0.01263
G1 X94.959 Y124.249 E0.00611
G1 X95.159 Y124.263 E0.01218
G1 X95.259 Y124.246 E0.00611
G1 X95.442 Y124.164 E0.01218
G1 X95.589 Y124.027 E0.01218
G1 X95.684 Y123.85 E0.01218
G1 X95.709 Y123.752 E0.00611
G1 X95.722 Y123.594 E0.0096
G1 X95.725 Y122.823 E0.04679
G1 X95.78 Y122.34 E0.02945
G1 X95.894 Y121.935 E0.02552
G1 X96.069 Y121.545 E0.02591
G1 X96.36 Y121.106 E0.03197
G1 X96.753 Y120.707 E0.03394
G1 X97.191 Y120.405 E0.03231
G1 X97.622 Y120.206 E0.02877
G1 X98.071 Y120.085 E0.02815
G1 X98.54 Y120.036 E0.02863
G1 X127.595 Y120.035 E1.7619
G1 X128.018 Y120.073 E0.02576
G1 X128.482 Y120.189 E0.02905
G1 X128.991 Y120.421 E0.03388
G1 X129.444 Y120.745 E0.0338
G1 X129.807 Y121.126 E0.03188
G1 X130.047 Y121.48 E0.02591
G1 X130.229 Y121.859 E0.02551
G1 X130.37 Y122.333 E0.03002
G1 X130.427 Y122.823 E0.02989
G1 X130.43 Y123.594 E0.0468
G1 X130.443 Y123.752 E0.0096
G1 X130.468 Y123.85 E0.00611
G1 X130.563 Y124.027 E0.01218
G1 X130.631 Y124.101 E0.00611
G1 X130.71 Y124.164 E0.00611
G1 X130.893 Y124.246 E0.01218
G1 X131.093 Y124.264 E0.01218
G1 X131.193 Y124.249 E0.00611
G1 X131.378 Y124.17 E0.01218
G1 X131.464 Y124.105 E0.00656
G1 X131.853 Y123.704 E0.03388
G1 X133.085 Y122.24 E0.11601
G1 X133.807 Y121.526 E0.0616
G1 X134.654 Y120.927 E0.06287
G1 X135.722 Y120.42 E0.07174
G1 X136.798 Y120.132 E0.0675
G1 X137.883 Y120.034 E0.06608
G1 X141.124 Y120.035 E0.19652
G1 X142.182 Y120.131 E0.06445
G1 X143.256 Y120.418 E0.0674
G1 X144.245 Y120.878 E0.06612
G1 X145.235 Y121.577 E0.07352
G1 X146.012 Y122.373 E0.06744
G1 X146.627 Y123.267 E0.06581
G1 X147.062 Y124.208 E0.06288
G1 X147.36 Y125.305 E0.06895
G1 X147.457 Y126.391 E0.06611
G1 X147.457 Y171.452 E2.73256
G1 X147.351 Y172.573 E0.06829
G1 X147.055 Y173.646 E0.06746
G1 X146.576 Y174.651 E0.06753
G1 X145.946 Y175.538 E0.066
G1 X145.176 Y176.305 E0.06591
G1 X144.309 Y176.918 E0.06437
G1 X143.306 Y177.395 E0.06734
G1 X142.258 Y177.686 E0.06596
G1 X141.101 Y177.797 E0.07049
G1 X137.884 Y177.797 E0.19509
G1 X136.872 Y177.712 E0.06159
G1 X135.655 Y177.386 E0.07637
G1 X134.715 Y176.941 E0.06307
G1 X133.863 Y176.351 E0.06286
G1 X133.06 Y175.564 E0.06818
G1 X131.86 Y174.136 E0.1131
G1 X131.372 Y173.648 E0.04188
G1 X130.856 Y173.286 E0.0382
G1 X130.285 Y173.02 E0.03819
G1 X129.676 Y172.857 E0.0382
G1 X128.989 Y172.797 E0.04187
G1 X121.136 Y172.797 E0.47617
G1 X120.969 Y172.812 E0.01016
G1 X120.769 Y172.884 E0.01292
G1 X120.682 Y172.946 E0.00649
G1 X120.545 Y173.109 E0.01292
G1 X120.472 Y173.309 E0.01292
G1 X120.457 Y173.476 E0.01016
G1 X120.457 Y179.453 E0.36245
G1 X120.396 Y180.055 E0.03668
G1 X120.235 Y180.622 E0.03575
G1 X119.979 Y181.149 E0.03553
G1 X119.669 Y181.586 E0.03254
G1 X119.29 Y181.971 E0.03273
G1 X118.833 Y182.304 E0.03431
G1 X118.16 Y182.618 E0.04503
G1 X117.613 Y182.754 E0.03415
G1 X117.1 Y182.797 E0.03125
G1 X108.975 Y182.793 E0.4927
G1 X108.436 Y182.736 E0.03284
G1 X107.87 Y182.575 E0.03572
G1 X107.34 Y182.317 E0.03574
G1 X106.899 Y182.003 E0.03283
G1 X106.483 Y181.586 E0.03574
G1 X106.145 Y181.102 E0.03574
G1 X105.897 Y180.567 E0.03579
G1 X105.742 Y179.972 E0.03726
G1 X105.695 Y179.439 E0.03247
G1 X105.695 Y173.476 E0.36161
G1 X105.68 Y173.309 E0.01016
G1 X105.652 Y173.206 E0.00648
G1 X105.546 Y173.021 E0.01292
G1 X105.383 Y172.884 E0.01292
G1 X105.183 Y172.812 E0.01292
G1 X105.016 Y172.797 E0.01016
G1 X97.163 Y172.797 E0.47617
G1 X96.476 Y172.857 E0.04187
G1 X95.867 Y173.02 E0.0382
G1 X95.296 Y173.286 E0.0382
G1 X94.78 Y173.648 E0.0382
G1 X94.292 Y174.136 E0.04188
G1 X93.092 Y175.564 E0.1131
G1 X92.289 Y176.351 E0.06818
G1 X91.437 Y176.941 E0.06286
G1 X90.497 Y177.385 E0.06304
G1 X89.305 Y177.708 E0.07489
G1 X88.268 Y177.797 E0.06309
G1 X85.052 Y177.797 E0.19504
G1 X84.016 Y177.708 E0.06303
G1 X82.941 Y177.429 E0.06737
G1 X81.95 Y176.978 E0.06601
G1 X80.955 Y176.287 E0.07347
G1 X80.141 Y175.46 E0.07039
G1 X79.551 Y174.608 E0.06286
G1 X79.107 Y173.669 E0.06301
G1 X78.801 Y172.575 E0.06889
G1 X78.695 Y171.452 E0.06836
G1 X78.695 Y126.392 E2.73251
G1 X78.788 Y125.333 E0.06446
G1 X79.079 Y124.233 E0.06898
G1 X79.564 Y123.202 E0.0691
G1 X80.157 Y122.351 E0.06288
G1 X80.955 Y121.545 E0.06881
G1 X81.836 Y120.924 E0.06534
G1 X82.154 Y121.376 F8400
G1 F1800
G1 X82.182 Y121.356 E0.00212
G1 X83.105 Y120.93 E0.06161
G1 X84.111 Y120.668 E0.06306
G1 X85.064 Y120.587 E0.05797
G1 X88.269 Y120.587 E0.19433
G1 X89.233 Y120.671 E0.0587
G1 X90.192 Y120.923 E0.06015
G1 X91.18 Y121.38 E0.06598
G1 X92.027 Y121.982 E0.06306
G1 X92.694 Y122.651 E0.05724
G1 X93.889 Y124.074 E0.1127
G1 X94.321 Y124.52 E0.03764
G1 X94.477 Y124.638 E0.0119
G1 X94.647 Y124.727 E0.01163
G1 X94.829 Y124.788 E0.01163
G1 X95.018 Y124.817 E0.01163
G1 X95.21 Y124.815 E0.01163
G1 X95.399 Y124.782 E0.01163
G1 X95.58 Y124.718 E0.01163
G1 X95.748 Y124.626 E0.01163
G1 X95.899 Y124.507 E0.01163
G1 X96.028 Y124.366 E0.01163
G1 X96.132 Y124.205 E0.01163
G1 X96.209 Y124.029 E0.01163
G1 X96.256 Y123.843 E0.01163
G1 X96.274 Y123.618 E0.0137
G1 X96.276 Y122.868 E0.04549
G1 X96.319 Y122.464 E0.02461
G1 X96.406 Y122.142 E0.02024
G1 X96.563 Y121.794 E0.02316
G1 X96.804 Y121.437 E0.02607
G1 X97.125 Y121.116 E0.02753
G1 X97.481 Y120.876 E0.02607
G1 X97.829 Y120.719 E0.02316
G1 X98.151 Y120.632 E0.02024
G1 X98.555 Y120.588 E0.02461
G1 X127.561 Y120.587 E1.75896
G1 X127.906 Y120.615 E0.02097
G1 X128.323 Y120.719 E0.02607
G1 X128.734 Y120.911 E0.02753
G1 X129.064 Y121.147 E0.02462
G1 X129.363 Y121.456 E0.02607
G1 X129.578 Y121.772 E0.02316
G1 X129.72 Y122.074 E0.02024
G1 X129.833 Y122.464 E0.02461
G1 X129.876 Y122.867 E0.02461
G1 X129.878 Y123.618 E0.04549
G1 X129.896 Y123.843 E0.0137
G1 X129.943 Y124.029 E0.01163
G1 X130.02 Y124.205 E0.01163
G1 X130.124 Y124.366 E0.01163
G1 X130.253 Y124.507 E0.01163
G1 X130.404 Y124.626 E0.01163
G1 X130.572 Y124.718 E0.01163
G1 X130.753 Y124.782 E0.01163
G1 X130.942 Y124.815 E0.01163
G1 X131.134 Y124.817 E0.01163
G1 X131.323 Y124.788 E0.01163
G1 X131.505 Y124.727 E0.01163
G1 X131.675 Y124.638 E0.01163
G1 X131.831 Y124.52 E0.0119
G1 X132.263 Y124.074 E0.03764
G1 X133.483 Y122.624 E0.11489
G1 X134.179 Y121.935 E0.05942
G1 X134.952 Y121.393 E0.05724
G1 X135.891 Y120.947 E0.06306
G1 X136.872 Y120.68 E0.06161
G1 X137.895 Y120.587 E0.06234
G1 X141.088 Y120.587 E0.1936
G1 X142.064 Y120.671 E0.05943
G1 X143.047 Y120.93 E0.06161
G1 X143.948 Y121.345 E0.06015
G1 X144.859 Y121.982 E0.06743
G1 X145.571 Y122.707 E0.0616
G1 X146.136 Y123.522 E0.06015
G1 X146.536 Y124.377 E0.05724
G1 X146.812 Y125.38 E0.06306
G1 X146.905 Y126.404 E0.06234
G1 X146.904 Y171.44 E2.73104
G1 X146.812 Y172.452 E0.06161
G1 X146.545 Y173.432 E0.06161
G1 X146.112 Y174.351 E0.06161
G1 X145.509 Y175.199 E0.06306
G1 X144.804 Y175.896 E0.06015
G1 X144.011 Y176.451 E0.0587
G1 X143.092 Y176.885 E0.06161
G1 X142.135 Y177.146 E0.06015
G1 X141.088 Y177.244 E0.06379
G1 X137.895 Y177.244 E0.1936
G1 X136.943 Y177.163 E0.05797
