; generated by SuperSlicer 2.5.59 on 2023-03-19 at 07:04:58 UTC


;
;

;
;
; 

; external perimeters extrusion width = 0.45mm
; perimeters extrusion width = 0.45mm
; infill extrusion width = 0.45mm
; solid infill extrusion width = 0.45mm
; top infill extrusion width = 0.45mm
; first layer extrusion width = 0.60mm

; external perimeters extrusion width = 0.45mm
; perimeters extrusion width = 0.45mm
; infill extrusion width = 0.45mm
; solid infill extrusion width = 0.45mm
; top infill extrusion width = 0.45mm
; first layer extrusion width = 0.60mm

; object:{"name":"[a]_btt_knob_light_shield","id":"[a]_btt_knob_light_shield.stl id:0 copy 0","object_center":[199.868581,148.499592,0.000000],"boundingbox_center":[199.868581,148.499592,1.309508],"boundingbox_size":[29.998444,29.998970,2.619016]}
EXCLUDE_OBJECT_DEFINE NAME=_a__btt_knob_light_shield_stl_id_0_copy_0 CENTER=199.868581,148.499592 POLYGON=[[184.869360,148.489376],[184.878160,147.985488],[184.903904,147.482176],[184.946512,146.980000],[185.005984,146.479552],[185.082224,145.981376],[185.175168,145.486032],[185.284704,144.994112],[185.410688,144.506128],[185.553008,144.022672],[185.711488,143.544272],[185.885920,143.071440],[186.076176,142.604768],[186.281984,142.144720],[186.503136,141.691872],[186.739376,141.246672],[186.990432,140.809696],[187.256048,140.381376],[187.535856,139.962240],[187.829632,139.552736],[188.136976,139.153328],[188.457584,138.764464],[188.791040,138.386592],[189.137024,138.020144],[189.495136,137.665520],[189.864928,137.323136],[190.246048,136.993360],[190.638000,136.676576],[191.040384,136.373136],[191.452752,136.083376],[191.874608,135.807648],[192.305488,135.546240],[192.744912,135.299440],[193.192352,135.067568],[193.647344,134.850832],[194.109376,134.649520],[194.577904,134.463840],[195.052400,134.294000],[195.532320,134.140200],[196.017152,134.002608],[196.506336,133.881376],[196.999296,133.776656],[197.495520,133.688552],[197.994416,133.617160],[198.495824,133.562544],[198.998384,133.524824],[199.501936,133.504000],[200.005888,133.500120],[200.509712,133.513152],[201.012784,133.543104],[201.514576,133.589952],[202.014528,133.653624],[202.512032,133.734040],[203.006560,133.831144],[203.497552,133.944792],[203.984448,134.074888],[204.466704,134.221248],[204.943776,134.383760],[205.415104,134.562160],[205.880176,134.756320],[206.338464,134.965984],[206.789456,135.190928],[207.232640,135.430912],[207.667504,135.685632],[208.093552,135.954816],[208.510336,136.238160],[208.917360,136.535360],[209.314176,136.846032],[209.700336,137.169888],[210.075376,137.506528],[210.438912,137.855584],[210.790512,138.216640],[211.129792,138.589328],[211.456368,138.973168],[211.769840,139.367792],[212.069888,139.772704],[212.356160,140.187488],[212.628336,140.611632],[212.886128,141.044704],[213.129216,141.486176],[213.357328,141.935584],[213.570224,142.392368],[213.767648,142.856048],[213.949392,143.326128],[214.115232,143.802032],[214.264992,144.283232],[214.398512,144.769216],[214.515632,145.259392],[214.616208,145.753216],[214.700144,146.250160],[214.767328,146.749632],[214.817696,147.251088],[214.851216,147.753936],[214.867792,148.257664],[214.867456,148.761632],[214.850192,149.265312],[214.816016,149.768128],[214.764960,150.269504],[214.697088,150.768896],[214.612480,151.265712],[214.511232,151.759392],[214.393456,152.249424],[214.259280,152.735216],[214.108880,153.216224],[213.942384,153.691888],[213.760000,154.161712],[213.561952,154.625152],[213.348432,155.081664],[213.119728,155.530752],[212.876032,155.971888],[212.617664,156.404608],[212.344912,156.828384],[212.058064,157.242768],[211.757456,157.647296],[211.443472,158.041472],[211.116384,158.424896],[210.776592,158.797104],[210.424512,159.157696],[210.060496,159.506240],[209.684992,159.842384],[209.298400,160.165712],[208.901168,160.475856],[208.493744,160.772512],[208.076592,161.055280],[207.650160,161.323904],[207.214944,161.578032],[206.771456,161.817392],[206.320160,162.041728],[205.861584,162.250784],[205.396240,162.444304],[204.924672,162.622080],[204.447392,162.783936],[203.964928,162.929664],[203.477872,163.059088],[202.986720,163.172080],[202.492064,163.268512],[201.994448,163.348256],[201.494416,163.411248],[200.992560,163.457408],[200.992160,163.457440],[200.489008,163.486720],[199.985200,163.499088],[199.481264,163.494512],[198.977728,163.473008],[198.475216,163.434608],[197.974288,163.379328],[197.475488,163.307280],[196.979408,163.218512],[196.486576,163.113120],[195.997552,162.991232],[195.512912,162.852976],[195.033168,162.698528],[194.558912,162.528048],[194.090640,162.341744],[193.628912,162.139808],[193.174192,161.922448],[192.727056,161.689968],[192.287968,161.442576],[191.857456,161.180592],[191.435952,160.904288],[191.024000,160.613984],[190.622032,160.310000],[190.230496,159.992672],[189.849824,159.662384],[189.480496,159.319488],[189.122864,158.964384],[188.777392,158.597472],[188.444432,158.219152],[188.124352,157.829872],[187.817536,157.430016],[187.524320,157.020128],[187.245072,156.600624],[186.980048,156.171936],[186.729584,155.734608],[186.493936,155.289120],[186.273408,154.835952],[186.068208,154.375648],[185.878608,153.908688],[185.704784,153.435632],[185.546960,152.957024],[185.405312,152.473360],[185.279968,151.985232],[185.171120,151.493136],[185.078848,150.997680],[185.003264,150.499408],[184.944480,149.998864],[184.902528,149.496640],[184.877472,148.993280],[184.869360,148.489376]]
; object:{"name":"[a]_btt_knob_light_shield","id":"[a]_btt_knob_light_shield.stl id:0 copy 1","object_center":[100.131420,148.499564,0.000000],"boundingbox_center":[100.131420,148.499564,1.309508],"boundingbox_size":[29.998444,29.998970,2.619016]}
EXCLUDE_OBJECT_DEFINE NAME=_a__btt_knob_light_shield_stl_id_0_copy_1 CENTER=100.131420,148.499564 POLYGON=[[85.132192,148.489344],[85.141000,147.985456],[85.166736,147.482144],[85.209360,146.979968],[85.268824,146.479520],[85.345072,145.981344],[85.438008,145.486016],[85.547536,144.994080],[85.673528,144.506096],[85.815840,144.022640],[85.974320,143.544240],[86.148776,143.071408],[86.339016,142.604736],[86.544832,142.144688],[86.765976,141.691840],[87.002224,141.246640],[87.253272,140.809664],[87.518872,140.381344],[87.798704,139.962208],[88.092480,139.552704],[88.399816,139.153296],[88.720424,138.764432],[89.053896,138.386560],[89.399872,138.020112],[89.757976,137.665504],[90.127776,137.323104],[90.508888,136.993328],[90.900848,136.676544],[91.303232,136.373104],[91.715584,136.083344],[92.137440,135.807616],[92.568320,135.546208],[93.007736,135.299408],[93.455192,135.067536],[93.910184,134.850800],[94.372208,134.649488],[94.840736,134.463808],[95.315232,134.293984],[95.795160,134.140168],[96.280000,134.002576],[96.769176,133.881344],[97.262144,133.776624],[97.758352,133.688520],[98.257256,133.617128],[98.758664,133.562512],[99.261232,133.524792],[99.764776,133.503968],[100.268728,133.500088],[100.772536,133.513120],[101.275624,133.543072],[101.777416,133.589920],[102.277360,133.653592],[102.774872,133.734008],[103.269400,133.831120],[103.760400,133.944760],[104.247288,134.074856],[104.729544,134.221216],[105.206608,134.383728],[105.677944,134.562128],[106.143016,134.756288],[106.601312,134.965952],[107.052296,135.190896],[107.495480,135.430880],[107.930336,135.685616],[108.356392,135.954784],[108.773168,136.238128],[109.180200,136.535328],[109.577016,136.846016],[109.963176,137.169856],[110.338216,137.506496],[110.701760,137.855568],[111.053352,138.216608],[111.392632,138.589296],[111.719200,138.973152],[112.032680,139.367760],[112.332728,139.772672],[112.618992,140.187456],[112.891184,140.611600],[113.148968,141.044672],[113.392048,141.486144],[113.620168,141.935552],[113.833064,142.392336],[114.030496,142.856016],[114.212224,143.326096],[114.378072,143.802000],[114.527840,144.283200],[114.661352,144.769184],[114.778464,145.259360],[114.879048,145.753184],[114.962992,146.250128],[115.030176,146.749600],[115.080544,147.251056],[115.114056,147.753904],[115.130640,148.257632],[115.130304,148.761600],[115.113032,149.265280],[115.078848,149.768096],[115.027792,150.269472],[114.959920,150.768864],[114.875312,151.265680],[114.774072,151.759376],[114.656288,152.249392],[114.522120,152.735184],[114.371712,153.216192],[114.205224,153.691872],[114.022832,154.161680],[113.824792,154.625120],[113.611272,155.081632],[113.382560,155.530720],[113.138880,155.971856],[112.880504,156.404576],[112.607752,156.828352],[112.320904,157.242736],[112.020304,157.647264],[111.706304,158.041440],[111.379216,158.424864],[111.039440,158.797072],[110.687352,159.157664],[110.323344,159.506208],[109.947840,159.842352],[109.561240,160.165680],[109.164008,160.475824],[108.756584,160.772480],[108.339424,161.055248],[107.913000,161.323872],[107.477792,161.578000],[107.034296,161.817360],[106.583000,162.041696],[106.124432,162.250752],[105.659080,162.444272],[105.187504,162.622048],[104.710232,162.783904],[104.227776,162.929632],[103.740712,163.059056],[103.249568,163.172048],[102.754896,163.268480],[102.257280,163.348224],[101.757248,163.411232],[101.255392,163.457376],[101.254992,163.457408],[100.752264,163.486672],[100.751864,163.486688],[100.248040,163.499056],[99.744096,163.494480],[99.240568,163.472976],[98.738064,163.434576],[98.237128,163.379296],[97.738328,163.307248],[97.242232,163.218480],[96.749408,163.113088],[96.260392,162.991200],[95.775744,162.852944],[95.296024,162.698496],[94.821752,162.528016],[94.353488,162.341712],[93.891736,162.139776],[93.437032,161.922432],[92.989880,161.689936],[92.550808,161.442544],[92.120288,161.180560],[91.698800,160.904256],[91.286840,160.613952],[90.884864,160.309968],[90.493336,159.992640],[90.112672,159.662352],[89.743336,159.319456],[89.385712,158.964352],[89.040232,158.597440],[88.707264,158.219120],[88.387192,157.829840],[88.080384,157.430000],[87.787168,157.020096],[87.507912,156.600592],[87.242888,156.171904],[86.992416,155.734576],[86.756784,155.289088],[86.536248,154.835920],[86.331056,154.375616],[86.141448,153.908656],[85.967632,153.435616],[85.809808,152.957008],[85.668144,152.473328],[85.542816,151.985200],[85.433952,151.493104],[85.341680,150.997648],[85.266104,150.499376],[85.207312,149.998848],[85.165368,149.496608],[85.140320,148.993248],[85.132192,148.489344]]
; object:{"name":"[a]_fan_grill_a_x2","id":"[a]_fan_grill_a_x2.stl id:1 copy 0","object_center":[150.001387,181.500000,0.000000],"boundingbox_center":[150.001387,181.500000,1.600021],"boundingbox_size":[60.000000,60.000000,3.200043]}
EXCLUDE_OBJECT_DEFINE NAME=_a__fan_grill_a_x2_stl_id_1_copy_0 CENTER=150.001387,181.500000 POLYGON=[[120.001392,156.000000],[120.016760,155.628384],[120.062768,155.259328],[120.139088,154.895312],[120.245208,154.538864],[120.380408,154.192384],[120.543752,153.858240],[120.734136,153.538736],[120.950256,153.236048],[121.190632,152.952240],[121.453624,152.689248],[121.737432,152.448864],[122.040120,152.232752],[122.359624,152.042368],[122.693760,151.879024],[123.040248,151.743840],[123.396704,151.637712],[123.760712,151.561392],[124.129784,151.515376],[124.501392,151.500000],[130.822680,151.500000],[175.501392,151.500016],[175.873008,151.515376],[176.242064,151.561392],[176.606080,151.637712],[176.962544,151.743840],[177.309024,151.879024],[177.643152,152.042368],[177.962656,152.232752],[178.265344,152.448880],[178.549152,152.689248],[178.812144,152.952240],[179.052528,153.236048],[179.268624,153.538736],[179.459024,153.858240],[179.622368,154.192384],[179.757568,154.538864],[179.863696,154.895328],[179.940016,155.259344],[179.986016,155.628400],[180.001392,156.000016],[180.001392,207.000000],[179.986016,207.371616],[179.940016,207.740672],[179.863696,208.104688],[179.757568,208.461152],[179.622368,208.807632],[179.459024,209.141776],[179.268640,209.461280],[179.052544,209.763968],[178.812144,210.047776],[178.549168,210.310768],[178.265344,210.551136],[177.962656,210.767264],[177.643152,210.957648],[177.309024,211.120992],[176.962544,211.256176],[176.606080,211.362304],[176.242064,211.438624],[175.873008,211.484640],[175.501392,211.500000],[124.501392,211.500000],[124.129784,211.484640],[123.760712,211.438624],[123.396704,211.362304],[123.040240,211.256176],[122.693760,211.120992],[122.359616,210.957648],[122.040112,210.767264],[121.737424,210.551136],[121.453624,210.310768],[121.190632,210.047776],[120.950248,209.763968],[120.734136,209.461280],[120.543752,209.141776],[120.380400,208.807632],[120.245208,208.461152],[120.139088,208.104688],[120.062760,207.740672],[120.016752,207.371600],[120.001392,207.000000],[120.001392,156.000000]]
; object:{"name":"[a]_fan_grill_a_x2","id":"[a]_fan_grill_a_x2.stl id:1 copy 1","object_center":[150.001387,115.500000,0.000000],"boundingbox_center":[150.001387,115.500000,1.600021],"boundingbox_size":[60.000000,60.000000,3.200043]}
EXCLUDE_OBJECT_DEFINE NAME=_a__fan_grill_a_x2_stl_id_1_copy_1 CENTER=150.001387,115.500000 POLYGON=[[120.001392,90.000000],[120.016760,89.628384],[120.062768,89.259320],[120.139088,88.895312],[120.245208,88.538864],[120.380408,88.192384],[120.543752,87.858248],[120.734136,87.538744],[120.950256,87.236056],[121.190632,86.952240],[121.453624,86.689256],[121.737432,86.448872],[122.040120,86.232760],[122.359624,86.042376],[122.693760,85.879032],[123.040248,85.743832],[123.396704,85.637712],[123.760712,85.561384],[124.129784,85.515384],[124.501392,85.500000],[130.822680,85.500000],[175.501392,85.500016],[175.873008,85.515384],[176.242064,85.561384],[176.606080,85.637712],[176.962544,85.743832],[177.309024,85.879032],[177.643152,86.042376],[177.962656,86.232760],[178.265344,86.448880],[178.549152,86.689256],[178.812144,86.952240],[179.052528,87.236056],[179.268624,87.538744],[179.459024,87.858248],[179.622368,88.192384],[179.757568,88.538864],[179.863696,88.895328],[179.940016,89.259336],[179.986016,89.628400],[180.001392,90.000016],[180.001392,141.000000],[179.986016,141.371616],[179.940016,141.740672],[179.863696,142.104688],[179.757568,142.461152],[179.622368,142.807632],[179.459024,143.141776],[179.268640,143.461280],[179.052544,143.763968],[178.812144,144.047776],[178.549168,144.310768],[178.265344,144.551136],[177.962656,144.767264],[177.643152,144.957648],[177.309024,145.120992],[176.962544,145.256176],[176.606080,145.362304],[176.242064,145.438624],[175.873008,145.484640],[175.501392,145.500000],[124.501392,145.500000],[124.129784,145.484640],[123.760712,145.438624],[123.396704,145.362304],[123.040240,145.256176],[122.693760,145.120992],[122.359616,144.957648],[122.040112,144.767264],[121.737424,144.551136],[121.453624,144.310768],[121.190632,144.047776],[120.950248,143.763968],[120.734136,143.461280],[120.543752,143.141776],[120.380400,142.807632],[120.245208,142.461152],[120.139088,142.104688],[120.062760,141.740672],[120.016752,141.371600],[120.001392,141.000000],[120.001392,90.000000]]
; plater:{"center":[150.000000,148.500000,0.000000],"boundingbox_center":[150.000000,148.500000,1.600021],"boundingbox_size":[129.735605,126.000000,3.200043]}

;TYPE:Custom
M104 S0 ; Stops SuperSlicer from sending temp waits separately

M109 S0

M140 S0

print_start EXTRUDER=250 BED=105 CHAMBER=0
G21 ; set units to millimeters
G90 ; use absolute coordinates
M82 ; use absolute distances for extrusion
G92 E0
; Filament gcode
;_TOOLCHANGE 0
M107
;LAYER_CHANGE
;Z:0.21875
;HEIGHT:0.21875
TIMELAPSE_TAKE_FRAME
;BEFORE_LAYER_CHANGE
;0.21875


G1 E-0.8 F2400
G1 Z0.2 F8700
G1 Z0.21875
;AFTER_LAYER_CHANGE
;0.21875
G92 E0
G1 Z0.41875
G1 X118.75 Y86.283
G1 Z0.21875
G1 E0.8 F2400
;TYPE:Skirt
;WIDTH:0.54
G1 F1950
G1 X86.143 Y140.067 E3.62034
G1 X85.033 Y142.275 E3.73114
G1 X84.635 Y143.346 E3.78238
G1 X84.087 Y145.454 E3.88006
G1 X83.853 Y147.2 E3.95906
G1 X83.8 Y148.457 E4.01549
G1 X83.844 Y149.698 E4.07113
G1 X84.048 Y151.333 E4.14506
G1 X84.34 Y152.661 E4.20602
G1 X84.839 Y154.233 E4.27996
G1 X85.88 Y156.475 E4.39081
G1 X118.78 Y210.76 E7.23719
G1 X119.56 Y211.741 E7.29337
G1 X120.615 Y212.638 E7.35548
G1 X121.765 Y213.277 E7.41447
G1 X123.073 Y213.697 E7.47606
