; generated by SuperSlicer 2.5.59 on 2023-05-29 at 02:31:26 UTC


;
;

;
;
; 

; external perimeters extrusion width = 0.43mm
; perimeters extrusion width = 0.45mm
; infill extrusion width = 0.45mm
; solid infill extrusion width = 0.45mm
; top infill extrusion width = 0.42mm
; support material extrusion width = 0.42mm
; first layer extrusion width = 0.57mm

; object:{"name":"[a]_z_drive_baseplate_a_x2","id":"[a]_z_drive_baseplate_a_x2.stl id:0 copy 0","object_center":[150.000000,148.500000,0.000000],"boundingbox_center":[150.000000,148.500000,5.000000],"boundingbox_size":[44.000000,43.000000,10.000000]}
EXCLUDE_OBJECT_DEFINE NAME=_a__z_drive_baseplate_a_x2_stl_id_0_copy_0 CENTER=150.000000,148.500000 POLYGON=[[128.000000,146.500000],[128.012424,145.804000],[128.049680,145.108880],[128.111728,144.415536],[128.198488,143.724848],[128.309832,143.037728],[128.445632,142.354976],[128.605728,141.677520],[128.789888,141.006208],[128.997896,140.341904],[129.229480,139.685456],[129.484344,139.037680],[129.762176,138.399408],[130.062608,137.771472],[130.385256,137.154656],[130.729720,136.549728],[131.095552,135.957504],[131.482304,135.378704],[131.889448,134.814080],[132.316496,134.264352],[132.762880,133.730208],[133.228056,133.212360],[133.711424,132.711424],[134.212360,132.228056],[134.730224,131.762880],[135.264352,131.316496],[135.814080,130.889448],[136.378704,130.482304],[136.957504,130.095552],[137.549744,129.729720],[138.154656,129.385256],[138.771472,129.062608],[139.399408,128.762176],[140.037680,128.484344],[140.685456,128.229480],[141.341904,127.997896],[142.006208,127.789888],[142.677520,127.605720],[143.354976,127.445632],[144.037728,127.309832],[144.724848,127.198488],[145.415536,127.111728],[146.108880,127.049680],[146.804000,127.012424],[147.500000,127.000000],[169.000000,127.000000],[169.261472,127.011416],[169.520928,127.045576],[169.776464,127.102216],[170.026064,127.180920],[170.267856,127.281072],[170.500000,127.401928],[170.720736,127.542544],[170.928368,127.701864],[171.121328,127.878680],[171.298128,128.071640],[171.457456,128.279264],[171.598080,128.500000],[171.718928,128.732144],[171.819072,128.973936],[171.897776,129.223544],[171.954416,129.479048],[171.988592,129.738528],[172.000000,130.000000],[172.000000,167.000000],[171.988592,167.261472],[171.954416,167.520944],[171.897776,167.776464],[171.819072,168.026064],[171.718928,168.267856],[171.598080,168.500000],[171.457456,168.720736],[171.298128,168.928368],[171.121328,169.121328],[170.928368,169.298128],[170.720736,169.457456],[170.500000,169.598080],[170.267856,169.718928],[170.026064,169.819072],[169.776464,169.897776],[169.520928,169.954416],[169.261472,169.988592],[169.000000,170.000000],[131.000000,170.000000],[130.738528,169.988592],[130.479064,169.954416],[130.223544,169.897776],[129.973936,169.819072],[129.732144,169.718928],[129.500000,169.598080],[129.279264,169.457456],[129.071640,169.298128],[128.878680,169.121328],[128.701872,168.928368],[128.542544,168.720736],[128.401920,168.500000],[128.281080,168.267856],[128.180920,168.026064],[128.102216,167.776464],[128.045576,167.520944],[128.011416,167.261472],[128.000000,167.000000],[128.000000,146.500000]]
; plater:{"center":[150.000000,148.500000,0.000000],"boundingbox_center":[150.000000,148.500000,5.000000],"boundingbox_size":[44.000000,43.000000,10.000000]}

;TYPE:Custom
SET_PRINT_STATS_INFO TOTAL_LAYER=50

M104 S0 ; Stops SuperSlicer from sending temp waits separately

M109 S0

M140 S0

print_start EXTRUDER=255 BED=105 CHAMBER=0
M107
G21 ; set units to millimeters
G90 ; use absolute coordinates
M82 ; use absolute distances for extrusion
G92 E0
; Filament gcode
;_TOOLCHANGE 0
M107
;LAYER_CHANGE
;Z:0.2
;HEIGHT:0.2
TIMELAPSE_TAKE_FRAME
;BEFORE_LAYER_CHANGE
;0.2


G1 Z0.2 F12000
SET_PRINT_STATS_INFO CURRENT_LAYER=1
;AFTER_LAYER_CHANGE
;0.2
G1 E-0.7 F3000
G1 Z0.5 F12000
M204 S1500
G1 X131.372 Y130.274
G1 Z0.2
G1 E0 F2700
;TYPE:Skirt
;WIDTH:0.52
G1 X130.68 Y130.972 E0.03899
G1 X129.615 Y132.211 E0.10382
G1 X128.642 Y133.523 E0.16864
G1 X127.431 Y135.487 E0.26014
G1 X126.388 Y137.651 E0.35545
G1 X125.81 Y139.18 E0.42028
G1 X125.309 Y140.876 E0.49046
G1 X124.729 Y144.157 E0.62264
G1 X124.62 Y145.774 E0.68691
G1 X124.62 Y167.384 E1.54418
G1 X124.785 Y168.486 E1.58837
G1 X125.157 Y169.587 E1.63445
G1 X125.721 Y170.601 E1.68053
G1 X126.734 Y171.76 E1.74156
G1 X127.596 Y172.41 E1.78439
G1 X128.498 Y172.88 E1.82473
G1 X129.603 Y173.236 E1.87081
G1 X130.954 Y173.393 E1.92476
G1 X169.046 Y173.393 E3.43581
G1 X170.255 Y173.268 E3.48405
G1 X171.618 Y172.828 E3.54086
G1 X172.722 Y172.197 E3.5913
G1 X173.76 Y171.266 E3.64663
G1 X174.41 Y170.405 E3.68944
G1 X174.88 Y169.502 E3.72979
G1 X175.236 Y168.397 E3.77587
G1 X175.393 Y167.045 E3.82983
G1 X175.377 Y129.621 E5.31443
G1 X175.182 Y128.373 E5.36456
G1 X174.843 Y127.413 E5.40491
G1 X174.279 Y126.399 E5.45098
G1 X173.266 Y125.24 E5.51202
G1 X172.405 Y124.59 E5.55484
G1 X171.502 Y124.12 E5.59519
G1 X170.4 Y123.765 E5.64112
G1 X169.115 Y123.61 E5.69247
G1 X147.443 Y123.608 E6.55218
G1 X145.149 Y123.729 E6.64333
G1 X143.341 Y123.989 E6.71577
G1 X141.746 Y124.343 E6.7806
G1 X140.18 Y124.81 E6.84542
G1 X138.651 Y125.388 E6.91025
G1 X136.563 Y126.389 E7.0021
G1 X135.09 Y127.263 E7.07003
G1 X133.211 Y128.615 E7.16189
G1 X131.831 Y129.811 E7.23433
G1 X131.415 Y130.231 E7.25778
G92 E0
G1 E-0.7 F3000
M204 S6000
G1 Z0.5 F12000
M204 S1500
G1 X131.754 Y130.571
G1 Z0.2
G1 E0 F2700
G1 X131.041 Y131.284 E0.04002
G1 X129.997 Y132.497 E0.1035
G1 X129.043 Y133.781 E0.16697
G1 X127.845 Y135.723 E0.25746
G1 X126.822 Y137.849 E0.35108
G1 X126.257 Y139.346 E0.41455
G1 X125.773 Y140.986 E0.48238
G1 X125.216 Y144.073 E0.60683
G1 X125.097 Y145.775 E0.67448
G1 X125.097 Y167.377 E1.53144
G1 X125.254 Y168.4 E1.57248
G1 X125.602 Y169.417 E1.61512
G1 X126.129 Y170.354 E1.65776
G1 X127.04 Y171.394 E1.71259
G1 X127.862 Y172.015 E1.75345
G1 X128.707 Y172.451 E1.79122
G1 X129.732 Y172.776 E1.83386
G1 X130.954 Y172.916 E1.88266
G1 X169.046 Y172.916 E3.39371
G1 X170.147 Y172.804 E3.43765
G1 X171.404 Y172.402 E3.48999
G1 X172.456 Y171.801 E3.53803
G1 X173.394 Y170.96 E3.588
G1 X174.014 Y170.138 E3.62886
G1 X174.451 Y169.293 E3.66663
G1 X174.776 Y168.268 E3.70927
G1 X174.916 Y167.045 E3.75808
G1 X174.902 Y129.668 E5.24082
G1 X174.717 Y128.48 E5.28851
G1 X174.398 Y127.583 E5.32627
G1 X173.871 Y126.646 E5.36891
G1 X172.96 Y125.606 E5.42374
G1 X172.138 Y124.986 E5.46461
G1 X171.293 Y124.549 E5.50238
G1 X170.271 Y124.225 E5.54487
G1 X169.115 Y124.087 E5.59108
G1 X147.452 Y124.085 E6.45044
G1 X145.183 Y124.205 E6.54058
G1 X143.442 Y124.455 E6.61032
G1 X141.88 Y124.801 E6.6738
G1 X140.346 Y125.257 E6.73727
G1 X138.849 Y125.822 E6.80075
G1 X136.784 Y126.812 E6.89159
G1 X135.355 Y127.659 E6.95749
G1 X133.497 Y128.997 E7.04833
G1 X132.284 Y130.041 E7.11181
G1 X131.797 Y130.528 E7.13915
G92 E0
G1 E-0.7 F3000
M204 S6000
G1 Z0.5 F12000
M204 S1500
G1 X132.132 Y130.862
G1 Z0.2
G1 E0 F2700
G1 X131.401 Y131.596 E0.04111
G1 X130.379 Y132.783 E0.10323
G1 X129.444 Y134.039 E0.16535
G1 X128.26 Y135.959 E0.25483
G1 X127.256 Y138.047 E0.34676
G1 X126.704 Y139.513 E0.40889
G1 X126.237 Y141.096 E0.47435
G1 X125.689 Y144.133 E0.59677
G1 X125.574 Y145.775 E0.66209
G1 X125.574 Y167.37 E1.51873
G1 X125.723 Y168.313 E1.55662
G1 X126.048 Y169.247 E1.59582
G1 X126.537 Y170.106 E1.63503
G1 X127.345 Y171.027 E1.68365
G1 X128.128 Y171.619 E1.72256
G1 X128.917 Y172.023 E1.75775
G1 X129.861 Y172.317 E1.79696
G1 X130.954 Y172.439 E1.84061
G1 X169.046 Y172.439 E3.35166
G1 X170.04 Y172.339 E3.3913
G1 X171.19 Y171.975 E3.43916
G1 X172.19 Y171.405 E3.4848
G1 X173.027 Y170.655 E3.52941
G1 X173.619 Y169.872 E3.56832
G1 X174.023 Y169.083 E3.60351
G1 X174.317 Y168.139 E3.64271
G1 X174.439 Y167.045 E3.68637
G1 X174.427 Y129.715 E5.16725
G1 X174.253 Y128.588 E5.2125
G1 X173.952 Y127.753 E5.24769
G1 X173.463 Y126.894 E5.28689
G1 X172.839 Y126.151 E5.3254
G1 X171.872 Y125.381 E5.37441
G1 X171.083 Y124.977 E5.40959
G1 X170.143 Y124.684 E5.44866
G1 X169.115 Y124.564 E5.48971
G1 X147.46 Y124.562 E6.34874
G1 X145.217 Y124.681 E6.43786
G1 X143.544 Y124.922 E6.5049
G1 X142.014 Y125.259 E6.56703
G1 X140.513 Y125.704 E6.62915
G1 X139.047 Y126.256 E6.69128
G1 X137.005 Y127.234 E6.78111
G1 X135.62 Y128.056 E6.84498
G1 X133.783 Y129.379 E6.93481
G1 X132.506 Y130.486 E7.00185
G1 X132.174 Y130.819 E7.02049
M104 S255 ; set temperature
G92 E0
G1 E-0.7 F3000
M204 S6000
G1 Z0.5 F12000
; printing object [a]_z_drive_baseplate_a_x2.stl id:0 copy 0
EXCLUDE_OBJECT_START NAME=_a__z_drive_baseplate_a_x2_stl_id_0_copy_0
; acceleration to travel
M204 S6500
G1 X129.853 Y160.432
; decel to extrusion
M204 S1000
G1 X129.481 Y165.184
; end travel
G1 Z0.2
G1 E0 F2700
;TYPE:External perimeter
;WIDTH:0.568
G1 F3600
G1 X129.829 Y165.095 E0.01569
G1 X133.66 Y165.072 E0.18299
G1 X134.032 Y165.031 E0.19929
G1 X134.653 Y164.899 E0.22703
G1 X135.084 Y164.761 E0.2468
G1 X135.428 Y164.618 E0.26304
G1 X136.061 Y164.269 E0.29462
G1 X136.575 Y163.887 E0.32259
G1 X136.913 Y163.577 E0.34259
G1 X137.386 Y163.026 E0.37428
G1 X137.776 Y162.412 E0.40608
G1 X138.043 Y161.829 E0.43406
G1 X138.189 Y161.395 E0.45407
G1 X138.338 Y160.686 E0.4857
G1 X138.384 Y160.042 E0.51385
G1 X138.338 Y159.316 E0.54564
G1 X138.188 Y158.602 E0.57749
G1 X137.938 Y157.917 E0.60933
G1 X137.592 Y157.274 E0.64118
G1 X137.158 Y156.688 E0.67302
G1 X136.647 Y156.173 E0.70472
G1 X136.288 Y155.888 E0.72472
G1 X135.748 Y155.544 E0.75269
G1 X135.089 Y155.241 E0.78435
G1 X134.653 Y155.101 E0.80435
G1 X134.027 Y154.968 E0.8323
G1 X133.31 Y154.916 E0.86367
G1 X130.008 Y154.916 E1.00784
G1 X129.839 Y154.906 E1.01525
G1 X129.63 Y154.865 E1.02452
G1 X129.482 Y154.816 E1.03134
G1 X129.221 Y154.68 E1.0442
G1 X128.943 Y154.441 E1.06021
G1 X128.734 Y154.132 E1.0765
G1 X128.672 Y153.989 E1.08331
G1 X128.601 Y153.703 E1.09617
G1 X128.584 Y153.489 E1.10553
G1 X128.596 Y145.825 E1.44014
G1 X128.693 Y144.475 E1.49922
G1 X128.776 Y143.81 E1.52848
G1 X129.017 Y142.477 E1.58766
G1 X129.171 Y141.824 E1.61692
G1 X129.552 Y140.526 E1.67598
G1 X130.024 Y139.261 E1.73494
G1 X130.586 Y138.031 E1.79401
G1 X130.898 Y137.435 E1.82338
G1 X131.231 Y136.85 E1.85275
G1 X131.962 Y135.712 E1.91181
G1 X132.771 Y134.631 E1.97077
G1 X133.656 Y133.61 E2.02972
G1 X134.61 Y132.656 E2.08868
G1 X135.631 Y131.771 E2.14763
G1 X136.714 Y130.961 E2.2067
G1 X137.271 Y130.588 E2.23596
G1 X138.437 Y129.897 E2.29514
G1 X139.031 Y129.586 E2.3244
G1 X140.261 Y129.024 E2.38346
G1 X141.526 Y128.552 E2.44242
G1 X142.822 Y128.172 E2.50137
G1 X144.141 Y127.885 E2.56033
G1 X145.478 Y127.693 E2.61928
G1 X146.827 Y127.596 E2.67835
G1 X147.502 Y127.584 E2.70783
G1 X167.732 Y127.587 E3.59106
G1 X169.051 Y127.587 E3.64866
G1 X169.436 Y127.625 E3.66553
G1 X169.859 Y127.743 E3.68473
G1 X170.259 Y127.939 E3.70417
G1 X170.646 Y128.233 E3.72539
G1 X170.941 Y128.564 E3.74476
G1 X171.169 Y128.939 E3.76391
G1 X171.328 Y129.355 E3.78335
G1 X171.375 Y129.558 E3.79242
G1 X171.413 Y129.949 E3.80957
G1 X171.416 Y166.987 E5.42669
G1 X171.375 Y167.437 E5.44641
G1 X171.257 Y167.859 E5.46557
G1 X171.061 Y168.259 E5.48501
G1 X170.767 Y168.646 E5.50622
G1 X170.431 Y168.946 E5.52587
G1 X170.258 Y169.062 E5.53496
G1 X169.911 Y169.236 E5.55193
G1 X169.649 Y169.327 E5.56402
G1 X169.443 Y169.374 E5.57324
G1 X168.987 Y169.416 E5.59324
G1 X131.013 Y169.416 E7.25121
G1 X130.563 Y169.375 E7.27094
G1 X130.141 Y169.257 E7.29009
G1 X129.741 Y169.061 E7.30953
G1 X129.354 Y168.767 E7.33074
G1 X129.059 Y168.436 E7.35011
G1 X128.831 Y168.061 E7.36927
G1 X128.675 Y167.651 E7.38842
G1 X128.595 Y167.217 E7.40767
G1 X128.584 Y166.506 E7.43872
G1 X128.594 Y166.339 E7.44604
G1 X128.635 Y166.13 E7.45531
G1 X128.684 Y165.982 E7.46213
G1 X128.82 Y165.721 E7.47499
G1 X129.057 Y165.445 E7.49088
G1 X129.221 Y165.32 E7.49988
G1 X129.427 Y165.212 E7.51005
;WIPE_START
M204 S6000
G1 X129.781 Y165.448 F12000
;WIPE_END
M204 S1500
G1 X129.67 Y165.678
;TYPE:Internal perimeter
G1 F3600
G1 X129.897 Y165.62 E7.52027
G1 X133.69 Y165.596 E7.68591
G1 X134.115 Y165.551 E7.70455
G1 X134.788 Y165.407 E7.73461
G1 X135.266 Y165.254 E7.7565
G1 X135.656 Y165.092 E7.77495
G1 X136.346 Y164.712 E7.80934
G1 X136.911 Y164.292 E7.84006
G1 X137.291 Y163.943 E7.86261
G1 X137.809 Y163.34 E7.89732
G1 X138.239 Y162.663 E7.93233
G1 X138.532 Y162.023 E7.96308
G1 X138.697 Y161.533 E7.98565
G1 X138.859 Y160.759 E8.02017
G1 X138.91 Y160.045 E8.05143
G1 X138.86 Y159.245 E8.08641
G1 X138.694 Y158.457 E8.12155
G1 X138.418 Y157.701 E8.1567
G1 X138.037 Y156.992 E8.19184
G1 X137.558 Y156.345 E8.22698
G1 X136.998 Y155.781 E8.2617
G1 X136.593 Y155.46 E8.28424
G1 X136 Y155.082 E8.31496
G1 X135.28 Y154.75 E8.34958
G1 X134.788 Y154.593 E8.37211
G1 X134.101 Y154.446 E8.4028
G1 X133.329 Y154.391 E8.43658
G1 X130.024 Y154.391 E8.5809
G1 X129.764 Y154.356 E8.59235
G1 X129.517 Y154.242 E8.6042
G1 X129.339 Y154.089 E8.61449
G1 X129.197 Y153.879 E8.62555
G1 X129.121 Y153.618 E8.63742
G1 X129.121 Y145.844 E8.97681
G1 X129.215 Y144.527 E9.03448
G1 X129.296 Y143.89 E9.06251
G1 X129.531 Y142.584 E9.12046
G1 X129.679 Y141.959 E9.14849
G1 X130.051 Y140.692 E9.20612
G1 X130.509 Y139.462 E9.26344
G1 X131.058 Y138.262 E9.32107
G1 X131.359 Y137.686 E9.34942
G1 X131.68 Y137.122 E9.37777
G1 X132.394 Y136.012 E9.4354
G1 X133.18 Y134.961 E9.49272
G1 X134.04 Y133.968 E9.55004
G1 X134.968 Y133.04 E9.60736
G1 X135.961 Y132.18 E9.66467
G1 X137.017 Y131.389 E9.72231
G1 X137.551 Y131.033 E9.75034
G1 X138.693 Y130.355 E9.80829
G1 X139.262 Y130.058 E9.83632
G1 X140.462 Y129.509 E9.89395
G1 X141.692 Y129.051 E9.95127
G1 X142.952 Y128.681 E10.00859
G1 X144.235 Y128.402 E10.06591
G1 X145.534 Y128.215 E10.12322
G1 X146.851 Y128.121 E10.18085
G1 X147.507 Y128.109 E10.20951
G1 X167.732 Y128.112 E11.09254
G1 X169.025 Y128.112 E11.14902
G1 X169.339 Y128.143 E11.16275
G1 X169.672 Y128.236 E11.17785
G1 X169.982 Y128.388 E11.19296
G1 X170.288 Y128.621 E11.20972
G1 X170.517 Y128.878 E11.22478
G1 X170.696 Y129.171 E11.23975
G1 X170.824 Y129.509 E11.25553
G1 X170.855 Y129.643 E11.26155
G1 X170.888 Y129.975 E11.27609
G1 X170.891 Y166.963 E12.89104
G1 X170.856 Y167.341 E12.90762
G1 X170.764 Y167.672 E12.92259
G1 X170.612 Y167.982 E12.93769
G1 X170.379 Y168.288 E12.95445
G1 X170.108 Y168.53 E12.97033
G1 X169.706 Y168.751 E12.99037
G1 X169.36 Y168.855 E13.00614
G1 X168.963 Y168.891 E13.02353
G1 X131.037 Y168.891 E14.67942
G1 X130.659 Y168.856 E14.696
G1 X130.328 Y168.764 E14.71097
G1 X130.018 Y168.612 E14.72607
G1 X129.712 Y168.379 E14.74283
G1 X129.483 Y168.122 E14.7579
G1 X129.304 Y167.829 E14.77287
G1 X129.182 Y167.509 E14.78784
G1 X129.119 Y167.165 E14.80307
G1 X129.109 Y166.518 E14.83136
G1 X129.144 Y166.264 E14.84255
G1 X129.258 Y166.017 E14.8544
G1 X129.419 Y165.829 E14.86523
G1 X129.618 Y165.709 E14.87539
G92 E0
G1 E-0.7 F3000
M204 S6000
G1 Z0.5 F12000
; acceleration to travel
M204 S6500
G1 X162.068 Y135.583
; decel to extrusion
M204 S1500
G1 X169.166 Y128.992
; end travel
G1 Z0.2
G1 E0 F2700
G1 F2400
G1 X169.367 Y128.671 E0.01653
G1 X169.705 Y128.837 E0.03299
G1 X169.93 Y129.008 E0.0453
G1 X170.094 Y129.192 E0.05606
G1 X170.275 Y129.491 E0.07134
G1 X169.959 Y129.718 E0.08834
G1 X169.701 Y129.41 E0.10587
G1 X169.213 Y129.029 E0.13289
; acceleration to travel
M204 S6500
G1 X169.899 Y133.15 F12000
; decel to extrusion
M204 S1500
G1 X170.066 Y134.153
; end travel
G1 F3600
G1 X170.363 Y134.244 E0.14646
G1 X170.366 Y163.402 E1.41949
G1 X169.701 Y162.609 E1.46463
G1 X169.118 Y162.155 E1.4969
G1 X168.537 Y161.858 E1.5254
G1 X167.825 Y161.654 E1.55773
G1 X167.086 Y161.602 E1.59006
G1 X166.438 Y161.682 E1.61857
G1 X165.736 Y161.91 E1.65083
G1 X165.084 Y162.286 E1.68368
G1 X164.535 Y162.781 E1.71594
G1 X164.142 Y163.302 E1.74445
G1 X163.817 Y163.968 E1.77678
G1 X163.638 Y164.686 E1.80911
G1 X163.604 Y165.338 E1.83761
G1 X163.707 Y166.07 E1.86988
G1 X163.964 Y166.777 E1.90272
G1 X164.356 Y167.403 E1.93499
G1 X164.801 Y167.881 E1.96349
G1 X165.068 Y168.076 E1.97792
G1 X164.974 Y168.366 E1.99124
G1 X144.774 Y168.366 E2.87316
G1 X145.658 Y167.513 E2.92677
G1 X146.072 Y166.899 E2.9591
