; generated by SuperSlicer 2.5.59 on 2023-05-29 at 03:58:52 UTC


;
;

;
;
; 

; external perimeters extrusion width = 0.41mm
; perimeters extrusion width = 0.50mm
; infill extrusion width = 0.72mm
; solid infill extrusion width = 0.56mm
; top infill extrusion width = 0.40mm

; object:{"name":"[a]_z_drive_baseplate_a_x2","id":"[a]_z_drive_baseplate_a_x2.stl id:0 copy 0","object_center":[150.000000,148.500000,0.000000],"boundingbox_center":[150.000000,148.500000,5.000000],"boundingbox_size":[44.000000,43.000000,10.000000]}
EXCLUDE_OBJECT_DEFINE NAME=_a__z_drive_baseplate_a_x2_stl_id_0_copy_0 CENTER=150.000000,148.500000 POLYGON=[[128.000000,146.500000],[128.012424,145.804000],[128.049680,145.108880],[128.111728,144.415536],[128.198488,143.724848],[128.309832,143.037728],[128.445632,142.354976],[128.605728,141.677520],[128.789888,141.006208],[128.997896,140.341904],[129.229480,139.685456],[129.484344,139.037680],[129.762176,138.399408],[130.062608,137.771472],[130.385256,137.154656],[130.729720,136.549728],[131.095552,135.957504],[131.482304,135.378704],[131.889448,134.814080],[132.316496,134.264352],[132.762880,133.730208],[133.228056,133.212360],[133.711424,132.711424],[134.212360,132.228056],[134.730224,131.762880],[135.264352,131.316496],[135.814080,130.889448],[136.378704,130.482304],[136.957504,130.095552],[137.549744,129.729720],[138.154656,129.385256],[138.771472,129.062608],[139.399408,128.762176],[140.037680,128.484344],[140.685456,128.229480],[141.341904,127.997896],[142.006208,127.789888],[142.677520,127.605720],[143.354976,127.445632],[144.037728,127.309832],[144.724848,127.198488],[145.415536,127.111728],[146.108880,127.049680],[146.804000,127.012424],[147.500000,127.000000],[169.000000,127.000000],[169.261472,127.011416],[169.520928,127.045576],[169.776464,127.102216],[170.026064,127.180920],[170.267856,127.281072],[170.500000,127.401928],[170.720736,127.542544],[170.928368,127.701864],[171.121328,127.878680],[171.298128,128.071640],[171.457456,128.279264],[171.598080,128.500000],[171.718928,128.732144],[171.819072,128.973936],[171.897776,129.223544],[171.954416,129.479048],[171.988592,129.738528],[172.000000,130.000000],[172.000000,167.000000],[171.988592,167.261472],[171.954416,167.520944],[171.897776,167.776464],[171.819072,168.026064],[171.718928,168.267856],[171.598080,168.500000],[171.457456,168.720736],[171.298128,168.928368],[171.121328,169.121328],[170.928368,169.298128],[170.720736,169.457456],[170.500000,169.598080],[170.267856,169.718928],[170.026064,169.819072],[169.776464,169.897776],[169.520928,169.954416],[169.261472,169.988592],[169.000000,170.000000],[131.000000,170.000000],[130.738528,169.988592],[130.479064,169.954416],[130.223544,169.897776],[129.973936,169.819072],[129.732144,169.718928],[129.500000,169.598080],[129.279264,169.457456],[129.071640,169.298128],[128.878680,169.121328],[128.701872,168.928368],[128.542544,168.720736],[128.401920,168.500000],[128.281080,168.267856],[128.180920,168.026064],[128.102216,167.776464],[128.045576,167.520944],[128.011416,167.261472],[128.000000,167.000000],[128.000000,146.500000]]
; plater:{"center":[150.000000,148.500000,0.000000],"boundingbox_center":[150.000000,148.500000,5.000000],"boundingbox_size":[44.000000,43.000000,10.000000]}

;TYPE:Custom
SET_PRINT_STATS_INFO TOTAL_LAYER=50

M104 S0 ; Stops SuperSlicer from sending temp waits separately

M109 S0

M140 S0

print_start EXTRUDER=255 BED=105 CHAMBER=0
M107
G21 ; set units to millimeters
G90 ; use absolute coordinates
M82 ; use absolute distances for extrusion
G92 E0
; Filament gcode
;_TOOLCHANGE 0
M107
;LAYER_CHANGE
;Z:0.25
;HEIGHT:0.25
TIMELAPSE_TAKE_FRAME
;BEFORE_LAYER_CHANGE
;0.25


G1 Z0.25 F15000
SET_PRINT_STATS_INFO CURRENT_LAYER=1
;AFTER_LAYER_CHANGE
;0.25
M104 S255 ; set temperature
G1 E-0.7 F3000
G1 Z0.55 F15000
; printing object [a]_z_drive_baseplate_a_x2.stl id:0 copy 0
EXCLUDE_OBJECT_START NAME=_a__z_drive_baseplate_a_x2_stl_id_0_copy_0
M204 S2500
G1 X168.986 Y169.421
G1 Z0.25
G1 E0 F2700
;TYPE:External perimeter
;WIDTH:0.408
G1 F1800
G1 X131.014 Y169.421 E1.39854
G1 X130.564 Y169.38 E1.41518
G1 X130.142 Y169.262 E1.43131
G1 X129.742 Y169.067 E1.44769
G1 X129.567 Y168.951 E1.45543
G1 X129.345 Y168.765 E1.4661
G1 X129.051 Y168.434 E1.4824
G1 X128.825 Y168.059 E1.49853
G1 X128.669 Y167.65 E1.51466
G1 X128.59 Y167.218 E1.53082
G1 X128.59 Y166.335 E1.56336
G1 X128.632 Y166.122 E1.57136
G1 X128.681 Y165.975 E1.57705
G1 X128.811 Y165.726 E1.58742
G1 X128.942 Y165.552 E1.59541
G1 X129.052 Y165.442 E1.60116
G1 X129.226 Y165.311 E1.60915
G1 X129.473 Y165.182 E1.61943
G1 X129.829 Y165.09 E1.63298
G1 X133.66 Y165.067 E1.77408
G1 X134.032 Y165.026 E1.78785
G1 X134.633 Y164.899 E1.81046
G1 X135.084 Y164.755 E1.82792
G1 X135.429 Y164.612 E1.84166
G1 X136.062 Y164.263 E1.86828
G1 X136.559 Y163.894 E1.8911
G1 X136.913 Y163.57 E1.90877
G1 X137.386 Y163.018 E1.93552
G1 X137.775 Y162.403 E1.96235
G1 X138.034 Y161.839 E1.98517
G1 X138.187 Y161.384 E2.00285
G1 X138.334 Y160.675 E2.02953
G1 X138.379 Y160.053 E2.05251
G1 X138.334 Y159.326 E2.07932
G1 X138.186 Y158.612 E2.10619
G1 X137.937 Y157.926 E2.13307
G1 X137.592 Y157.283 E2.15994
G1 X137.158 Y156.696 E2.18682
G1 X136.648 Y156.18 E2.21357
G1 X136.271 Y155.882 E2.23124
G1 X135.749 Y155.549 E2.25406
G1 X135.09 Y155.246 E2.28077
G1 X134.633 Y155.101 E2.29844
G1 X134.027 Y154.973 E2.32125
G1 X133.311 Y154.921 E2.34768
G1 X130.009 Y154.921 E2.4693
G1 X129.841 Y154.911 E2.47551
G1 X129.622 Y154.868 E2.48372
G1 X129.475 Y154.819 E2.48942
G1 X129.226 Y154.689 E2.49978
G1 X129.057 Y154.562 E2.50756
G1 X128.837 Y154.315 E2.51973
G1 X128.666 Y153.986 E2.53338
G1 X128.598 Y153.713 E2.54375
G1 X128.579 Y153.488 E2.55207
G1 X128.591 Y145.825 E2.83429
G1 X128.688 Y144.475 E2.88415
G1 X128.771 Y143.81 E2.90882
G1 X129.012 Y142.475 E2.95877
G1 X129.166 Y141.823 E2.98345
G1 X129.547 Y140.525 E3.03329
G1 X130.019 Y139.259 E3.08304
G1 X130.581 Y138.03 E3.13281
G1 X131.227 Y136.846 E3.18249
G1 X131.958 Y135.709 E3.23227
G1 X132.767 Y134.628 E3.28202
G1 X133.652 Y133.607 E3.33176
G1 X134.607 Y132.652 E3.38151
G1 X135.628 Y131.767 E3.43125
G1 X136.711 Y130.956 E3.4811
G1 X137.268 Y130.584 E3.50577
G1 X138.435 Y129.892 E3.55572
G1 X139.028 Y129.582 E3.5804
G1 X140.259 Y129.019 E3.63024
G1 X141.525 Y128.547 E3.67999
G1 X142.821 Y128.167 E3.72973
G1 X144.141 Y127.88 E3.77948
G1 X145.477 Y127.688 E3.82922
G1 X146.827 Y127.591 E3.87904
G1 X169.066 Y127.583 E4.69814
G1 X169.442 Y127.62 E4.71203
G1 X169.643 Y127.667 E4.71965
G1 X170.059 Y127.825 E4.73603
G1 X170.434 Y128.051 E4.75216
G1 X170.765 Y128.345 E4.76847
G1 X170.951 Y128.567 E4.77914
G1 X171.067 Y128.742 E4.78687
G1 X171.262 Y129.142 E4.80326
G1 X171.38 Y129.565 E4.81944
G1 X171.417 Y129.934 E4.83308
G1 X171.421 Y166.986 E6.19774
G1 X171.38 Y167.436 E6.21438
G1 X171.262 Y167.858 E6.23051
G1 X171.067 Y168.258 E6.24689
G1 X170.951 Y168.433 E6.25463
G1 X170.765 Y168.655 E6.26529
G1 X170.429 Y168.953 E6.28186
G1 X170.256 Y169.068 E6.28949
G1 X169.923 Y169.236 E6.30323
G1 X169.647 Y169.332 E6.31399
G1 X169.443 Y169.379 E6.32171
G1 X169.046 Y169.416 E6.3364
;WIPE_START
M204 S6000
G1 X168.776 Y169.081 F15000
;WIPE_END
G92 E0
G1 E-0.7 F3000
G1 Z0.55 F15000
M204 S2500
G1 X168.968 Y169.021
G1 Z0.25
G1 E0 F2700
;TYPE:Internal perimeter
;WIDTH:0.5
G1 F1800
G1 X131.032 Y169.021 E1.75996
G1 X130.636 Y168.985 E1.77838
G1 X130.285 Y168.887 E1.79532
G1 X129.942 Y168.72 E1.81301
G1 X129.625 Y168.477 E1.83153
G1 X129.375 Y168.195 E1.84899
G1 X129.186 Y167.883 E1.86593
G1 X129.056 Y167.542 E1.88287
G1 X128.99 Y167.182 E1.89985
G1 X128.99 Y166.374 E1.93733
G1 X129.02 Y166.225 E1.94439
G1 X129.151 Y165.94 E1.95891
G1 X129.316 Y165.745 E1.97078
G1 X129.44 Y165.651 E1.97802
G1 X129.617 Y165.558 E1.98729
G1 X129.881 Y165.49 E1.99993
G1 X133.683 Y165.467 E2.17631
G1 X134.095 Y165.422 E2.19554
G1 X134.735 Y165.287 E2.22587
G1 X135.222 Y165.132 E2.24961
G1 X135.603 Y164.973 E2.26872
G1 X136.279 Y164.601 E2.30453
G1 X136.814 Y164.203 E2.33548
G1 X137.202 Y163.849 E2.35982
G1 X137.709 Y163.257 E2.39599
G1 X138.128 Y162.594 E2.43236
G1 X138.406 Y161.987 E2.46334
G1 X138.574 Y161.489 E2.48771
G1 X138.731 Y160.73 E2.52367
G1 X138.78 Y160.055 E2.55508
G1 X138.732 Y159.273 E2.59142
G1 X138.572 Y158.502 E2.62795
G1 X138.303 Y157.762 E2.66447
G1 X137.931 Y157.068 E2.701
G1 X137.463 Y156.435 E2.73753
G1 X136.915 Y155.881 E2.7737
G1 X136.503 Y155.556 E2.79804
G1 X135.941 Y155.197 E2.82899
G1 X135.235 Y154.872 E2.86505
G1 X134.735 Y154.713 E2.88937
G1 X134.083 Y154.575 E2.92029
G1 X133.325 Y154.521 E2.95553
G1 X130.02 Y154.521 E3.10886
G1 X129.725 Y154.48 E3.12271
G1 X129.44 Y154.349 E3.13723
G1 X129.33 Y154.266 E3.14365
G1 X129.169 Y154.086 E3.15485
G1 X129.043 Y153.843 E3.16755
G1 X128.994 Y153.647 E3.1769
G1 X128.979 Y153.472 E3.18508
G1 X128.992 Y145.84 E3.53914
G1 X129.086 Y144.514 E3.6008
G1 X129.167 Y143.871 E3.63089
G1 X129.404 Y142.557 E3.6928
G1 X129.553 Y141.926 E3.72289
G1 X129.928 Y140.651 E3.78452
G1 X130.39 Y139.413 E3.84585
G1 X130.939 Y138.209 E3.90723
G1 X131.572 Y137.05 E3.96848
G1 X132.287 Y135.938 E4.02985
G1 X133.079 Y134.879 E4.09119
G1 X133.945 Y133.88 E4.15252
G1 X134.88 Y132.945 E4.21385
G1 X135.879 Y132.079 E4.27519
G1 X136.943 Y131.283 E4.33681
G1 X137.482 Y130.923 E4.3669
G1 X138.63 Y130.242 E4.42882
G1 X139.204 Y129.941 E4.45891
G1 X140.413 Y129.39 E4.52053
G1 X141.651 Y128.928 E4.58187
G1 X142.92 Y128.555 E4.6432
G1 X144.212 Y128.274 E4.70454
G1 X145.52 Y128.086 E4.76587
G1 X146.841 Y127.991 E4.8273
G1 X169.046 Y127.983 E5.85747
G1 X169.376 Y128.016 E5.87285
G1 X169.527 Y128.051 E5.88001
G1 X169.883 Y128.186 E5.89769
G1 X170.195 Y128.375 E5.91463
G1 X170.477 Y128.625 E5.93209
G1 X170.72 Y128.942 E5.95062
G1 X170.887 Y129.285 E5.9683
G1 X170.986 Y129.64 E5.98539
G1 X171.017 Y129.954 E6.00004
G1 X171.021 Y166.968 E7.71724
G1 X170.985 Y167.364 E7.73566
G1 X170.887 Y167.715 E7.7526
G1 X170.72 Y168.058 E7.77029
G1 X170.477 Y168.375 E7.78881
G1 X170.183 Y168.636 E7.80702
G1 X170.054 Y168.722 E7.81422
G1 X169.766 Y168.867 E7.82917
G1 X169.38 Y168.983 E7.84791
G1 X169.028 Y169.015 E7.8643
G92 E0
G1 E-0.7 F3000
M204 S6000
G1 Z0.55 F15000
; acceleration to travel
M204 S10000
G1 X170.048 Y138.369
; decel to extrusion
M204 S2500
G1 X170.303 Y130.708
; end travel
G1 Z0.25
G1 E0 F2700
G1 F1800
G1 X169.977 Y130.118 E0.03127
G1 X169.528 Y129.583 E0.06368
G1 X168.978 Y129.156 E0.09596
G1 X168.453 Y128.888 E0.12333
G1 X167.927 Y128.737 E0.1487
G1 X167.97 Y128.43 E0.16308
G1 X169.024 Y128.429 E0.21197
G1 X169.304 Y128.457 E0.225
G1 X169.687 Y128.589 E0.24379
G1 X169.93 Y128.736 E0.25696
G1 X170.149 Y128.93 E0.27054
G1 X170.338 Y129.178 E0.28499
G1 X170.468 Y129.444 E0.29873
G1 X170.545 Y129.722 E0.31215
G1 X170.571 Y129.976 E0.32397
G1 X170.571 Y130.639 E0.35473
G1 X170.361 Y130.693 E0.36478
G92 E0
G1 E-0.7 F3000
M204 S6000
G1 Z0.55 F15000
; acceleration to travel
M204 S10000
G1 X167.87 Y134.411
; decel to extrusion
M204 S2500
G1 X167.248 Y135.34
; end travel
G1 Z0.25
G1 E0 F2700
G1 F1800
G1 X167.43 Y135.347 E0.00845
G1 X168.129 Y135.224 E0.04139
G1 X168.773 Y134.961 E0.07367
G1 X169.268 Y134.64 E0.10103
G1 X169.77 Y134.156 E0.13338
G1 X170.159 Y133.578 E0.16573
G1 X170.285 Y133.281 E0.18067
G1 X170.571 Y133.339 E0.19421
G1 X170.574 Y163.844 E1.60941
G1 X170.306 Y163.913 E1.62225
G1 X169.977 Y163.318 E1.65382
G1 X169.528 Y162.782 E1.68624
G1 X168.978 Y162.356 E1.71852
G1 X168.453 Y162.088 E1.74588
G1 X167.783 Y161.895 E1.77823
G1 X167.087 Y161.847 E1.81058
G1 X166.502 Y161.919 E1.83794
G1 X165.839 Y162.132 E1.87022
G1 X165.224 Y162.487 E1.90316
G1 X164.709 Y162.954 E1.93544
G1 X164.354 Y163.425 E1.9628
G1 X164.047 Y164.051 E1.99515
G1 X163.879 Y164.728 E2.0275
G1 X163.849 Y165.317 E2.05486
G1 X163.943 Y166.007 E2.08714
G1 X164.186 Y166.674 E2.12008
G1 X164.557 Y167.263 E2.15236
G1 X164.959 Y167.694 E2.17973
G1 X165.522 Y168.105 E2.21207
G1 X165.942 Y168.291 E2.2334
G1 X165.883 Y168.574 E2.24682
G1 X144.222 Y168.574 E3.25171
G1 X144.166 Y168.286 E3.26534
G1 X144.473 Y168.16 E3.28076
G1 X144.968 Y167.839 E3.30813
G1 X145.47 Y167.356 E3.34047
G1 X145.859 Y166.777 E3.37282
G1 X146.09 Y166.234 E3.40018
G1 X146.235 Y165.562 E3.43207
G1 X146.243 Y164.993 E3.45847
G1 X146.176 Y164.48 E3.48251
G1 X145.962 Y163.834 E3.51406
G1 X145.677 Y163.318 E3.54143
G1 X145.228 Y162.782 E3.57384
G1 X144.678 Y162.356 E3.60612
G1 X144.153 Y162.088 E3.63348
G1 X143.483 Y161.895 E3.66583
G1 X142.787 Y161.847 E3.69818
G1 X142.202 Y161.919 E3.72554
G1 X141.539 Y162.132 E3.75782
G1 X140.924 Y162.487 E3.79076
G1 X140.409 Y162.954 E3.82304
G1 X140.054 Y163.425 E3.85041
G1 X139.747 Y164.051 E3.88275
G1 X139.579 Y164.728 E3.9151
G1 X139.549 Y165.317 E3.94246
G1 X139.643 Y166.007 E3.97474
G1 X139.886 Y166.674 E4.00769
G1 X140.257 Y167.263 E4.03996
G1 X140.659 Y167.694 E4.06733
G1 X141.222 Y168.105 E4.09967
G1 X141.642 Y168.291 E4.121
G1 X141.583 Y168.574 E4.13443
G1 X131.052 Y168.574 E4.62296
G1 X130.717 Y168.544 E4.63856
G1 X130.444 Y168.468 E4.65174
G1 X130.178 Y168.338 E4.66547
G1 X129.93 Y168.149 E4.67992
G1 X129.736 Y167.93 E4.6935
G1 X129.589 Y167.687 E4.70667
G1 X129.488 Y167.421 E4.71984
G1 X129.437 Y167.141 E4.73306
G1 X129.437 Y166.418 E4.76663
G1 X129.531 Y166.182 E4.7784
G1 X129.625 Y166.071 E4.78514
G1 X129.779 Y165.978 E4.79349
G1 X129.939 Y165.936 E4.80119
G1 X133.709 Y165.913 E4.97606
G1 X134.166 Y165.863 E4.99739
G1 X134.849 Y165.719 E5.0298
G1 X135.376 Y165.551 E5.05547
G1 X135.797 Y165.376 E5.07661
G1 X136.521 Y164.977 E5.11493
G1 X137.099 Y164.548 E5.14835
G1 X137.523 Y164.16 E5.17501
G1 X138.069 Y163.522 E5.21393
G1 X138.521 Y162.808 E5.25318
G1 X138.822 Y162.152 E5.28665
G1 X139.005 Y161.606 E5.31335
G1 X139.175 Y160.792 E5.35194
G1 X139.227 Y160.058 E5.3861
G1 X139.176 Y159.214 E5.42531
G1 X139.003 Y158.38 E5.46482
G1 X138.712 Y157.58 E5.50433
G1 X138.309 Y156.829 E5.54384
G1 X137.803 Y156.144 E5.58335
G1 X137.213 Y155.548 E5.62228
G1 X136.762 Y155.191 E5.64894
G1 X136.155 Y154.804 E5.68235
G1 X135.396 Y154.455 E5.7211
G1 X134.849 Y154.281 E5.74773
G1 X134.145 Y154.132 E5.7811
G1 X133.341 Y154.074 E5.8185
G1 X130.051 Y154.074 E5.97116
G1 X129.851 Y154.047 E5.98051
G1 X129.634 Y153.936 E5.99182
G1 X129.54 Y153.83 E5.9984
G1 X129.463 Y153.683 E6.00608
G1 X129.436 Y153.574 E6.01131
G1 X129.438 Y145.856 E6.36938
G1 X129.531 Y144.558 E6.42975
G1 X129.609 Y143.938 E6.45873
G1 X129.841 Y142.648 E6.51954
G1 X129.985 Y142.04 E6.54852
G1 X130.351 Y140.792 E6.60885
G1 X130.802 Y139.584 E6.6687
G1 X131.339 Y138.409 E6.7286
G1 X131.956 Y137.278 E6.78837
G1 X132.654 Y136.192 E6.84827
G1 X133.427 Y135.159 E6.90812
G1 X134.272 Y134.184 E6.96798
G1 X135.184 Y133.272 E7.02783
G1 X136.159 Y132.427 E7.08769
G1 X137.2 Y131.648 E7.14802
G1 X137.72 Y131.301 E7.177
G1 X138.847 Y130.632 E7.2378
G1 X139.401 Y130.342 E7.26679
G1 X140.584 Y129.802 E7.32712
G1 X141.792 Y129.351 E7.38697
G1 X143.03 Y128.988 E7.44683
G1 X144.291 Y128.714 E7.50668
G1 X145.568 Y128.53 E7.56654
G1 X146.857 Y128.438 E7.62649
G1 X166.415 Y128.43 E8.53386
G1 X166.463 Y128.732 E8.54803
G1 X165.839 Y128.932 E8.57842
G1 X165.224 Y129.287 E8.61136
G1 X164.709 Y129.755 E8.64364
G1 X164.354 Y130.226 E8.67101
G1 X164.047 Y130.852 E8.70335
G1 X163.879 Y131.529 E8.7357
G1 X163.849 Y132.118 E8.76306
G1 X163.943 Y132.807 E8.79534
G1 X164.186 Y133.474 E8.82829
G1 X164.557 Y134.063 E8.86056
G1 X164.959 Y134.495 E8.88793
G1 X165.522 Y134.905 E8.92028
G1 X166.16 Y135.188 E8.95262
G1 X166.735 Y135.32 E8.97999
G1 X167.188 Y135.338 E9.00103
G92 E0
G1 E-0.7 F3000
M204 S6000
G1 Z0.55 F15000
M204 S2500
G1 X167.231 Y135.786
G1 Z0.25
G1 E0 F2700
G1 F1800
G1 X167.46 Y135.795 E0.01066
G1 X168.254 Y135.655 E0.04803
G1 X168.981 Y135.358 E0.08447
G1 X169.547 Y134.991 E0.11577
G1 X170.125 Y134.435 E0.15299
G1 X170.128 Y162.683 E1.46348
G1 X169.218 Y161.977 E1.51687
G1 X168.617 Y161.671 E1.54817
G1 X167.861 Y161.452 E1.5847
G1 X167.075 Y161.399 E1.62124
G1 X166.405 Y161.481 E1.65254
G1 X165.657 Y161.722 E1.68899
G1 X164.96 Y162.124 E1.72635
G1 X164.378 Y162.652 E1.7628
G1 X163.972 Y163.191 E1.7941
