; generated by SuperSlicer 2.4 on 2023-01-25 at 10:52:31 UTC


;
;

;
;
; 

; external perimeters extrusion width = 0.42mm
; perimeters extrusion width = 0.45mm
; infill extrusion width = 0.45mm
; solid infill extrusion width = 0.45mm
; top infill extrusion width = 0.42mm
; first layer extrusion width = 0.62mm

; external perimeters extrusion width = 0.42mm
; perimeters extrusion width = 0.45mm
; infill extrusion width = 0.45mm
; solid infill extrusion width = 0.45mm
; top infill extrusion width = 0.42mm
; first layer extrusion width = 0.62mm

; object:{"name":"[a]_MiniSB_MidBody_x1","id":"[a]_MiniSB_MidBody_x1.stl id:0 copy 0","object_center":[150.379879,148.500001,0.000000],"boundingbox_center":[150.379879,148.500001,8.924934],"boundingbox_size":[55.366440,54.009720,17.849869]}
; object:{"name":"Strain_Relief_Spacer_x2","id":"Strain_Relief_Spacer_x2.stl id:1 copy 0","object_center":[177.977302,142.646785,0.000000],"boundingbox_center":[177.977302,142.646785,10.125000],"boundingbox_size":[6.500000,6.500000,20.249999]}
; object:{"name":"Strain_Relief_Spacer_x2","id":"Strain_Relief_Spacer_x2.stl id:1 copy 1","object_center":[117.984751,143.663590,0.000000],"boundingbox_center":[117.984751,143.663590,10.125000],"boundingbox_size":[6.500000,6.500000,20.249999]}
; plater:{"center":[147.981026,148.500001,0.000000],"boundingbox_center":[147.981026,148.500001,10.125000],"boundingbox_size":[66.492551,54.009720,20.249999]}

;TYPE:Custom
M104 S0 ; Stops SuperSlicer from sending temp waits separately


; Pre-Processed for Cancel-Object support by preprocess_cancellation v0.2.0
; 3 known objects
EXCLUDE_OBJECT_DEFINE NAME=a__MiniSB_MidBody_x1_stl_id_0_copy_0 CENTER=149.659,150.564 POLYGON=[[122.972,121.735],[122.972,175.285],[177.788,175.285],[177.788,121.735]]
EXCLUDE_OBJECT_DEFINE NAME=Strain_Relief_Spacer_x2_stl_id_1_copy_0 CENTER=178.002,142.628 POLYGON=[[174.939,139.609],[174.939,145.685],[181.015,145.685],[181.015,139.609]]
EXCLUDE_OBJECT_DEFINE NAME=Strain_Relief_Spacer_x2_stl_id_1_copy_1 CENTER=118.014,143.640 POLYGON=[[114.947,140.625],[114.947,146.702],[121.023,146.702],[121.023,140.625]]

M140 S0

print_start EXTRUDER=248 BED=105 CHAMBER=0
G21 ; set units to millimeters
G90 ; use absolute coordinates
M83 ; use relative distances for extrusion
; Filament gcode
;_TOOLCHANGE 0
M107
;LAYER_CHANGE
;Z:0.2
;HEIGHT:0.2
TIMELAPSE_TAKE_FRAME
;BEFORE_LAYER_CHANGE
;0.2


G1 E-0.8 F3000
G1 Z0.3 F9000
;AFTER_LAYER_CHANGE
;0.2
G92 E0
G1 Z0.5
G1 X113.494 Y138.768
G1 Z0.2
G1 E0.8 F1800
;TYPE:Skirt
;WIDTH:0.52
G1 F1950
G1 X112.38 Y140.097 E0.06879
G1 X111.648 Y141.669 E0.06879
G1 X111.5 Y142.222 E0.02271
G1 X111.348 Y143.95 E0.06879
G1 X111.539 Y145.32 E0.05488
G1 X118.788 Y176.187 E1.25777
G1 X119.673 Y177.487 E0.0624
G1 X120.923 Y177.878 E0.05194
G1 X179.837 Y177.878 E2.33707
G1 X181.535 Y177.073 E0.07456
G1 X182.023 Y175.858 E0.05194
G1 X184.626 Y142.819 E1.31468
G1 X184.462 Y141.205 E0.06434
G1 X183.868 Y139.576 E0.06879
G1 X183.582 Y139.08 E0.02271
G1 X182.537 Y137.807 E0.06534
G1 X172.287 Y129.259 E0.52946
G1 X163.943 Y122.526 E0.42533
G1 X163.041 Y122.091 E0.03972
G1 X154.357 Y120.166 E0.35283
G1 X146.402 Y120.166 E0.31556
G1 X137.719 Y122.091 E0.35283
G1 X136.944 Y122.43 E0.03356
G1 X114.504 Y137.997 E1.0834
G1 X113.542 Y138.732 E0.04801
G1 X113.832 Y139.111 F9000
G1 F1950
G1 X113.785 Y139.147 E0.00235
G1 X112.759 Y140.388 E0.06387
G1 X112.089 Y141.852 E0.06387
G1 X111.973 Y142.285 E0.01777
G1 X111.821 Y143.888 E0.06387
G1 X112.004 Y145.211 E0.053
G1 X119.253 Y176.078 E1.25777
G1 X119.836 Y177.013 E0.04371
G1 X120.923 Y177.401 E0.04579
G1 X179.837 Y177.401 E2.33707
G1 X181.075 Y176.873 E0.05338
G1 X181.547 Y175.82 E0.04579
G1 X184.151 Y142.782 E1.31468
G1 X183.989 Y141.268 E0.06039
G1 X183.427 Y139.759 E0.06387
G1 X183.203 Y139.371 E0.01777
G1 X182.232 Y138.173 E0.06117
G1 X171.982 Y129.625 E0.52946
G1 X163.644 Y122.897 E0.42502
G1 X162.937 Y122.557 E0.03108
G1 X154.254 Y120.632 E0.35283
G1 X146.506 Y120.632 E0.30737
G1 X137.822 Y122.557 E0.35283
G1 X137.216 Y122.822 E0.02626
G1 X114.775 Y138.389 E1.0834
G1 X113.879 Y139.074 E0.04475
G1 X114.169 Y139.453 F9000
G1 F1950
G1 X114.075 Y139.525 E0.00471
G1 X113.137 Y140.678 E0.05896
G1 X112.446 Y142.347 E0.07165
G1 X112.294 Y143.825 E0.05896
G1 X112.468 Y145.102 E0.05111
G1 X119.717 Y175.969 E1.25777
G1 X120.027 Y176.54 E0.02578
G1 X120.923 Y176.924 E0.03868
G1 X179.837 Y176.924 E2.33707
G1 X180.618 Y176.646 E0.03291
G1 X181.072 Y175.783 E0.03868
G1 X183.675 Y142.744 E1.31468
G1 X183.516 Y141.33 E0.05645
G1 X182.987 Y139.941 E0.05896
G1 X181.926 Y138.54 E0.06972
G1 X171.676 Y129.992 E0.52946
G1 X163.344 Y123.268 E0.42472
G1 X162.834 Y123.023 E0.02244
G1 X154.151 Y121.098 E0.35283
G1 X146.609 Y121.098 E0.29918
G1 X137.926 Y123.023 E0.35283
G1 X137.488 Y123.214 E0.01896
G1 X115.047 Y138.781 E1.0834
G1 X114.217 Y139.417 E0.04149
G1 E-0.8 F3000
G1 Z0.5 F9000
G1 X127.299 Y142.805
G1 Z0.2
G1 E0.8 F1800
;WIDTH:0.62
G1 F1950
G1 X129.923 Y132.675 E0.50213
G1 X130.357 Y131.478 E0.0611
G1 X130.394 Y131.409 E0.00376
G1 X130.539 Y131.224 E0.01127
G1 X138.37 Y124.905 E0.48287
G1 X138.546 Y124.812 E0.00958
G1 X146.916 Y122.95 E0.41141
G1 X153.781 Y122.943 E0.32944
G1 X162.15 Y124.79 E0.41125
G1 X162.39 Y124.905 E0.01274
G1 X170.221 Y131.224 E0.48287
G1 X170.275 Y131.281 E0.00376
G1 X170.403 Y131.478 E0.01127
G1 X170.833 Y132.662 E0.06044
G1 X171.209 Y134.113 E0.07191
G1 X171.189 Y134.316 E0.00979
G1 X171.01 Y134.69 E0.0199
G1 X170.864 Y134.833 E0.00979
G1 X156.68 Y141.236 E0.74676
G1 X154.746 Y144.586 E0.18564
G1 X154.742 Y147.075 E0.11942
G1 X154.668 Y147.648 E0.02773
G1 X154.641 Y147.758 E0.00544
G1 X154.393 Y148.356 E0.03104
G1 X154.334 Y148.453 E0.00544
G1 X153.957 Y148.939 E0.02954
G1 X151.797 Y151.1 E0.14659
G1 X151.561 Y151.356 E0.01674
G1 X151.356 Y151.619 E0.01599
G1 X151.088 Y152.015 E0.02297
G1 X150.874 Y152.229 E0.0145
G1 X150.688 Y152.347 E0.01055
G1 X150.361 Y152.448 E0.01646
G1 X150.147 Y152.467 E0.0103
G1 X149.964 Y152.448 E0.0088
G1 X149.807 Y152.407 E0.00781
G1 X149.471 Y152.231 E0.0182
G1 X149.331 Y152.107 E0.00897
G1 X148.908 Y151.564 E0.03302
G1 X148.738 Y151.383 E0.01193
G1 X147.054 Y149.699 E0.11428
G1 X146.892 Y149.57 E0.00992
G1 X146.745 Y149.499 E0.00784
G1 X146.583 Y149.462 E0.00797
G1 X145.635 Y149.455 E0.04551
G1 X144.703 Y149.648 E0.04564
G1 X143.832 Y150.03 E0.04564
G1 X143.06 Y150.586 E0.04564
G1 X142.421 Y151.291 E0.04564
G1 X141.944 Y152.114 E0.04564
G1 X141.649 Y153.018 E0.04564
G1 X141.549 Y153.964 E0.04564
G1 X141.649 Y154.91 E0.04564
G1 X141.944 Y155.814 E0.04564
G1 X142.421 Y156.637 E0.04564
G1 X143.06 Y157.341 E0.04564
G1 X143.832 Y157.897 E0.04564
G1 X144.703 Y158.28 E0.04564
G1 X145.635 Y158.472 E0.04564
G1 X146.583 Y158.465 E0.04551
G1 X146.745 Y158.428 E0.00797
G1 X146.892 Y158.358 E0.00784
G1 X147.054 Y158.229 E0.00992
G1 X148.74 Y156.543 E0.11442
G1 X148.908 Y156.363 E0.01179
G1 X149.331 Y155.821 E0.03302
G1 X149.471 Y155.696 E0.00897
G1 X149.773 Y155.533 E0.01649
G1 X149.982 Y155.475 E0.01043
G1 X150.42 Y155.486 E0.02102
G1 X150.627 Y155.554 E0.01041
G1 X150.871 Y155.696 E0.01359
G1 X151.018 Y155.823 E0.00932
G1 X151.353 Y156.303 E0.02806
G1 X151.561 Y156.571 E0.0163
G1 X151.797 Y156.828 E0.01674
G1 X153.844 Y158.867 E0.13865
G1 X154.218 Y159.194 E0.02384
G1 X154.643 Y159.113 E0.02077
G1 X155.474 Y159.13 E0.03988
G1 X156.313 Y159.337 E0.04148
G1 X156.439 Y159.385 E0.00644
G1 X157.198 Y159.798 E0.04148
G1 X157.8 Y160.322 E0.03827
G1 X157.89 Y160.421 E0.00644
G1 X158.333 Y161.044 E0.03667
G1 X158.483 Y161.37 E0.01723
G1 X158.895 Y161.393 E0.01979
G1 X163.159 Y161.398 E0.20464
G1 X168.203 Y158.475 E0.27971
G1 X168.283 Y158.391 E0.0056
G1 X170.392 Y155.448 E0.1737
G1 X170.609 Y155.105 E0.01951
G1 X170.85 Y154.65 E0.02468
G1 X171.155 Y154.223 E0.02519
G1 X171.522 Y153.834 E0.02565
G1 X171.858 Y153.42 E0.0256
G1 X172.003 Y153.323 E0.00835
G1 X172.34 Y153.223 E0.01689
G1 X172.514 Y153.224 E0.00835
G1 X173.109 Y153.414 E0.02995
G1 X173.252 Y153.513 E0.00837
G1 X173.469 Y153.791 E0.01693
G1 X173.531 Y153.954 E0.00837
G1 X173.565 Y154.492 E0.02585
G1 X173.634 Y154.966 E0.02301
G1 X173.635 Y155.558 E0.02837
G1 X173.571 Y156.066 E0.02457
G1 X173.549 Y156.475 E0.01969
G1 X173.552 Y158.122 E0.07899
G1 X178.792 Y174.189 E0.81096
G1 X178.749 Y174.463 E0.0133
G1 X178.413 Y174.925 E0.02742
G1 X178.166 Y175.051 E0.0133
G1 X175.113 Y175.051 E0.14651
G1 X174.932 Y174.989 E0.00919
G1 X174.624 Y174.752 E0.01864
G1 X174.519 Y174.592 E0.00919
G1 X172.99 Y168.729 E0.29071
G1 X127.77 Y168.729 E2.16987
G1 X126.241 Y174.592 E0.29071
G1 X126.135 Y174.752 E0.00919
G1 X125.828 Y174.989 E0.01864
G1 X125.647 Y175.051 E0.00919
G1 X122.593 Y175.051 E0.14651
G1 X122.346 Y174.925 E0.0133
G1 X122.011 Y174.463 E0.02742
G1 X121.967 Y174.189 E0.0133
G1 X127.208 Y158.12 E0.81103
G1 X127.278 Y142.93 E0.72888
G1 X127.288 Y142.864 E0.0032
G1 X127.858 Y142.951 F9000
G1 F1950
G1 X130.48 Y132.827 E0.50184
G1 X130.886 Y131.713 E0.05689
G1 X130.932 Y131.649 E0.00378
G1 X138.707 Y125.375 E0.47939
G1 X138.767 Y125.346 E0.0032
G1 X146.994 Y123.522 E0.40438
G1 X147.026 Y123.518 E0.00151
G1 X153.734 Y123.518 E0.3219
G1 X153.765 Y123.522 E0.00151
G1 X154.253 Y123.63 E0.02398
G1 X161.993 Y125.346 E0.38041
G1 X162.053 Y125.375 E0.0032
G1 X169.828 Y131.649 E0.47939
G1 X169.874 Y131.713 E0.00378
G1 X170.28 Y132.827 E0.05689
G1 X170.625 Y134.159 E0.06601
G1 X170.534 Y134.349 E0.01011
G1 X156.273 Y140.786 E0.75079
G1 X154.168 Y144.432 E0.20198
G1 X154.168 Y147.009 E0.12367
G1 X154.167 Y147.028 E0.00091
G1 X154.098 Y147.554 E0.02547
G1 X154.088 Y147.591 E0.00181
G1 X153.884 Y148.084 E0.0256
G1 X153.865 Y148.116 E0.00181
G1 X153.542 Y148.537 E0.02547
G1 X153.529 Y148.552 E0.00091
G1 X151.381 Y150.7 E0.1458
G1 X151.12 Y150.983 E0.01846
G1 X150.887 Y151.284 E0.01827
G1 X150.67 Y151.615 E0.01898
G1 X150.651 Y151.638 E0.00147
G1 X150.494 Y151.793 E0.01054
G1 X150.431 Y151.83 E0.00353
G1 X150.232 Y151.885 E0.00992
G1 X150.178 Y151.89 E0.00259
G1 X150.049 Y151.877 E0.00621
G1 X149.997 Y151.861 E0.00261
G1 X149.815 Y151.767 E0.00984
G1 X149.767 Y151.727 E0.003
G1 X149.347 Y151.189 E0.03277
G1 X149.153 Y150.981 E0.01364
G1 X147.439 Y149.268 E0.11629
G1 X147.201 Y149.078 E0.01459
G1 X146.937 Y148.951 E0.01408
G1 X146.65 Y148.885 E0.01411
G1 X145.578 Y148.878 E0.05146
G1 X144.527 Y149.095 E0.05149
G1 X143.544 Y149.526 E0.05149
G1 X142.673 Y150.153 E0.05149
G1 X141.953 Y150.948 E0.05149
G1 X141.414 Y151.877 E0.05149
G1 X141.081 Y152.897 E0.05149
G1 X140.969 Y153.964 E0.05149
G1 X141.081 Y155.031 E0.05149
G1 X141.414 Y156.051 E0.05149
G1 X141.953 Y156.979 E0.05149
G1 X142.673 Y157.774 E0.05149
G1 X143.544 Y158.401 E0.05149
G1 X144.527 Y158.833 E0.05149
G1 X145.578 Y159.049 E0.05149
G1 X146.65 Y159.042 E0.05146
G1 X146.937 Y158.977 E0.01411
G1 X147.201 Y158.849 E0.01408
G1 X147.439 Y158.66 E0.01459
G1 X149.155 Y156.944 E0.11644
G1 X149.347 Y156.739 E0.01349
G1 X149.767 Y156.2 E0.03277
G1 X149.815 Y156.16 E0.003
G1 X150.005 Y156.062 E0.01028
G1 X150.076 Y156.046 E0.00349
G1 X150.298 Y156.051 E0.01065
G1 X150.368 Y156.071 E0.00349
G1 X150.554 Y156.179 E0.0103
G1 X150.601 Y156.223 E0.00312
G1 X150.886 Y156.643 E0.02432
G1 X151.12 Y156.944 E0.01835
G1 X151.381 Y157.227 E0.01846
G1 X153.106 Y158.952 E0.11708
G1 X153.45 Y159.289 E0.02308
G1 X153.802 Y159.603 E0.02264
G1 X154.08 Y159.814 E0.01677
G1 X154.648 Y159.692 E0.02788
G1 X154.682 Y159.689 E0.00161
G1 X155.412 Y159.704 E0.03505
G1 X155.445 Y159.708 E0.00161
G1 X156.153 Y159.891 E0.03505
G1 X156.184 Y159.903 E0.00161
G1 X156.83 Y160.245 E0.03505
G1 X156.858 Y160.264 E0.00161
G1 X157.407 Y160.745 E0.03505
G1 X157.43 Y160.77 E0.00161
G1 X157.854 Y161.365 E0.03505
G1 X157.87 Y161.394 E0.00161
G1 X158.076 Y161.9 E0.02621
G1 X158.398 Y161.943 E0.01561
G1 X158.878 Y161.97 E0.02309
G1 X163.314 Y161.975 E0.21285
G1 X168.563 Y158.933 E0.2911
G1 X168.728 Y158.76 E0.01148
G1 X170.611 Y156.14 E0.15482
G1 X170.872 Y155.768 E0.02181
G1 X171.11 Y155.392 E0.02134
G1 X171.325 Y154.979 E0.02237
G1 X171.336 Y154.961 E0.00099
G1 X171.618 Y154.568 E0.02321
G1 X171.631 Y154.552 E0.00099
G1 X171.954 Y154.217 E0.02236
G1 X172.251 Y153.851 E0.02259
G1 X172.422 Y153.8 E0.00854
G1 X172.851 Y153.937 E0.02159
G1 X172.96 Y154.078 E0.00856
G1 X172.99 Y154.552 E0.02282
G1 X173.059 Y155.018 E0.02261
G1 X173.061 Y155.04 E0.00104
G1 X173.059 Y155.528 E0.02341
G1 X173.058 Y155.546 E0.00089
G1 X172.996 Y156.012 E0.02255
G1 X172.972 Y156.461 E0.02155
G1 X172.975 Y158.273 E0.08696
G1 X173.03 Y158.368 E0.00527
G1 X173.042 Y158.396 E0.00145
G1 X178.201 Y174.236 E0.79937
G1 X178.028 Y174.474 E0.01411
G1 X175.209 Y174.474 E0.13526
G1 X175.053 Y174.353 E0.00945
G1 X173.436 Y168.152 E0.30751
G1 X127.324 Y168.152 E2.21267
G1 X125.707 Y174.353 E0.30751
G1 X125.551 Y174.474 E0.00945
G1 X122.732 Y174.474 E0.13526
G1 X122.559 Y174.236 E0.01411
G1 X127.717 Y158.396 E0.79937
G1 X127.73 Y158.368 E0.00145
G1 X127.785 Y158.273 E0.00529
G1 X127.853 Y143.011 E0.73234
G1 E-0.8 F3000
G1 Z0.5 F9000
G1 X121.798 Y143.588
G1 Z0.2
G1 E0.8 F1800
G1 F1950
G1 X121.8 Y143.701 E0.00544
G1 X121.68 Y144.615 E0.0442
G1 X121.648 Y144.723 E0.00544
G1 X121.325 Y145.505 E0.04058
G1 X121.249 Y145.636 E0.00725
G1 X120.734 Y146.307 E0.04058
G1 X120.656 Y146.388 E0.00544
G1 X119.925 Y146.949 E0.0442
G1 X119.826 Y147.004 E0.00544
G1 X119.045 Y147.327 E0.04058
G1 X118.899 Y147.366 E0.00725
G1 X118.06 Y147.477 E0.04058
G1 X117.947 Y147.479 E0.00544
G1 X117.034 Y147.359 E0.0442
G1 X116.925 Y147.327 E0.00544
G1 X116.144 Y147.004 E0.04058
G1 X116.013 Y146.928 E0.00725
G1 X115.342 Y146.413 E0.04058
G1 X115.26 Y146.335 E0.00544
G1 X114.699 Y145.604 E0.0442
G1 X114.645 Y145.505 E0.00544
G1 X114.321 Y144.723 E0.04058
G1 X114.282 Y144.578 E0.00725
G1 X114.172 Y143.739 E0.04058
G1 X114.169 Y143.626 E0.00544
G1 X114.289 Y142.713 E0.0442
G1 X114.321 Y142.604 E0.00544
G1 X114.645 Y141.822 E0.04058
G1 X114.72 Y141.692 E0.00725
G1 X115.235 Y141.021 E0.04058
G1 X115.313 Y140.939 E0.00544
G1 X116.044 Y140.378 E0.0442
G1 X116.144 Y140.324 E0.00544
G1 X116.925 Y140 E0.04058
G1 X117.071 Y139.961 E0.00725
G1 X117.909 Y139.85 E0.04058
G1 X118.023 Y139.848 E0.00544
G1 X118.936 Y139.968 E0.0442
G1 X119.045 Y140 E0.00544
G1 X119.826 Y140.324 E0.04058
G1 X119.957 Y140.399 E0.00725
G1 X120.628 Y140.914 E0.04058
G1 X120.71 Y140.992 E0.00544
G1 X121.27 Y141.723 E0.0442
G1 X121.325 Y141.822 E0.00544
G1 X121.648 Y142.604 E0.04058
G1 X121.688 Y142.75 E0.00725
G1 X121.79 Y143.529 E0.0377
G1 X121.218 Y143.604 F9000
G1 F1950
G1 X121.223 Y143.645 E0.00197
G1 X121.223 Y143.683 E0.00181
G1 X121.118 Y144.484 E0.03877
G1 X121.108 Y144.52 E0.00181
G1 X120.799 Y145.266 E0.03877
G1 X120.78 Y145.299 E0.00182
G1 X120.288 Y145.94 E0.03877
G1 X120.261 Y145.967 E0.00181
G1 X119.62 Y146.459 E0.03877
G1 X119.588 Y146.478 E0.00182
G1 X118.841 Y146.787 E0.03877
G1 X118.805 Y146.797 E0.00181
G1 X118.004 Y146.902 E0.03877
G1 X117.966 Y146.902 E0.00181
G1 X117.165 Y146.797 E0.03877
G1 X117.128 Y146.787 E0.00181
G1 X116.382 Y146.478 E0.03877
G1 X116.349 Y146.459 E0.00182
G1 X115.708 Y145.967 E0.03877
G1 X115.681 Y145.94 E0.00181
G1 X115.19 Y145.299 E0.03877
G1 X115.171 Y145.266 E0.00181
G1 X114.861 Y144.52 E0.03877
G1 X114.852 Y144.484 E0.00181
G1 X114.746 Y143.683 E0.03877
G1 X114.746 Y143.645 E0.00181
G1 X114.852 Y142.844 E0.03877
G1 X114.861 Y142.807 E0.00181
G1 X115.171 Y142.061 E0.03877
G1 X115.19 Y142.028 E0.00181
G1 X115.681 Y141.387 E0.03877
G1 X115.708 Y141.36 E0.00181
G1 X116.349 Y140.868 E0.03877
G1 X116.382 Y140.849 E0.00181
G1 X117.128 Y140.54 E0.03877
G1 X117.165 Y140.53 E0.00181
G1 X117.966 Y140.425 E0.03877
G1 X118.004 Y140.425 E0.00182
G1 X118.404 Y140.478 E0.01938
G1 X118.805 Y140.53 E0.01938
G1 X118.841 Y140.54 E0.00181
G1 X119.588 Y140.849 E0.03877
G1 X119.62 Y140.868 E0.00181
G1 X120.261 Y141.36 E0.03877
G1 X120.288 Y141.387 E0.00181
G1 X120.78 Y142.028 E0.03877
G1 X120.799 Y142.061 E0.00181
G1 X121.108 Y142.807 E0.03877
G1 X121.118 Y142.844 E0.00181
G1 X121.21 Y143.544 E0.03392
G1 E-0.8 F3000
G1 Z0.5 F9000
G1 X174.162 Y142.609
G1 Z0.2
G1 E0.8 F1800
G1 F1950
