; generated by SuperSlicer 2.4 on 2023-02-01 at 17:17:51 UTC


;
;

;
;
; 

; external perimeters extrusion width = 0.42mm
; perimeters extrusion width = 0.45mm
; infill extrusion width = 0.45mm
; solid infill extrusion width = 0.45mm
; top infill extrusion width = 0.42mm
; first layer extrusion width = 0.62mm

; object:{"name":"[a]_Tensioner_Knob_x2","id":"[a]_Tensioner_Knob_x2.stl id:0 copy 0","object_center":[144.601359,131.884663,0.000000],"boundingbox_center":[144.601359,131.884663,7.794444],"boundingbox_size":[29.940802,30.000000,15.588889]}
; object:{"name":"[a]_Tensioner_Knob_x2","id":"[a]_Tensioner_Knob_x2.stl id:0 copy 1","object_center":[155.398642,165.115338,0.000000],"boundingbox_center":[155.398642,165.115338,7.794444],"boundingbox_size":[29.940802,30.000000,15.588889]}
; plater:{"center":[150.000000,148.500000,0.000000],"boundingbox_center":[150.000000,148.500000,7.794444],"boundingbox_size":[40.738085,63.230675,15.588889]}

;TYPE:Custom
M104 S0 ; Stops SuperSlicer from sending temp waits separately


; Pre-Processed for Cancel-Object support by preprocess_cancellation v0.2.0
; 2 known objects
EXCLUDE_OBJECT_DEFINE NAME=a__Tensioner_Knob_x2_stl_id_0_copy_0 CENTER=144.652,131.871 POLYGON=[[129.841,117.095],[129.841,146.674],[159.362,146.674],[159.362,117.095]]
EXCLUDE_OBJECT_DEFINE NAME=a__Tensioner_Knob_x2_stl_id_0_copy_1 CENTER=155.409,164.988 POLYGON=[[140.638,150.326],[140.638,179.905],[170.159,179.905],[170.159,150.326]]

M140 S0

print_start EXTRUDER=248 BED=105 CHAMBER=0
M107
G21 ; set units to millimeters
G90 ; use absolute coordinates
M83 ; use relative distances for extrusion
; Filament gcode
;_TOOLCHANGE 0
M107
;LAYER_CHANGE
;Z:0.2
;HEIGHT:0.2
TIMELAPSE_TAKE_FRAME
;BEFORE_LAYER_CHANGE
;0.2


G1 E-0.4 F2400
G1 Z0.3 F9000
TIMELAPSE_TAKE_FRAME
;BEFORE_LAYER_CHANGE
;0.2
G92 E0
G1 Z0.5
G1 X129.946 Y119.878
G1 Z0.2
G1 E0.4 F2280
;TYPE:Skirt
;WIDTH:0.52
G1 F1950
G1 X128.521 Y121.865 E0.09699
G1 X127.384 Y123.978 E0.09519
G1 X126.525 Y126.215 E0.09505
G1 X126.301 Y127.035 E0.03373
G1 X125.896 Y128.881 E0.07497
G1 X125.666 Y131.279 E0.09556
G1 X125.734 Y133.608 E0.09243
G1 X126.064 Y135.787 E0.08743
G1 X126.729 Y138.172 E0.09821
G1 X137.526 Y171.402 E1.38608
G1 X138.536 Y173.751 E0.10142
G1 X139.769 Y175.821 E0.09559
G1 X141.255 Y177.719 E0.09559
G1 X142.832 Y179.289 E0.08831
G1 X143.518 Y179.862 E0.03544
G1 X144.885 Y180.873 E0.06744
G1 X146.818 Y182.002 E0.08879
G1 X149.036 Y182.956 E0.09581
G1 X151.514 Y183.655 E0.10212
G1 X153.898 Y183.998 E0.09557
G1 X156.899 Y183.998 E0.11903
G1 X159.284 Y183.655 E0.09557
G1 X161.606 Y183.012 E0.09558
G1 X163.172 Y182.384 E0.06696
G1 X163.98 Y182.002 E0.03544
G1 X165.913 Y180.873 E0.08879
G1 X167.828 Y179.412 E0.09558
G1 X169.059 Y178.23 E0.06767
G1 X169.667 Y177.575 E0.03545
G1 X171.028 Y175.822 E0.08808
G1 X172.261 Y173.751 E0.09559
G1 X172.967 Y172.178 E0.06839
G1 X173.289 Y171.345 E0.03544
G1 X173.895 Y169.219 E0.08769
G1 X174.257 Y166.924 E0.09218
G1 X174.334 Y164.517 E0.09553
G1 X174.049 Y161.79 E0.10876
G1 X173.516 Y159.562 E0.09085
G1 X162.719 Y126.332 E1.38608
G1 X161.826 Y123.994 E0.09925
G1 X160.802 Y122.06 E0.08682
G1 X159.453 Y120.121 E0.09369
G1 X157.838 Y118.33 E0.09569
G1 X155.976 Y116.732 E0.09733
G1 X153.986 Y115.426 E0.09444
G1 X151.816 Y114.365 E0.09582
G1 X149.528 Y113.59 E0.09582
G1 X147.161 Y113.112 E0.09581
G1 X145.339 Y112.976 E0.07245
G1 X144.451 Y112.939 E0.03527
G1 X142.042 Y113.112 E0.09578
G1 X139.675 Y113.59 E0.09582
G1 X137.387 Y114.365 E0.09582
G1 X135.241 Y115.411 E0.0947
G1 X133.432 Y116.581 E0.08548
G1 X131.582 Y118.12 E0.09544
G1 X129.987 Y119.834 E0.09289
G1 X130.337 Y120.159 F9000
G1 F1950
G1 X130.298 Y120.2 E0.00226
G1 X128.913 Y122.138 E0.09449
G1 X127.806 Y124.201 E0.09287
G1 X126.972 Y126.382 E0.09265
G1 X126.763 Y127.154 E0.0317
G1 X126.37 Y128.93 E0.07217
G1 X126.143 Y131.267 E0.09315
G1 X126.207 Y133.548 E0.09051
G1 X126.535 Y135.711 E0.08678
G1 X127.183 Y138.024 E0.0953
G1 X137.98 Y171.255 E1.38608
G1 X138.954 Y173.521 E0.09786
G1 X140.155 Y175.541 E0.09321
G1 X141.603 Y177.392 E0.09321
G1 X143.164 Y178.947 E0.08741
G1 X143.804 Y179.48 E0.03302
G1 X145.14 Y180.471 E0.066
G1 X147.052 Y181.586 E0.08779
G1 X149.215 Y182.514 E0.09338
G1 X151.603 Y183.186 E0.09841
G1 X153.928 Y183.522 E0.0932
G1 X156.869 Y183.522 E0.11665
G1 X159.194 Y183.186 E0.0932
G1 X161.458 Y182.559 E0.0932
G1 X162.993 Y181.942 E0.06563
G1 X165.657 Y180.471 E0.12072
G1 X167.524 Y179.044 E0.0932
G1 X168.727 Y177.887 E0.06619
G1 X169.294 Y177.278 E0.03302
G1 X170.642 Y175.541 E0.08723
G1 X171.843 Y173.521 E0.09321
G1 X172.53 Y171.985 E0.06676
G1 X172.831 Y171.209 E0.03302
G1 X173.433 Y169.1 E0.08699
G1 X173.786 Y166.852 E0.0903
G1 X173.857 Y164.505 E0.09312
G1 X173.584 Y161.899 E0.10395
G1 X173.062 Y159.71 E0.08928
G1 X162.265 Y126.479 E1.38608
G1 X161.403 Y124.215 E0.0961
G1 X160.384 Y122.29 E0.0864
G1 X159.063 Y120.396 E0.09159
G1 X157.486 Y118.652 E0.09328
G1 X155.672 Y117.1 E0.09472
G1 X153.727 Y115.826 E0.09223
G1 X151.61 Y114.796 E0.09341
G1 X149.378 Y114.043 E0.09341
G1 X147.07 Y113.58 E0.0934
G1 X145.309 Y113.452 E0.07003
G1 X144.481 Y113.415 E0.03288
G1 X142.133 Y113.58 E0.09338
G1 X139.824 Y114.043 E0.09341
G1 X137.593 Y114.796 E0.09341
G1 X135.497 Y115.814 E0.09245
G1 X133.692 Y116.981 E0.08526
G1 X131.89 Y118.484 E0.09309
G1 X130.378 Y120.115 E0.08823
G1 X130.728 Y120.439 F9000
G1 F1950
G1 X130.65 Y120.523 E0.00454
G1 X129.304 Y122.411 E0.09199
G1 X128.228 Y124.424 E0.09055
G1 X127.419 Y126.55 E0.09024
G1 X127.216 Y127.309 E0.03116
G1 X126.845 Y128.98 E0.0679
G1 X126.62 Y131.256 E0.09074
G1 X126.681 Y133.488 E0.08859
G1 X127.006 Y135.635 E0.08612
G1 X127.637 Y137.877 E0.09239
G1 X138.434 Y171.108 E1.38608
G1 X139.373 Y173.291 E0.0943
G1 X140.541 Y175.261 E0.09083
G1 X141.95 Y177.065 E0.09083
G1 X144.089 Y179.097 E0.11702
G1 X145.396 Y180.068 E0.06457
G1 X147.286 Y181.17 E0.0868
G1 X149.394 Y182.071 E0.09096
G1 X151.692 Y182.718 E0.09471
G1 X153.958 Y183.046 E0.09082
G1 X156.839 Y183.046 E0.11428
G1 X159.105 Y182.718 E0.09082
G1 X161.311 Y182.105 E0.09082
G1 X162.814 Y181.5 E0.06429
G1 X165.401 Y180.068 E0.11731
G1 X167.22 Y178.676 E0.09083
G1 X168.395 Y177.545 E0.06472
G1 X170.256 Y175.261 E0.11688
G1 X171.425 Y173.291 E0.09083
G1 X172.094 Y171.792 E0.06514
G1 X172.374 Y171.073 E0.03059
G1 X172.971 Y168.982 E0.08629
G1 X173.314 Y166.779 E0.08841
G1 X173.38 Y164.494 E0.09072
G1 X173.12 Y162.008 E0.09913
G1 X172.609 Y159.857 E0.08771
G1 X161.811 Y126.626 E1.38608
G1 X160.98 Y124.436 E0.09295
G1 X159.966 Y122.52 E0.08599
G1 X158.673 Y120.671 E0.08949
G1 X157.135 Y118.974 E0.09087
G1 X155.368 Y117.467 E0.09211
G1 X153.468 Y116.227 E0.09002
G1 X151.403 Y115.226 E0.091
G1 X149.229 Y114.496 E0.091
G1 X146.979 Y114.049 E0.09099
G1 X145.279 Y113.928 E0.0676
G1 X144.512 Y113.891 E0.03049
G1 X142.224 Y114.048 E0.09097
G1 X139.974 Y114.496 E0.091
G1 X137.799 Y115.226 E0.091
G1 X135.753 Y116.217 E0.0902
G1 X133.952 Y117.381 E0.08504
G1 X132.198 Y118.849 E0.09073
G1 X130.768 Y120.394 E0.08353
G1 X131.119 Y120.718 F9000
G1 F1950
G1 X131.002 Y120.845 E0.00686
G1 X129.695 Y122.684 E0.08949
G1 X128.65 Y124.647 E0.08823
G1 X127.865 Y126.717 E0.08783
G1 X127.681 Y127.415 E0.02862
G1 X127.319 Y129.029 E0.06561
G1 X127.097 Y131.244 E0.08833
G1 X127.154 Y133.429 E0.08667
G1 X127.477 Y135.559 E0.08547
G1 X128.09 Y137.729 E0.08948
G1 X138.888 Y170.96 E1.38608
G1 X139.791 Y173.062 E0.09074
G1 X140.927 Y174.98 E0.08846
G1 X142.298 Y176.739 E0.08846
G1 X144.374 Y178.715 E0.1137
G1 X145.651 Y179.665 E0.06314
G1 X147.52 Y180.754 E0.0858
G1 X149.573 Y181.629 E0.08854
G1 X151.782 Y182.249 E0.091
G1 X153.988 Y182.569 E0.08844
G1 X156.809 Y182.569 E0.1119
G1 X159.015 Y182.249 E0.08844
G1 X161.163 Y181.651 E0.08845
G1 X162.635 Y181.058 E0.06296
G1 X165.146 Y179.665 E0.11389
G1 X166.916 Y178.309 E0.08845
G1 X168.063 Y177.202 E0.06324
G1 X169.87 Y174.98 E0.11361
G1 X171.007 Y173.062 E0.08846
G1 X171.658 Y171.599 E0.06352
G1 X172.508 Y168.863 E0.11366
G1 X172.842 Y166.707 E0.08653
G1 X172.903 Y164.482 E0.08831
G1 X172.656 Y162.118 E0.09432
G1 X172.155 Y160.005 E0.08614
G1 X161.358 Y126.774 E1.38608
G1 X160.557 Y124.656 E0.0898
G1 X159.548 Y122.75 E0.08558
G1 X158.283 Y120.946 E0.08739
G1 X156.783 Y119.296 E0.08846
G1 X155.064 Y117.835 E0.08951
G1 X153.209 Y116.627 E0.08781
G1 X151.197 Y115.656 E0.08859
G1 X149.079 Y114.949 E0.08859
G1 X146.888 Y114.517 E0.08858
G1 X145.249 Y114.404 E0.06517
G1 X144.542 Y114.367 E0.02809
G1 X142.315 Y114.517 E0.08856
G1 X140.124 Y114.949 E0.08859
G1 X138.005 Y115.656 E0.08859
G1 X136.008 Y116.62 E0.08796
G1 X134.212 Y117.78 E0.08482
G1 X132.506 Y119.213 E0.08838
G1 X131.16 Y120.674 E0.07881
G1 X131.511 Y120.996 F9000
G1 F1950
G1 X131.354 Y121.167 E0.00921
G1 X130.087 Y122.957 E0.08699
G1 X129.071 Y124.87 E0.08592
G1 X128.312 Y126.885 E0.08542
G1 X128.146 Y127.521 E0.02608
G1 X127.794 Y129.078 E0.06333
G1 X127.574 Y131.233 E0.08592
G1 X127.627 Y133.369 E0.08475
G1 X127.948 Y135.483 E0.08481
G1 X128.544 Y137.582 E0.08658
G1 X139.341 Y170.813 E1.38608
G1 X140.209 Y172.832 E0.08718
G1 X141.313 Y174.7 E0.08608
G1 X142.646 Y176.412 E0.08608
G1 X144.66 Y178.333 E0.11039
G1 X145.907 Y179.262 E0.06171
G1 X147.754 Y180.339 E0.08481
G1 X149.752 Y181.187 E0.08611
G1 X151.871 Y181.781 E0.08729
G1 X154.018 Y182.093 E0.08607
G1 X156.779 Y182.093 E0.10952
G1 X158.926 Y181.781 E0.08607
G1 X161.016 Y181.198 E0.08607
G1 X162.456 Y180.616 E0.06162
G1 X164.89 Y179.262 E0.11048
G1 X166.612 Y177.941 E0.08608
G1 X167.731 Y176.859 E0.06176
G1 X169.484 Y174.7 E0.11034
G1 X170.589 Y172.832 E0.08608
G1 X171.222 Y171.406 E0.06189
G1 X172.046 Y168.744 E0.11053
G1 X172.371 Y166.635 E0.08464
G1 X172.426 Y164.471 E0.0859
G1 X172.191 Y162.227 E0.0895
G1 X171.701 Y160.152 E0.08457
G1 X160.904 Y126.921 E1.38608
G1 X160.134 Y124.877 E0.08666
G1 X159.13 Y122.98 E0.08517
G1 X157.858 Y121.177 E0.0875
G1 X156.392 Y119.581 E0.08599
G1 X154.76 Y118.203 E0.08475
G1 X152.949 Y117.028 E0.0856
G1 X150.991 Y116.087 E0.08619
G1 X148.93 Y115.402 E0.08619
G1 X146.798 Y114.985 E0.08617
G1 X145.219 Y114.88 E0.06275
G1 X144.572 Y114.843 E0.0257
G1 X142.405 Y114.985 E0.08615
G1 X140.273 Y115.402 E0.08618
G1 X138.211 Y116.087 E0.08619
G1 X136.264 Y117.022 E0.08571
G1 X134.473 Y118.18 E0.0846
G1 X132.814 Y119.577 E0.08603
G1 X131.551 Y120.952 E0.07405
G1 E-0.4 F2400
G1 Z0.5 F9000
G1 X147.566 Y151.001
G1 Z0.2
G1 E0.4 F2280
;WIDTH:0.62
G1 F1950
G1 X149.405 Y150.127 E0.09768
G1 X151.324 Y149.495 E0.09695
G1 X153.289 Y149.112 E0.09611
G1 X155.453 Y148.973 E0.10404
G1 X157.452 Y149.104 E0.09611
G1 X159.419 Y149.482 E0.09609
G1 X161.461 Y150.154 E0.10319
G1 X163.283 Y151.029 E0.09696
G1 X164.965 Y152.113 E0.09603
G1 X166.623 Y153.515 E0.10419
G1 X167.996 Y155.022 E0.09784
G1 X169.154 Y156.668 E0.09652
G1 X170.106 Y158.464 E0.09756
G1 X170.826 Y160.368 E0.09768
G1 X171.303 Y162.362 E0.0984
G1 X171.386 Y162.981 E0.02995
G1 X171.529 Y164.512 E0.07377
G1 X171.482 Y166.473 E0.09415
G1 X171.18 Y168.499 E0.09829
G1 X171.028 Y169.106 E0.03
G1 X170.592 Y170.564 E0.07303
G1 X170.392 Y171.068 E0.02602
G1 X169.782 Y172.439 E0.07202
G1 X169.516 Y172.922 E0.02642
G1 X168.767 Y174.157 E0.06934
G1 X168.409 Y174.655 E0.02941
G1 X167.461 Y175.839 E0.07276
G1 X167.085 Y176.238 E0.02633
G1 X166.009 Y177.277 E0.07176
G1 X165.581 Y177.63 E0.02663
G1 X164.422 Y178.495 E0.0694
G1 X163.906 Y178.824 E0.02935
G1 X162.589 Y179.564 E0.0725
G1 X162.086 Y179.799 E0.02664
G1 X160.704 Y180.357 E0.0715
G1 X160.172 Y180.529 E0.02684
G1 X158.772 Y180.896 E0.06945
G1 X158.172 Y181.011 E0.0293
G1 X156.679 Y181.202 E0.07223
G1 X156.127 Y181.235 E0.02652
G1 X154.67 Y181.235 E0.06994
G1 X154.061 Y181.197 E0.02926
G1 X152.625 Y181.011 E0.06949
G1 X152.026 Y180.896 E0.02928
G1 X150.626 Y180.529 E0.06945
G1 X150.093 Y180.357 E0.02684
G1 X148.711 Y179.799 E0.0715
G1 X148.208 Y179.564 E0.02664
G1 X146.898 Y178.829 E0.07211
G1 X146.43 Y178.533 E0.02655
G1 X145.222 Y177.635 E0.07224
G1 X144.746 Y177.239 E0.02972
G1 X143.707 Y176.233 E0.06938
G1 X143.336 Y175.838 E0.02599
G1 X142.393 Y174.66 E0.07241
G1 X142.071 Y174.218 E0.02624
G1 X141.284 Y172.927 E0.07255
G1 X140.988 Y172.383 E0.02973
G1 X140.403 Y171.062 E0.06932
G1 X140.201 Y170.551 E0.02635
G1 X139.771 Y169.111 E0.07211
G1 X139.636 Y168.589 E0.02591
G1 X139.39 Y167.09 E0.07287
G1 X139.315 Y166.465 E0.03018
G1 X139.269 Y164.508 E0.09393
G1 X139.476 Y162.465 E0.09857
G1 X139.813 Y160.968 E0.07359
G1 X139.973 Y160.363 E0.03007
G1 X140.662 Y158.528 E0.09401
G1 X141.618 Y156.709 E0.09861
G1 X142.492 Y155.448 E0.07365
G1 X142.863 Y154.946 E0.02993
G1 X144.215 Y153.475 E0.09586
G1 X145.755 Y152.17 E0.09688
G1 X147.038 Y151.329 E0.07359
G1 X147.515 Y151.033 E0.02697
G1 X147.82 Y151.521 F9000
G1 F1950
G1 X149.603 Y150.669 E0.0948
G1 X151.452 Y150.058 E0.09346
G1 X153.382 Y149.681 E0.09434
G1 X155.435 Y149.55 E0.09871
G1 X157.361 Y149.674 E0.09262
G1 X159.291 Y150.045 E0.09433
G1 X161.229 Y150.683 E0.09786
G1 X162.985 Y151.524 E0.09346
G1 X164.636 Y152.588 E0.09426
G1 X166.21 Y153.918 E0.09884
G1 X167.535 Y155.369 E0.09431
G1 X168.671 Y156.985 E0.09477
G1 X169.588 Y158.717 E0.09406
G1 X170.279 Y160.554 E0.09418
G1 X170.738 Y162.482 E0.09506
G1 X170.812 Y163.041 E0.02706
G1 X170.951 Y164.515 E0.07106
G1 X170.906 Y166.441 E0.09246
G1 X170.611 Y168.4 E0.09502
G1 X170.473 Y168.947 E0.02707
G1 X170.051 Y170.363 E0.07091
G1 X169.862 Y170.839 E0.02459
G1 X169.27 Y172.172 E0.06998
G1 X169.02 Y172.628 E0.02496
G1 X168.28 Y173.848 E0.06849
G1 X167.954 Y174.3 E0.02672
G1 X167.033 Y175.451 E0.07074
G1 X166.679 Y175.828 E0.0248
G1 X165.633 Y176.839 E0.06982
G1 X165.23 Y177.172 E0.02506
G1 X164.085 Y178.026 E0.06854
G1 X163.617 Y178.325 E0.02667
G1 X162.334 Y179.046 E0.07059
G1 X161.862 Y179.267 E0.02501
G1 X160.516 Y179.811 E0.06966
G1 X160.017 Y179.973 E0.02517
G1 X158.635 Y180.335 E0.0686
G1 X158.09 Y180.44 E0.02662
G1 X156.634 Y180.627 E0.07043
G1 X156.118 Y180.658 E0.02479
G1 X154.679 Y180.658 E0.06907
G1 X154.126 Y180.623 E0.0266
G1 X152.708 Y180.44 E0.06862
G1 X152.163 Y180.335 E0.02662
G1 X150.78 Y179.973 E0.0686
G1 X150.281 Y179.811 E0.02517
G1 X148.935 Y179.267 E0.06966
G1 X148.463 Y179.046 E0.02501
G1 X147.187 Y178.329 E0.07022
G1 X146.748 Y178.051 E0.02494
G1 X145.573 Y177.176 E0.07029
G1 X145.139 Y176.816 E0.02703
G1 X144.114 Y175.823 E0.06853
G1 X143.764 Y175.451 E0.02447
G1 X142.848 Y174.305 E0.07043
G1 X142.544 Y173.888 E0.02473
G1 X141.781 Y172.633 E0.0705
G1 X141.511 Y172.139 E0.02703
G1 X140.933 Y170.834 E0.06847
G1 X140.742 Y170.351 E0.02492
G1 X140.325 Y168.952 E0.07004
G1 X140.198 Y168.457 E0.02451
G1 X139.96 Y167.003 E0.07072
G1 X139.892 Y166.438 E0.02731
G1 X139.846 Y164.513 E0.09239
G1 X140.049 Y162.541 E0.09512
G1 X140.375 Y161.101 E0.07086
G1 X140.519 Y160.552 E0.02724
G1 X141.196 Y158.748 E0.09243
G1 X142.12 Y156.994 E0.09515
G1 X142.964 Y155.78 E0.07092
G1 X143.299 Y155.325 E0.02711
G1 X144.627 Y153.879 E0.09424
G1 X146.114 Y152.622 E0.09342
G1 X147.351 Y151.814 E0.0709
G1 X147.769 Y151.553 E0.02366
G1 X148.071 Y152.04 F9000
G1 F1950
G1 X149.793 Y151.215 E0.0916
G1 X149.81 Y151.208 E0.00088
G1 X151.607 Y150.614 E0.09081
G1 X151.625 Y150.61 E0.00088
G1 X153.483 Y150.25 E0.09081
G1 X153.501 Y150.247 E0.00088
G1 X155.389 Y150.127 E0.09081
G1 X155.408 Y150.127 E0.00088
G1 X155.887 Y150.157 E0.02305
G1 X157.297 Y150.247 E0.06778
G1 X157.315 Y150.25 E0.00088
G1 X159.173 Y150.61 E0.09081
G1 X159.19 Y150.614 E0.00088
G1 X160.988 Y151.208 E0.09081
G1 X161.005 Y151.215 E0.00088
G1 X162.711 Y152.032 E0.09081
G1 X162.728 Y152.041 E0.00088
G1 X164.33 Y153.078 E0.09158
G1 X164.701 Y153.386 E0.02315
G1 X165.777 Y154.302 E0.06781
G1 X165.79 Y154.314 E0.00086
G1 X167.068 Y155.71 E0.0908
G1 X167.08 Y155.724 E0.00088
G1 X168.169 Y157.27 E0.09075
G1 X168.411 Y157.707 E0.02398
G1 X169.064 Y158.961 E0.06783
G1 X169.072 Y158.977 E0.00085
G1 X169.736 Y160.748 E0.09079
G1 X169.741 Y160.766 E0.00088
G1 X170.177 Y162.621 E0.09146
G1 X170.238 Y163.102 E0.02327
G1 X170.374 Y164.51 E0.06785
G1 X170.329 Y166.418 E0.09161
G1 X170.327 Y166.437 E0.00088
G1 X170.039 Y168.319 E0.09139
