; generated by SuperSlicer 2.5.59 on 2023-03-19 at 13:22:45 UTC


;
;

;
;
; 

; external perimeters extrusion width = 0.45mm
; perimeters extrusion width = 0.45mm
; infill extrusion width = 0.45mm
; solid infill extrusion width = 0.45mm
; top infill extrusion width = 0.45mm
; first layer extrusion width = 0.60mm

; object:{"name":"[a]_fan_grill_retainer_x2","id":"[a]_fan_grill_retainer_x2.stl id:0 copy 0","object_center":[117.000000,148.500000,0.000000],"boundingbox_center":[117.000000,148.500000,2.500000],"boundingbox_size":[60.000000,60.000000,5.000000]}
EXCLUDE_OBJECT_DEFINE NAME=_a__fan_grill_retainer_x2_stl_id_0_copy_0 CENTER=117.000000,148.500000 POLYGON=[[87.000000,123.000000],[87.015368,122.628400],[87.061368,122.259320],[87.137696,121.895328],[87.243824,121.538848],[87.379024,121.192368],[87.542368,120.858248],[87.732752,120.538744],[87.948872,120.236056],[88.189240,119.952240],[88.452232,119.689240],[88.736040,119.448872],[89.038736,119.232760],[89.358232,119.042376],[89.692368,118.879032],[90.038848,118.743824],[90.395312,118.637696],[90.759320,118.561368],[91.128384,118.515384],[91.500000,118.500000],[142.500000,118.500000],[142.871616,118.515384],[143.240672,118.561368],[143.604672,118.637712],[143.961152,118.743824],[144.307632,118.879032],[144.641776,119.042376],[144.961280,119.232760],[145.263968,119.448872],[145.547760,119.689256],[145.810768,119.952240],[146.051152,120.236056],[146.267248,120.538744],[146.457648,120.858248],[146.620992,121.192384],[146.756176,121.538864],[146.862304,121.895328],[146.938624,122.259336],[146.984640,122.628400],[147.000000,123.000016],[147.000000,174.000016],[146.984624,174.371632],[146.938624,174.740688],[146.862304,175.104704],[146.756160,175.461168],[146.620976,175.807648],[146.457632,176.141792],[146.267248,176.461296],[146.051120,176.763984],[145.810768,177.047776],[145.547760,177.310784],[145.263952,177.551152],[144.961264,177.767264],[144.641760,177.957648],[144.307616,178.120992],[143.961152,178.256176],[143.604672,178.362304],[143.240672,178.438624],[142.871616,178.484640],[142.500000,178.500000],[91.500000,178.500000],[91.128384,178.484640],[90.759320,178.438624],[90.395320,178.362304],[90.038848,178.256176],[89.692376,178.120992],[89.358240,177.957648],[89.038744,177.767264],[88.736048,177.551152],[88.452240,177.310784],[88.189248,177.047776],[87.948872,176.763984],[87.732760,176.461296],[87.542376,176.141792],[87.379032,175.807648],[87.243824,175.461168],[87.137704,175.104704],[87.061368,174.740688],[87.015368,174.371632],[87.000000,174.000016],[87.000000,123.000000]]
; object:{"name":"[a]_fan_grill_retainer_x2","id":"[a]_fan_grill_retainer_x2.stl id:0 copy 1","object_center":[183.000000,148.500001,0.000000],"boundingbox_center":[183.000000,148.500001,2.500000],"boundingbox_size":[60.000000,60.000000,5.000000]}
EXCLUDE_OBJECT_DEFINE NAME=_a__fan_grill_retainer_x2_stl_id_0_copy_1 CENTER=183.000000,148.500001 POLYGON=[[153.000000,123.000000],[153.015360,122.628400],[153.061376,122.259320],[153.137696,121.895328],[153.243824,121.538848],[153.379024,121.192368],[153.542352,120.858248],[153.732752,120.538744],[153.948864,120.236056],[154.189232,119.952240],[154.452240,119.689240],[154.736032,119.448872],[155.038720,119.232760],[155.358224,119.042376],[155.692368,118.879032],[156.038848,118.743824],[156.395312,118.637696],[156.759328,118.561368],[157.128384,118.515384],[157.500000,118.500000],[208.500000,118.500000],[208.871616,118.515384],[209.240672,118.561368],[209.604672,118.637712],[209.961152,118.743824],[210.307632,118.879032],[210.641776,119.042376],[210.961280,119.232760],[211.263968,119.448872],[211.547760,119.689256],[211.810768,119.952240],[212.051152,120.236056],[212.267248,120.538744],[212.457648,120.858248],[212.620992,121.192384],[212.756176,121.538864],[212.862304,121.895328],[212.938624,122.259336],[212.984640,122.628400],[213.000000,123.000016],[213.000000,174.000016],[212.984624,174.371632],[212.938624,174.740688],[212.862304,175.104704],[212.756160,175.461168],[212.620976,175.807648],[212.457632,176.141792],[212.267248,176.461296],[212.051120,176.763984],[211.810768,177.047776],[211.547760,177.310784],[211.263952,177.551152],[210.961264,177.767264],[210.641760,177.957648],[210.307616,178.120992],[209.961152,178.256176],[209.604672,178.362304],[209.240672,178.438624],[208.871616,178.484640],[208.500000,178.500000],[157.500000,178.500000],[157.128384,178.484640],[156.759328,178.438624],[156.395328,178.362304],[156.038848,178.256176],[155.692384,178.120992],[155.358240,177.957648],[155.038736,177.767264],[154.736048,177.551152],[154.452240,177.310784],[154.189232,177.047776],[153.948864,176.763984],[153.732752,176.461296],[153.542368,176.141792],[153.379024,175.807648],[153.243824,175.461168],[153.137696,175.104704],[153.061376,174.740688],[153.015360,174.371632],[153.000000,174.000016],[153.000000,123.000000]]
; plater:{"center":[150.000000,148.500000,0.000000],"boundingbox_center":[150.000000,148.500000,2.500000],"boundingbox_size":[126.000000,60.000001,5.000000]}

;TYPE:Custom
M104 S0 ; Stops SuperSlicer from sending temp waits separately

M109 S0

M140 S0

print_start EXTRUDER=250 BED=105 CHAMBER=0
G21 ; set units to millimeters
G90 ; use absolute coordinates
M82 ; use absolute distances for extrusion
G92 E0
; Filament gcode
;_TOOLCHANGE 0
M107
;LAYER_CHANGE
;Z:0.21875
;HEIGHT:0.21875
TIMELAPSE_TAKE_FRAME
;BEFORE_LAYER_CHANGE
;0.21875


G1 E-0.8 F2400
G1 Z0.2 F8700
G1 Z0.21875
;AFTER_LAYER_CHANGE
;0.21875
G92 E0
G1 Z0.41875
G1 X86.675 Y117.328
G1 Z0.21875
G1 E0.8 F2400
;TYPE:Skirt
;WIDTH:0.54
G1 F1950
G1 X86.109 Y117.862 E0.8349
G1 X85.415 Y118.706 E0.88388
G1 X84.616 Y120.165 E0.95847
G1 X84.179 Y121.631 E1.02709
G1 X84.051 Y122.978 E1.08777
G1 X84.054 Y174.118 E3.38092
G1 X84.203 Y175.485 E3.4426
G1 X84.521 Y176.601 E3.49461
G1 X85.069 Y177.756 E3.55195
G1 X85.828 Y178.825 E3.61075
G1 X86.362 Y179.391 E3.64565
G1 X87.206 Y180.085 E3.69463
G1 X88.665 Y180.884 E3.76922
G1 X90.131 Y181.321 E3.83784
G1 X91.479 Y181.449 E3.89852
G1 X208.521 Y181.449 E9.14688
G1 X209.826 Y181.326 E9.20565
G1 X211.101 Y180.979 E9.26487
G1 X212.256 Y180.431 E9.3222
G1 X213.325 Y179.672 E9.381
G1 X213.891 Y179.138 E9.4159
G1 X214.585 Y178.294 E9.46488
G1 X215.384 Y176.835 E9.53947
G1 X215.821 Y175.369 E9.60809
G1 X215.949 Y174.022 E9.66877
G1 X215.946 Y122.882 E11.96192
G1 X215.821 Y121.631 E12.0183
G1 X215.479 Y120.399 E12.07563
G1 X214.931 Y119.244 E12.13297
G1 X214.172 Y118.175 E12.19177
G1 X213.152 Y117.184 E12.25554
G1 X211.69 Y116.27 E12.33284
G1 X210.492 Y115.823 E12.39018
G1 X209.045 Y115.572 E12.45603
G1 X157.479 Y115.551 E14.76835
G1 X91.382 Y115.554 E17.73219
G1 X90.015 Y115.703 E17.79387
G1 X88.899 Y116.021 E17.84589
G1 X87.744 Y116.569 E17.90322
G1 X86.724 Y117.293 E17.95933
G1 X87.008 Y117.691 F8700
G1 F1950
G1 X86.476 Y118.191 E17.99208
G1 X85.809 Y119.002 E18.03916
G1 X85.062 Y120.374 E18.10922
G1 X84.66 Y121.736 E18.1729
G1 X84.544 Y122.978 E18.22884
G1 X84.546 Y174.097 E20.52104
G1 X84.684 Y175.379 E20.57886
G1 X84.977 Y176.415 E20.62715
G1 X85.487 Y177.495 E20.68069
G1 X86.191 Y178.492 E20.73543
G1 X86.691 Y179.024 E20.76818
G1 X87.502 Y179.691 E20.81527
G1 X88.874 Y180.438 E20.88532
G1 X90.236 Y180.84 E20.949
G1 X91.479 Y180.956 E21.00494
G1 X208.521 Y180.956 E26.2533
G1 X209.755 Y180.838 E26.30885
G1 X210.915 Y180.523 E26.36276
G1 X211.995 Y180.013 E26.4163
G1 X212.992 Y179.309 E26.47104
G1 X213.524 Y178.809 E26.5038
G1 X214.191 Y177.998 E26.55088
G1 X214.938 Y176.626 E26.62094
G1 X215.34 Y175.264 E26.68462
G1 X215.456 Y174.022 E26.74056
G1 X215.454 Y122.903 E29.03276
G1 X215.34 Y121.736 E29.08534
G1 X215.023 Y120.585 E29.13888
G1 X214.513 Y119.505 E29.19242
G1 X213.809 Y118.508 E29.24717
G1 X212.856 Y117.578 E29.3069
G1 X211.466 Y116.709 E29.38041
G1 X210.346 Y116.294 E29.43395
G1 X209.024 Y116.064 E29.49413
G1 X157.479 Y116.044 E31.80548
G1 X91.404 Y116.046 E34.76837
G1 X90.122 Y116.184 E34.82619
G1 X89.085 Y116.477 E34.87449
G1 X88.005 Y116.987 E34.92803
G1 X87.057 Y117.656 E34.98008
G92 E0
G1 E-0.8 F2400
G1 Z0.41875 F8700
G1 X153.03 Y122.621
G1 Z0.21875
G1 E0 F2400
;WIDTH:0.6
;HEIGHT:0.22
G1 F1950
G1 X153.079 Y122.239 E0.01948
G1 X153.161 Y121.861 E0.03902
G1 X153.32 Y121.377 E0.06478
G1 X153.591 Y120.8 E0.09703
G1 X153.799 Y120.467 E0.11686
G1 X154.037 Y120.149 E0.13694
G1 X154.296 Y119.861 E0.15654
G1 X154.647 Y119.539 E0.18063
G1 X154.957 Y119.305 E0.20024
G1 X155.283 Y119.101 E0.21972
G1 X155.626 Y118.925 E0.2392
G1 X155.983 Y118.779 E0.25868
G1 X156.362 Y118.661 E0.27873
G1 X156.636 Y118.601 E0.29292
G1 X157.12 Y118.53 E0.31766
G1 X157.497 Y118.514 E0.33675
G1 X208.611 Y118.519 E2.92111
G1 X208.891 Y118.531 E2.93529
G1 X209.261 Y118.579 E2.95417
G1 X209.638 Y118.661 E2.97365
G1 X210.006 Y118.775 E2.99313
G1 X210.363 Y118.92 E3.01262
G1 X210.706 Y119.095 E3.0321
G1 X211.033 Y119.299 E3.05158
G1 X211.341 Y119.53 E3.07106
G1 X211.629 Y119.787 E3.09058
G1 X211.961 Y120.147 E3.11535
G1 X212.195 Y120.457 E3.13496
G1 X212.405 Y120.794 E3.15504
G1 X212.58 Y121.137 E3.17452
G1 X212.725 Y121.494 E3.194
G1 X212.839 Y121.862 E3.21349
G1 X212.919 Y122.227 E3.23237
G1 X212.969 Y122.609 E3.25185
G1 X212.986 Y122.997 E3.27148
G1 X212.986 Y174.009 E5.85069
G1 X212.969 Y174.391 E5.87003
G1 X212.919 Y174.773 E5.88951
G1 X212.835 Y175.152 E5.90915
G1 X212.68 Y175.623 E5.93421
G1 X212.409 Y176.2 E5.96645
G1 X212.201 Y176.533 E5.98628
G1 X211.97 Y176.841 E6.00576
G1 X211.713 Y177.129 E6.02528
G1 X211.353 Y177.461 E6.05006
G1 X211.043 Y177.695 E6.06966
G1 X210.706 Y177.905 E6.08975
G1 X210.363 Y178.08 E6.10923
G1 X210.006 Y178.225 E6.12871
G1 X209.65 Y178.336 E6.14758
G1 X209.374 Y178.397 E6.16184
G1 X208.894 Y178.468 E6.18636
G1 X208.503 Y178.486 E6.20617
G1 X157.491 Y178.486 E8.78538
G1 X157.109 Y178.469 E8.80472
G1 X156.727 Y178.419 E8.8242
G1 X156.348 Y178.335 E8.84384
G1 X155.877 Y178.18 E8.8689
G1 X155.3 Y177.909 E8.90114
G1 X154.967 Y177.701 E8.92097
G1 X154.659 Y177.47 E8.94045
G1 X154.371 Y177.213 E8.95997
G1 X154.039 Y176.853 E8.98475
G1 X153.805 Y176.543 E9.00435
G1 X153.601 Y176.217 E9.02383
G1 X153.42 Y175.863 E9.04392
G1 X153.275 Y175.506 E9.0634
G1 X153.164 Y175.15 E9.08227
G1 X153.103 Y174.874 E9.09653
G1 X153.032 Y174.394 E9.12105
G1 X153.014 Y174.009 E9.14056
G1 X153.014 Y122.997 E11.71977
G1 X153.028 Y122.681 E11.73577
G92 E0
G1 E-0.8 F2400
G1 Z0.41875 F8700
G1 X146.983 Y122.941
G1 Z0.21875
G1 E0 F2400
G1 F1950
G1 X146.986 Y122.997 E0.00284
G1 X146.986 Y174.009 E2.58205
G1 X146.969 Y174.391 E2.60138
G1 X146.919 Y174.773 E2.62086
G1 X146.835 Y175.152 E2.64051
G1 X146.68 Y175.623 E2.66556
G1 X146.409 Y176.2 E2.6978
G1 X146.201 Y176.533 E2.71763
G1 X145.963 Y176.851 E2.73772
G1 X145.704 Y177.139 E2.75731
G1 X145.353 Y177.461 E2.78141
G1 X145.043 Y177.695 E2.80102
G1 X144.706 Y177.905 E2.8211
G1 X144.363 Y178.08 E2.84058
G1 X144.006 Y178.225 E2.86006
G1 X143.65 Y178.336 E2.87893
G1 X143.374 Y178.397 E2.89319
G1 X142.894 Y178.468 E2.91772
G1 X142.503 Y178.486 E2.93753
G1 X91.491 Y178.486 E5.51674
G1 X91.109 Y178.469 E5.53607
G1 X90.727 Y178.419 E5.55555
G1 X90.348 Y178.335 E5.5752
G1 X89.877 Y178.18 E5.60025
G1 X89.3 Y177.909 E5.63249
G1 X88.967 Y177.701 E5.65232
G1 X88.649 Y177.463 E5.6724
G1 X88.361 Y177.204 E5.692
G1 X88.039 Y176.853 E5.7161
G1 X87.805 Y176.543 E5.7357
G1 X87.601 Y176.217 E5.75519
G1 X87.42 Y175.863 E5.77527
G1 X87.275 Y175.506 E5.79475
G1 X87.164 Y175.15 E5.81362
G1 X87.103 Y174.874 E5.82788
G1 X87.032 Y174.394 E5.85241
G1 X87.014 Y174.003 E5.87222
G1 X87.014 Y122.991 E8.45143
G1 X87.031 Y122.609 E8.47076
G1 X87.081 Y122.227 E8.49024
G1 X87.165 Y121.848 E8.50989
G1 X87.32 Y121.377 E8.53494
G1 X87.591 Y120.8 E8.56718
G1 X87.799 Y120.467 E8.58702
G1 X88.037 Y120.149 E8.6071
G1 X88.296 Y119.861 E8.62669
G1 X88.647 Y119.539 E8.65079
G1 X88.957 Y119.305 E8.6704
G1 X89.294 Y119.095 E8.69048
G1 X89.637 Y118.92 E8.70996
G1 X89.994 Y118.775 E8.72944
G1 X90.35 Y118.664 E8.74831
G1 X90.626 Y118.603 E8.76257
G1 X91.106 Y118.532 E8.7871
G1 X91.491 Y118.514 E8.80661
G1 X142.605 Y118.518 E11.39096
G1 X142.879 Y118.53 E11.40485
G1 X143.261 Y118.579 E11.42433
G1 X143.638 Y118.661 E11.44381
G1 X144.017 Y118.779 E11.46389
G1 X144.374 Y118.925 E11.48337
G1 X144.717 Y119.101 E11.50286
G1 X145.043 Y119.305 E11.52234
G1 X145.351 Y119.537 E11.54182
G1 X145.639 Y119.796 E11.56142
G1 X145.961 Y120.147 E11.58551
G1 X146.195 Y120.457 E11.60512
G1 X146.405 Y120.794 E11.6252
G1 X146.58 Y121.137 E11.64468
G1 X146.725 Y121.494 E11.66416
G1 X146.839 Y121.862 E11.68365
G1 X146.921 Y122.239 E11.70313
G1 X146.969 Y122.609 E11.72201
G1 X146.981 Y122.881 E11.73577
M104 S250 ; set temperature
G92 E0
G1 E-0.8 F2400
G1 Z0.41875 F8700
; printing object [a]_fan_grill_retainer_x2.stl id:0 copy 0
EXCLUDE_OBJECT_START NAME=_a__fan_grill_retainer_x2_stl_id_0_copy_0
G1 X146.301 Y149.855
G1 Z0.21875
G1 E0 F2400
;TYPE:External perimeter
;HEIGHT:0.21875
G1 F2100
G1 X146.409 Y149.857 E0.00543
G1 X146.409 Y173.994 E1.21944
G1 X146.395 Y174.335 E1.23665
G1 X146.351 Y174.668 E1.25354
G1 X146.28 Y174.994 E1.27031
G1 X146.147 Y175.402 E1.2919
G1 X145.898 Y175.931 E1.32131
G1 X145.723 Y176.212 E1.33794
G1 X145.521 Y176.48 E1.35483
G1 X145.298 Y176.729 E1.37163
G1 X144.979 Y177.022 E1.39345
G1 X144.712 Y177.223 E1.41024
G1 X144.427 Y177.401 E1.42713
G1 X144.128 Y177.554 E1.44402
G1 X143.817 Y177.68 E1.4609
G1 X143.496 Y177.78 E1.47781
G1 X142.833 Y177.895 E1.51166
G1 X142.494 Y177.909 E1.52875
G1 X118.365 Y177.909 E2.74236
G1 X118.364 Y177.855 E2.74508
;TYPE:Thin wall
;WIDTH:0.042157
G1 X118.264 Y177.858
;WIDTH:0.379411
G1 X118.124 Y177.862 E2.74937
;WIDTH:0.615209
G1 X115.821 Y177.861 E2.86934
;WIDTH:0.380631
G1 X115.681 Y177.858 E2.87365
;WIDTH:0.042292
G1 X115.821 Y177.861 E2.87413
;WIDTH:0.068357
G1 X118.124 Y177.862 E2.88746
;WIDTH:0.042157
G1 X118.264 Y177.858 E2.88794
;WIDTH:0.421567
G1 X118.364 Y177.855
;TYPE:External perimeter
;WIDTH:0.6
G1 X118.362 Y177.802 E2.89065
G1 X119.142 Y177.762 E2.92994
G1 X120.865 Y177.584 E3.01703
G1 X122.128 Y177.388 E3.08132
G1 X123.823 Y177.036 E3.16841
G1 X125.057 Y176.712 E3.23258
G1 X125.759 Y176.502 E3.26943
G1 X126.711 Y176.186 E3.31986
G1 X127.652 Y175.838 E3.37037
G1 X128.829 Y175.349 E3.43444
G1 X129.496 Y175.046 E3.47129
G1 X130.396 Y174.604 E3.52172
G1 X131.281 Y174.13 E3.57223
G1 X132.38 Y173.485 E3.6363
G1 X132.999 Y173.094 E3.67315
G1 X133.831 Y172.533 E3.72362
G1 X134.858 Y171.779 E3.78769
G1 X135.434 Y171.326 E3.82454
G1 X136.204 Y170.683 E3.87502
G1 X137.148 Y169.828 E3.93908
G1 X137.675 Y169.318 E3.97594
G1 X138.375 Y168.599 E4.02641
G1 X139.226 Y167.652 E4.09048
G1 X139.698 Y167.092 E4.12733
G1 X140.321 Y166.304 E4.17781
G1 X141.071 Y165.275 E4.24188
G1 X141.483 Y164.669 E4.27872
G1 X142.021 Y163.822 E4.3292
G1 X142.662 Y162.722 E4.39327
G1 X143.01 Y162.077 E4.43011
G1 X143.459 Y161.18 E4.48056
G1 X143.877 Y160.267 E4.53107
G1 X144.361 Y159.089 E4.59513
G1 X144.618 Y158.403 E4.63197
G1 X144.941 Y157.454 E4.68242
G1 X145.231 Y156.492 E4.73293
G1 X145.55 Y155.259 E4.79699
G1 X145.711 Y154.545 E4.83383
G1 X145.901 Y153.559 E4.88432
G1 X146.092 Y152.3 E4.94838
G1 X146.179 Y151.572 E4.98523
G1 X146.267 Y150.572 E5.03572
G1 X146.299 Y149.915 E5.06884
;WIPE_START
G1 X146.641 Y150.066 F8700
;WIPE_END
G92 E0
G1 E-0.8 F2400
G1 Z0.41875 F8700
G1 X143.611 Y176.261
G1 Z0.21875
G1 E0 F2400
G1 F2100
G1 X143.895 Y176.082 E0.01691
G1 X144.319 Y175.713 E0.04517
G1 X144.536 Y175.457 E0.06207
G1 X144.721 Y175.18 E0.07881
G1 X144.902 Y174.815 E0.09928
G1 X144.99 Y174.58 E0.1119
G1 X145.072 Y174.262 E0.12845
G1 X145.118 Y173.935 E0.14505
G1 X145.127 Y173.605 E0.16165
G1 X145.1 Y173.276 E0.17825
G1 X145.035 Y172.952 E0.19485
G1 X144.935 Y172.639 E0.21138
G1 X144.834 Y172.409 E0.22402
G1 X144.634 Y172.055 E0.24449
G1 X144.433 Y171.789 E0.26122
G1 X144.202 Y171.546 E0.27812
G1 X143.758 Y171.201 E0.30638
G1 X143.464 Y171.038 E0.32329
G1 X143.159 Y170.912 E0.33989
G1 X142.842 Y170.82 E0.35649
G1 X142.517 Y170.765 E0.37309
G1 X142.188 Y170.746 E0.38968
G1 X141.937 Y170.76 E0.40229
G1 X141.536 Y170.819 E0.4227
