; generated by SuperSlicer 2.5.59 on 2023-03-26 at 20:19:29 UTC


;
;

;
;
; 

; external perimeters extrusion width = 0.45mm
; perimeters extrusion width = 0.45mm
; infill extrusion width = 0.45mm
; solid infill extrusion width = 0.45mm
; top infill extrusion width = 0.45mm
; support material extrusion width = 0.40mm
; first layer extrusion width = 0.60mm

; object:{"name":"[a]_exhaust_fan_grill 2","id":"[a]_exhaust_fan_grill 2.4.stl id:0 copy 0","object_center":[117.000000,148.500000,0.000000],"boundingbox_center":[117.000000,148.500000,1.599998],"boundingbox_size":[60.000000,60.000000,3.199997]}
EXCLUDE_OBJECT_DEFINE NAME=_a__exhaust_fan_grill_2_4_stl_id_0_copy_0 CENTER=117.000000,148.500000 POLYGON=[[87.000000,123.000000],[87.015368,122.628384],[87.061368,122.259320],[87.137696,121.895312],[87.243824,121.538848],[87.379024,121.192368],[87.542368,120.858232],[87.732752,120.538728],[87.948872,120.236040],[88.189240,119.952224],[88.452232,119.689240],[88.736040,119.448872],[89.038736,119.232744],[89.358232,119.042360],[89.692368,118.879016],[90.038848,118.743824],[90.395312,118.637696],[90.759320,118.561368],[91.128384,118.515368],[91.500000,118.500000],[142.500000,118.500000],[142.871616,118.515368],[143.240672,118.561368],[143.604672,118.637696],[143.961152,118.743824],[144.307632,118.879016],[144.641760,119.042360],[144.961280,119.232744],[145.263968,119.448872],[145.547760,119.689240],[145.810768,119.952224],[146.051152,120.236040],[146.267248,120.538728],[146.457648,120.858232],[146.620992,121.192384],[146.756176,121.538848],[146.862304,121.895312],[146.938624,122.259320],[146.984640,122.628400],[147.000000,123.000000],[147.000000,174.000000],[146.984624,174.371616],[146.938624,174.740672],[146.862304,175.104688],[146.756176,175.461136],[146.620976,175.807632],[146.457648,176.141760],[146.267248,176.461280],[146.051136,176.763952],[145.810768,177.047760],[145.547760,177.310768],[145.263952,177.551136],[144.961280,177.767248],[144.641760,177.957632],[144.307632,178.120976],[143.961152,178.256160],[143.604672,178.362288],[143.240672,178.438608],[142.871616,178.484624],[142.500000,178.500000],[91.500000,178.500000],[91.128384,178.484624],[90.759320,178.438608],[90.395312,178.362288],[90.038848,178.256160],[89.692368,178.120976],[89.358232,177.957632],[89.038736,177.767248],[88.736048,177.551136],[88.452240,177.310768],[88.189240,177.047760],[87.948872,176.763968],[87.732760,176.461280],[87.542376,176.141776],[87.542368,176.141760],[87.379024,175.807616],[87.243824,175.461152],[87.137696,175.104672],[87.061368,174.740672],[87.015368,174.371616],[87.000000,174.000000],[87.000000,123.000000]]
; object:{"name":"[a]_exhaust_fan_grill 2","id":"[a]_exhaust_fan_grill 2.4.stl id:0 copy 1","object_center":[183.000000,148.500000,0.000000],"boundingbox_center":[183.000000,148.500000,1.599998],"boundingbox_size":[60.000000,60.000000,3.199997]}
EXCLUDE_OBJECT_DEFINE NAME=_a__exhaust_fan_grill_2_4_stl_id_0_copy_1 CENTER=183.000000,148.500000 POLYGON=[[153.000000,123.000000],[153.015360,122.628384],[153.061376,122.259320],[153.137696,121.895312],[153.243824,121.538848],[153.379024,121.192368],[153.542352,120.858232],[153.732752,120.538728],[153.948864,120.236040],[154.189232,119.952224],[154.452240,119.689240],[154.736032,119.448872],[155.038720,119.232744],[155.358224,119.042360],[155.692368,118.879016],[156.038848,118.743824],[156.395312,118.637696],[156.759328,118.561368],[157.128384,118.515368],[157.500000,118.500000],[208.500000,118.500000],[208.871616,118.515368],[209.240672,118.561368],[209.604672,118.637696],[209.961152,118.743824],[210.307632,118.879016],[210.641760,119.042360],[210.961280,119.232744],[211.263968,119.448872],[211.547760,119.689240],[211.810768,119.952224],[212.051152,120.236040],[212.267248,120.538728],[212.457648,120.858232],[212.620992,121.192384],[212.756176,121.538848],[212.862304,121.895312],[212.938624,122.259320],[212.984640,122.628400],[213.000000,123.000000],[213.000000,174.000000],[212.984624,174.371616],[212.938624,174.740672],[212.862304,175.104688],[212.756176,175.461136],[212.620976,175.807632],[212.457648,176.141760],[212.267248,176.461280],[212.051136,176.763952],[211.810768,177.047760],[211.547760,177.310768],[211.263952,177.551136],[210.961280,177.767248],[210.641760,177.957632],[210.307632,178.120976],[209.961152,178.256160],[209.604672,178.362288],[209.240672,178.438608],[208.871616,178.484624],[208.500000,178.500000],[157.500000,178.500000],[157.128384,178.484624],[156.759328,178.438608],[156.395312,178.362288],[156.038848,178.256160],[155.692368,178.120976],[155.358224,177.957632],[155.038720,177.767248],[154.736048,177.551136],[154.452240,177.310768],[154.189232,177.047760],[153.948864,176.763968],[153.732752,176.461280],[153.542352,176.141760],[153.379024,175.807632],[153.243824,175.461152],[153.137696,175.104688],[153.061376,174.740672],[153.015360,174.371616],[153.000000,174.000000],[153.000000,123.000000]]
; plater:{"center":[150.000000,148.500000,0.000000],"boundingbox_center":[150.000000,148.500000,1.599998],"boundingbox_size":[126.000000,60.000000,3.199997]}

;TYPE:Custom
SET_PRINT_STATS_INFO TOTAL_LAYER=14

M104 S0 ; Stops SuperSlicer from sending temp waits separately

M109 S0

M140 S0

print_start EXTRUDER=255 BED=108 CHAMBER=0
G21 ; set units to millimeters
G90 ; use absolute coordinates
M82 ; use absolute distances for extrusion
G92 E0
; Filament gcode
;_TOOLCHANGE 0
M107
;LAYER_CHANGE
;Z:0.23125
;HEIGHT:0.23125
TIMELAPSE_TAKE_FRAME
;BEFORE_LAYER_CHANGE
;0.23125


G1 E-0.8 F2100
G1 Z0.2 F9000
G1 Z0.23125
SET_PRINT_STATS_INFO CURRENT_LAYER=1
;AFTER_LAYER_CHANGE
;0.23125
G92 E0
G1 Z0.43125
G1 X87.176 Y116.448
G1 Z0.23125
G1 E0.8 F2100
;TYPE:Skirt
;WIDTH:0.54
G1 F2250
G1 X85.893 Y117.504 E0.87833
G1 X85.349 Y118.119 E0.91702
G1 X84.629 Y119.199 E0.97824
G1 X83.962 Y120.803 E1.06011
G1 X83.774 Y121.6 E1.09876
G1 X83.65 Y122.873 E1.15902
G1 X82.782 Y147.385 E2.31541
G1 X82.781 Y149.572 E2.41849
G1 X83.675 Y174.653 E3.60173
G1 X84.026 Y176.407 E3.68606
G1 X84.52 Y177.596 E3.74677
G1 X84.948 Y178.324 E3.78659
G1 X86.004 Y179.607 E3.86491
G1 X87.237 Y180.594 E3.93936
G1 X88.376 Y181.204 E4.0003
G1 X89.087 Y181.472 E4.03609
G1 X90.64 Y181.805 E4.11097
G1 X115.928 Y182.719 E5.30401
G1 X184.072 Y182.719 E8.51668
G1 X209.153 Y181.825 E9.69992
G1 X210.907 Y181.474 E9.78426
G1 X212.096 Y180.98 E9.84495
G1 X212.824 Y180.552 E9.88478
G1 X214.107 Y179.496 E9.96311
G1 X214.651 Y178.881 E10.0018
G1 X215.371 Y177.801 E10.06301
G1 X216.038 Y176.197 E10.1449
G1 X216.226 Y175.4 E10.18353
G1 X216.349 Y174.156 E10.24247
G1 X217.236 Y148.464 E11.45445
G1 X216.348 Y122.817 E12.6643
G1 X216.185 Y121.392 E12.73194
G1 X215.707 Y119.882 E12.80661
G1 X215.357 Y119.174 E12.84383
G1 X214.65 Y118.118 E12.90376
G1 X213.381 Y116.849 E12.98834
G1 X212.738 Y116.39 E13.0256
G1 X211.619 Y115.794 E13.08538
G1 X209.9 Y115.274 E13.17006
G1 X208.627 Y115.15 E13.23034
G1 X183.095 Y114.265 E14.43478
G1 X115.933 Y114.281 E17.60122
G1 X90.847 Y115.175 E18.78466
G1 X89.093 Y115.526 E18.86899
G1 X87.904 Y116.02 E18.9297
G1 X87.227 Y116.418 E18.96669
G1 X87.477 Y116.84 F9000
G1 F2250
G1 X87.431 Y116.867 E18.96919
G1 X86.256 Y117.834 E19.04097
G1 X85.327 Y118.989 E19.11083
G1 X84.739 Y120.087 E19.16955
G1 X84.489 Y120.754 E19.20312
G1 X84.181 Y122.21 E19.27332
G1 X83.272 Y147.403 E20.46181
G1 X83.272 Y149.597 E20.56528
G1 X84.165 Y174.63 E21.74619
G1 X84.488 Y176.242 E21.82372
G1 X84.965 Y177.389 E21.8823
G1 X85.367 Y178.069 E21.91951
G1 X86.334 Y179.244 E21.99128
G1 X87.489 Y180.173 E22.06114
G1 X88.587 Y180.761 E22.11986
G1 X89.253 Y181.01 E22.15343
G1 X90.71 Y181.319 E22.22363
G1 X115.936 Y182.229 E23.41371
G1 X184.064 Y182.229 E26.62563
G1 X209.13 Y181.335 E27.80813
G1 X210.742 Y181.012 E27.88565
G1 X211.889 Y180.535 E27.94423
G1 X212.569 Y180.133 E27.98144
G1 X213.744 Y179.166 E28.05322
G1 X214.256 Y178.59 E28.08955
G1 X214.95 Y177.549 E28.14854
G1 X215.562 Y176.078 E28.22365
G1 X215.741 Y175.329 E28.25994
G1 X215.859 Y174.132 E28.31665
G1 X216.745 Y148.472 E29.52715
G1 X215.858 Y122.845 E30.73606
G1 X215.709 Y121.509 E30.79946
G1 X215.263 Y120.093 E30.86945
G1 X214.938 Y119.43 E30.90423
G1 X214.256 Y118.41 E30.9621
G1 X213.09 Y117.244 E31.03984
G1 X212.49 Y116.813 E31.07466
G1 X211.409 Y116.238 E31.13238
G1 X209.829 Y115.759 E31.21022
G1 X208.61 Y115.64 E31.26797
G1 X183.087 Y114.755 E32.47198
G1 X115.94 Y114.771 E35.63769
G1 X90.87 Y115.665 E36.82036
G1 X89.258 Y115.988 E36.89788
G1 X88.111 Y116.465 E36.95646
G1 X87.529 Y116.809 E36.98835
G92 E0
G1 E-0.8 F2100
G1 Z0.43125 F9000
G1 X152.534 Y122.493
G1 Z0.23125
G1 E0 F2100
;WIDTH:0.6
;HEIGHT:0.23
G1 F2250
G1 X152.606 Y122.014 E0.0255
G1 X152.738 Y121.501 E0.0534
G1 X152.909 Y121.039 E0.07936
G1 X153.098 Y120.645 E0.10237
G1 X153.322 Y120.268 E0.12547
G1 X153.613 Y119.867 E0.15155
G1 X154.018 Y119.423 E0.1832
G1 X154.325 Y119.147 E0.20492
G1 X154.659 Y118.896 E0.2269
G1 X155.143 Y118.599 E0.25682
G1 X155.661 Y118.36 E0.28685
G1 X156.054 Y118.222 E0.30877
G1 X156.452 Y118.12 E0.33042
G1 X156.986 Y118.034 E0.35889
G1 X157.486 Y118.008 E0.38527
G1 X175.62 Y118.008 E1.3401
G1 X177.063 Y117.691 E1.41785
G1 X177.955 Y117.532 E1.4656
G1 X179.033 Y117.376 E1.52292
G1 X179.967 Y117.27 E1.57244
G1 X180.979 Y117.189 E1.6259
G1 X181.995 Y117.139 E1.67943
G1 X183.066 Y117.124 E1.73585
G1 X184.025 Y117.14 E1.78631
G1 X185.038 Y117.19 E1.83976
G1 X186.042 Y117.271 E1.89276
G1 X187.037 Y117.384 E1.94553
G1 X188.046 Y117.532 E1.99923
G1 X189.044 Y117.711 E2.05258
G1 X190.381 Y118.008 E2.1247
G1 X208.514 Y118.008 E3.07945
G1 X209.007 Y118.034 E3.10545
G1 X209.486 Y118.106 E3.131
G1 X210.011 Y118.242 E3.15951
G1 X210.398 Y118.383 E3.18122
G1 X210.777 Y118.559 E3.20322
G1 X211.288 Y118.858 E3.23438
G1 X211.68 Y119.152 E3.26018
G1 X212.078 Y119.519 E3.28867
G1 X212.353 Y119.825 E3.31037
G1 X212.604 Y120.159 E3.33235
G1 X212.913 Y120.665 E3.36355
G1 X213.12 Y121.109 E3.38936
G1 X213.297 Y121.62 E3.41783
G1 X213.395 Y122.02 E3.43951
G1 X213.459 Y122.431 E3.46145
G1 X213.492 Y122.976 E3.49018
G1 X213.492 Y141.119 E4.44547
G1 X213.789 Y142.456 E4.51759
G1 X213.968 Y143.453 E4.57095
G1 X214.116 Y144.463 E4.62465
G1 X214.23 Y145.467 E4.67788
G1 X214.311 Y146.479 E4.73135
G1 X214.36 Y147.485 E4.78434
G1 X214.377 Y148.491 E4.83734
G1 X214.36 Y149.506 E4.89081
G1 X214.311 Y150.521 E4.94427
G1 X214.23 Y151.533 E4.99774
G1 X214.116 Y152.537 E5.05098
G1 X213.968 Y153.546 E5.10468
G1 X213.789 Y154.544 E5.15803
G1 X213.492 Y155.881 E5.23016
G1 X213.492 Y174.02 E6.18526
G1 X213.466 Y174.507 E6.21091
G1 X213.394 Y174.986 E6.23641
G1 X213.262 Y175.499 E6.26431
G1 X213.09 Y175.962 E6.29033
G1 X212.9 Y176.358 E6.31343
G1 X212.677 Y176.734 E6.33647
G1 X212.349 Y177.179 E6.3656
G1 X211.98 Y177.578 E6.39419
G1 X211.653 Y177.87 E6.4173
G1 X211.307 Y178.127 E6.43996
G1 X210.815 Y178.423 E6.47022
G1 X210.4 Y178.616 E6.4943
G1 X209.996 Y178.763 E6.51693
G1 X209.465 Y178.897 E6.54575
G1 X209.012 Y178.966 E6.56991
G1 X208.555 Y178.991 E6.59401
G1 X190.381 Y178.992 E7.55093
G1 X189.044 Y179.289 E7.62304
G1 X188.065 Y179.465 E7.67544
G1 X187.12 Y179.604 E7.72574
G1 X185.989 Y179.733 E7.78566
G1 X185.038 Y179.81 E7.83589
G1 X184.015 Y179.86 E7.8898
G1 X182.991 Y179.877 E7.94375
G1 X181.985 Y179.86 E7.99674
G1 X180.979 Y179.811 E8.04977
G1 X179.896 Y179.722 E8.10695
G1 X178.961 Y179.616 E8.1565
G1 X177.844 Y179.449 E8.21597
G1 X176.788 Y179.255 E8.27252
G1 X175.617 Y178.992 E8.33569
G1 X157.48 Y178.992 E9.29071
G1 X156.993 Y178.966 E9.31636
G1 X156.514 Y178.894 E9.34186
G1 X156.001 Y178.762 E9.36976
G1 X155.538 Y178.59 E9.39578
G1 X155.142 Y178.4 E9.41888
G1 X154.766 Y178.177 E9.44192
G1 X154.321 Y177.849 E9.47106
G1 X153.922 Y177.48 E9.49965
G1 X153.63 Y177.153 E9.52275
G1 X153.373 Y176.807 E9.54541
G1 X153.077 Y176.315 E9.57567
G1 X152.884 Y175.9 E9.59976
G1 X152.737 Y175.496 E9.62239
G1 X152.603 Y174.965 E9.6512
G1 X152.534 Y174.512 E9.67536
G1 X152.509 Y174.055 E9.69946
G1 X152.508 Y155.881 E10.65638
G1 X152.211 Y154.544 E10.7285
G1 X152.035 Y153.564 E10.7809
G1 X151.896 Y152.62 E10.83119
G1 X151.767 Y151.489 E10.89111
G1 X151.69 Y150.538 E10.94134
G1 X151.64 Y149.515 E10.99525
G1 X151.623 Y148.491 E11.04919
G1 X151.64 Y147.485 E11.10219
G1 X151.689 Y146.479 E11.15523
G1 X151.778 Y145.396 E11.2124
G1 X151.884 Y144.461 E11.26196
G1 X152.051 Y143.344 E11.32143
G1 X152.245 Y142.288 E11.37797
G1 X152.508 Y141.117 E11.44114
G1 X152.508 Y122.98 E12.39616
G1 X152.53 Y122.553 E12.41865
G1 X153.079 Y122.581 F9000
G1 F2250
G1 X153.08 Y122.561 E12.41971
G1 X153.143 Y122.137 E12.44231
G1 X153.26 Y121.678 E12.46723
G1 X153.412 Y121.264 E12.49044
G1 X153.578 Y120.915 E12.51079
G1 X153.789 Y120.56 E12.53254
G1 X154.049 Y120.204 E12.55576
G1 X154.396 Y119.823 E12.58288
G1 X154.684 Y119.565 E12.60323
G1 X154.979 Y119.345 E12.6226
G1 X155.417 Y119.077 E12.64963
G1 X155.856 Y118.875 E12.67512
G1 X156.203 Y118.752 E12.69447
G1 X156.577 Y118.656 E12.71479
G1 X157.057 Y118.581 E12.74041
G1 X157.493 Y118.558 E12.7634
G1 X175.68 Y118.558 E13.72101
G1 X177.165 Y118.232 E13.80105
G1 X178.039 Y118.076 E13.8478
G1 X179.099 Y117.922 E13.9042
G1 X180.016 Y117.819 E13.95281
G1 X181.01 Y117.738 E14.00533
G1 X182.008 Y117.69 E14.05789
G1 X183.061 Y117.674 E14.11338
G1 X184.002 Y117.69 E14.16292
G1 X184.998 Y117.739 E14.21544
G1 X185.984 Y117.819 E14.2675
G1 X186.971 Y117.931 E14.3198
G1 X187.962 Y118.076 E14.37256
G1 X188.941 Y118.252 E14.42492
G1 X190.321 Y118.558 E14.49934
G1 X208.507 Y118.558 E15.4569
G1 X208.939 Y118.58 E15.47969
G1 X209.363 Y118.643 E15.50229
G1 X209.835 Y118.764 E15.52794
G1 X210.199 Y118.896 E15.54831
G1 X210.532 Y119.052 E15.56768
G1 X210.971 Y119.309 E15.59447
G1 X211.318 Y119.567 E15.61721
G1 X211.677 Y119.896 E15.64286
G1 X211.935 Y120.184 E15.66321
G1 X212.155 Y120.479 E15.68257
G1 X212.421 Y120.913 E15.70938
G1 X212.605 Y121.304 E15.73214
G1 X212.765 Y121.764 E15.75777
G1 X212.857 Y122.139 E15.77811
G1 X212.912 Y122.502 E15.79746
G1 X212.941 Y122.984 E15.8229
G1 X212.942 Y141.179 E16.78094
G1 X213.248 Y142.559 E16.85536
G1 X213.424 Y143.538 E16.90771
G1 X213.569 Y144.529 E16.96048
G1 X213.681 Y145.516 E17.01277
G1 X213.762 Y146.51 E17.0653
G1 X213.81 Y147.498 E17.11736
G1 X213.826 Y148.496 E17.1699
G1 X213.81 Y149.493 E17.22242
G1 X213.762 Y150.49 E17.27495
G1 X213.681 Y151.484 E17.32748
G1 X213.569 Y152.471 E17.37978
G1 X213.424 Y153.462 E17.43254
G1 X213.248 Y154.441 E17.4849
G1 X212.942 Y155.821 E17.55931
G1 X212.942 Y174.013 E18.51723
G1 X212.92 Y174.439 E18.53967
G1 X212.857 Y174.863 E18.56227
G1 X212.74 Y175.322 E18.58719
G1 X212.588 Y175.736 E18.6104
G1 X212.409 Y176.108 E18.63214
G1 X212.211 Y176.44 E18.6525
G1 X211.933 Y176.818 E18.6772
G1 X211.604 Y177.177 E18.70284
G1 X211.296 Y177.451 E18.72455
G1 X210.991 Y177.676 E18.74451
G1 X210.569 Y177.93 E18.77041
G1 X210.179 Y178.111 E18.79308
G1 X209.822 Y178.24 E18.81308
G1 X209.37 Y178.355 E18.83763
G1 X208.943 Y178.419 E18.86037
G1 X208.533 Y178.441 E18.88197
G1 X190.321 Y178.442 E19.84092
G1 X188.941 Y178.748 E19.91534
G1 X187.971 Y178.922 E19.96721
G1 X187.053 Y179.058 E20.01611
G1 X185.931 Y179.186 E20.07555
G1 X184.998 Y179.261 E20.12483
G1 X184.002 Y179.31 E20.17734
G1 X182.995 Y179.326 E20.23035
G1 X181.998 Y179.31 E20.28287
G1 X181.01 Y179.262 E20.33496
G1 X179.946 Y179.174 E20.39118
G1 X179.028 Y179.069 E20.4398
G1 X177.93 Y178.905 E20.49827
G1 X176.893 Y178.714 E20.55379
G1 X175.678 Y178.442 E20.61934
G1 X157.487 Y178.442 E21.5772
G1 X157.061 Y178.42 E21.59965
G1 X156.637 Y178.357 E21.62224
G1 X156.178 Y178.24 E21.64717
G1 X155.764 Y178.088 E21.67038
G1 X155.392 Y177.909 E21.69212
G1 X155.06 Y177.711 E21.71247
G1 X154.682 Y177.433 E21.73718
G1 X154.323 Y177.104 E21.76282
G1 X154.049 Y176.796 E21.78453
G1 X153.824 Y176.491 E21.80449
G1 X153.57 Y176.069 E21.83039
G1 X153.389 Y175.679 E21.85306
G1 X153.26 Y175.322 E21.87306
G1 X153.145 Y174.87 E21.89761
G1 X153.081 Y174.443 E21.92035
G1 X153.059 Y174.033 E21.94194
G1 X153.058 Y155.821 E22.9009
G1 X152.752 Y154.441 E22.97532
G1 X152.578 Y153.471 E23.02719
