; generated by SuperSlicer 2.4 on 2023-01-26 at 21:25:48 UTC


;
;

;
;
; 

; external perimeters extrusion width = 0.42mm
; perimeters extrusion width = 0.45mm
; infill extrusion width = 0.45mm
; solid infill extrusion width = 0.45mm
; top infill extrusion width = 0.42mm
; first layer extrusion width = 0.62mm

; external perimeters extrusion width = 0.42mm
; perimeters extrusion width = 0.45mm
; infill extrusion width = 0.45mm
; solid infill extrusion width = 0.45mm
; top infill extrusion width = 0.42mm
; first layer extrusion width = 0.62mm

; external perimeters extrusion width = 0.42mm
; perimeters extrusion width = 0.45mm
; infill extrusion width = 0.45mm
; solid infill extrusion width = 0.45mm
; top infill extrusion width = 0.42mm
; first layer extrusion width = 0.62mm

; object:{"name":"[a]_X_Endstop_Bumper_MGN9C_x1","id":"[a]_X_Endstop_Bumper_MGN9C_x1.stl id:0 copy 0","object_center":[170.033200,157.112766,0.000000],"boundingbox_center":[170.033200,157.112766,6.500000],"boundingbox_size":[13.000000,12.000000,13.000000]}
; object:{"name":"[a]_X_Endstop_Bumper_MGN9C_x1","id":"[a]_X_Endstop_Bumper_MGN9C_x1.stl id:0 copy 1","object_center":[131.973884,129.338112,0.000000],"boundingbox_center":[131.973884,129.338112,6.500000],"boundingbox_size":[13.000000,12.000000,13.000000]}
; object:{"name":"MGN9_1515_rail_guide_x2","id":"MGN9_1515_rail_guide_x2.stl id:1 copy 0","object_center":[150.947113,129.679005,0.000000],"boundingbox_center":[150.947113,129.679005,5.000000],"boundingbox_size":[14.946457,18.034401,10.000000]}
; object:{"name":"MGN9_1515_rail_guide_x2","id":"MGN9_1515_rail_guide_x2.stl id:1 copy 1","object_center":[170.893569,129.679005,0.000000],"boundingbox_center":[170.893569,129.679005,5.000000],"boundingbox_size":[14.946457,18.034401,10.000000]}
; object:{"name":"x_carriage_miniaftb-MGN9C_x1","id":"x_carriage_miniaftb-MGN9C_x1.stl id:2 copy 0","object_center":[140.083202,158.338104,0.000000],"boundingbox_center":[140.083202,158.338104,14.000000],"boundingbox_size":[36.899998,35.999985,28.000000]}
; plater:{"center":[150.000000,148.499950,0.000000],"boundingbox_center":[150.000000,148.499950,14.000000],"boundingbox_size":[56.733594,55.676292,28.000000]}

;TYPE:Custom
M104 S0 ; Stops SuperSlicer from sending temp waits separately


; Pre-Processed for Cancel-Object support by preprocess_cancellation v0.2.0
; 5 known objects
EXCLUDE_OBJECT_DEFINE NAME=a__X_Endstop_Bumper_MGN9C_x1_stl_id_0_copy_0 CENTER=170.033,156.570 POLYGON=[[163.743,151.323],[163.743,162.903],[176.323,162.903],[176.323,151.323]]
EXCLUDE_OBJECT_DEFINE NAME=MGN9_1515_rail_guide_x2_stl_id_1_copy_1 CENTER=168.157,129.558 POLYGON=[[163.63,120.877],[163.63,138.486],[178.157,138.486],[178.157,120.877]]
EXCLUDE_OBJECT_DEFINE NAME=MGN9_1515_rail_guide_x2_stl_id_1_copy_0 CENTER=148.197,129.594 POLYGON=[[143.684,120.877],[143.684,138.486],[158.21,138.486],[158.21,120.877]]
EXCLUDE_OBJECT_DEFINE NAME=a__X_Endstop_Bumper_MGN9C_x1_stl_id_0_copy_1 CENTER=131.905,128.799 POLYGON=[[125.684,123.548],[125.684,135.128],[138.264,135.128],[138.264,123.548]]
EXCLUDE_OBJECT_DEFINE NAME=x_carriage_miniaftb_MGN9C_x1_stl_id_2_copy_0 CENTER=133.714,158.824 POLYGON=[[121.843,140.551],[121.843,176.128],[158.323,176.128],[158.323,140.551]]

M140 S0

print_start EXTRUDER=248 BED=105 CHAMBER=0
M107
G21 ; set units to millimeters
G90 ; use absolute coordinates
M83 ; use relative distances for extrusion
; Filament gcode
;_TOOLCHANGE 0
M107
;LAYER_CHANGE
;Z:0.2
;HEIGHT:0.2
TIMELAPSE_TAKE_FRAME
;BEFORE_LAYER_CHANGE
;0.2


G1 E-0.8 F3000
G1 Z0.3 F9000
;AFTER_LAYER_CHANGE
;0.2
G92 E0
G1 Z0.5
G1 X123.332 Y121.092
G1 Z0.2
G1 E0.8 F1800
;TYPE:Skirt
;WIDTH:0.52
G1 F1950
G1 X122.244 Y122.811 E0.08071
G1 X118.432 Y144.568 E0.8762
G1 X118.363 Y145.306 E0.0294
G1 X118.378 Y173.647 E1.12428
G1 X118.525 Y174.479 E0.03353
G1 X119.003 Y175.566 E0.04709
G1 X119.559 Y176.288 E0.03615
G1 X120.496 Y177.226 E0.0526
G1 X122.09 Y177.991 E0.07013
G1 X136.581 Y179.594 E0.57836
G1 X137.816 Y179.562 E0.04902
G1 X141.009 Y179.255 E0.12723
G1 X141.674 Y179.104 E0.02705
G1 X177.03 Y166.128 E1.49402
G1 X177.972 Y165.613 E0.04261
G1 X178.573 Y165.112 E0.03103
G1 X179.344 Y164.034 E0.05258
G1 X179.753 Y162.757 E0.05319
G1 X181.64 Y138.58 E0.96202
G1 X181.652 Y121.029 E0.69623
G1 X181.372 Y119.719 E0.05314
G1 X180.573 Y118.494 E0.05803
G1 X179.467 Y117.716 E0.05362
G1 X178.485 Y117.406 E0.04084
G1 X177.823 Y117.317 E0.02649
G1 X151.571 Y117.295 E1.0414
G1 X145.214 Y117.397 E0.25221
G1 X125.269 Y120.093 E0.79841
G1 X124.088 Y120.558 E0.05037
G1 X123.381 Y121.058 E0.03432
G1 X123.657 Y121.447 F9000
G1 F1950
G1 X123.608 Y121.482 E0.00238
G1 X122.714 Y122.894 E0.06629
G1 X118.841 Y145.306 E0.90224
G1 X118.852 Y173.598 E1.12232
G1 X118.978 Y174.331 E0.02951
G1 X119.393 Y175.292 E0.04152
G1 X119.896 Y175.95 E0.03288
G1 X120.834 Y176.888 E0.0526
G1 X122.142 Y177.517 E0.0576
G1 X136.63 Y179.12 E0.57823
G1 X137.771 Y179.087 E0.04525
G1 X140.963 Y178.78 E0.12723
G1 X141.509 Y178.656 E0.02222
G1 X176.865 Y165.68 E1.49402
G1 X177.724 Y165.205 E0.03892
G1 X178.217 Y164.794 E0.02548
G1 X178.927 Y163.803 E0.04834
G1 X179.186 Y163.135 E0.02844
G1 X179.312 Y162.409 E0.02922
G1 X181.165 Y138.543 E0.94961
G1 X181.175 Y121.029 E0.69477
G1 X180.916 Y119.86 E0.04749
G1 X180.26 Y118.854 E0.04766
G1 X179.285 Y118.157 E0.04752
G1 X178.422 Y117.879 E0.03599
G1 X177.76 Y117.79 E0.02649
G1 X151.572 Y117.772 E1.03887
G1 X145.222 Y117.874 E0.25191
G1 X125.334 Y120.565 E0.79616
G1 X124.363 Y120.948 E0.04137
G1 X123.706 Y121.413 E0.03194
G1 X123.981 Y121.802 F9000
G1 F1950
G1 X123.883 Y121.871 E0.00476
G1 X123.184 Y122.976 E0.05187
G1 X119.318 Y145.306 E0.89898
G1 X119.327 Y173.548 E1.12036
G1 X119.432 Y174.182 E0.02549
G1 X119.784 Y175.017 E0.03596
G1 X120.233 Y175.613 E0.02961
G1 X121.171 Y176.551 E0.0526
G1 X122.195 Y177.043 E0.04507
G1 X136.68 Y178.645 E0.5781
G1 X140.918 Y178.305 E0.16865
G1 X141.345 Y178.208 E0.01738
G1 X176.701 Y165.232 E1.49402
G1 X177.476 Y164.798 E0.03522
G1 X177.862 Y164.476 E0.01994
G1 X178.509 Y163.573 E0.0441
G1 X178.732 Y162.988 E0.02484
G1 X178.838 Y162.356 E0.02542
G1 X180.689 Y138.506 E0.94895
G1 X180.698 Y121.029 E0.69331
G1 X180.46 Y120.001 E0.04184
G1 X179.947 Y119.214 E0.03729
G1 X179.103 Y118.598 E0.04143
G1 X178.358 Y118.352 E0.03113
G1 X177.696 Y118.263 E0.02649
G1 X151.572 Y118.249 E1.03634
G1 X145.23 Y118.351 E0.25161
G1 X125.398 Y121.038 E0.79391
G1 X124.639 Y121.337 E0.03237
G1 X124.03 Y121.768 E0.02956
G1 X124.306 Y122.157 F9000
G1 F1950
G1 X124.159 Y122.261 E0.00714
G1 X123.654 Y123.058 E0.03744
G1 X119.795 Y145.306 E0.89571
G1 X119.801 Y173.499 E1.1184
G1 X119.885 Y174.033 E0.02147
G1 X120.174 Y174.743 E0.0304
G1 X120.571 Y175.276 E0.02634
G1 X121.508 Y176.213 E0.0526
G1 X122.248 Y176.569 E0.03253
G1 X136.729 Y178.171 E0.57798
G1 X140.872 Y177.831 E0.1649
G1 X176.537 Y164.784 E1.50647
G1 X177.506 Y164.159 E0.04577
G1 X178.091 Y163.342 E0.03985
G1 X178.278 Y162.84 E0.02124
G1 X178.364 Y162.302 E0.02161
G1 X180.213 Y138.469 E0.94829
G1 X180.219 Y137.581 E0.03522
G1 X180.221 Y121.029 E0.65663
G1 X180.005 Y120.142 E0.0362
G1 X179.634 Y119.574 E0.02692
G1 X178.921 Y119.039 E0.03535
G1 X178.294 Y118.825 E0.02628
G1 X177.632 Y118.736 E0.02649
G1 X151.572 Y118.726 E1.03381
G1 X145.238 Y118.828 E0.25131
G1 X125.462 Y121.511 E0.79166
G1 X124.914 Y121.727 E0.02337
G1 X124.355 Y122.122 E0.02718
G1 E-0.8 F3000
G1 Z0.5 F9000
G1 X124.355 Y144.05
G1 Z0.2
G1 E0.8 F1800
;WIDTH:0.62
G1 F1950
G1 X132.704 Y144.05 E0.40065
G1 X133.178 Y144.007 E0.02283
G1 X133.629 Y143.883 E0.02242
G1 X134.054 Y143.679 E0.02263
G1 X134.245 Y143.552 E0.011
G1 X134.665 Y143.217 E0.0258
G1 X134.911 Y143.048 E0.01429
G1 X135.171 Y142.898 E0.0144
G1 X135.513 Y142.74 E0.01812
G1 X135.984 Y142.581 E0.02385
G1 X136.292 Y142.512 E0.01516
G1 X136.668 Y142.464 E0.01814
G1 X137.164 Y142.454 E0.02385
G1 X137.466 Y142.48 E0.01454
G1 X137.835 Y142.544 E0.01794
G1 X138.125 Y142.621 E0.0144
G1 X138.568 Y142.79 E0.02277
G1 X140.544 Y142.79 E0.09479
G1 X140.611 Y142.807 E0.00335
G1 X140.945 Y142.981 E0.01805
G1 X141.204 Y143.146 E0.01476
G1 X141.67 Y143.528 E0.02891
G1 X141.896 Y143.762 E0.0156
G1 X142.126 Y144.049 E0.01766
G1 X142.416 Y144.511 E0.02619
G1 X142.574 Y144.845 E0.01771
G1 X142.58 Y144.862 E0.00088
G1 X142.762 Y145.42 E0.02814
G1 X142.767 Y145.442 E0.00109
G1 X142.859 Y146.022 E0.02817
G1 X142.861 Y146.043 E0.00102
G1 X142.872 Y147.174 E0.0543
G1 X142.91 Y147.638 E0.02234
G1 X143.035 Y148.252 E0.03005
G1 X143.22 Y148.792 E0.0274
G1 X143.352 Y149.076 E0.01499
G1 X143.505 Y149.343 E0.01479
G1 X143.674 Y149.585 E0.01416
G1 X143.863 Y149.807 E0.01397
G1 X144.066 Y150.002 E0.01355
G1 X144.281 Y150.17 E0.01308
G1 X144.656 Y150.382 E0.02065
G1 X144.985 Y150.496 E0.01671
G1 X145.332 Y150.548 E0.01684
G1 X155.369 Y150.555 E0.48162
G1 X155.392 Y150.557 E0.0011
G1 X155.706 Y150.608 E0.01528
G1 X155.733 Y150.615 E0.00133
G1 X155.998 Y150.712 E0.01358
G1 X156.025 Y150.725 E0.00144
G1 X156.255 Y150.869 E0.01302
G1 X156.281 Y150.889 E0.00157
G1 X156.482 Y151.09 E0.01366
G1 X156.503 Y151.116 E0.00157
G1 X156.646 Y151.346 E0.01302
G1 X156.66 Y151.373 E0.00144
G1 X156.756 Y151.638 E0.01353
G1 X156.762 Y151.658 E0.001
G1 X156.795 Y151.813 E0.00763
G1 X156.797 Y151.832 E0.00089
G1 X156.822 Y152.15 E0.01534
G1 X156.824 Y155.617 E0.16635
G1 X156.838 Y156.101 E0.02321
G1 X156.922 Y157.102 E0.04821
G1 X156.922 Y161.574 E0.2146
G1 X156.837 Y162.575 E0.04821
G1 X156.824 Y163.059 E0.0232
G1 X156.822 Y166.526 E0.16637
G1 X156.794 Y166.865 E0.01631
G1 X156.789 Y166.889 E0.00117
G1 X156.721 Y167.152 E0.01304
G1 X156.715 Y167.171 E0.00098
G1 X156.657 Y167.31 E0.00724
G1 X156.645 Y167.332 E0.00119
G1 X156.491 Y167.575 E0.0138
G1 X156.471 Y167.6 E0.00151
G1 X156.296 Y167.775 E0.0119
G1 X156.278 Y167.79 E0.0011
G1 X156.16 Y167.875 E0.00701
G1 X156.138 Y167.888 E0.00121
G1 X155.874 Y168.016 E0.01409
G1 X155.84 Y168.028 E0.00169
G1 X155.417 Y168.117 E0.02075
G1 X155.388 Y168.12 E0.00143
G1 X145.34 Y168.127 E0.48211
G1 X145.119 Y168.151 E0.01068
G1 X144.867 Y168.213 E0.01247
G1 X144.507 Y168.367 E0.01876
G1 X144.307 Y168.489 E0.01126
G1 X144.068 Y168.672 E0.01443
G1 X143.735 Y169.016 E0.02298
G1 X143.587 Y169.21 E0.01173
G1 X143.425 Y169.467 E0.01455
G1 X143.282 Y169.743 E0.01494
G1 X143.159 Y170.037 E0.01524
G1 X143.014 Y170.507 E0.02364
G1 X142.896 Y171.172 E0.03238
G1 X142.872 Y171.5 E0.01581
G1 X142.869 Y172.414 E0.04384
G1 X142.826 Y172.936 E0.02514
G1 X142.822 Y172.957 E0.00105
G1 X142.68 Y173.544 E0.02894
G1 X142.573 Y173.832 E0.01476
G1 X142.416 Y174.165 E0.01767
G1 X142.407 Y174.181 E0.00088
G1 X142.091 Y174.675 E0.02814
G1 X142.077 Y174.693 E0.00109
G1 X141.687 Y175.132 E0.02818
G1 X141.671 Y175.148 E0.00109
G1 X141.204 Y175.53 E0.02895
G1 X140.945 Y175.696 E0.01476
G1 X140.611 Y175.87 E0.01805
G1 X140.544 Y175.886 E0.00335
G1 X138.567 Y175.886 E0.09484
G1 X138.065 Y176.072 E0.0257
G1 X138.044 Y176.078 E0.00105
G1 X137.482 Y176.194 E0.0275
G1 X137.46 Y176.197 E0.00106
G1 X136.888 Y176.225 E0.0275
G1 X136.866 Y176.224 E0.00106
G1 X136.296 Y176.165 E0.0275
G1 X136.274 Y176.161 E0.00106
G1 X135.72 Y176.015 E0.0275
G1 X135.699 Y176.008 E0.00106
G1 X135.174 Y175.779 E0.0275
G1 X135.154 Y175.769 E0.00106
G1 X134.67 Y175.463 E0.02746
G1 X134.249 Y175.126 E0.0259
G1 X133.844 Y174.885 E0.02261
G1 X133.406 Y174.721 E0.02242
G1 X132.946 Y174.638 E0.02243
G1 X122.741 Y174.627 E0.48968
G1 X122.635 Y174.583 E0.0055
G1 X122.002 Y173.949 E0.04297
G1 X121.986 Y173.93 E0.0012
G1 X121.843 Y173.727 E0.01193
G1 X121.824 Y173.689 E0.00205
G1 X121.767 Y173.513 E0.00886
G1 X121.76 Y173.483 E0.00148
G1 X121.745 Y173.341 E0.00685
G1 X121.745 Y172.458 E0.04236
G1 X121.785 Y172.356 E0.00526
G1 X122.353 Y171.747 E0.03999
G1 X123.092 Y170.87 E0.05503
G1 X123.581 Y170.22 E0.03901
G1 X124.223 Y169.27 E0.05503
G1 X124.641 Y168.573 E0.039
G1 X125.18 Y167.56 E0.05506
G1 X125.458 Y166.971 E0.03125
G1 X125.774 Y166.221 E0.03906
G1 X126.167 Y165.143 E0.05506
G1 X126.359 Y164.521 E0.03126
G1 X126.567 Y163.734 E0.03906
G1 X126.805 Y162.612 E0.05503
G1 X126.929 Y161.808 E0.03901
G1 X127.047 Y160.668 E0.05502
G1 X127.086 Y159.856 E0.03901
G1 X127.084 Y158.708 E0.05505
G1 X127.051 Y158.058 E0.03125
G1 X126.976 Y157.247 E0.03907
G1 X126.813 Y156.112 E0.05506
G1 X126.689 Y155.472 E0.03128
G1 X126.542 Y154.836 E0.03132
G1 X126.326 Y154.051 E0.03906
G1 X125.968 Y152.961 E0.05506
G1 X125.734 Y152.353 E0.03125
G1 X125.411 Y151.605 E0.03907
G1 X124.904 Y150.577 E0.05502
G1 X124.504 Y149.869 E0.039
G1 X123.892 Y148.899 E0.05503
G1 X123.42 Y148.238 E0.039
G1 X122.709 Y147.337 E0.05506
G1 X122.28 Y146.846 E0.03127
G1 X121.785 Y146.32 E0.03466
G1 X121.745 Y146.218 E0.00529
G1 X121.745 Y145.335 E0.04236
G1 X121.76 Y145.193 E0.00685
G1 X121.767 Y145.163 E0.00148
G1 X121.824 Y144.988 E0.00886
G1 X121.843 Y144.949 E0.00205
G1 X121.986 Y144.746 E0.01193
G1 X122.002 Y144.727 E0.0012
G1 X122.635 Y144.093 E0.04297
G1 X122.741 Y144.05 E0.00551
G1 X124.295 Y144.05 E0.07453
G1 E-0.8 F3000
G1 Z0.5 F9000
G1 X163.645 Y151.494
G1 Z0.2
G1 E0.8 F1800
G1 F1950
G1 X163.709 Y151.369 E0.00674
G1 X163.876 Y151.251 E0.00982
G1 X163.962 Y151.224 E0.00429
G1 X176.105 Y151.224 E0.58268
G1 X176.19 Y151.251 E0.00429
G1 X176.357 Y151.369 E0.00982
G1 X176.422 Y151.494 E0.00674
G1 X176.422 Y162.115 E0.50964
G1 X176.403 Y162.292 E0.00853
G1 X176.397 Y162.32 E0.0014
G1 X176.356 Y162.446 E0.00634
G1 X176.345 Y162.471 E0.00132
G1 X176.266 Y162.615 E0.00786
G1 X176.247 Y162.641 E0.00156
G1 X176.136 Y162.765 E0.00797
G1 X176.104 Y162.792 E0.00204
G1 X175.874 Y162.932 E0.01288
G1 X175.825 Y162.951 E0.00253
G1 X175.563 Y162.999 E0.01277
G1 X175.537 Y163.001 E0.00126
G1 X164.531 Y163.001 E0.52814
G1 X164.354 Y162.982 E0.00853
G1 X164.326 Y162.976 E0.0014
G1 X164.2 Y162.935 E0.00634
G1 X164.175 Y162.924 E0.00132
G1 X164.031 Y162.845 E0.00785
G1 X164.005 Y162.827 E0.00156
G1 X163.881 Y162.716 E0.00797
G1 X163.854 Y162.683 E0.00204
G1 X163.714 Y162.454 E0.01288
G1 X163.695 Y162.405 E0.00253
G1 X163.647 Y162.143 E0.01277
G1 X163.645 Y162.117 E0.00126
G1 X163.645 Y151.554 E0.50684
G1 E-0.8 F3000
G1 Z0.5 F9000
G1 X165.143 Y138.564
G1 Z0.2
G1 E0.8 F1800
G1 F1950
G1 X165.12 Y138.56 E0.00114
G1 X164.826 Y138.488 E0.01451
G1 X164.804 Y138.481 E0.00112
G1 X164.558 Y138.376 E0.01282
G1 X164.535 Y138.364 E0.00127
G1 X164.234 Y138.164 E0.01736
G1 X164.211 Y138.145 E0.00139
G1 X163.971 Y137.905 E0.0163
G1 X163.952 Y137.881 E0.00146
G1 X163.735 Y137.547 E0.01912
G1 X163.721 Y137.517 E0.00159
G1 X163.586 Y137.142 E0.01915
G1 X163.578 Y137.109 E0.00159
G1 X163.533 Y136.715 E0.01903
G1 X163.532 Y122.66 E0.67443
G1 X163.552 Y122.385 E0.01324
G1 X163.556 Y122.361 E0.00114
G1 X163.628 Y122.068 E0.01451
G1 X163.636 Y122.046 E0.00112
G1 X163.74 Y121.8 E0.01282
G1 X163.753 Y121.777 E0.00127
G1 X163.953 Y121.475 E0.01735
G1 X163.97 Y121.454 E0.0013
G1 X164.182 Y121.237 E0.01458
G1 X164.204 Y121.218 E0.00142
G1 X164.534 Y120.995 E0.01909
G1 X164.56 Y120.981 E0.00139
G1 X164.841 Y120.865 E0.01459
G1 X164.868 Y120.857 E0.00139
G1 X165.259 Y120.781 E0.01908
G1 X165.286 Y120.778 E0.00132
G1 X170.61 Y120.771 E0.25548
G1 X171.075 Y120.744 E0.02234
G1 X171.558 Y120.678 E0.02339
G1 X171.578 Y120.676 E0.00095
G1 X177.41 Y120.675 E0.27986
G1 X177.429 Y120.676 E0.00093
G1 X177.935 Y120.744 E0.02449
G1 X177.991 Y120.764 E0.00284
G1 X178.145 Y120.857 E0.00863
G1 X178.21 Y120.94 E0.0051
G1 X178.263 Y121.11 E0.00854
G1 X178.269 Y121.155 E0.00217
G1 X178.263 Y121.658 E0.02416
G1 X178.244 Y121.73 E0.00356
G1 X178.172 Y121.853 E0.00684
G1 X178.119 Y121.907 E0.00363
G1 X177.996 Y121.978 E0.00683
G1 X177.943 Y121.997 E0.00268
G1 X177.464 Y122.064 E0.02321
G1 X177.444 Y122.065 E0.00097
G1 X172.598 Y122.067 E0.23253
G1 X172.536 Y122.792 E0.03491
G1 X172.521 Y124.8 E0.09634
G1 X172.352 Y124.968 E0.01141
G1 X166.522 Y124.968 E0.27976
G1 X166.522 Y134.39 E0.45215
G1 X172.352 Y134.39 E0.27978
G1 X172.521 Y134.559 E0.01145
G1 X172.527 Y136.571 E0.09653
G1 X172.554 Y137.052 E0.02313
G1 X172.586 Y137.291 E0.01156
G1 X177.444 Y137.293 E0.23313
G1 X177.464 Y137.294 E0.00097
