; generated by SuperSlicer 2.5.59 on 2023-06-12 at 23:24:43 UTC


;
;

;
;
; 

; external perimeters extrusion width = 0.43mm
; perimeters extrusion width = 0.45mm
; infill extrusion width = 0.45mm
; solid infill extrusion width = 0.45mm
; top infill extrusion width = 0.42mm
; support material extrusion width = 0.42mm
; first layer extrusion width = 0.57mm

; external perimeters extrusion width = 0.43mm
; perimeters extrusion width = 0.45mm
; infill extrusion width = 0.45mm
; solid infill extrusion width = 0.45mm
; top infill extrusion width = 0.42mm
; support material extrusion width = 0.42mm
; first layer extrusion width = 0.57mm

; object:{"name":"[a]_guide_mount","id":"[a]_guide_mount.stl id:0 copy 0","object_center":[144.740517,149.267112,0.000000],"boundingbox_center":[144.740517,149.267112,11.998541],"boundingbox_size":[20.151175,50.324752,23.997082]}
EXCLUDE_OBJECT_DEFINE NAME=_a__guide_mount_stl_id_0_copy_0 CENTER=144.740517,149.267112 POLYGON=[[134.664928,171.009520],[135.822688,127.024752],[138.900592,124.104728],[151.896096,124.446792],[154.816112,127.524688],[154.353920,145.084560],[154.176720,151.816608],[154.077584,155.582896],[154.008944,158.190544],[153.658352,171.509456],[150.580464,174.429472],[137.584960,174.087424],[134.664928,171.009520]]
; object:{"name":"[a]_guide_arm","id":"[a]_guide_arm.stl id:1 copy 0","object_center":[122.373515,148.498973,0.000000],"boundingbox_center":[122.373515,148.498973,10.079794],"boundingbox_size":[17.989990,137.253502,20.159588]}
EXCLUDE_OBJECT_DEFINE NAME=_a__guide_arm_stl_id_1_copy_0 CENTER=122.373515,148.498973 POLYGON=[[113.378520,89.165328],[113.382584,88.461256],[113.441688,87.759672],[113.555448,87.064848],[113.723176,86.381040],[113.943840,85.712448],[114.216104,85.063144],[114.538288,84.437104],[114.908416,83.838168],[115.324232,83.270000],[115.783192,82.736072],[116.282496,82.239656],[116.819064,81.783800],[117.389624,81.371272],[117.990696,81.004608],[118.618584,80.686048],[119.269456,80.417560],[119.939320,80.200760],[120.624088,80.036984],[121.319560,79.927256],[122.021480,79.872216],[122.725552,79.872216],[123.427464,79.927256],[124.122944,80.036984],[124.807704,80.200760],[125.477568,80.417560],[126.128440,80.686048],[126.756336,81.004608],[127.357400,81.371272],[127.927960,81.783800],[128.464536,82.239656],[128.963840,82.736072],[129.422792,83.270000],[129.838608,83.838168],[130.208744,84.437104],[130.530912,85.063144],[130.803192,85.712448],[131.023848,86.381040],[131.191576,87.064848],[131.305328,87.759672],[131.364440,88.461256],[131.368504,89.165328],[129.718840,205.706864],[129.677888,206.018000],[129.588744,206.318928],[129.453648,206.602192],[123.953640,216.128464],[123.775880,216.387104],[123.559856,216.614768],[123.310864,216.805808],[123.035064,216.955552],[122.739224,217.060320],[122.430648,217.117504],[122.116912,217.125712],[121.805760,217.084768],[121.768896,217.074176],[121.504856,216.995616],[121.498832,216.993040],[121.221592,216.860512],[120.823880,216.630912],[119.200848,215.693856],[116.887376,214.358160],[116.025440,213.860512],[115.766792,213.682752],[115.539144,213.466720],[115.348088,213.217744],[115.198344,212.941936],[115.093584,212.646096],[115.036392,212.337520],[115.028176,212.023792],[113.378520,89.165328]]
; plater:{"center":[134.097312,148.498973,0.000000],"boundingbox_center":[134.097312,148.498973,11.998541],"boundingbox_size":[41.437585,137.253502,23.997082]}

;TYPE:Custom
SET_PRINT_STATS_INFO TOTAL_LAYER=120

M104 S0 ; Stops SuperSlicer from sending temp waits separately

M109 S0

M140 S0

print_start EXTRUDER=255 BED=105 CHAMBER=0
M107
G21 ; set units to millimeters
G90 ; use absolute coordinates
M82 ; use absolute distances for extrusion
G92 E0
; Filament gcode
;_TOOLCHANGE 0
M107
;LAYER_CHANGE
;Z:0.2
;HEIGHT:0.2
TIMELAPSE_TAKE_FRAME
;BEFORE_LAYER_CHANGE
;0.2


G1 Z0.2 F12000
SET_PRINT_STATS_INFO CURRENT_LAYER=1
;AFTER_LAYER_CHANGE
;0.2
G1 E-0.6 F3000
G1 Z0.5 F12000
M204 S1500
G1 X111.905 Y81.689
G1 Z0.2
G1 E0 F2700
;TYPE:Skirt
;WIDTH:0.52
G1 X110.826 Y83.599 E0.08269
G1 X110.449 Y84.518 E0.12011
G1 X109.96 Y86.223 E0.18697
G1 X109.69 Y88.401 E0.26966
G1 X111.347 Y212.513 E4.94735
G1 X111.586 Y213.805 E4.99686
G1 X111.916 Y214.635 E5.03051
G1 X112.657 Y215.777 E5.08185
G1 X113.61 Y216.681 E5.13135
G1 X119.596 Y220.177 E5.39259
G1 X120.832 Y220.648 E5.44243
G1 X122.135 Y220.819 E5.49194
G1 X123.49 Y220.677 E5.54327
G1 X124.728 Y220.238 E5.59278
G1 X125.87 Y219.497 E5.64411
G1 X126.775 Y218.544 E5.69362
G1 X156.887 Y173.445 E7.73723
G1 X157.339 Y172.021 E7.79354
G1 X158.518 Y127.208 E9.48294
G1 X158.163 Y125.798 E9.53772
G1 X132.842 Y81.689 E11.45445
G1 X131.739 Y80.299 E11.52132
G1 X130.885 Y79.451 E11.56667
G1 X129.489 Y78.356 E11.63353
G1 X128.462 Y77.729 E11.67887
G1 X126.85 Y76.989 E11.74574
G1 X125.705 Y76.618 E11.79108
G1 X124.737 Y76.396 E11.8285
G1 X122.975 Y76.188 E11.89537
G1 X121.772 Y76.188 E11.94071
G1 X120.01 Y76.396 E12.00758
G1 X117.897 Y76.989 E12.09027
G1 X116.983 Y77.375 E12.12769
G1 X115.433 Y78.239 E12.19455
G1 X113.707 Y79.593 E12.27724
G1 X113.008 Y80.299 E12.31465
G1 X111.943 Y81.642 E12.37926
G92 E0
G1 E-0.6 F3000
M204 S6000
G1 Z0.5 F12000
M204 S1500
G1 X112.316 Y81.938
G1 Z0.2
G1 E0 F2700
G1 X112.29 Y81.971 E0.00156
G1 X111.266 Y83.784 E0.08004
G1 X110.903 Y84.667 E0.11605
G1 X110.423 Y86.337 E0.1815
G1 X110.241 Y87.451 E0.22404
G1 X110.163 Y89.166 E0.28876
G1 X111.824 Y212.5 E4.93713
G1 X112.036 Y213.645 E4.98102
G1 X112.335 Y214.407 E5.01185
G1 X113.036 Y215.487 E5.06037
G1 X113.881 Y216.288 E5.10425
G1 X119.802 Y219.746 E5.36266
G1 X120.968 Y220.19 E5.40968
G1 X122.122 Y220.342 E5.45357
G1 X123.403 Y220.208 E5.50208
G1 X124.5 Y219.819 E5.54596
G1 X125.58 Y219.118 E5.59447
G1 X126.381 Y218.273 E5.63835
G1 X156.49 Y173.18 E7.68173
G1 X156.862 Y172.008 E7.72806
G1 X158.042 Y127.195 E9.41746
G1 X157.749 Y126.035 E9.46253
G1 X132.457 Y81.971 E11.37726
G1 X131.377 Y80.61 E11.44272
G1 X130.576 Y79.814 E11.48526
G1 X129.21 Y78.742 E11.55071
G1 X128.246 Y78.155 E11.59325
G1 X126.668 Y77.43 E11.6587
G1 X125.594 Y77.082 E11.70124
G1 X124.663 Y76.867 E11.73725
G1 X122.938 Y76.663 E11.80271
G1 X121.809 Y76.663 E11.84525
G1 X120.084 Y76.867 E11.9107
G1 X118.079 Y77.43 E11.98918
G1 X117.199 Y77.801 E12.02519
G1 X115.682 Y78.646 E12.09065
G1 X114.043 Y79.932 E12.16913
G1 X113.37 Y80.61 E12.20514
G1 X112.353 Y81.891 E12.26678
G92 E0
G1 E-0.6 F3000
M204 S6000
G1 Z0.5 F12000
M204 S1500
G1 X112.727 Y82.188
G1 Z0.2
G1 E0 F2700
G1 X112.675 Y82.252 E0.00312
G1 X111.706 Y83.968 E0.07738
G1 X111.356 Y84.817 E0.11199
G1 X110.886 Y86.45 E0.17604
G1 X110.716 Y87.491 E0.21577
G1 X110.64 Y89.169 E0.27908
G1 X112.301 Y212.488 E4.92688
G1 X112.486 Y213.486 E4.96513
G1 X112.754 Y214.18 E4.99315
G1 X113.414 Y215.196 E5.03884
G1 X114.151 Y215.895 E5.0771
G1 X120.007 Y219.315 E5.33269
G1 X121.103 Y219.733 E5.37689
G1 X122.11 Y219.865 E5.41515
G1 X123.316 Y219.739 E5.46084
G1 X124.273 Y219.4 E5.4991
G1 X125.289 Y218.74 E5.54479
G1 X125.988 Y218.003 E5.58305
G1 X156.093 Y172.915 E7.62618
G1 X156.385 Y171.996 E7.66253
G1 X157.565 Y127.183 E9.35193
G1 X157.335 Y126.273 E9.3873
G1 X132.072 Y82.252 E11.30003
G1 X131.015 Y80.921 E11.36408
G1 X130.368 Y80.27 E11.39868
G1 X129.564 Y79.587 E11.43841
G1 X128.149 Y78.646 E11.50246
G1 X127.209 Y78.169 E11.54219
G1 X125.614 Y77.583 E11.60624
G1 X124.588 Y77.338 E11.64596
G1 X122.901 Y77.139 E11.71001
G1 X121.846 Y77.139 E11.74974
G1 X120.159 Y77.338 E11.81379
G1 X118.261 Y77.871 E11.88806
G1 X117.414 Y78.226 E11.92266
G1 X115.93 Y79.054 E11.98671
G1 X114.379 Y80.27 E12.06098
G1 X113.732 Y80.921 E12.09559
G1 X112.764 Y82.141 E12.15426
M104 S255 ; set temperature
G92 E0
G1 E-0.6 F3000
M204 S6000
G1 Z0.5 F12000
; printing object [a]_guide_mount.stl id:0 copy 0
EXCLUDE_OBJECT_START NAME=_a__guide_mount_stl_id_0_copy_0
; acceleration to travel
M204 S6500
G1 X135.381 Y118.548
; decel to extrusion
M204 S1000
G1 X139.011 Y124.392
; end travel
G1 Z0.2
G1 E0 F2700
;TYPE:External perimeter
;WIDTH:0.568
G1 F3600
G1 X151.771 Y124.728 E0.52945
G1 X154.529 Y127.635 E0.69566
G1 X153.378 Y171.384 E2.51092
G1 X150.47 Y174.142 E2.67713
G1 X137.71 Y173.807 E3.20658
G1 X134.952 Y170.899 E3.3728
G1 X136.103 Y127.15 E5.18805
G1 X138.967 Y124.433 E5.35178
;WIPE_START
M204 S6000
G1 X139.286 Y124.682 F12000
;WIPE_END
M204 S1500
G1 X139.214 Y124.922
;TYPE:Internal perimeter
G1 F3600
G1 X151.54 Y125.247 E5.86318
G1 X153.998 Y127.838 E6.01136
G1 X152.858 Y171.153 E7.80857
G1 X150.267 Y173.612 E7.95674
G1 X137.941 Y173.287 E8.46815
G1 X135.483 Y170.696 E8.61632
G1 X136.623 Y127.381 E10.41353
G1 X139.171 Y124.964 E10.55922
G1 X139.418 Y125.453 F12000
G1 F3600
G1 X151.309 Y125.766 E11.05258
G1 X153.468 Y128.042 E11.18271
G1 X152.339 Y170.922 E12.96188
G1 X150.063 Y173.081 E13.09201
G1 X138.172 Y172.768 E13.58538
G1 X136.013 Y170.492 E13.71551
G1 X137.142 Y127.612 E15.49468
G1 X139.374 Y125.494 E15.62232
G1 X139.622 Y125.984 F12000
G1 F3600
G1 X151.077 Y126.285 E16.09764
G1 X152.937 Y128.246 E16.20973
G1 X151.82 Y170.691 E17.97086
G1 X149.86 Y172.551 E18.08294
G1 X138.404 Y172.249 E18.55827
G1 X136.544 Y170.289 E18.67036
G1 X137.661 Y127.844 E20.43148
G1 X139.578 Y126.025 E20.54108
; acceleration to travel
M204 S6500
G1 X142.704 Y132.022 F12000
; decel to extrusion
M204 S1000
G1 X143.185 Y132.945
; end travel
;TYPE:External perimeter
G1 F3600
G1 X143.789 Y133.682 E20.58061
G1 X144.15 Y133.966 E20.59965
G1 X144.561 Y134.156 E20.61843
G1 X144.792 Y134.218 E20.62835
G1 X145.029 Y134.252 E20.63826
G1 X145.473 Y134.237 E20.6567
G1 X145.715 Y134.187 E20.66696
G1 X146.127 Y134.022 E20.68539
G1 X146.338 Y133.891 E20.69565
G1 X146.675 Y133.589 E20.71443
G1 X146.938 Y133.211 E20.73356
G1 X147.104 Y132.789 E20.75234
G1 X147.154 Y132.547 E20.7626
G1 X147.166 Y132.094 E20.78138
G1 X147.071 Y131.643 E20.8005
G1 X146.875 Y131.226 E20.81963
G1 X146.593 Y130.871 E20.83841
G1 X146.408 Y130.707 E20.84867
G1 X146.029 Y130.475 E20.8671
G1 X145.799 Y130.384 E20.87736
G1 X145.355 Y130.294 E20.89614
G1 X144.895 Y130.309 E20.91527
G1 X144.449 Y130.429 E20.93439
G1 X144.044 Y130.649 E20.95352
G1 X143.713 Y130.946 E20.97195
G1 X143.224 Y131.499 E21.00259
G1 X143.187 Y132.885 E21.0601
;WIPE_START
M204 S6000
G1 X142.96 Y133.275 F12000
;WIPE_END
M204 S1500
G1 X142.658 Y133.027
;TYPE:Internal perimeter
G1 F3600
G1 X142.655 Y133.126 E21.0642
G1 X143.419 Y134.06 E21.11422
G1 X143.874 Y134.417 E21.1382
G1 X144.382 Y134.652 E21.16143
G1 X144.687 Y134.733 E21.17452
G1 X144.999 Y134.778 E21.18761
G1 X145.535 Y134.761 E21.20986
G1 X145.867 Y134.691 E21.22393
G1 X146.365 Y134.492 E21.24617
G1 X146.654 Y134.313 E21.26024
G1 X147.071 Y133.939 E21.28347
G1 X147.404 Y133.46 E21.30769
G1 X147.61 Y132.939 E21.33092
G1 X147.677 Y132.607 E21.34499
G1 X147.692 Y132.047 E21.36822
G1 X147.573 Y131.475 E21.39244
G1 X147.324 Y130.947 E21.41666
G1 X146.976 Y130.509 E21.43989
G1 X146.722 Y130.284 E21.45396
G1 X146.264 Y130.004 E21.4762
G1 X145.949 Y129.879 E21.49027
G1 X145.4 Y129.767 E21.5135
G1 X144.816 Y129.786 E21.53772
G1 X144.253 Y129.939 E21.56194
G1 X143.74 Y130.217 E21.58615
G1 X143.34 Y130.575 E21.6084
G1 X142.704 Y131.294 E21.64824
G1 X142.66 Y132.967 E21.71767
G1 X142.251 Y133.461 F12000
G1 F3600
G1 X143.049 Y134.437 E21.76996
G1 X143.597 Y134.868 E21.79888
G1 X144.203 Y135.148 E21.82656
G1 X144.582 Y135.248 E21.84282
G1 X144.97 Y135.304 E21.85908
G1 X145.598 Y135.284 E21.88514
G1 X146.02 Y135.196 E21.90302
G1 X146.603 Y134.962 E21.92908
G1 X146.969 Y134.735 E21.94696
G1 X147.467 Y134.29 E21.97464
G1 X147.87 Y133.71 E22.00395
G1 X148.115 Y133.089 E22.03163
G1 X148.201 Y132.667 E22.04951
G1 X148.219 Y131.999 E22.07719
G1 X148.074 Y131.308 E22.1065
G1 X147.774 Y130.668 E22.13581
G1 X147.358 Y130.146 E22.16349
G1 X147.035 Y129.86 E22.18137
G1 X146.5 Y129.532 E22.20743
G1 X146.099 Y129.374 E22.22531
G1 X145.445 Y129.241 E22.25299
G1 X144.738 Y129.263 E22.2823
G1 X144.056 Y129.448 E22.31161
G1 X143.435 Y129.785 E22.34092
G1 X142.967 Y130.204 E22.36698
G1 X142.184 Y131.089 E22.41601
G1 X142.125 Y133.308 E22.50806
G1 X142.213 Y133.415 E22.51379
G1 X141.603 Y133.192 F12000
G1 F3600
G1 X141.595 Y133.489 E22.52611
G1 X142.68 Y134.814 E22.59711
G1 X143.321 Y135.318 E22.63096
G1 X144.024 Y135.644 E22.66309
G1 X144.477 Y135.764 E22.68253
G1 X144.941 Y135.83 E22.70197
G1 X145.661 Y135.807 E22.73183
G1 X146.173 Y135.7 E22.75352
G1 X146.841 Y135.433 E22.78339
G1 X147.285 Y135.157 E22.80508
G1 X147.863 Y134.64 E22.83722
G1 X148.337 Y133.959 E22.87162
G1 X148.621 Y133.239 E22.90375
G1 X148.725 Y132.726 E22.92544
G1 X148.745 Y131.952 E22.95757
G1 X148.575 Y131.14 E22.99197
G1 X148.223 Y130.389 E23.02637
G1 X147.741 Y129.783 E23.0585
G1 X147.349 Y129.436 E23.0802
G1 X146.735 Y129.06 E23.11006
G1 X146.248 Y128.868 E23.13176
G1 X145.489 Y128.714 E23.16389
G1 X144.66 Y128.74 E23.19829
G1 X143.86 Y128.957 E23.23269
G1 X143.131 Y129.353 E23.26708
G1 X142.594 Y129.833 E23.29696
G1 X141.664 Y130.884 E23.35519
G1 X141.605 Y133.132 E23.44846
; acceleration to travel
M204 S6500
G1 X142.199 Y162.426 F12000
; decel to extrusion
M204 S1000
G1 X142.291 Y166.933
; end travel
;TYPE:External perimeter
G1 F3600
G1 X142.894 Y167.671 E23.48799
G1 X143.255 Y167.954 E23.50703
G1 X143.666 Y168.145 E23.52581
G1 X143.897 Y168.206 E23.53572
G1 X144.134 Y168.24 E23.54564
G1 X144.586 Y168.225 E23.56442
G1 X145.032 Y168.105 E23.58354
G1 X145.429 Y167.889 E23.60232
G1 X145.623 Y167.735 E23.61258
G1 X145.918 Y167.402 E23.63102
G1 X146.047 Y167.191 E23.64128
G1 X146.21 Y166.778 E23.65971
G1 X146.259 Y166.535 E23.66997
G1 X146.271 Y166.083 E23.68875
G1 X146.178 Y165.64 E23.70753
G1 X146.086 Y165.41 E23.71779
G1 X145.848 Y165.025 E23.73657
G1 X145.527 Y164.706 E23.75535
G1 X145.324 Y164.565 E23.76561
G1 X144.913 Y164.374 E23.78439
G1 X144.461 Y164.282 E23.80352
G1 X144 Y164.297 E23.82264
G1 X143.555 Y164.418 E23.84177
G1 X143.15 Y164.638 E23.86089
G1 X142.818 Y164.934 E23.87933
G1 X142.329 Y165.487 E23.90996
G1 X142.292 Y166.873 E23.96747
;WIPE_START
M204 S6000
G1 X142.065 Y167.264 F12000
;WIPE_END
M204 S1500
G1 X141.763 Y167.016
;TYPE:Internal perimeter
G1 F3600
G1 X141.761 Y167.115 E23.97158
G1 X142.525 Y168.048 E24.0216
G1 X142.979 Y168.405 E24.04558
G1 X143.487 Y168.64 E24.06881
G1 X143.792 Y168.721 E24.0819
G1 X144.105 Y168.766 E24.09499
G1 X144.665 Y168.748 E24.11822
G1 X145.228 Y168.596 E24.14244
G1 X145.72 Y168.328 E24.16567
G1 X145.986 Y168.117 E24.17974
G1 X146.341 Y167.716 E24.20198
G1 X146.519 Y167.426 E24.21605
G1 X146.715 Y166.927 E24.2383
G1 X146.783 Y166.595 E24.25237
G1 X146.798 Y166.035 E24.2756
G1 X146.683 Y165.487 E24.29883
G1 X146.557 Y165.172 E24.3129
G1 X146.261 Y164.696 E24.33613
G1 X145.864 Y164.301 E24.35936
G1 X145.586 Y164.107 E24.37343
G1 X145.078 Y163.872 E24.39666
G1 X144.505 Y163.756 E24.42088
G1 X143.922 Y163.774 E24.4451
G1 X143.358 Y163.927 E24.46931
G1 X142.845 Y164.205 E24.49353
G1 X142.445 Y164.563 E24.51578
G1 X141.809 Y165.282 E24.55561
G1 X141.765 Y166.956 E24.62504
G1 X141.236 Y167.098 F12000
G1 F3600
G1 X141.231 Y167.296 E24.63326
G1 X142.155 Y168.425 E24.69377
G1 X142.703 Y168.856 E24.72268
G1 X143.308 Y169.136 E24.75036
G1 X143.687 Y169.237 E24.76663
G1 X144.076 Y169.292 E24.78289
G1 X144.743 Y169.271 E24.81057
G1 X145.425 Y169.086 E24.83988
G1 X146.011 Y168.768 E24.86756
G1 X146.349 Y168.5 E24.88544
G1 X146.765 Y168.029 E24.9115
G1 X146.99 Y167.662 E24.92938
G1 X147.221 Y167.077 E24.95543
G1 X147.307 Y166.655 E24.97332
G1 X147.324 Y165.988 E25.001
G1 X147.187 Y165.334 E25.02868
G1 X147.027 Y164.934 E25.04656
G1 X146.675 Y164.367 E25.07424
G1 X146.202 Y163.896 E25.10192
G1 X145.848 Y163.65 E25.11981
G1 X145.242 Y163.37 E25.14749
G1 X144.55 Y163.229 E25.1768
G1 X143.844 Y163.251 E25.2061
G1 X143.162 Y163.436 E25.23541
G1 X142.541 Y163.773 E25.26472
G1 X142.073 Y164.192 E25.29078
G1 X141.289 Y165.077 E25.33981
G1 X141.238 Y167.038 E25.42116
G1 X140.709 Y167.18 F12000
G1 F3600
G1 X140.701 Y167.477 E25.43348
G1 X141.785 Y168.802 E25.50448
G1 X142.426 Y169.307 E25.53833
G1 X143.13 Y169.632 E25.57047
G1 X143.583 Y169.752 E25.58991
