; generated by SuperSlicer 2.4 on 2023-01-27 at 03:49:27 UTC


;
;

;
;
; 

; external perimeters extrusion width = 0.42mm
; perimeters extrusion width = 0.45mm
; infill extrusion width = 0.45mm
; solid infill extrusion width = 0.45mm
; top infill extrusion width = 0.42mm
; first layer extrusion width = 0.62mm

; external perimeters extrusion width = 0.42mm
; perimeters extrusion width = 0.45mm
; infill extrusion width = 0.45mm
; solid infill extrusion width = 0.45mm
; top infill extrusion width = 0.42mm
; first layer extrusion width = 0.62mm

; external perimeters extrusion width = 0.42mm
; perimeters extrusion width = 0.45mm
; infill extrusion width = 0.45mm
; solid infill extrusion width = 0.45mm
; top infill extrusion width = 0.42mm
; first layer extrusion width = 0.62mm

; object:{"name":"[c]_Display_Diffuser","id":"[c]_Display_Diffuser.STL id:0 copy 0","object_center":[150.001633,141.759000,0.000000],"boundingbox_center":[150.001633,141.759000,2.641830],"boundingbox_size":[9.998627,9.846687,5.283661]}
; object:{"name":"Display_Mount_Left_x1","id":"Display_Mount_Left_x1.stl id:1 copy 0","object_center":[136.500000,148.500000,0.000000],"boundingbox_center":[136.500000,148.500000,12.050240],"boundingbox_size":[22.000000,40.500000,24.100479]}
; object:{"name":"Display_Mount_Right_x1","id":"Display_Mount_Right_x1.stl id:2 copy 0","object_center":[163.500000,148.500000,0.000000],"boundingbox_center":[163.500000,148.500000,12.050247],"boundingbox_size":[22.000000,40.500000,24.100494]}
; plater:{"center":[150.000000,148.500000,0.000000],"boundingbox_center":[150.000000,148.500000,12.050247],"boundingbox_size":[49.000000,40.500000,24.100494]}

;TYPE:Custom
M104 S0 ; Stops SuperSlicer from sending temp waits separately


; Pre-Processed for Cancel-Object support by preprocess_cancellation v0.2.0
; 3 known objects
EXCLUDE_OBJECT_DEFINE NAME=c__Display_Diffuser_STL_id_0_copy_0 CENTER=149.851,141.598 POLYGON=[[145.213,137.046],[145.213,146.436],[154.787,146.436],[154.787,137.046]]
EXCLUDE_OBJECT_DEFINE NAME=Display_Mount_Right_x1_stl_id_2_copy_0 CENTER=167.980,144.846 POLYGON=[[152.71,128.317],[152.71,168.54],[174.407,168.54],[174.407,128.317]]
EXCLUDE_OBJECT_DEFINE NAME=Display_Mount_Left_x1_stl_id_1_copy_0 CENTER=131.998,144.858 POLYGON=[[125.5,128.317],[125.5,168.54],[147.295,168.54],[147.295,128.317]]

M140 S0

print_start EXTRUDER=240 BED=72 CHAMBER=0
G21 ; set units to millimeters
G90 ; use absolute coordinates
M83 ; use relative distances for extrusion
; Filament gcode
;_TOOLCHANGE 0
M107
;LAYER_CHANGE
;Z:0.2
;HEIGHT:0.2
TIMELAPSE_TAKE_FRAME
;BEFORE_LAYER_CHANGE
;0.2


G1 E-0.8 F3000
G1 Z0.3 F9000
;AFTER_LAYER_CHANGE
;0.2
G92 E0
G1 Z0.5
G1 X123.796 Y128.354
G1 Z0.2
G1 E0.8 F1800
;TYPE:Skirt
;WIDTH:0.52
G1 F1950
G1 X123.016 Y129.221 E0.0509
G1 X122.668 Y129.824 E0.03041
G1 X122.307 Y130.934 E0.0509
G1 X122.23 Y131.691 E0.03322
G1 X122.23 Y166.609 E1.52369
G1 X122.307 Y167.366 E0.03322
G1 X122.487 Y168.04 E0.03041
G1 X123.016 Y169.079 E0.0509
G1 X123.304 Y169.454 E0.02059
G1 X124.171 Y170.234 E0.0509
G1 X124.774 Y170.582 E0.03041
G1 X125.884 Y170.943 E0.0509
G1 X126.641 Y171.02 E0.03322
G1 X173.359 Y171.02 E2.0386
G1 X174.116 Y170.943 E0.03322
G1 X174.79 Y170.763 E0.03041
G1 X175.226 Y170.582 E0.02059
G1 X176.204 Y169.946 E0.0509
G1 X176.984 Y169.079 E0.0509
G1 X177.332 Y168.476 E0.03041
G1 X177.693 Y167.366 E0.0509
G1 X177.77 Y166.609 E0.03322
G1 X177.747 Y131.343 E1.5389
G1 X177.513 Y130.26 E0.04831
G1 X177.332 Y129.824 E0.02059
G1 X176.984 Y129.221 E0.03041
G1 X176.204 Y128.354 E0.0509
G1 X175.226 Y127.718 E0.0509
G1 X174.79 Y127.537 E0.02059
G1 X174.116 Y127.357 E0.03041
G1 X173.359 Y127.28 E0.03322
G1 X126.641 Y127.28 E2.0386
G1 X125.884 Y127.357 E0.03322
G1 X125.21 Y127.537 E0.03041
G1 X124.774 Y127.718 E0.02059
G1 X123.847 Y128.321 E0.04828
G1 X124.108 Y128.718 F9000
G1 F1950
G1 X124.087 Y128.732 E0.00113
G1 X123.395 Y129.511 E0.04547
G1 X123.109 Y130.007 E0.02498
G1 X122.78 Y130.996 E0.04547
G1 X122.707 Y131.691 E0.0305
G1 X122.707 Y166.609 E1.52369
G1 X122.928 Y167.857 E0.0553
G1 X123.395 Y168.789 E0.04548
G1 X123.682 Y169.163 E0.02059
G1 X124.461 Y169.855 E0.04547
G1 X124.957 Y170.141 E0.02498
G1 X125.946 Y170.47 E0.04547
G1 X126.641 Y170.543 E0.0305
G1 X173.359 Y170.543 E2.0386
G1 X174.607 Y170.322 E0.0553
G1 X175.043 Y170.141 E0.02059
G1 X175.913 Y169.568 E0.04547
G1 X176.605 Y168.789 E0.04547
G1 X176.891 Y168.293 E0.02498
G1 X177.22 Y167.304 E0.04547
G1 X177.293 Y166.609 E0.0305
G1 X177.293 Y131.691 E1.52369
G1 X177.072 Y130.443 E0.0553
G1 X176.891 Y130.007 E0.02059
G1 X176.318 Y129.137 E0.04547
G1 X175.539 Y128.445 E0.04547
G1 X175.043 Y128.159 E0.02498
G1 X174.054 Y127.83 E0.04547
G1 X173.359 Y127.757 E0.0305
G1 X126.641 Y127.757 E2.0386
G1 X125.393 Y127.978 E0.0553
G1 X124.957 Y128.159 E0.02059
G1 X124.159 Y128.685 E0.04173
G1 X124.423 Y129.08 F9000
G1 F1950
G1 X124.377 Y129.111 E0.00242
G1 X123.773 Y129.802 E0.04005
G1 X123.549 Y130.19 E0.01954
G1 X123.253 Y131.058 E0.04005
G1 X123.184 Y131.691 E0.02778
G1 X123.184 Y166.609 E1.52369
G1 X123.369 Y167.674 E0.04718
G1 X123.549 Y168.11 E0.02059
G1 X124.061 Y168.873 E0.04005
G1 X124.752 Y169.477 E0.04005
G1 X125.14 Y169.701 E0.01954
G1 X126.008 Y169.997 E0.04005
G1 X126.641 Y170.066 E0.02778
G1 X173.359 Y170.066 E2.0386
G1 X174.424 Y169.881 E0.04718
G1 X174.86 Y169.701 E0.02059
G1 X175.623 Y169.189 E0.04005
G1 X176.227 Y168.498 E0.04005
G1 X176.451 Y168.11 E0.01954
G1 X176.747 Y167.242 E0.04005
G1 X176.816 Y166.609 E0.02778
G1 X176.816 Y131.691 E1.52369
G1 X176.631 Y130.626 E0.04718
G1 X176.227 Y129.802 E0.04005
G1 X175.939 Y129.427 E0.02059
G1 X175.248 Y128.823 E0.04005
G1 X174.86 Y128.599 E0.01954
G1 X173.992 Y128.303 E0.04005
G1 X173.359 Y128.234 E0.02778
G1 X126.641 Y128.234 E2.0386
G1 X125.576 Y128.419 E0.04718
G1 X125.14 Y128.599 E0.02059
G1 X124.473 Y129.046 E0.03501
G1 X124.742 Y129.438 F9000
G1 F1950
G1 X124.668 Y129.489 E0.00393
G1 X123.99 Y130.372 E0.04857
G1 X123.726 Y131.12 E0.03463
G1 X123.661 Y131.691 E0.02506
G1 X123.661 Y166.609 E1.52369
G1 X123.81 Y167.492 E0.03906
G1 X123.99 Y167.928 E0.02059
G1 X124.439 Y168.582 E0.03463
G1 X125.322 Y169.26 E0.04857
G1 X126.07 Y169.524 E0.03463
G1 X126.641 Y169.589 E0.02506
G1 X173.359 Y169.589 E2.0386
G1 X174.242 Y169.44 E0.03906
G1 X174.678 Y169.26 E0.02059
G1 X175.332 Y168.811 E0.03463
G1 X176.01 Y167.928 E0.04857
G1 X176.274 Y167.18 E0.03463
G1 X176.339 Y166.609 E0.02506
G1 X176.339 Y131.691 E1.52369
G1 X176.274 Y131.12 E0.02506
G1 X176.01 Y130.372 E0.03463
G1 X175.332 Y129.489 E0.04857
G1 X174.958 Y129.202 E0.02059
G1 X174.242 Y128.86 E0.03463
G1 X173.359 Y128.711 E0.03906
G1 X126.641 Y128.711 E2.0386
G1 X125.758 Y128.86 E0.03906
G1 X125.322 Y129.04 E0.02059
G1 X124.791 Y129.404 E0.02808
G1 X125.974 Y130.945 F9000
;WIDTH:0.62
G1 F1950
G1 X126.14 Y130.817 E0.01105
G1 X126.173 Y130.799 E0.002
G1 X126.4 Y130.704 E0.01301
G1 X126.437 Y130.694 E0.002
G1 X126.678 Y130.663 E0.01286
G1 X126.697 Y130.661 E0.001
G1 X132.703 Y130.661 E0.317
G1 X132.722 Y130.663 E0.001
G1 X132.963 Y130.694 E0.01286
G1 X133 Y130.704 E0.002
G1 X133.227 Y130.799 E0.01301
G1 X133.26 Y130.817 E0.002
G1 X133.456 Y130.968 E0.01301
G1 X133.482 Y130.994 E0.002
G1 X133.633 Y131.19 E0.01301
G1 X133.651 Y131.223 E0.002
G1 X133.746 Y131.45 E0.01301
G1 X133.756 Y131.487 E0.002
G1 X133.787 Y131.728 E0.01286
G1 X133.789 Y131.747 E0.001
G1 X133.789 Y143.941 E0.64365
G1 X133.809 Y144.255 E0.0166
G1 X133.857 Y144.468 E0.01152
G1 X133.959 Y144.73 E0.01483
G1 X134.07 Y144.919 E0.01159
G1 X134.226 Y145.107 E0.01287
G1 X134.41 Y145.263 E0.01274
G1 X134.51 Y145.323 E0.00614
G1 X134.732 Y145.422 E0.01285
G1 X134.925 Y145.468 E0.01048
G1 X135.11 Y145.487 E0.00978
G1 X136.302 Y145.487 E0.06294
G1 X136.457 Y145.501 E0.0082
G1 X136.484 Y145.507 E0.00145
G1 X136.625 Y145.549 E0.00779
G1 X136.653 Y145.56 E0.0016
G1 X136.857 Y145.671 E0.01222
G1 X136.886 Y145.692 E0.00188
G1 X137.043 Y145.838 E0.01135
G1 X137.068 Y145.868 E0.00207
G1 X137.246 Y146.155 E0.01782
G1 X137.261 Y146.188 E0.0019
G1 X137.364 Y146.516 E0.01814
G1 X137.37 Y146.553 E0.00196
G1 X137.389 Y146.949 E0.02092
G1 X137.389 Y162.85 E0.83931
G1 X137.414 Y163.046 E0.01044
G1 X137.485 Y163.217 E0.00978
G1 X137.598 Y163.364 E0.00978
G1 X137.745 Y163.477 E0.00978
G1 X137.916 Y163.548 E0.00978
G1 X138.112 Y163.574 E0.01044
G1 X146.906 Y163.574 E0.46414
G1 X146.943 Y163.578 E0.002
G1 X147.11 Y163.623 E0.00909
G1 X147.175 Y163.661 E0.00401
G1 X147.301 Y163.787 E0.00938
G1 X147.339 Y163.852 E0.00401
G1 X147.384 Y164.019 E0.00909
G1 X147.389 Y164.056 E0.002
G1 X147.389 Y166.553 E0.13177
G1 X147.387 Y166.572 E0.001
G1 X147.356 Y166.813 E0.01286
G1 X147.346 Y166.85 E0.002
G1 X147.251 Y167.077 E0.01301
G1 X147.233 Y167.11 E0.002
G1 X147.082 Y167.306 E0.01301
G1 X147.056 Y167.332 E0.002
G1 X146.86 Y167.483 E0.01301
G1 X146.827 Y167.501 E0.002
G1 X146.6 Y167.596 E0.01301
G1 X146.563 Y167.606 E0.002
G1 X146.322 Y167.637 E0.01286
G1 X146.303 Y167.639 E0.001
G1 X126.697 Y167.639 E1.03485
G1 X126.678 Y167.637 E0.001
G1 X126.437 Y167.606 E0.01286
G1 X126.4 Y167.596 E0.002
G1 X126.173 Y167.501 E0.01301
G1 X126.14 Y167.483 E0.002
G1 X125.944 Y167.332 E0.01301
G1 X125.918 Y167.306 E0.002
G1 X125.767 Y167.11 E0.01301
G1 X125.749 Y167.077 E0.002
G1 X125.654 Y166.85 E0.01301
G1 X125.644 Y166.813 E0.002
G1 X125.613 Y166.572 E0.01286
G1 X125.611 Y166.553 E0.001
G1 X125.611 Y159.887 E0.35184
G1 X125.613 Y159.868 E0.001
G1 X125.644 Y159.627 E0.01286
G1 X125.654 Y159.59 E0.002
G1 X125.749 Y159.363 E0.01301
G1 X125.767 Y159.33 E0.002
G1 X125.918 Y159.134 E0.01301
G1 X125.944 Y159.108 E0.002
G1 X126.138 Y158.959 E0.01286
G1 X126.153 Y158.949 E0.001
G1 X127.91 Y157.934 E0.1071
G1 X128.316 Y157.623 E0.02697
G1 X128.619 Y157.228 E0.02632
G1 X128.81 Y156.767 E0.02632
G1 X128.877 Y156.261 E0.02694
G1 X128.863 Y153.289 E0.15686
G1 X128.777 Y152.284 E0.05327
G1 X128.777 Y149.301 E0.15742
G1 X128.668 Y148.527 E0.04124
G1 X128.597 Y148.324 E0.01135
G1 X128.311 Y147.929 E0.02577
G1 X127.91 Y147.619 E0.02674
G1 X126.153 Y146.605 E0.10709
G1 X126.138 Y146.594 E0.001
G1 X125.944 Y146.446 E0.01286
G1 X125.918 Y146.419 E0.002
G1 X125.767 Y146.224 E0.01301
G1 X125.749 Y146.191 E0.002
G1 X125.654 Y145.963 E0.01301
G1 X125.644 Y145.927 E0.002
G1 X125.613 Y145.685 E0.01286
G1 X125.611 Y145.666 E0.001
G1 X125.611 Y131.747 E0.7347
G1 X125.613 Y131.728 E0.001
G1 X125.644 Y131.487 E0.01286
G1 X125.654 Y131.45 E0.002
G1 X125.749 Y131.223 E0.01301
G1 X125.767 Y131.19 E0.002
G1 X125.928 Y130.984 E0.01379
G1 E-0.8 F3000
G1 Z0.5 F9000
G1 X162.724 Y146.232
G1 Z0.2
G1 E0.8 F1800
G1 F1950
G1 X162.783 Y146.089 E0.00816
G1 X162.798 Y146.063 E0.0016
G1 X162.936 Y145.861 E0.01289
G1 X162.957 Y145.837 E0.00169
G1 X163.114 Y145.693 E0.01124
G1 X163.136 Y145.676 E0.00149
G1 X163.269 Y145.594 E0.00823
G1 X163.298 Y145.58 E0.00171
G1 X163.512 Y145.508 E0.01191
G1 X163.557 Y145.5 E0.00242
G1 X164.888 Y145.487 E0.07025
G1 X165.167 Y145.454 E0.01485
G1 X165.387 Y145.379 E0.01225
G1 X165.592 Y145.262 E0.01244
G1 X165.775 Y145.106 E0.01272
G1 X165.853 Y145.015 E0.0063
G1 X165.929 Y144.921 E0.00639
G1 X166.041 Y144.73 E0.01168
G1 X166.142 Y144.47 E0.0147
G1 X166.197 Y144.195 E0.01481
G1 X166.211 Y143.942 E0.01339
G1 X166.211 Y131.747 E0.64368
G1 X166.213 Y131.728 E0.001
G1 X166.244 Y131.487 E0.01286
G1 X166.254 Y131.45 E0.002
G1 X166.349 Y131.223 E0.01301
G1 X166.367 Y131.19 E0.002
G1 X166.518 Y130.994 E0.01301
G1 X166.544 Y130.968 E0.002
G1 X166.74 Y130.817 E0.01301
G1 X166.773 Y130.799 E0.002
G1 X167 Y130.704 E0.01301
G1 X167.037 Y130.694 E0.002
G1 X167.278 Y130.663 E0.01286
G1 X167.297 Y130.661 E0.001
G1 X173.303 Y130.661 E0.317
G1 X173.322 Y130.663 E0.001
G1 X173.563 Y130.694 E0.01286
G1 X173.6 Y130.704 E0.002
G1 X173.827 Y130.799 E0.01301
G1 X173.86 Y130.817 E0.002
G1 X174.056 Y130.968 E0.01301
G1 X174.082 Y130.994 E0.002
G1 X174.233 Y131.19 E0.01301
G1 X174.251 Y131.223 E0.002
G1 X174.346 Y131.45 E0.01301
G1 X174.356 Y131.487 E0.002
G1 X174.387 Y131.728 E0.01286
G1 X174.389 Y131.747 E0.001
G1 X174.389 Y145.666 E0.7347
G1 X174.387 Y145.685 E0.001
G1 X174.356 Y145.927 E0.01286
G1 X174.346 Y145.963 E0.002
G1 X174.251 Y146.191 E0.01301
G1 X174.233 Y146.224 E0.002
G1 X174.082 Y146.419 E0.01301
G1 X174.056 Y146.446 E0.002
G1 X173.862 Y146.594 E0.01286
G1 X173.847 Y146.605 E0.001
G1 X172.09 Y147.619 E0.10709
G1 X171.689 Y147.929 E0.02674
G1 X171.403 Y148.324 E0.02577
G1 X171.332 Y148.527 E0.01135
G1 X171.223 Y149.301 E0.04124
G1 X171.223 Y152.284 E0.15742
G1 X171.137 Y153.289 E0.05327
G1 X171.123 Y156.261 E0.15686
G1 X171.19 Y156.767 E0.02694
G1 X171.381 Y157.228 E0.02632
G1 X171.684 Y157.623 E0.02632
G1 X172.09 Y157.934 E0.02697
G1 X173.847 Y158.949 E0.1071
G1 X173.862 Y158.959 E0.001
G1 X174.056 Y159.108 E0.01286
G1 X174.082 Y159.134 E0.002
G1 X174.233 Y159.33 E0.01301
G1 X174.251 Y159.363 E0.002
G1 X174.346 Y159.59 E0.01301
G1 X174.356 Y159.627 E0.002
G1 X174.387 Y159.868 E0.01286
G1 X174.389 Y159.887 E0.001
G1 X174.389 Y166.553 E0.35184
G1 X174.387 Y166.572 E0.001
G1 X174.356 Y166.813 E0.01286
G1 X174.346 Y166.85 E0.002
G1 X174.251 Y167.077 E0.01301
G1 X174.233 Y167.11 E0.002
G1 X174.082 Y167.306 E0.01301
G1 X174.056 Y167.332 E0.002
G1 X173.86 Y167.483 E0.01301
G1 X173.827 Y167.501 E0.002
G1 X173.6 Y167.596 E0.01301
G1 X173.563 Y167.606 E0.002
G1 X173.322 Y167.637 E0.01286
G1 X173.303 Y167.639 E0.001
G1 X153.697 Y167.639 E1.03485
G1 X153.678 Y167.637 E0.001
G1 X153.437 Y167.606 E0.01286
G1 X153.4 Y167.596 E0.002
G1 X153.173 Y167.501 E0.01301
G1 X153.14 Y167.483 E0.002
G1 X152.944 Y167.332 E0.01301
G1 X152.918 Y167.306 E0.002
G1 X152.767 Y167.11 E0.01301
G1 X152.749 Y167.077 E0.002
G1 X152.654 Y166.85 E0.01301
G1 X152.644 Y166.813 E0.002
G1 X152.613 Y166.572 E0.01286
G1 X152.611 Y166.553 E0.001
G1 X152.611 Y164.056 E0.13177
G1 X152.616 Y164.019 E0.002
G1 X152.661 Y163.852 E0.00909
G1 X152.699 Y163.787 E0.00401
G1 X152.825 Y163.661 E0.00938
G1 X152.89 Y163.623 E0.00401
G1 X153.057 Y163.578 E0.00909
G1 X153.094 Y163.574 E0.002
G1 X161.888 Y163.574 E0.46414
G1 X162.084 Y163.548 E0.01044
G1 X162.255 Y163.477 E0.00978
G1 X162.402 Y163.364 E0.00978
G1 X162.515 Y163.217 E0.00978
G1 X162.586 Y163.046 E0.00978
G1 X162.611 Y162.85 E0.01044
G1 X162.616 Y146.715 E0.85165
G1 X162.618 Y146.69 E0.00132
G1 X162.676 Y146.358 E0.01778
G1 X162.685 Y146.328 E0.00167
G1 X162.701 Y146.288 E0.0023
G1 E-0.8 F3000
G1 Z0.5 F9000
G1 X154.651 Y143.344
G1 Z0.2
G1 E0.8 F1800
G1 F1950
G1 X154.454 Y143.853 E0.02884
G1 X154.209 Y144.324 E0.02798
G1 X153.928 Y144.747 E0.02682
G1 X153.733 Y144.993 E0.01659
G1 X153.614 Y145.051 E0.00698
G1 X151.506 Y145.051 E0.11128
G1 X151.077 Y145.078 E0.02268
G1 X150.661 Y145.159 E0.02236
G1 X150.259 Y145.292 E0.02236
G1 X149.877 Y145.476 E0.02236
G1 X149.522 Y145.706 E0.02236
G1 X149.201 Y145.978 E0.0222
G1 X148.77 Y146.471 E0.03455
G1 X148.593 Y146.515 E0.00961
G1 X147.898 Y146.245 E0.03938
G1 X147.881 Y146.237 E0.00098
G1 X147.433 Y145.992 E0.02697
G1 X146.984 Y145.679 E0.02886
G1 X146.564 Y145.308 E0.02957
G1 X146.207 Y144.914 E0.02805
G1 X145.887 Y144.471 E0.02885
G1 X145.615 Y143.987 E0.02932
G1 X145.411 Y143.508 E0.02748
G1 X145.253 Y142.986 E0.02881
G1 X145.154 Y142.449 E0.02883
G1 X145.123 Y142.022 E0.02257
G1 X145.14 Y141.344 E0.03582
G1 X145.142 Y141.325 E0.00099
G1 X145.225 Y140.803 E0.02793
G1 X145.365 Y140.291 E0.02798
G1 X145.566 Y139.784 E0.02883
G1 X145.762 Y139.413 E0.02212
G1 X146.135 Y138.846 E0.03582
G1 X146.147 Y138.831 E0.00101
G1 X146.5 Y138.426 E0.02837
G1 X146.889 Y138.066 E0.02798
G1 X147.329 Y137.742 E0.02884
G1 X147.696 Y137.531 E0.02236
G1 X148.3 Y137.253 E0.03508
G1 X148.318 Y137.246 E0.00102
G1 X148.841 Y137.087 E0.02886
G1 X149.363 Y136.989 E0.02801
G1 X149.382 Y136.986 E0.00102
G1 X150.044 Y136.952 E0.03501
G1 X150.453 Y136.967 E0.02159
G1 X150.993 Y137.048 E0.02883
G1 X151.521 Y137.189 E0.02884
G1 X152.03 Y137.387 E0.02884
G1 X152.514 Y137.641 E0.02884
G1 X152.979 Y137.957 E0.02969
G1 X153.381 Y138.303 E0.02799
G1 X153.754 Y138.702 E0.02884
G1 X154.081 Y139.14 E0.02884
G1 X154.356 Y139.612 E0.02884
