; generated by SuperSlicer 2.5.59 on 2023-04-04 at 20:58:59 UTC


;
;

;
;
; 

; external perimeters extrusion width = 0.45mm
; perimeters extrusion width = 0.45mm
; infill extrusion width = 0.45mm
; solid infill extrusion width = 0.45mm
; top infill extrusion width = 0.45mm
; support material extrusion width = 0.40mm
; first layer extrusion width = 0.56mm

; object:{"name":"Accent Set","id":"Accent Set.stl id:0 copy 0","object_center":[150.000001,148.500000,0.000000],"boundingbox_center":[150.000001,148.500000,3.340001],"boundingbox_size":[98.113190,56.140007,6.680001]}
EXCLUDE_OBJECT_DEFINE NAME=Accent_Set_stl_id_0_copy_0 CENTER=150.000001,148.500000 POLYGON=[[100.943408,121.750000],[100.949768,121.620624],[100.968768,121.492480],[101.000248,121.366824],[101.043888,121.244856],[101.099272,121.127752],[101.165864,121.016648],[101.243032,120.912608],[101.330024,120.816624],[101.426008,120.729632],[101.530056,120.652456],[101.641160,120.585864],[101.758272,120.530480],[101.880232,120.486840],[102.005888,120.455360],[102.134024,120.436352],[102.263408,120.430000],[197.736592,120.430000],[197.865968,120.436352],[197.994112,120.455360],[198.119760,120.486840],[198.241728,120.530480],[198.358848,120.585864],[198.469936,120.652456],[198.573984,120.729632],[198.669968,120.816624],[198.756960,120.912608],[198.834144,121.016648],[198.900720,121.127752],[198.956112,121.244856],[198.999760,121.366824],[199.031232,121.492480],[199.050240,121.620624],[199.056592,121.750000],[199.056592,175.250000],[199.050240,175.379376],[199.031232,175.507520],[198.999760,175.633184],[198.956112,175.755136],[198.900720,175.872256],[198.834144,175.983360],[198.756960,176.087408],[198.669984,176.183376],[198.573984,176.270368],[198.469936,176.347536],[198.358848,176.414144],[198.241728,176.469536],[198.119760,176.513168],[197.994112,176.544640],[197.865968,176.563648],[197.736608,176.570000],[102.263408,176.570000],[102.134024,176.563648],[102.005888,176.544640],[101.880232,176.513168],[101.758272,176.469536],[101.641168,176.414144],[101.530056,176.347536],[101.426008,176.270368],[101.330024,176.183376],[101.243032,176.087408],[101.165872,175.983360],[101.099272,175.872256],[101.043888,175.755136],[101.000248,175.633184],[100.968776,175.507520],[100.949768,175.379376],[100.943408,175.250000],[100.943408,121.750000]]
; plater:{"center":[150.000001,148.500000,0.000000],"boundingbox_center":[150.000001,148.500000,3.340001],"boundingbox_size":[98.113190,56.140007,6.680001]}

;TYPE:Custom
SET_PRINT_STATS_INFO TOTAL_LAYER=31

M104 S0 ; Stops SuperSlicer from sending temp waits separately

M109 S0

M140 S0

print_start EXTRUDER=250 BED=105 CHAMBER=0
G21 ; set units to millimeters
G90 ; use absolute coordinates
M82 ; use absolute distances for extrusion
G92 E0
; Filament gcode
;_TOOLCHANGE 0
M107
;LAYER_CHANGE
;Z:0.21875
;HEIGHT:0.21875
TIMELAPSE_TAKE_FRAME
;BEFORE_LAYER_CHANGE
;0.21875


G1 E-0.9 F2100
G1 Z0.4 F8700
SET_PRINT_STATS_INFO CURRENT_LAYER=1
;AFTER_LAYER_CHANGE
;0.21875
G92 E0
G1 Z0.61875
G1 X97.544 Y115.215
G1 Z0.21875
G1 E0.9 F120
;TYPE:Skirt
;WIDTH:0.54
G1 F2250
G1 X96.439 Y116.165 E0.96539
G1 X95.65 Y117.127 E1.02116
G1 X94.875 Y118.506 E1.09209
G1 X94.384 Y120.01 E1.16303
G1 X94.211 Y121.505 E1.23053
G1 X94.218 Y175.872 E3.66843
G1 X94.47 Y177.308 E3.7338
G1 X94.83 Y178.37 E3.78409
G1 X95.65 Y179.873 E3.86086
G1 X96.679 Y181.075 E3.9318
G1 X97.544 Y181.785 E3.98202
G1 X98.496 Y182.378 E4.03231
G1 X99.887 Y182.954 E4.0998
G1 X100.979 Y183.208 E4.15007
G1 X102.018 Y183.302 E4.19684
G1 X197.982 Y183.302 E8.50002
G1 X199.272 Y183.164 E8.55817
G1 X200.355 Y182.874 E8.60846
G1 X201.39 Y182.445 E8.6587
G1 X202.621 Y181.663 E8.72408
G1 X203.64 Y180.739 E8.78576
G1 X204.539 Y179.591 E8.85116
G1 X205.255 Y178.181 E8.92209
G1 X205.636 Y176.86 E8.98373
G1 X205.782 Y175.748 E9.03399
G1 X205.789 Y121.505 E11.46634
G1 X205.616 Y120.01 E11.53384
G1 X205.255 Y118.819 E11.58961
G1 X204.539 Y117.409 E11.66055
G1 X203.561 Y116.165 E11.73149
G1 X202.247 Y115.068 E11.80825
G1 X201.276 Y114.507 E11.85854
G1 X200.241 Y114.079 E11.90877
G1 X198.364 Y113.705 E11.99459
G1 X187.984 Y113.692 E12.46005
G1 X101.636 Y113.705 E16.33199
G1 X99.759 Y114.079 E16.41781
G1 X98.497 Y114.622 E16.47944
G1 X97.595 Y115.183 E16.52704
G1 X97.857 Y115.596 F8700
G1 F2250
G1 X96.819 Y116.478 E16.58812
G1 X96.03 Y117.439 E16.64388
G1 X95.309 Y118.738 E16.7105
G1 X94.855 Y120.153 E16.77712
G1 X94.704 Y121.505 E16.83813
G1 X94.711 Y175.872 E19.27604
G1 X94.953 Y177.212 E19.33709
G1 X95.294 Y178.204 E19.38414
G1 X96.031 Y179.561 E19.45335
G1 X96.991 Y180.694 E19.51997
G1 X97.857 Y181.404 E19.5702
G1 X98.75 Y181.955 E19.61723
G1 X100.007 Y182.476 E19.67824
G1 X101.027 Y182.718 E19.72527
G1 X102.018 Y182.809 E19.76987
G1 X197.982 Y182.809 E24.07305
G1 X199.152 Y182.686 E24.12579
G1 X200.167 Y182.419 E24.17284
G1 X201.202 Y181.99 E24.22307
G1 X202.347 Y181.253 E24.28414
G1 X203.259 Y180.427 E24.33933
G1 X204.104 Y179.359 E24.40041
G1 X204.784 Y178.038 E24.46702
G1 X205.149 Y176.788 E24.52542
G1 X205.289 Y175.748 E24.57244
G1 X205.296 Y121.505 E27.00479
G1 X205.145 Y120.153 E27.06581
G1 X204.784 Y118.962 E27.12158
G1 X204.104 Y117.641 E27.18819
G1 X203.18 Y116.478 E27.25481
G1 X201.994 Y115.491 E27.32402
G1 X201.087 Y114.963 E27.37107
G1 X200.052 Y114.534 E27.4213
G1 X198.363 Y114.198 E27.49853
G1 X187.983 Y114.184 E27.96398
G1 X101.637 Y114.198 E31.83587
G1 X99.948 Y114.534 E31.9131
G1 X98.75 Y115.045 E31.97148
G1 X97.908 Y115.564 E32.01584
G1 X98.17 Y115.976 F8700
G1 F2250
G1 X97.2 Y116.79 E32.07259
G1 X96.33 Y117.874 E32.13489
G1 X95.688 Y119.105 E32.19719
G1 X95.327 Y120.296 E32.25296
G1 X95.197 Y121.505 E32.30749
G1 X95.203 Y175.872 E34.7454
G1 X95.436 Y177.116 E34.80214
G1 X95.758 Y178.038 E34.84594
G1 X96.411 Y179.248 E34.9076
G1 X97.304 Y180.313 E34.9699
G1 X98.17 Y181.024 E35.02013
G1 X99.003 Y181.533 E35.06392
G1 X100.126 Y181.998 E35.11844
G1 X101.076 Y182.227 E35.16223
G1 X102.018 Y182.316 E35.20466
G1 X197.982 Y182.316 E39.50784
G1 X199.032 Y182.208 E39.55518
G1 X199.978 Y181.963 E39.59897
G1 X201.013 Y181.535 E39.64921
G1 X202.073 Y180.843 E39.70596
G1 X202.878 Y180.114 E39.75466
G1 X203.67 Y179.126 E39.81143
G1 X204.312 Y177.895 E39.87373
G1 X204.637 Y176.822 E39.92396
G1 X204.797 Y175.748 E39.97265
G1 X204.803 Y121.505 E42.40501
G1 X204.673 Y120.296 E42.45954
G1 X204.256 Y118.97 E42.52184
G1 X203.67 Y117.873 E42.57761
G1 X202.799 Y116.79 E42.63991
G1 X201.741 Y115.913 E42.70157
G1 X200.899 Y115.418 E42.74537
G1 X199.864 Y114.989 E42.7956
G1 X198.363 Y114.691 E42.86423
G1 X187.983 Y114.677 E43.32969
G1 X101.637 Y114.691 E47.20152
G1 X100.136 Y114.989 E47.27015
G1 X99.101 Y115.418 E47.32038
G1 X98.221 Y115.946 E47.3664
G92 E0
G1 E-0.9 F2100
G1 Z0.61875 F8700
G1 X107.275 Y172.375
G1 Z0.21875
G1 E0 F120
;WIDTH:0.56
;HEIGHT:0.22
G1 F2250
G1 X108.113 Y172.485 E0.03965
G1 X109.133 Y172.908 E0.09142
G1 X110.009 Y173.58 E0.14319
G1 X110.681 Y174.456 E0.19497
G1 X111.103 Y175.476 E0.24674
G1 X111.247 Y176.57 E0.29852
G1 X111.103 Y177.664 E0.35029
G1 X110.681 Y178.684 E0.40207
G1 X110.009 Y179.56 E0.45384
G1 X109.133 Y180.232 E0.50562
G1 X108.113 Y180.655 E0.55739
G1 X107.018 Y180.799 E0.60917
G1 X105.924 Y180.655 E0.66094
G1 X104.904 Y180.232 E0.71272
G1 X104.028 Y179.56 E0.76449
G1 X103.356 Y178.684 E0.81627
G1 X102.934 Y177.664 E0.86804
G1 X102.824 Y176.826 E0.90769
G1 X107.275 Y176.826 E1.11646
G1 X107.275 Y172.435 E1.32242
G92 E0
G1 E-0.9 F2100
G1 Z0.61875 F8700
G1 X109.399 Y173.144
G1 Z0.21875
G1 E0 F120
G1 F2250
G1 X107.521 Y173.144 E0.08807
G1 X107.521 Y173.657 E0.11212
G1 X109.705 Y173.657 E0.21455
G1 X109.833 Y173.755 E0.22213
G1 X110.151 Y174.17 E0.24663
G1 X107.521 Y174.17 E0.36999
G1 X107.521 Y174.683 E0.39404
G1 X110.508 Y174.683 E0.53414
G1 X110.721 Y175.196 E0.56017
G1 X107.521 Y175.196 E0.71024
G1 X107.521 Y175.708 E0.73429
G1 X110.885 Y175.708 E0.89209
G1 X110.953 Y176.221 E0.91635
G1 X107.521 Y176.221 E1.07731
G1 X107.521 Y176.734 E1.10136
G1 X110.977 Y176.734 E1.26346
G1 X110.91 Y177.247 E1.28772
G1 X103.127 Y177.247 E1.65274
G1 X103.174 Y177.6 E1.66946
G1 X103.24 Y177.759 E1.67755
G1 X110.797 Y177.759 E2.03201
G1 X110.585 Y178.272 E2.05805
G1 X103.452 Y178.272 E2.39259
G1 X103.571 Y178.56 E2.4072
G1 X103.744 Y178.785 E2.4205
G1 X110.293 Y178.785 E2.72766
G1 X109.9 Y179.298 E2.75798
G1 X104.137 Y179.298 E3.02824
G1 X104.204 Y179.385 E3.03336
G1 X104.759 Y179.811 E3.06619
G1 X109.278 Y179.811 E3.27812
G1 X109.009 Y180.017 E3.29402
G1 X108.269 Y180.323 E3.33157
G1 X105.192 Y180.323 E3.47591
G92 E0
G1 E-0.9 F2100
G1 Z0.61875 F8700
G1 X188.753 Y176.57
G1 Z0.21875
G1 E0 F120
G1 F2250
G1 X188.897 Y175.476 E0.05177
G1 X189.319 Y174.456 E0.10355
G1 X189.991 Y173.58 E0.15532
G1 X190.867 Y172.908 E0.2071
G1 X191.887 Y172.485 E0.25887
G1 X192.725 Y172.375 E0.29852
G1 X192.725 Y176.826 E0.50729
G1 X197.176 Y176.826 E0.71607
G1 X197.066 Y177.664 E0.75571
G1 X196.644 Y178.684 E0.80749
G1 X195.972 Y179.56 E0.85926
G1 X195.096 Y180.232 E0.91104
G1 X194.076 Y180.655 E0.96281
G1 X192.982 Y180.799 E1.01459
G1 X191.887 Y180.655 E1.06636
G1 X190.867 Y180.232 E1.11814
G1 X189.991 Y179.56 E1.16991
G1 X189.319 Y178.684 E1.22169
G1 X188.897 Y177.664 E1.27346
G1 X188.761 Y176.629 E1.32242
G92 E0
G1 E-0.9 F2100
G1 Z0.61875 F8700
G1 X191.155 Y180.323
G1 Z0.21875
G1 E0 F120
G1 F2250
G1 X194.232 Y180.323 E0.14434
G1 X194.972 Y180.017 E0.18188
G1 X195.241 Y179.811 E0.19779
G1 X190.722 Y179.811 E0.40972
G1 X190.167 Y179.385 E0.44255
G1 X190.1 Y179.298 E0.44767
G1 X195.863 Y179.298 E0.71793
G1 X196.256 Y178.785 E0.74825
G1 X189.707 Y178.785 E1.05541
G1 X189.534 Y178.56 E1.06871
G1 X189.415 Y178.272 E1.08332
G1 X196.548 Y178.272 E1.41786
G1 X196.76 Y177.759 E1.44389
G1 X189.203 Y177.759 E1.79836
G1 X189.137 Y177.6 E1.80644
G1 X189.09 Y177.247 E1.82317
G1 X196.873 Y177.247 E2.18819
G1 X196.896 Y177.073 E2.19642
G1 X192.479 Y177.073 E2.40358
G1 X192.479 Y176.734 E2.41946
G1 X189.023 Y176.734 E2.58157
G1 X189.001 Y176.57 E2.58932
G1 X189.047 Y176.221 E2.60582
G1 X192.479 Y176.221 E2.76679
G1 X192.479 Y175.708 E2.79084
G1 X189.115 Y175.708 E2.94863
G1 X189.137 Y175.54 E2.95661
G1 X189.279 Y175.196 E2.97408
G1 X192.479 Y175.196 E3.12415
G1 X192.479 Y174.683 E3.1482
G1 X189.492 Y174.683 E3.28831
G1 X189.534 Y174.58 E3.29353
G1 X189.849 Y174.17 E3.31776
G1 X192.479 Y174.17 E3.44112
G1 X192.479 Y173.657 E3.46517
G1 X190.295 Y173.657 E3.5676
G1 X190.963 Y173.144 E3.6071
G1 X192.699 Y173.144 E3.68853
G92 E0
G1 E-0.9 F2100
G1 Z0.61875 F8700
G1 X192.725 Y124.625
G1 Z0.21875
G1 E0 F120
G1 F2250
G1 X191.887 Y124.515 E0.03965
G1 X190.867 Y124.092 E0.09142
G1 X189.991 Y123.42 E0.14319
G1 X189.319 Y122.544 E0.19497
G1 X188.897 Y121.524 E0.24674
G1 X188.753 Y120.43 E0.29852
G1 X188.897 Y119.336 E0.35029
G1 X189.319 Y118.316 E0.40207
G1 X189.991 Y117.44 E0.45384
G1 X190.867 Y116.768 E0.50562
G1 X191.887 Y116.345 E0.55739
G1 X192.982 Y116.201 E0.60917
G1 X194.076 Y116.345 E0.66094
G1 X195.096 Y116.768 E0.71272
G1 X195.972 Y117.44 E0.76449
G1 X196.644 Y118.316 E0.81627
G1 X197.066 Y119.336 E0.86804
G1 X197.177 Y120.179 E0.90795
G1 X192.725 Y120.173 E1.11675
G1 X192.725 Y124.565 E1.32273
G1 X192.699 Y124.15 F8700
G1 F2250
G1 X191.649 Y124.15 E1.37198
G1 X190.991 Y123.877 E1.40539
G1 X190.678 Y123.637 E1.4239
G1 X192.479 Y123.637 E1.50835
G1 X192.479 Y123.124 E1.5324
G1 X190.075 Y123.124 E1.64518
G1 X189.681 Y122.611 E1.67549
G1 X192.479 Y122.611 E1.80672
G1 X192.479 Y122.098 E1.83077
G1 X189.401 Y122.098 E1.97513
G1 X189.189 Y121.586 E2.00116
G1 X192.479 Y121.586 E2.15548
G1 X192.479 Y121.073 E2.17953
G1 X189.086 Y121.073 E2.33867
G1 X189.018 Y120.56 E2.36293
G1 X192.479 Y120.56 E2.52525
G1 X192.479 Y120.047 E2.5493
G1 X189.052 Y120.047 E2.71005
G1 X189.119 Y119.535 E2.73431
G1 X196.844 Y119.535 E3.09663
G1 X196.826 Y119.4 E3.103
G1 X196.67 Y119.022 E3.12219
G1 X189.293 Y119.022 E3.46816
G1 X189.506 Y118.509 E3.49419
G1 X196.457 Y118.509 E3.82023
G1 X196.429 Y118.44 E3.82374
G1 X196.088 Y117.996 E3.84996
G1 X189.875 Y117.996 E4.14138
G1 X190.167 Y117.615 E4.16389
G1 X190.339 Y117.483 E4.17407
G1 X195.624 Y117.483 E4.42194
G1 X194.972 Y116.983 E4.4605
G1 X194.942 Y116.971 E4.46201
G1 X191.021 Y116.971 E4.64591
G1 X191.951 Y116.585 E4.69314
G1 X192.919 Y116.458 E4.73893
G1 X194.28 Y116.458 E4.80276
G92 E0
G1 E-0.9 F2100
G1 Z0.61875 F8700
G1 X111.247 Y120.43
G1 Z0.21875
G1 E0 F120
G1 F2250
G1 X111.103 Y121.524 E0.05177
G1 X110.681 Y122.544 E0.10355
G1 X110.009 Y123.42 E0.15532
G1 X109.133 Y124.092 E0.2071
G1 X108.113 Y124.515 E0.25887
G1 X107.275 Y124.625 E0.29852
G1 X107.275 Y120.173 E0.50731
G1 X102.823 Y120.179 E0.71612
G1 X102.934 Y119.336 E0.75602
G1 X103.356 Y118.316 E0.8078
G1 X104.028 Y117.44 E0.85957
G1 X104.904 Y116.768 E0.91135
G1 X105.924 Y116.345 E0.96312
G1 X107.018 Y116.201 E1.0149
G1 X108.113 Y116.345 E1.06667
G1 X109.133 Y116.768 E1.11844
G1 X110.009 Y117.44 E1.17022
G1 X110.681 Y118.316 E1.22199
G1 X111.103 Y119.336 E1.27377
G1 X111.239 Y120.371 E1.32273
G92 E0
G1 E-0.9 F2100
G1 Z0.61875 F8700
G1 X108.927 Y124.15
G1 Z0.21875
G1 E0 F120
G1 F2250
G1 X107.521 Y124.15 E0.06594
G1 X107.521 Y123.637 E0.08999
G1 X109.322 Y123.637 E0.17444
G1 X109.833 Y123.245 E0.20467
G1 X109.925 Y123.124 E0.21179
G1 X107.521 Y123.124 E0.32456
G1 X107.521 Y122.611 E0.34862
G1 X110.319 Y122.611 E0.47984
G1 X110.466 Y122.42 E0.49114
G1 X110.599 Y122.098 E0.50747
G1 X107.521 Y122.098 E0.65183
G1 X107.521 Y121.586 E0.67588
G1 X110.811 Y121.586 E0.83019
G1 X110.863 Y121.46 E0.83657
G1 X110.914 Y121.073 E0.85489
G1 X107.521 Y121.073 E1.01403
G1 X107.521 Y120.56 E1.03809
G1 X110.982 Y120.56 E1.2004
G1 X110.999 Y120.43 E1.20655
G1 X110.948 Y120.047 E1.22466
G1 X107.521 Y120.047 E1.38541
G1 X107.521 Y119.927 E1.39106
G1 X103.104 Y119.933 E1.59825
G1 X103.156 Y119.535 E1.61708
G1 X110.881 Y119.535 E1.9794
G1 X110.863 Y119.4 E1.98577
G1 X110.707 Y119.022 E2.00496
G1 X103.33 Y119.022 E2.35092
G1 X103.543 Y118.509 E2.37696
G1 X110.494 Y118.509 E2.703
G1 X110.466 Y118.44 E2.70651
G1 X110.125 Y117.996 E2.73273
G1 X103.912 Y117.996 E3.02415
G1 X104.204 Y117.615 E3.04666
G1 X104.376 Y117.483 E3.05684
G1 X109.661 Y117.483 E3.30471
G1 X109.009 Y116.983 E3.34327
G1 X108.979 Y116.971 E3.34478
G1 X105.058 Y116.971 E3.52868
G1 X105.988 Y116.585 E3.57591
G1 X106.956 Y116.458 E3.6217
G1 X108.317 Y116.458 E3.68553
M104 S250 ; set temperature
G92 E0
G1 E-0.9 F2100
G1 Z0.61875 F8700
; printing object Accent Set.stl id:0 copy 0
EXCLUDE_OBJECT_START NAME=Accent_Set_stl_id_0_copy_0
G1 X106.738 Y120.71
G1 Z0.21875
G1 E0 F120
;TYPE:External perimeter
;HEIGHT:0.21875
G1 F2400
G1 X106.738 Y176.29 E2.59336
G1 X102.277 Y176.29 E2.80152
G1 X102.054 Y176.268 E2.81199
G1 X101.767 Y176.163 E2.82622
G1 X101.529 Y175.984 E2.84013
G1 X101.4 Y175.827 E2.84963
G1 X101.301 Y175.641 E2.85946
G1 X101.23 Y175.352 E2.87337
G1 X101.223 Y121.764 E5.3738
G1 X101.245 Y121.547 E5.38394
G1 X101.304 Y121.353 E5.39344
G1 X101.4 Y121.173 E5.40294
G1 X101.529 Y121.016 E5.41244
G1 X101.767 Y120.837 E5.42635
G1 X101.962 Y120.756 E5.43617
G1 X102.162 Y120.716 E5.44568
G1 X106.678 Y120.71 E5.65643
;WIPE_START
G1 X106.539 Y121.057 F8700
;WIPE_END
G92 E0
G1 E-0.9 F2100
G1 Z0.61875 F8700
G1 X105.841 Y122.941
G1 Z0.21875
G1 E0 F120
G1 F2399.238
G1 X105.7 Y122.602 E0.01712
G1 X105.497 Y122.297 E0.03425
G1 X105.237 Y122.037 E0.05137
G1 X104.932 Y121.833 E0.06849
G1 X104.593 Y121.693 E0.08562
G1 X104.233 Y121.621 E0.10274
G1 X103.866 Y121.621 E0.11986
G1 X103.506 Y121.693 E0.13698
G1 X103.167 Y121.833 E0.15411
G1 X102.862 Y122.037 E0.17123
G1 X102.602 Y122.297 E0.18835
G1 X102.399 Y122.602 E0.20548
G1 X102.258 Y122.941 E0.2226
G1 X102.187 Y123.301 E0.23972
G1 X102.187 Y123.668 E0.25685
G1 X102.258 Y124.028 E0.27397
G1 X102.399 Y124.367 E0.29109
G1 X102.602 Y124.672 E0.30821
G1 X102.862 Y124.931 E0.32534
G1 X103.167 Y125.135 E0.34246
G1 X103.506 Y125.276 E0.35958
G1 X103.866 Y125.347 E0.37671
G1 X104.233 Y125.347 E0.39383
G1 X104.593 Y125.276 E0.41095
G1 X104.932 Y125.135 E0.42808
G1 X105.237 Y124.931 E0.4452
G1 X105.497 Y124.672 E0.46232
G1 X105.7 Y124.367 E0.47944
