; generated by SuperSlicer 2.5.59 on 2023-03-19 at 18:05:52 UTC


;
;

;
;
; 

; external perimeters extrusion width = 0.45mm
; perimeters extrusion width = 0.45mm
; infill extrusion width = 0.45mm
; solid infill extrusion width = 0.45mm
; top infill extrusion width = 0.45mm
; first layer extrusion width = 0.60mm

; object:{"name":"Angry_CAM_Front_Mount","id":"Angry_CAM_Front_Mount.stl id:0 copy 0","object_center":[150.000000,148.500000,0.000000],"boundingbox_center":[150.000000,148.500000,10.500000],"boundingbox_size":[126.681267,20.000000,21.000000]}
EXCLUDE_OBJECT_DEFINE NAME=Angry_CAM_Front_Mount_stl_id_0_copy_0 CENTER=150.000000,148.500000 POLYGON=[[86.659360,151.800528],[86.659624,140.500000],[86.698048,140.109824],[86.811856,139.734640],[86.996672,139.388848],[87.245408,139.085792],[87.548480,138.837072],[87.894256,138.652240],[88.269440,138.538416],[88.659624,138.500000],[211.340384,138.500000],[211.730560,138.538416],[212.105744,138.652240],[212.451520,138.837072],[212.754592,139.085792],[213.003312,139.388848],[213.188144,139.734640],[213.301952,140.109824],[213.340384,140.500000],[213.340640,151.800528],[213.340384,156.500000],[213.301952,156.890176],[213.188144,157.265360],[213.003312,157.611152],[212.754592,157.914208],[212.451520,158.162928],[212.105744,158.347760],[211.730560,158.461584],[211.340384,158.500000],[88.659624,158.500000],[88.269440,158.461584],[87.894256,158.347760],[87.548480,158.162928],[87.245408,157.914208],[86.996672,157.611152],[86.811856,157.265360],[86.698048,156.890176],[86.659624,156.500000],[86.659360,151.800528]]
; plater:{"center":[150.000000,148.500000,0.000000],"boundingbox_center":[150.000000,148.500000,10.500000],"boundingbox_size":[126.681267,20.000000,21.000000]}

;TYPE:Custom
SET_PRINT_STATS_INFO TOTAL_LAYER=96

M104 S0 ; Stops SuperSlicer from sending temp waits separately

M109 S0

M140 S0

print_start EXTRUDER=250 BED=105 CHAMBER=0
G21 ; set units to millimeters
G90 ; use absolute coordinates
M82 ; use absolute distances for extrusion
G92 E0
; Filament gcode
;_TOOLCHANGE 0
M107
;LAYER_CHANGE
;Z:0.21875
;HEIGHT:0.21875
TIMELAPSE_TAKE_FRAME
;BEFORE_LAYER_CHANGE
;0.21875


G1 E-0.8 F2400
G1 Z0.2 F8700
G1 Z0.21875
SET_PRINT_STATS_INFO CURRENT_LAYER=1
;AFTER_LAYER_CHANGE
;0.21875
G92 E0
G1 Z0.41875
G1 X86.838 Y136.825
G1 Z0.21875
G1 E0.8 F2400
;TYPE:Skirt
;WIDTH:0.54
G1 F1950
G1 X85.992 Y137.385 E0.84549
G1 X85.589 Y137.784 E0.87093
G1 X84.955 Y138.739 E0.92234
G1 X84.628 Y139.743 E0.96969
G1 X84.557 Y140.436 E1.00093
G1 X84.557 Y156.571 E1.72445
G1 X84.642 Y157.325 E1.75845
G1 X84.984 Y158.321 E1.80571
G1 X85.544 Y159.168 E1.8512
G1 X85.944 Y159.57 E1.87664
G1 X86.359 Y159.894 E1.90027
G1 X87.35 Y160.387 E1.9499
G1 X88.596 Y160.602 E2.00657
G1 X211.412 Y160.602 E7.5138
G1 X212.165 Y160.517 E7.5478
G1 X213.162 Y160.175 E7.59505
G1 X214.008 Y159.615 E7.64055
G1 X214.411 Y159.216 E7.66599
G1 X215.045 Y158.261 E7.7174
G1 X215.372 Y157.257 E7.76474
G1 X215.443 Y156.564 E7.79598
G1 X215.443 Y140.436 E8.51918
G1 X215.228 Y139.191 E8.57585
G1 X214.764 Y138.242 E8.62318
G1 X214.457 Y137.832 E8.64617
G1 X214.008 Y137.384 E8.67461
G1 X213.093 Y136.791 E8.72351
G1 X212.106 Y136.47 E8.77005
G1 X211.427 Y136.4 E8.80066
G1 X88.588 Y136.398 E14.30889
G1 X87.835 Y136.483 E14.34289
G1 X86.895 Y136.805 E14.38746
G1 X87.058 Y137.269 F8700
G1 F1950
G1 X87.031 Y137.278 E14.38875
G1 X86.292 Y137.775 E14.42869
G1 X85.978 Y138.087 E14.44853
G1 X85.412 Y138.923 E14.49381
G1 X85.117 Y139.806 E14.53554
G1 X85.05 Y140.436 E14.56395
G1 X85.05 Y156.571 E15.28748
G1 X85.13 Y157.255 E15.31834
G1 X85.438 Y158.129 E15.35988
G1 X85.935 Y158.868 E15.39982
G1 X86.247 Y159.182 E15.41966
G1 X86.662 Y159.506 E15.44329
G1 X87.535 Y159.93 E15.4868
G1 X88.596 Y160.11 E15.53505
G1 X211.412 Y160.11 E21.04227
G1 X212.095 Y160.029 E21.07314
G1 X212.969 Y159.722 E21.11468
G1 X213.708 Y159.225 E21.15462
G1 X214.022 Y158.913 E21.17446
G1 X214.588 Y158.077 E21.21974
G1 X214.883 Y157.194 E21.26147
G1 X214.95 Y156.564 E21.28989
G1 X214.95 Y140.436 E22.01309
G1 X214.771 Y139.375 E22.06133
G1 X214.37 Y138.538 E22.10295
G1 X214.062 Y138.128 E22.12594
G1 X213.713 Y137.778 E22.14812
G1 X212.908 Y137.248 E22.19131
G1 X212.041 Y136.958 E22.23229
G1 X211.427 Y136.892 E22.26002
G1 X88.588 Y136.89 E27.76824
G1 X87.905 Y136.971 E27.79911
G1 X87.115 Y137.249 E27.83667
G92 E0
G1 E-0.8 F2400
G1 Z0.41875 F8700
G1 X88.098 Y139.509
G1 Z0.21875
G1 E0 F2400
;WIDTH:0.6
;HEIGHT:0.22
G1 F1950
G1 X88.332 Y139.409 E0.01283
G1 X88.366 Y139.4 E0.01465
G1 X88.63 Y139.362 E0.02814
G1 X88.65 Y139.36 E0.02913
G1 X109.689 Y139.362 E1.0929
G1 X109.707 Y139.364 E1.09382
G1 X109.93 Y139.393 E1.10516
G1 X109.964 Y139.402 E1.10693
G1 X110.199 Y139.497 E1.11976
G1 X110.23 Y139.514 E1.12158
G1 X110.451 Y139.68 E1.13556
G1 X110.479 Y139.708 E1.13755
G1 X110.645 Y139.929 E1.15153
G1 X110.663 Y139.961 E1.15335
G1 X110.758 Y140.196 E1.16619
G1 X110.767 Y140.231 E1.16798
G1 X110.798 Y140.474 E1.18037
G1 X110.799 Y140.491 E1.18126
G1 X110.799 Y156.509 E1.99113
G1 X110.798 Y156.526 E1.99202
G1 X110.767 Y156.769 E2.00441
G1 X110.758 Y156.804 E2.0062
G1 X110.662 Y157.041 E2.01911
G1 X110.643 Y157.074 E2.02106
G1 X110.461 Y157.307 E2.03602
G1 X110.436 Y157.332 E2.0378
G1 X110.251 Y157.474 E2.04957
G1 X110.221 Y157.491 E2.05134
G1 X109.988 Y157.591 E2.06418
G1 X109.953 Y157.6 E2.06599
G1 X109.689 Y157.638 E2.07948
G1 X109.669 Y157.64 E2.08047
G1 X88.651 Y157.64 E3.14319
G1 X88.633 Y157.638 E3.14409
G1 X88.39 Y157.607 E3.15647
G1 X88.356 Y157.598 E3.15826
G1 X88.119 Y157.503 E3.17117
G1 X88.086 Y157.483 E3.17313
G1 X87.852 Y157.302 E3.18808
G1 X87.828 Y157.277 E3.18986
G1 X87.686 Y157.092 E3.20163
G1 X87.668 Y157.062 E3.2034
G1 X87.569 Y156.828 E3.21624
G1 X87.559 Y156.793 E3.21805
G1 X87.521 Y156.529 E3.23154
G1 X87.52 Y156.51 E3.23253
G1 X87.52 Y140.491 E4.04245
G1 X87.521 Y140.474 E4.04334
G1 X87.552 Y140.231 E4.05573
G1 X87.561 Y140.196 E4.05752
G1 X87.657 Y139.959 E4.07043
G1 X87.676 Y139.926 E4.07238
G1 X87.858 Y139.693 E4.08734
G1 X87.883 Y139.668 E4.08912
G1 X88.048 Y139.541 E4.09962
G92 E0
G1 E-0.8 F2400
G1 Z0.41875 F8700
G1 X189.201 Y140.491
G1 Z0.21875
G1 E0 F2400
G1 F1950
G1 X189.202 Y140.474 E0.00089
G1 X189.233 Y140.231 E0.01328
G1 X189.242 Y140.196 E0.01507
G1 X189.338 Y139.959 E0.02798
G1 X189.357 Y139.926 E0.02993
G1 X189.539 Y139.693 E0.04489
G1 X189.564 Y139.668 E0.04667
G1 X189.749 Y139.526 E0.05844
G1 X189.779 Y139.509 E0.06021
G1 X190.012 Y139.409 E0.07304
G1 X190.047 Y139.4 E0.07486
G1 X190.311 Y139.362 E0.08835
G1 X190.331 Y139.36 E0.08934
G1 X211.37 Y139.362 E1.15311
G1 X211.388 Y139.364 E1.15403
G1 X211.61 Y139.393 E1.16537
G1 X211.644 Y139.402 E1.16714
G1 X211.88 Y139.497 E1.17997
G1 X211.911 Y139.514 E1.18179
G1 X212.132 Y139.68 E1.19577
G1 X212.16 Y139.708 E1.19776
G1 X212.326 Y139.929 E1.21174
G1 X212.344 Y139.961 E1.21356
G1 X212.439 Y140.196 E1.2264
G1 X212.448 Y140.231 E1.22819
G1 X212.479 Y140.474 E1.24058
G1 X212.48 Y140.491 E1.24147
G1 X212.48 Y156.509 E2.05134
G1 X212.479 Y156.526 E2.05223
G1 X212.448 Y156.769 E2.06462
G1 X212.439 Y156.804 E2.06641
G1 X212.343 Y157.041 E2.07932
G1 X212.324 Y157.074 E2.08127
G1 X212.142 Y157.307 E2.09623
G1 X212.117 Y157.332 E2.09801
G1 X211.932 Y157.474 E2.10978
G1 X211.902 Y157.491 E2.11155
G1 X211.668 Y157.591 E2.12438
G1 X211.634 Y157.6 E2.1262
G1 X211.37 Y157.638 E2.13968
G1 X211.35 Y157.64 E2.14068
G1 X190.332 Y157.64 E3.2034
G1 X190.314 Y157.638 E3.20429
G1 X190.071 Y157.607 E3.21668
G1 X190.037 Y157.598 E3.21847
G1 X189.8 Y157.503 E3.23138
G1 X189.766 Y157.483 E3.23333
G1 X189.533 Y157.302 E3.24829
G1 X189.508 Y157.277 E3.25007
G1 X189.367 Y157.092 E3.26184
G1 X189.349 Y157.062 E3.26361
G1 X189.25 Y156.828 E3.27645
G1 X189.24 Y156.793 E3.27826
G1 X189.202 Y156.529 E3.29175
G1 X189.201 Y156.51 E3.29274
G1 X189.201 Y140.551 E4.09962
G92 E0
G1 E-0.8 F2400
G1 Z0.41875 F8700
G1 X187.204 Y142.663
G1 Z0.21875
G1 E0 F2400
G1 F1950
G1 X187.226 Y142.686 E0.00162
G1 X187.561 Y143.146 E0.0304
G1 X187.574 Y143.169 E0.03173
G1 X187.833 Y143.719 E0.06246
G1 X187.841 Y143.74 E0.06359
G1 X188.031 Y144.41 E0.09879
G1 X188.125 Y144.959 E0.12695
G1 X188.196 Y145.624 E0.1608
G1 X188.236 Y147.144 E0.23763
G1 X188.236 Y149.856 E0.3748
G1 X188.196 Y151.387 E0.4522
G1 X188.125 Y152.041 E0.48548
G1 X188.032 Y152.586 E0.51343
G1 X187.893 Y153.114 E0.54104
G1 X187.779 Y153.407 E0.55694
G1 X187.574 Y153.831 E0.58075
G1 X187.563 Y153.85 E0.58184
G1 X187.288 Y154.247 E0.60625
G1 X187.267 Y154.271 E0.6079
G1 X186.899 Y154.599 E0.6328
G1 X186.878 Y154.615 E0.63413
G1 X186.725 Y154.705 E0.6431
G1 X186.479 Y154.818 E0.65681
G1 X186.451 Y154.828 E0.65828
G1 X186.166 Y154.891 E0.67304
G1 X185.966 Y154.909 E0.6832
G1 X113.952 Y154.909 E4.3243
G1 X113.664 Y154.879 E4.33896
G1 X113.635 Y154.872 E4.34044
G1 X113.374 Y154.786 E4.35436
G1 X113.354 Y154.777 E4.35544
G1 X113.052 Y154.622 E4.37262
G1 X113.023 Y154.602 E4.37439
G1 X112.653 Y154.271 E4.39951
G1 X112.631 Y154.247 E4.40116
G1 X112.356 Y153.849 E4.42561
G1 X112.344 Y153.829 E4.42677
G1 X112.086 Y153.281 E4.45743
G1 X112.078 Y153.26 E4.45856
G1 X111.888 Y152.59 E4.49376
G1 X111.795 Y152.041 E4.52191
G1 X111.723 Y151.378 E4.55566
G1 X111.689 Y150.426 E4.60382
G1 X111.683 Y147.144 E4.76975
G1 X111.723 Y145.624 E4.84663
G1 X111.841 Y144.628 E4.89734
G1 X111.968 Y144.1 E4.92479
G1 X112.08 Y143.736 E4.94405
G1 X112.087 Y143.718 E4.94503
G1 X112.344 Y143.171 E4.9756
G1 X112.356 Y143.151 E4.97677
G1 X112.631 Y142.753 E5.00121
G1 X112.653 Y142.729 E5.00287
G1 X113.02 Y142.401 E5.02777
G1 X113.041 Y142.385 E5.0291
G1 X113.181 Y142.302 E5.03732
G1 X113.44 Y142.182 E5.05177
G1 X113.468 Y142.172 E5.05325
G1 X113.753 Y142.109 E5.06801
G1 X113.953 Y142.091 E5.07816
G1 X185.966 Y142.091 E8.71923
G1 X186.183 Y142.112 E8.73024
G1 X186.454 Y142.173 E8.74427
G1 X186.486 Y142.185 E8.74602
G1 X186.865 Y142.377 E8.76749
G1 X186.892 Y142.395 E8.76916
G1 X187.159 Y142.624 E8.7869
M104 S250 ; set temperature
G92 E0
G1 E-0.8 F2400
G1 Z0.41875 F8700
; printing object Angry_CAM_Front_Mount.stl id:0 copy 0
EXCLUDE_OBJECT_START NAME=Angry_CAM_Front_Mount_stl_id_0_copy_0
G1 X189.849 Y140.232
G1 Z0.21875
G1 E0 F2400
;TYPE:External perimeter
;HEIGHT:0.21875
G1 F2100
G1 X189.959 Y140.091 E0.00898
G1 X190.055 Y140.017 E0.01509
G1 X190.185 Y139.962 E0.02219
G1 X190.362 Y139.937 E0.03115
G1 X211.331 Y139.939 E1.08587
G1 X211.48 Y139.957 E1.09343
G1 X211.611 Y140.01 E1.10052
G1 X211.736 Y140.104 E1.10841
G1 X211.83 Y140.229 E1.11629
G1 X211.883 Y140.36 E1.12336
G1 X211.904 Y140.519 E1.13145
G1 X211.904 Y156.481 E1.93428
G1 X211.883 Y156.64 E1.94237
G1 X211.832 Y156.768 E1.9493
G1 X211.722 Y156.909 E1.95828
G1 X211.625 Y156.983 E1.96438
G1 X211.496 Y157.038 E1.97148
G1 X211.319 Y157.063 E1.98045
G1 X190.36 Y157.063 E3.03467
G1 X190.2 Y157.043 E3.04275
G1 X190.072 Y156.991 E3.04968
G1 X189.932 Y156.881 E3.05866
G1 X189.858 Y156.785 E3.06477
G1 X189.802 Y156.655 E3.07187
G1 X189.777 Y156.479 E3.08084
G1 X189.777 Y140.519 E3.88356
G1 X189.798 Y140.36 E3.89165
G1 X189.827 Y140.288 E3.89556
;WIPE_START
G1 X190.249 Y140.25 F8700
;WIPE_END
G92 E0
G1 E-0.8 F2400
G1 Z0.41875 F8700
G1 X189.856 Y144.294
G1 Z0.21875
G1 E0 F2400
G1 F2100
G1 X191.054 Y145.599 E0.08911
G1 X191.958 Y144.83 E0.14879
G1 X192.675 Y144.309 E0.19337
G1 X193.429 Y143.844 E0.23795
G1 X194.217 Y143.437 E0.28253
G1 X195.033 Y143.091 E0.32711
G1 X195.873 Y142.808 E0.37169
G1 X196.732 Y142.59 E0.41627
G1 X197.346 Y142.483 E0.44764
G1 X197.605 Y142.437 E0.46085
G1 X198.487 Y142.352 E0.50543
G1 X199.373 Y142.333 E0.55001
G1 X200.558 Y142.399 E0.6097
G1 X200.722 Y140.635 E0.69881
G1 X199.403 Y140.562 E0.76526
G1 X198.383 Y140.583 E0.8166
G1 X197.367 Y140.682 E0.86795
G1 X196.361 Y140.857 E0.9193
G1 X195.371 Y141.109 E0.97065
G1 X194.404 Y141.435 E1.022
G1 X193.464 Y141.833 E1.07335
G1 X192.557 Y142.302 E1.1247
G1 X191.688 Y142.838 E1.17605
G1 X190.862 Y143.438 E1.2274
G1 X189.902 Y144.255 E1.29083
;WIPE_START
G1 X189.558 Y144.56 F8700
;WIPE_END
G92 E0
G1 E-0.8 F2400
G1 Z0.41875 F8700
G1 X190.33 Y156.51
G1 Z0.21875
G1 E0 F2400
;TYPE:Internal perimeter
G1 F2100
G1 X190.33 Y145.628 E0.54733
G1 X191.007 Y146.365 E0.59764
G1 X192.3 Y145.265 E0.68304
G1 X192.983 Y144.769 E0.72551
G1 X193.702 Y144.325 E0.76797
G1 X194.452 Y143.938 E0.81044
G1 X195.229 Y143.608 E0.8529
G1 X196.029 Y143.339 E0.89537
G1 X196.847 Y143.131 E0.93784
G1 X197.679 Y142.986 E0.9803
G1 X198.52 Y142.904 E1.02277
G1 X199.364 Y142.887 E1.06523
G1 X201.059 Y142.98 E1.15064
G1 X201.291 Y140.491 E1.27638
G1 X211.35 Y140.492 E1.78233
G1 X211.35 Y156.51 E2.58801
G1 X190.39 Y156.51 E3.64227
G1 X190.883 Y155.957 F8700
G1 F2100
G1 X190.883 Y147.196 E4.08294
G1 X191.438 Y146.724 E4.11955
G1 X191.712 Y146.895 E4.13581
G1 X191.49 Y147.774 E4.1814
G1 X191.429 Y148.5 E4.21804
G1 X191.49 Y149.226 E4.25469
G1 X191.668 Y149.932 E4.29133
G1 X191.961 Y150.599 E4.32797
G1 X192.36 Y151.209 E4.36461
G1 X192.853 Y151.745 E4.40126
G1 X193.428 Y152.193 E4.4379
G1 X194.069 Y152.539 E4.47454
G1 X194.758 Y152.776 E4.51118
G1 X195.476 Y152.896 E4.54783
G1 X196.205 Y152.896 E4.58447
G1 X196.923 Y152.776 E4.62111
G1 X197.612 Y152.539 E4.65775
G1 X198.253 Y152.193 E4.69439
G1 X198.828 Y151.745 E4.73104
G1 X199.321 Y151.209 E4.76768
G1 X199.72 Y150.599 E4.80432
G1 X200.012 Y149.932 E4.84096
G1 X200.191 Y149.226 E4.87761
G1 X200.251 Y148.5 E4.91425
G1 X200.191 Y147.774 E4.95089
G1 X200.012 Y147.068 E4.98753
G1 X199.72 Y146.401 E5.02417
G1 X199.321 Y145.791 E5.06082
G1 X198.828 Y145.255 E5.09746
G1 X198.253 Y144.807 E5.1341
G1 X197.612 Y144.461 E5.17074
G1 X196.923 Y144.224 E5.20739
G1 X196.498 Y144.153 E5.22906
G1 X196.483 Y143.794 E5.24712
G1 X196.963 Y143.672 E5.27204
G1 X197.754 Y143.534 E5.31239
G1 X198.552 Y143.457 E5.35274
G1 X199.354 Y143.44 E5.3931
G1 X201.56 Y143.562 E5.50422
G1 X201.795 Y141.044 E5.6314
G1 X210.797 Y141.045 E6.08419
G1 X210.797 Y155.957 E6.83424
G1 X190.943 Y155.957 E7.83286
G92 E0
G1 E-0.8 F2400
G1 Z0.41875 F8700
G1 X199.096 Y147.957
G1 Z0.21875
G1 E0 F2400
;TYPE:External perimeter
G1 F2100
G1 X198.963 Y147.428 E0.02742
G1 X198.744 Y146.929 E0.05484
G1 X198.445 Y146.472 E0.08227
G1 X198.076 Y146.071 E0.10969
G1 X197.646 Y145.736 E0.13711
G1 X197.166 Y145.477 E0.16453
G1 X196.651 Y145.3 E0.19196
G1 X196.113 Y145.21 E0.21938
G1 X195.568 Y145.21 E0.2468
G1 X195.03 Y145.3 E0.27422
G1 X194.514 Y145.477 E0.30164
G1 X194.035 Y145.736 E0.32907
G1 X193.605 Y146.071 E0.35649
G1 X193.235 Y146.472 E0.38391
G1 X192.937 Y146.929 E0.41133
G1 X192.718 Y147.428 E0.43875
G1 X192.584 Y147.957 E0.46618
G1 X192.539 Y148.5 E0.4936
G1 X192.584 Y149.043 E0.52102
G1 X192.718 Y149.572 E0.54844
G1 X192.937 Y150.071 E0.57587
G1 X193.235 Y150.528 E0.60329
G1 X193.605 Y150.929 E0.63071
G1 X194.035 Y151.264 E0.65813
G1 X194.514 Y151.523 E0.68555
G1 X195.03 Y151.7 E0.71298
G1 X195.568 Y151.79 E0.7404
G1 X196.113 Y151.79 E0.76782
G1 X196.651 Y151.7 E0.79524
G1 X197.166 Y151.523 E0.82267
G1 X197.646 Y151.264 E0.85009
G1 X198.076 Y150.929 E0.87751
G1 X198.445 Y150.528 E0.90493
G1 X198.744 Y150.071 E0.93235
G1 X198.963 Y149.572 E0.95978
G1 X199.096 Y149.043 E0.9872
G1 X199.141 Y148.5 E1.01462
G1 X199.101 Y148.016 E1.03902
;WIPE_START
G1 X199.398 Y147.694 F8700
;WIPE_END
G1 X199.647 Y147.906
;TYPE:Internal perimeter
G1 F2100
G1 X199.644 Y147.865 E1.04106
G1 X199.487 Y147.248 E1.07309
G1 X199.232 Y146.665 E1.10512
G1 X198.883 Y146.132 E1.13716
G1 X198.452 Y145.663 E1.16919
G1 X197.949 Y145.272 E1.20122
G1 X197.389 Y144.969 E1.23325
G1 X196.787 Y144.762 E1.26529
G1 X196.159 Y144.657 E1.29732
G1 X195.522 Y144.657 E1.32935
G1 X194.894 Y144.762 E1.36138
G1 X194.291 Y144.969 E1.39341
G1 X193.731 Y145.272 E1.42545
G1 X193.229 Y145.663 E1.45748
G1 X192.797 Y146.132 E1.48951
G1 X192.449 Y146.665 E1.52154
G1 X192.193 Y147.248 E1.55358
G1 X192.037 Y147.865 E1.58561
G1 X191.984 Y148.5 E1.61764
G1 X192.037 Y149.135 E1.64967
G1 X192.193 Y149.752 E1.6817
G1 X192.449 Y150.335 E1.71374
G1 X192.797 Y150.868 E1.74577
G1 X193.229 Y151.337 E1.7778
G1 X193.731 Y151.728 E1.80983
G1 X194.291 Y152.031 E1.84187
G1 X194.894 Y152.238 E1.8739
