; generated by SuperSlicer 2.5.59 on 2023-04-16 at 03:06:00 UTC


;
;

;
;
; 

; external perimeters extrusion width = 0.46mm
; perimeters extrusion width = 0.46mm
; infill extrusion width = 0.46mm
; solid infill extrusion width = 0.46mm
; top infill extrusion width = 0.46mm
; support material extrusion width = 0.46mm
; first layer extrusion width = 0.58mm

; object:{"name":"BASE_V2","id":"BASE_V2.stl id:0 copy 0","object_center":[150.000000,148.500000,0.000000],"boundingbox_center":[150.000000,148.500000,6.503801],"boundingbox_size":[132.999512,46.179382,13.007603]}
EXCLUDE_OBJECT_DEFINE NAME=BASE_V2_stl_id_0_copy_0 CENTER=150.000000,148.500000 POLYGON=[[83.500248,130.580320],[83.528096,130.250216],[83.558136,130.106232],[83.610872,129.929432],[83.728424,129.660000],[83.746232,129.627064],[83.869136,129.441040],[83.930344,129.351656],[84.001096,129.267872],[84.242256,129.039872],[84.360120,128.952880],[84.615712,128.805296],[84.784400,128.733552],[84.921856,128.688704],[85.032000,128.659680],[85.057128,128.655016],[85.183976,128.631696],[85.296136,128.618024],[125.938848,125.410312],[174.061152,125.410312],[214.703872,128.618024],[214.816032,128.631696],[214.942864,128.655016],[214.968000,128.659680],[215.078160,128.688704],[215.215600,128.733552],[215.384288,128.805296],[215.639872,128.952880],[215.757744,129.039872],[215.998896,129.267872],[216.069664,129.351656],[216.130864,129.441088],[216.253776,129.627064],[216.271584,129.660000],[216.389136,129.929432],[216.441872,130.106232],[216.471904,130.250216],[216.499760,130.580320],[216.499760,169.624384],[214.765488,171.355344],[214.693952,171.418800],[214.599824,171.482480],[214.540256,171.513616],[214.406832,171.562432],[214.369200,171.571536],[214.284960,171.585152],[214.199760,171.589696],[85.800248,171.589696],[85.715040,171.585152],[85.630800,171.571536],[85.593168,171.562432],[85.459744,171.513616],[85.400240,171.482512],[85.400184,171.482480],[85.306048,171.418800],[85.234480,171.355312],[83.500248,169.624384],[83.500248,130.580320]]
; plater:{"center":[150.000000,148.500000,0.000000],"boundingbox_center":[150.000000,148.500000,6.503801],"boundingbox_size":[132.999512,46.179382,13.007603]}

;TYPE:Custom
SET_PRINT_STATS_INFO TOTAL_LAYER=65

M104 S0 ; Stops SuperSlicer from sending temp waits separately

M109 S0

M140 S0

print_start EXTRUDER=255 BED=105 CHAMBER=0
M107
G21 ; set units to millimeters
G90 ; use absolute coordinates
M82 ; use absolute distances for extrusion
G92 E0
; Filament gcode
;_TOOLCHANGE 0
M107
;LAYER_CHANGE
;Z:0.2
;HEIGHT:0.2
TIMELAPSE_TAKE_FRAME
;BEFORE_LAYER_CHANGE
;0.2


G1 Z0.2 F12000
SET_PRINT_STATS_INFO CURRENT_LAYER=1
;AFTER_LAYER_CHANGE
;0.2
G1 E-0.7 F2520
G1 Z0.4 F12000
M204 S2000
G1 X82.448 Y123.464
G1 Z0.2
G1 E0 F2340
;TYPE:Skirt
;WIDTH:0.54
G1 F3600
G1 X81.267 Y124.371 E0.06155
G1 X80.761 Y124.877 E0.09115
G1 X79.854 Y126.058 E0.1527
G1 X79.496 Y126.678 E0.18229
G1 X78.926 Y128.054 E0.24384
G1 X78.741 Y128.746 E0.27344
G1 X78.558 Y130.318 E0.33886
G1 X78.558 Y171.052 E2.02249
G1 X78.701 Y172.322 E2.07529
G1 X78.886 Y173.013 E2.10489
G1 X79.339 Y174.107 E2.1538
G1 X79.697 Y174.726 E2.18339
G1 X80.418 Y175.666 E2.23231
G1 X80.924 Y176.172 E2.26191
G1 X81.863 Y176.893 E2.31085
G1 X82.484 Y177.251 E2.34045
G1 X83.577 Y177.704 E2.38937
G1 X84.268 Y177.889 E2.41895
G1 X85.538 Y178.032 E2.47175
G1 X214.462 Y178.032 E7.8005
G1 X215.732 Y177.889 E7.8533
G1 X216.423 Y177.704 E7.88287
G1 X217.516 Y177.251 E7.93179
G1 X218.137 Y176.893 E7.9614
G1 X219.076 Y176.172 E8.01034
G1 X219.582 Y175.666 E8.03993
G1 X220.303 Y174.727 E8.08885
G1 X220.661 Y174.107 E8.11844
G1 X221.114 Y173.013 E8.16737
G1 X221.299 Y172.321 E8.19697
G1 X221.442 Y171.052 E8.24977
G1 X221.442 Y130.318 E9.93339
G1 X221.259 Y128.746 E9.99881
G1 X221.074 Y128.054 E10.02841
G1 X220.504 Y126.678 E10.08996
G1 X220.146 Y126.058 E10.11955
G1 X219.239 Y124.877 E10.1811
G1 X218.733 Y124.371 E10.2107
G1 X217.552 Y123.464 E10.27225
G1 X216.932 Y123.106 E10.30184
G1 X215.556 Y122.536 E10.36339
G1 X214.864 Y122.351 E10.39299
G1 X213.516 Y122.177 E10.44916
G1 X174.514 Y118.977 E12.06664
G1 X125.486 Y118.977 E14.09307
G1 X86.484 Y122.177 E15.71054
G1 X85.136 Y122.351 E15.76672
G1 X84.444 Y122.536 E15.79632
G1 X83.068 Y123.106 E15.85787
G1 X82.5 Y123.434 E15.88498
G1 X82.751 Y123.858 F12000
G1 F3600
G1 X81.57 Y124.765 E15.94653
G1 X81.155 Y125.18 E15.97076
G1 X80.248 Y126.361 E16.03232
G1 X79.955 Y126.869 E16.05654
G1 X79.385 Y128.245 E16.11809
G1 X79.234 Y128.811 E16.14232
G1 X79.055 Y130.318 E16.20507
G1 X79.055 Y171.052 E17.88869
G1 X79.194 Y172.257 E17.93881
G1 X79.346 Y172.823 E17.96304
G1 X80.092 Y174.424 E18.03604
G1 X81.227 Y175.778 E18.10906
G1 X82.674 Y176.792 E18.1821
G1 X84.333 Y177.396 E18.2551
G1 X85.538 Y177.535 E18.30522
G1 X214.462 Y177.535 E23.63396
G1 X215.667 Y177.396 E23.68408
G1 X216.233 Y177.244 E23.70829
G1 X217.834 Y176.498 E23.78131
G1 X218.773 Y175.778 E23.83025
G1 X219.908 Y174.424 E23.90326
G1 X220.201 Y173.916 E23.92749
G1 X220.806 Y172.256 E24.00051
G1 X220.945 Y171.052 E24.05063
G1 X220.945 Y130.318 E25.73425
G1 X220.766 Y128.811 E25.79699
G1 X220.615 Y128.245 E25.82122
G1 X220.045 Y126.869 E25.88277
G1 X219.752 Y126.361 E25.907
G1 X218.845 Y125.18 E25.96855
G1 X218.43 Y124.765 E25.99279
G1 X217.249 Y123.858 E26.05434
G1 X216.741 Y123.565 E26.07856
G1 X215.366 Y122.996 E26.14011
G1 X213.585 Y122.684 E26.21483
G1 X174.473 Y119.472 E27.83685
G1 X125.527 Y119.472 E29.85992
G1 X86.524 Y122.672 E31.4774
G1 X85.201 Y122.844 E31.53257
G1 X84.634 Y122.995 E31.5568
G1 X83.259 Y123.565 E31.61835
G1 X82.803 Y123.828 E31.6401
G1 X83.116 Y124.264 F12000
G1 F3600
G1 X81.872 Y125.159 E31.70346
G1 X80.643 Y126.664 E31.78376
G1 X79.845 Y128.435 E31.86405
G1 X79.552 Y130.318 E31.94283
G1 X79.552 Y171.052 E33.62645
G1 X79.687 Y172.192 E33.67389
G1 X80.258 Y173.726 E33.74156
G1 X81.206 Y175.06 E33.80923
G1 X82.469 Y176.104 E33.87692
G1 X83.958 Y176.785 E33.9446
G1 X85.538 Y177.038 E34.01074
G1 X214.462 Y177.038 E39.33949
G1 X216.042 Y176.785 E39.40563
G1 X217.531 Y176.104 E39.47331
G1 X218.471 Y175.383 E39.52225
G1 X219.514 Y174.121 E39.58992
G1 X219.742 Y173.726 E39.60879
G1 X220.313 Y172.192 E39.67646
G1 X220.448 Y171.052 E39.7239
G1 X220.448 Y130.318 E41.40752
G1 X220.155 Y128.435 E41.4863
G1 X219.357 Y126.664 E41.56659
G1 X218.451 Y125.482 E41.62814
G1 X218.128 Y125.159 E41.64701
G1 X216.551 Y124.025 E41.72731
G1 X215.175 Y123.455 E41.78886
G1 X213.52 Y123.177 E41.85823
G1 X174.433 Y119.968 E43.47924
G1 X125.567 Y119.968 E45.49896
G1 X86.565 Y123.168 E47.11643
G1 X84.825 Y123.455 E47.18934
G1 X83.449 Y124.025 E47.25089
G1 X83.165 Y124.229 E47.26534
G92 E0
G1 E-0.7 F2520
M204 S6000
G1 Z0.4 F12000
; acceleration to travel
M204 S7000
G1 X182.94 Y160.212
; decel to extrusion
M204 S2000
G1 X211.447 Y170.492
; end travel
G1 Z0.2
G1 E0 F2340
;WIDTH:0.58
G1 F3600
G1 X211.949 Y170.994 E0.03169
G1 X212.343 Y171.297 E0.05387
G1 X212.818 Y171.493 E0.07685
G1 X213.311 Y171.558 E0.09903
G1 X214.217 Y171.558 E0.13953
G1 X214.399 Y171.534 E0.14772
G1 X214.585 Y171.457 E0.15671
G1 X214.745 Y171.335 E0.16569
G1 X214.867 Y171.175 E0.17468
G1 X214.906 Y171.082 E0.17917
G1 X214.944 Y170.989 E0.18367
G1 X214.968 Y170.807 E0.19186
G1 X214.968 Y168.006 E0.31697
G1 X215.379 Y168.06 E0.33549
G1 X216.149 Y168.379 E0.37271
G1 X216.81 Y168.886 E0.40992
G1 X217.318 Y169.547 E0.44713
G1 X217.637 Y170.317 E0.48435
G1 X217.745 Y171.143 E0.52156
G1 X217.637 Y171.969 E0.55877
G1 X217.318 Y172.739 E0.59599
G1 X216.81 Y173.4 E0.6332
G1 X216.539 Y173.609 E0.64848
G1 X216.149 Y173.908 E0.67041
G1 X215.379 Y174.227 E0.70763
G1 X214.553 Y174.335 E0.74484
G1 X213.727 Y174.227 E0.78206
G1 X212.957 Y173.908 E0.81927
G1 X212.296 Y173.4 E0.85648
G1 X211.789 Y172.739 E0.8937
G1 X211.47 Y171.969 E0.93091
G1 X211.361 Y171.143 E0.96812
G1 X211.439 Y170.552 E0.99476
G92 E0
G1 E-0.7 F2520
M204 S6000
G1 Z0.4 F12000
; acceleration to travel
M204 S7000
G1 X212.388 Y172.958
; decel to extrusion
M204 S2000
G1 X212.659 Y173.645
; end travel
G1 Z0.2
G1 E0 F2340
G1 F3600
G1 X216.068 Y173.645 E0.15222
G1 X216.382 Y173.404 E0.1699
G1 X216.627 Y173.217 E0.18367
G1 X216.71 Y173.108 E0.18977
G1 X212.397 Y173.108 E0.38238
G1 X212.014 Y172.609 E0.41046
G1 X211.998 Y172.571 E0.41231
G1 X217.108 Y172.571 E0.64052
G1 X217.331 Y172.034 E0.66648
G1 X211.776 Y172.034 E0.91456
G1 X211.721 Y171.902 E0.92093
G1 X211.668 Y171.497 E0.93918
G1 X212.18 Y171.497 E0.96207
G1 X212.213 Y171.522 E0.96389
G1 X212.751 Y171.745 E0.9899
G1 X213.294 Y171.816 E1.01436
G1 X214.234 Y171.816 E1.05636
G1 X214.467 Y171.785 E1.06682
G1 X214.715 Y171.682 E1.07884
G1 X214.929 Y171.519 E1.09086
G1 X214.945 Y171.497 E1.09209
G1 X217.439 Y171.497 E1.20344
G1 X217.485 Y171.143 E1.21937
G1 X217.461 Y170.96 E1.22763
G1 X215.208 Y170.96 E1.32824
G1 X215.226 Y170.824 E1.33435
G1 X215.226 Y170.423 E1.35228
G1 X217.39 Y170.423 E1.44894
G1 X217.385 Y170.384 E1.45066
G1 X217.179 Y169.886 E1.47477
G1 X215.226 Y169.886 E1.56198
G1 X215.226 Y169.349 E1.58596
G1 X216.84 Y169.349 E1.65805
G1 X216.627 Y169.07 E1.67374
G1 X216.29 Y168.811 E1.6927
G1 X214.995 Y168.811 E1.75051
G92 E0
G1 E-0.7 F2520
M204 S6000
G1 Z0.4 F12000
; acceleration to travel
M204 S7000
G1 X116.656 Y170.545
; decel to extrusion
M204 S2000
G1 X88.559 Y171.04
; end travel
G1 Z0.2
G1 E0 F2340
G1 F3600
G1 X88.451 Y171.866 E0.03721
G1 X88.132 Y172.636 E0.07443
G1 X87.624 Y173.297 E0.11164
G1 X87.353 Y173.505 E0.12692
G1 X86.963 Y173.804 E0.14885
G1 X86.193 Y174.123 E0.18607
G1 X85.367 Y174.232 E0.22328
G1 X84.541 Y174.123 E0.2605
G1 X83.771 Y173.804 E0.29771
G1 X83.11 Y173.297 E0.33492
G1 X82.603 Y172.636 E0.37214
G1 X82.284 Y171.866 E0.40935
G1 X82.175 Y171.04 E0.44656
G1 X82.284 Y170.214 E0.48378
G1 X82.603 Y169.444 E0.52099
G1 X82.683 Y169.339 E0.5269
G1 X83.11 Y168.783 E0.5582
G1 X83.382 Y168.574 E0.57349
G1 X83.771 Y168.275 E0.59542
G1 X84.541 Y167.956 E0.63263
G1 X85.032 Y167.892 E0.65473
G1 X85.032 Y170.807 E0.78493
G1 X85.056 Y170.989 E0.79313
G1 X85.133 Y171.175 E0.80211
G1 X85.255 Y171.335 E0.8111
G1 X85.415 Y171.457 E0.82009
G1 X85.502 Y171.493 E0.8243
G1 X85.601 Y171.534 E0.82907
G1 X85.783 Y171.558 E0.83727
G1 X86.689 Y171.558 E0.87776
G1 X87.182 Y171.493 E0.89995
G1 X87.46 Y171.378 E0.91341
G1 X87.657 Y171.297 E0.92292
G1 X88.051 Y170.994 E0.94511
G1 X88.495 Y170.551 E0.97312
G1 X88.551 Y170.98 E0.99247
G92 E0
G1 E-0.7 F2520
M204 S6000
G1 Z0.4 F12000
; acceleration to travel
M204 S7000
G1 X87.559 Y172.964
; decel to extrusion
M204 S2000
G1 X87.275 Y173.531
; end travel
G1 Z0.2
G1 E0 F2340
G1 F3600
G1 X83.839 Y173.531 E0.15344
G1 X83.294 Y173.113 E0.18412
G1 X83.203 Y172.994 E0.19081
G1 X87.532 Y172.994 E0.38413
G1 X87.906 Y172.506 E0.41162
G1 X87.927 Y172.457 E0.41398
G1 X82.808 Y172.457 E0.64257
G1 X82.585 Y171.92 E0.66854
G1 X88.149 Y171.92 E0.917
G1 X88.199 Y171.799 E0.92287
G1 X88.254 Y171.383 E0.94159
G1 X87.968 Y171.383 E0.95436
G1 X87.787 Y171.522 E0.96455
G1 X87.559 Y171.616 E0.97558
G1 X87.249 Y171.745 E0.99055
G1 X86.706 Y171.816 E1.01501
G1 X85.766 Y171.816 E1.05701
G1 X85.533 Y171.785 E1.06748
G1 X85.403 Y171.732 E1.07376
G1 X85.285 Y171.682 E1.0795
G1 X85.071 Y171.519 E1.09151
G1 X84.967 Y171.383 E1.09916
G1 X82.48 Y171.383 E1.21021
G1 X82.435 Y171.04 E1.22567
G1 X82.461 Y170.846 E1.2344
G1 X84.777 Y170.846 E1.33783
G1 X84.774 Y170.824 E1.3388
G1 X84.774 Y170.309 E1.36183
G1 X82.531 Y170.309 E1.46197
G1 X82.535 Y170.281 E1.46323
G1 X82.746 Y169.772 E1.48784
G1 X84.774 Y169.772 E1.5784
G1 X84.774 Y169.235 E1.60239
G1 X83.088 Y169.235 E1.67767
G1 X83.294 Y168.966 E1.69276
G1 X83.539 Y168.779 E1.70652
G1 X83.644 Y168.697 E1.71249
G1 X85.005 Y168.697 E1.77324
G92 E0
G1 E-0.7 F2520
M204 S6000
G1 Z0.4 F12000
; acceleration to travel
M204 S7000
G1 X183.093 Y137.543
; decel to extrusion
M204 S2000
G1 X211.118 Y128.642
; end travel
G1 Z0.2
G1 E0 F2340
G1 F3600
G1 X211.127 Y128.573 E0.00308
G1 X211.446 Y127.803 E0.0403
G1 X211.527 Y127.698 E0.04621
G1 X211.954 Y127.142 E0.07751
G1 X212.225 Y126.934 E0.09279
G1 X212.615 Y126.635 E0.11473
G1 X213.384 Y126.316 E0.15194
G1 X214.211 Y126.207 E0.18915
G1 X215.037 Y126.316 E0.22637
G1 X215.807 Y126.635 E0.26358
G1 X216.468 Y127.142 E0.30079
G1 X216.975 Y127.803 E0.33801
G1 X217.294 Y128.573 E0.37522
G1 X217.403 Y129.399 E0.41243
G1 X217.294 Y130.226 E0.44965
G1 X216.975 Y130.995 E0.48686
G1 X216.468 Y131.657 E0.52408
G1 X216.196 Y131.865 E0.53936
G1 X215.807 Y132.164 E0.56129
G1 X215.037 Y132.483 E0.5985
G1 X214.968 Y132.492 E0.60159
G1 X214.968 Y130.563 E0.68774
G1 X214.904 Y130.078 E0.70957
G1 X214.711 Y129.61 E0.7322
G1 X214.402 Y129.208 E0.75482
G1 X214 Y128.899 E0.77745
G1 X213.532 Y128.706 E0.80008
G1 X213.047 Y128.642 E0.82191
G1 X211.178 Y128.642 E0.90538
G92 E0
G1 E-0.7 F2520
M204 S6000
G1 Z0.4 F12000
; acceleration to travel
M204 S7000
G1 X214.425 Y126.957
; decel to extrusion
M204 S2000
G1 X215.352 Y126.476
; end travel
G1 Z0.2
G1 E0 F2340
G1 F3600
G1 X214.146 Y126.476 E0.0539
G1 X213.452 Y126.567 E0.08515
G1 X212.745 Y126.86 E0.11933
G1 X212.545 Y127.013 E0.13054
G1 X215.876 Y127.013 E0.27927
G1 X216.284 Y127.326 E0.30224
G1 X216.456 Y127.55 E0.31485
G1 X211.966 Y127.55 E0.51538
G1 X211.731 Y127.855 E0.53256
G1 X211.671 Y127.933 E0.53695
G1 X211.608 Y128.087 E0.54439
G1 X216.814 Y128.087 E0.77687
G1 X217.036 Y128.624 E0.80283
G1 X214.009 Y128.624 E0.93799
G1 X214.13 Y128.674 E0.94383
G1 X214.586 Y129.024 E0.96949
G1 X214.691 Y129.161 E0.97721
G1 X217.111 Y129.161 E1.08529
G1 X217.143 Y129.399 E1.09601
G1 X217.103 Y129.698 E1.10948
G1 X215.026 Y129.698 E1.20223
G1 X215.156 Y130.011 E1.21732
G1 X215.185 Y130.236 E1.22745
G1 X217.011 Y130.236 E1.30898
G1 X216.788 Y130.773 E1.33494
G1 X215.226 Y130.773 E1.40471
G1 X215.226 Y131.31 E1.42869
G1 X216.409 Y131.31 E1.48152
G1 X216.284 Y131.473 E1.49069
G1 X216.039 Y131.66 E1.50446
G1 X215.796 Y131.847 E1.51813
G1 X214.995 Y131.847 E1.55392
G92 E0
G1 E-0.7 F2520
M204 S6000
G1 Z0.4 F12000
; acceleration to travel
M204 S7000
G1 X117.203 Y129.354
; decel to extrusion
M204 S2000
G1 X89.262 Y128.642
; end travel
G1 Z0.2
G1 E0 F2340
G1 F3600
G1 X86.953 Y128.642 E0.10315
G1 X86.71 Y128.674 E0.11407
G1 X86.468 Y128.706 E0.12499
G1 X86 Y128.899 E0.14762
G1 X85.598 Y129.208 E0.17024
G1 X85.289 Y129.61 E0.19287
G1 X85.096 Y130.078 E0.2155
G1 X85.032 Y130.563 E0.23733
G1 X85.032 Y132.102 E0.30609
G1 X84.539 Y131.898 E0.3299
G1 X83.878 Y131.391 E0.36711
G1 X83.371 Y130.73 E0.40433
G1 X83.302 Y130.563 E0.41242
G1 X83.052 Y129.96 E0.44154
G1 X82.943 Y129.134 E0.47875
G1 X83.052 Y128.308 E0.51597
G1 X83.371 Y127.538 E0.55318
G1 X83.451 Y127.433 E0.55909
G1 X83.878 Y126.877 E0.59039
G1 X84.15 Y126.669 E0.60568
G1 X84.539 Y126.37 E0.62761
G1 X85.309 Y126.051 E0.66482
G1 X86.135 Y125.942 E0.70203
G1 X86.961 Y126.051 E0.73925
G1 X87.731 Y126.37 E0.77646
G1 X88.392 Y126.877 E0.81368
G1 X88.9 Y127.538 E0.85089
G1 X89.219 Y128.308 E0.8881
G1 X89.255 Y128.582 E0.90046
G92 E0
G1 E-0.7 F2520
M204 S6000
G1 Z0.4 F12000
; acceleration to travel
M204 S7000
G1 X87.717 Y126.738
; decel to extrusion
M204 S2000
G1 X87.277 Y126.211
; end travel
G1 Z0.2
G1 E0 F2340
G1 F3600
G1 X86.07 Y126.211 E0.0539
G1 X85.376 Y126.302 E0.08515
G1 X84.669 Y126.595 E0.11933
G1 X84.47 Y126.748 E0.13054
G1 X87.8 Y126.748 E0.27927
G1 X88.209 Y127.061 E0.30224
G1 X88.38 Y127.285 E0.31485
G1 X83.89 Y127.285 E0.51538
G1 X83.656 Y127.59 E0.53256
G1 X83.596 Y127.668 E0.53695
G1 X83.532 Y127.822 E0.54439
G1 X88.738 Y127.822 E0.77687
G1 X88.961 Y128.359 E0.80283
G1 X83.31 Y128.359 E1.05518
G1 X83.303 Y128.375 E1.05597
G1 X83.235 Y128.896 E1.07943
G1 X85.581 Y128.896 E1.18421
G1 X85.414 Y129.024 E1.19361
G1 X85.1 Y129.433 E1.21663
G1 X83.243 Y129.433 E1.29959
G1 X83.303 Y129.893 E1.3203
G1 X83.335 Y129.97 E1.32404
G1 X84.861 Y129.97 E1.39219
G1 X84.844 Y130.011 E1.39415
G1 X84.779 Y130.507 E1.41651
G1 X83.558 Y130.507 E1.47106
G1 X83.596 Y130.6 E1.47555
G1 X83.937 Y131.044 E1.50055
G1 X84.774 Y131.044 E1.53793
G1 X84.774 Y131.581 E1.56192
G1 X84.17 Y131.581 E1.58888
M104 S255 ; set temperature
G92 E0
G1 E-0.7 F2520
M204 S6000
G1 Z0.4 F12000
