; generated by SuperSlicer 2.5.59 on 2023-03-26 at 17:47:29 UTC


;
;

;
;
; 

; external perimeters extrusion width = 0.45mm
; perimeters extrusion width = 0.45mm
; infill extrusion width = 0.45mm
; solid infill extrusion width = 0.45mm
; top infill extrusion width = 0.45mm
; support material extrusion width = 0.40mm
; first layer extrusion width = 0.60mm

; external perimeters extrusion width = 0.45mm
; perimeters extrusion width = 0.45mm
; infill extrusion width = 0.45mm
; solid infill extrusion width = 0.45mm
; top infill extrusion width = 0.45mm
; support material extrusion width = 0.40mm
; first layer extrusion width = 0.60mm

; external perimeters extrusion width = 0.45mm
; perimeters extrusion width = 0.45mm
; infill extrusion width = 0.45mm
; solid infill extrusion width = 0.45mm
; top infill extrusion width = 0.45mm
; support material extrusion width = 0.40mm
; first layer extrusion width = 0.60mm

; object:{"name":"bed_wago_mount 2","id":"bed_wago_mount 2.4.stl id:0 copy 0","object_center":[150.000000,152.719796,0.000000],"boundingbox_center":[150.000000,152.719796,8.000000],"boundingbox_size":[95.300003,24.050000,16.000000]}
EXCLUDE_OBJECT_DEFINE NAME=bed_wago_mount_2_4_stl_id_0_copy_0 CENTER=150.000000,152.719796 POLYGON=[[102.350000,158.944816],[118.642888,140.987696],[118.850000,140.828784],[119.091176,140.728880],[119.350000,140.694816],[149.650000,140.694816],[149.908816,140.728880],[197.650000,158.944816],[197.650000,163.944816],[167.500000,164.744800],[127.500000,164.744800],[102.350000,163.944816],[102.350000,158.944816]]
; object:{"name":"led_pcb_spacer 2","id":"led_pcb_spacer 2.4.stl id:1 copy 0","object_center":[150.000001,177.744796,0.000000],"boundingbox_center":[150.000001,177.744796,2.200000],"boundingbox_size":[42.000000,14.000000,4.400000]}
EXCLUDE_OBJECT_DEFINE NAME=led_pcb_spacer_2_4_stl_id_1_copy_0 CENTER=150.000001,177.744796 POLYGON=[[129.000000,171.744800],[129.025072,171.522272],[129.099032,171.310912],[129.218168,171.121312],[129.376512,170.962960],[129.566120,170.843824],[129.777480,170.769872],[130.000000,170.744800],[170.000000,170.744800],[170.222512,170.769872],[170.433888,170.843824],[170.623488,170.962960],[170.781824,171.121312],[170.900976,171.310912],[170.974928,171.522272],[171.000000,171.744800],[171.000000,183.744800],[170.974928,183.967312],[170.900976,184.178688],[170.781824,184.368288],[170.623488,184.526624],[170.433888,184.645760],[170.222512,184.719728],[170.000000,184.744800],[130.000000,184.744800],[129.777480,184.719728],[129.566120,184.645760],[129.376512,184.526624],[129.218168,184.368288],[129.099032,184.178688],[129.025072,183.967312],[129.000000,183.744800],[129.000000,171.744800]]
; object:{"name":"z_rail_stop_x4 2","id":"z_rail_stop_x4 2.4.stl id:2 copy 0","object_center":[158.029389,131.676749,0.000000],"boundingbox_center":[158.029389,131.676749,11.000000],"boundingbox_size":[16.000000,9.200000,22.000000]}
EXCLUDE_OBJECT_DEFINE NAME=z_rail_stop_x4_2_4_stl_id_2_copy_0 CENTER=158.029389,131.676749 POLYGON=[[150.029392,128.276752],[155.531840,127.086352],[155.580384,127.079144],[155.629392,127.076744],[160.429376,127.076744],[160.478400,127.079144],[160.526928,127.086352],[166.029392,128.276752],[166.029392,131.276752],[162.461920,135.362736],[162.297152,135.544512],[162.115376,135.709280],[162.088112,135.731328],[161.918320,135.855424],[161.859472,135.893552],[161.707888,135.981552],[161.614112,136.029152],[161.486096,136.086448],[161.355088,136.136448],[161.255104,136.169104],[161.085696,136.214064],[161.017120,136.228704],[160.809296,136.261024],[160.774432,136.264704],[160.529392,136.276752],[155.529392,136.276752],[155.284352,136.264704],[155.249488,136.261024],[155.041664,136.228704],[154.973088,136.214064],[154.803680,136.169104],[154.703696,136.136448],[154.572672,136.086448],[154.444672,136.029152],[154.350896,135.981552],[154.199312,135.893552],[154.140464,135.855424],[153.970656,135.731328],[153.943408,135.709280],[153.761632,135.544512],[153.596864,135.362736],[150.029392,131.276752],[150.029392,128.276752]]
; object:{"name":"z_rail_stop_x4 2","id":"z_rail_stop_x4 2.4.stl id:2 copy 1","object_center":[136.029389,130.094796,0.000000],"boundingbox_center":[136.029389,130.094796,11.000000],"boundingbox_size":[16.000000,9.200000,22.000000]}
EXCLUDE_OBJECT_DEFINE NAME=z_rail_stop_x4_2_4_stl_id_2_copy_1 CENTER=136.029389,130.094796 POLYGON=[[128.029392,126.694800],[133.531848,125.504408],[133.580384,125.497208],[133.629392,125.494808],[138.429376,125.494808],[138.478400,125.497208],[138.526928,125.504408],[144.029392,126.694800],[144.029392,129.694808],[140.461920,133.780792],[140.297152,133.962568],[140.115376,134.127336],[140.088112,134.149384],[139.918320,134.273488],[139.859472,134.311616],[139.707888,134.399616],[139.614112,134.447216],[139.486096,134.504496],[139.355088,134.554512],[139.255104,134.587152],[139.085696,134.632128],[139.017120,134.646752],[138.809296,134.679072],[138.774432,134.682768],[138.529392,134.694816],[133.529392,134.694816],[133.284344,134.682768],[133.249480,134.679072],[133.041656,134.646752],[132.973080,134.632128],[132.803680,134.587152],[132.703688,134.554512],[132.572680,134.504496],[132.444672,134.447216],[132.350888,134.399616],[132.199312,134.311616],[132.140456,134.273488],[131.970656,134.149384],[131.943408,134.127336],[131.761624,133.962568],[131.596864,133.780792],[128.029392,129.694808],[128.029392,126.694800]]
; object:{"name":"z_rail_stop_x4 2","id":"z_rail_stop_x4 2.4.stl id:2 copy 2","object_center":[178.009387,139.300233,0.000000],"boundingbox_center":[178.009387,139.300233,11.000000],"boundingbox_size":[16.000000,9.200000,22.000000]}
EXCLUDE_OBJECT_DEFINE NAME=z_rail_stop_x4_2_4_stl_id_2_copy_2 CENTER=178.009387,139.300233 POLYGON=[[170.009392,135.900240],[175.511840,134.709840],[175.560384,134.702640],[175.609392,134.700224],[180.409376,134.700224],[180.458384,134.702640],[180.506928,134.709840],[186.009392,135.900240],[186.009392,138.900240],[182.441904,142.986224],[182.277152,143.168000],[182.095360,143.332768],[182.068112,143.354816],[181.898320,143.478912],[181.839456,143.517040],[181.687888,143.605040],[181.594096,143.652656],[181.466096,143.709936],[181.335088,143.759936],[181.235088,143.792592],[181.065696,143.837552],[180.997120,143.852192],[180.789296,143.884512],[180.754432,143.888192],[180.509392,143.900240],[175.509392,143.900240],[175.264336,143.888192],[175.229472,143.884512],[175.021648,143.852192],[174.953072,143.837552],[174.783680,143.792592],[174.683680,143.759936],[174.552672,143.709936],[174.424672,143.652656],[174.330880,143.605040],[174.179312,143.517040],[174.120448,143.478912],[173.950656,143.354816],[173.923408,143.332768],[173.741616,143.168000],[173.576864,142.986224],[170.009392,138.900240],[170.009392,135.900240]]
; object:{"name":"z_rail_stop_x4 2","id":"z_rail_stop_x4 2.4.stl id:2 copy 3","object_center":[150.418307,116.855205,0.000000],"boundingbox_center":[150.418307,116.855205,11.000000],"boundingbox_size":[16.000000,9.200000,22.000000]}
EXCLUDE_OBJECT_DEFINE NAME=z_rail_stop_x4_2_4_stl_id_2_copy_3 CENTER=150.418307,116.855205 POLYGON=[[142.418304,113.455200],[147.920768,112.264808],[147.969296,112.257608],[148.018304,112.255200],[152.818304,112.255200],[152.867312,112.257608],[152.915856,112.264808],[158.418304,113.455200],[158.418304,116.455200],[154.850832,120.541184],[154.686064,120.722968],[154.504288,120.887728],[154.477040,120.909784],[154.307232,121.033872],[154.248384,121.072016],[154.096800,121.160000],[154.003024,121.207624],[153.875008,121.264904],[153.744000,121.314912],[153.644016,121.347552],[153.474608,121.392528],[153.406032,121.407168],[153.198208,121.439480],[153.163344,121.443160],[152.918304,121.455200],[147.918304,121.455200],[147.673264,121.443160],[147.638400,121.439480],[147.430576,121.407168],[147.362000,121.392528],[147.192592,121.347552],[147.092608,121.314912],[146.961600,121.264904],[146.833584,121.207624],[146.739808,121.160000],[146.588224,121.072016],[146.529376,121.033872],[146.359568,120.909784],[146.332320,120.887728],[146.150544,120.722968],[145.985776,120.541184],[142.418304,116.455200],[142.418304,113.455200]]
; plater:{"center":[150.000000,148.500000,0.000000],"boundingbox_center":[150.000000,148.500000,11.000000],"boundingbox_size":[95.300003,72.489591,22.000000]}

;TYPE:Custom
SET_PRINT_STATS_INFO TOTAL_LAYER=95

M104 S0 ; Stops SuperSlicer from sending temp waits separately

M109 S0

M140 S0

print_start EXTRUDER=255 BED=108 CHAMBER=0
G21 ; set units to millimeters
G90 ; use absolute coordinates
M82 ; use absolute distances for extrusion
G92 E0
; Filament gcode
;_TOOLCHANGE 0
M107
;LAYER_CHANGE
;Z:0.23125
;HEIGHT:0.23125
TIMELAPSE_TAKE_FRAME
;BEFORE_LAYER_CHANGE
;0.23125


G1 E-0.8 F2100
G1 Z0.2 F9000
G1 Z0.23125
SET_PRINT_STATS_INFO CURRENT_LAYER=1
;AFTER_LAYER_CHANGE
;0.23125
G92 E0
G1 Z0.43125
G1 X124.267 Y123.319
G1 Z0.23125
G1 E0.8 F2100
;TYPE:Skirt
;WIDTH:0.54
G1 F2250
G1 X98.872 Y155.853 E2.74581
G1 X98.398 Y157.229 E2.8144
G1 X98.398 Y165.66 E3.2119
G1 X98.52 Y166.387 E3.24663
G1 X99.3 Y167.455 E3.30898
G1 X126.787 Y187.894 E4.92391
G1 X127.503 Y188.352 E4.96397
G1 X128.591 Y188.792 E5.0193
G1 X129.888 Y188.981 E5.08107
G1 X170.112 Y188.981 E6.97749
G1 X171.409 Y188.792 E7.03925
G1 X172.497 Y188.352 E7.09458
G1 X173.213 Y187.894 E7.13464
G1 X200.7 Y167.455 E8.74957
G1 X201.211 Y166.924 E8.78431
G1 X201.602 Y165.66 E8.84665
G1 X201.602 Y157.229 E9.24415
G1 X201.376 Y156.251 E9.2915
G1 X190.02 Y132.922 E10.51475
G1 X189.42 Y132.166 E10.56023
G1 X161.829 Y109.721 E12.23709
G1 X160.778 Y109.248 E12.29144
G1 X152.951 Y108.019 E12.66498
G1 X147.595 Y108.038 E12.91745
G1 X140.059 Y109.248 E13.27731
G1 X138.904 Y109.81 E13.33784
G1 X124.311 Y123.278 E14.2741
G1 X124.654 Y123.621 F9000
G1 F2250
G1 X99.259 Y156.155 E16.21991
G1 X98.889 Y157.229 E16.27345
G1 X98.889 Y165.66 E16.67095
G1 X99.593 Y167.061 E16.74485
G1 X127.08 Y187.501 E18.35978
G1 X127.764 Y187.937 E18.39803
G1 X128.753 Y188.329 E18.44818
G1 X129.888 Y188.49 E18.50221
G1 X170.112 Y188.49 E20.39863
G1 X171.247 Y188.329 E20.45265
G1 X172.236 Y187.937 E20.50281
G1 X172.92 Y187.501 E20.54106
G1 X200.407 Y167.061 E22.15599
G1 X201.111 Y165.66 E22.22989
G1 X201.111 Y157.229 E22.62738
G1 X200.935 Y156.465 E22.66434
G1 X189.579 Y133.136 E23.88759
G1 X189.111 Y132.546 E23.92309
G1 X161.52 Y110.101 E25.59995
G1 X160.699 Y109.733 E25.64238
G1 X152.951 Y108.51 E26.0122
G1 X147.659 Y108.525 E26.26165
G1 X140.138 Y109.733 E26.62081
G1 X139.237 Y110.171 E26.66805
G1 X124.698 Y123.58 E27.60053
G92 E0
G1 E-0.8 F2100
G1 Z0.43125 F9000
G1 X129.548 Y169.412
G1 Z0.23125
G1 E0 F2100
;WIDTH:0.6
;HEIGHT:0.23
G1 F2250
G1 X129.971 Y169.368 E0.02236
G1 X170.046 Y169.369 E2.1325
G1 X170.522 Y169.426 E2.15773
G1 X171.023 Y169.599 E2.18564
G1 X171.425 Y169.842 E2.21039
G1 X171.782 Y170.174 E2.23601
G1 X171.931 Y170.361 E2.24862
G1 X172.185 Y170.811 E2.27583
G1 X172.331 Y171.281 E2.30177
G1 X172.377 Y171.715 E2.32471
G1 X172.371 Y183.878 E2.96516
G1 X172.315 Y184.283 E2.98666
G1 X172.186 Y184.675 E3.00842
G1 X172.086 Y184.88 E3.02041
G1 X171.853 Y185.234 E3.04272
G1 X171.566 Y185.531 E3.0645
G1 X171.393 Y185.669 E3.07612
G1 X171.039 Y185.882 E3.0979
G1 X170.642 Y186.032 E3.12021
G1 X170.418 Y186.083 E3.13231
G1 X170.029 Y186.121 E3.15289
G1 X129.955 Y186.121 E5.26299
G1 X129.58 Y186.083 E5.28281
G1 X129.358 Y186.032 E5.29484
G1 X128.96 Y185.882 E5.31719
G1 X128.569 Y185.643 E5.34132
G1 X128.193 Y185.288 E5.36853
G1 X128.072 Y185.132 E5.37895
G1 X127.832 Y184.719 E5.4041
G1 X127.711 Y184.38 E5.42304
G1 X127.667 Y184.197 E5.43299
G1 X127.623 Y183.774 E5.45536
G1 X127.629 Y171.612 E6.09577
G1 X127.685 Y171.207 E6.11726
G1 X127.814 Y170.815 E6.13902
G1 X127.914 Y170.61 E6.15101
G1 X128.147 Y170.256 E6.17333
G1 X128.434 Y169.958 E6.1951
G1 X128.582 Y169.838 E6.20515
G1 X129.025 Y169.577 E6.23224
G1 X129.364 Y169.456 E6.25119
G1 X129.49 Y169.426 E6.25798
G1 X129.612 Y169.962 F9000
G1 F2250
G1 X129.654 Y169.953 E6.26025
G1 X129.985 Y169.919 E6.27773
G1 X170.031 Y169.919 E8.38633
G1 X170.376 Y169.958 E8.40462
G1 X170.764 Y170.086 E8.42615
G1 X171.114 Y170.298 E8.44769
G1 X171.388 Y170.559 E8.4676
G1 X171.465 Y170.656 E8.4741
G1 X171.67 Y171.009 E8.49562
G1 X171.787 Y171.369 E8.51553
G1 X171.826 Y171.729 E8.53464
G1 X171.823 Y183.822 E9.17136
G1 X171.773 Y184.181 E9.19046
G1 X171.67 Y184.481 E9.20713
G1 X171.617 Y184.592 E9.21363
G1 X171.408 Y184.907 E9.23354
G1 X171.186 Y185.133 E9.25021
G1 X171.089 Y185.21 E9.25671
G1 X170.82 Y185.377 E9.27339
G1 X170.466 Y185.51 E9.2933
G1 X170.346 Y185.537 E9.2998
G1 X170.015 Y185.571 E9.31728
G1 X129.969 Y185.57 E11.42588
G1 X129.654 Y185.537 E11.44255
G1 X129.534 Y185.51 E11.44905
G1 X129.18 Y185.377 E11.46896
G1 X128.886 Y185.192 E11.48726
G1 X128.612 Y184.93 E11.50717
G1 X128.535 Y184.834 E11.51367
G1 X128.341 Y184.509 E11.53358
G1 X128.235 Y184.211 E11.55025
G1 X128.208 Y184.091 E11.55676
G1 X128.174 Y183.76 E11.57424
G1 X128.177 Y171.668 E12.21096
G1 X128.227 Y171.308 E12.23005
G1 X128.33 Y171.009 E12.24673
G1 X128.383 Y170.898 E12.25323
G1 X128.592 Y170.582 E12.27314
G1 X128.814 Y170.357 E12.28981
G1 X128.911 Y170.28 E12.29631
G1 X129.236 Y170.086 E12.31622
G1 X129.534 Y169.98 E12.3329
G1 X129.554 Y169.975 E12.33397
G1 X129.701 Y170.505 F9000
G1 F2250
G1 X129.731 Y170.498 E12.3356
G1 X129.992 Y170.469 E12.34942
G1 X170.008 Y170.469 E14.45639
G1 X170.269 Y170.498 E14.47022
G1 X170.299 Y170.505 E14.47185
G1 X170.539 Y170.589 E14.48526
G1 X170.567 Y170.602 E14.48689
G1 X170.783 Y170.738 E14.50031
G1 X170.807 Y170.757 E14.50194
G1 X170.987 Y170.938 E14.51536
G1 X171.007 Y170.962 E14.51699
G1 X171.142 Y171.178 E14.53041
G1 X171.156 Y171.205 E14.53204
G1 X171.24 Y171.446 E14.54545
G1 X171.247 Y171.476 E14.54708
G1 X171.274 Y171.722 E14.56009
G1 X171.275 Y183.753 E15.19357
G1 X171.247 Y184.014 E15.20739
G1 X171.24 Y184.044 E15.20902
G1 X171.156 Y184.284 E15.22244
G1 X171.142 Y184.312 E15.22407
G1 X171.007 Y184.528 E15.23749
G1 X170.987 Y184.552 E15.23911
G1 X170.807 Y184.732 E15.25253
G1 X170.783 Y184.752 E15.25416
G1 X170.567 Y184.887 E15.26758
G1 X170.539 Y184.901 E15.26921
G1 X170.299 Y184.985 E15.28263
G1 X170.269 Y184.992 E15.28426
G1 X170.008 Y185.02 E15.29808
G1 X129.992 Y185.02 E17.40505
G1 X129.731 Y184.992 E17.41888
G1 X129.701 Y184.985 E17.4205
G1 X129.461 Y184.901 E17.43392
G1 X129.433 Y184.887 E17.43555
G1 X129.217 Y184.752 E17.44897
G1 X129.193 Y184.732 E17.4506
G1 X129.013 Y184.552 E17.46402
G1 X128.993 Y184.528 E17.46565
G1 X128.858 Y184.312 E17.47906
G1 X128.844 Y184.284 E17.48069
G1 X128.76 Y184.044 E17.49411
G1 X128.753 Y184.014 E17.49574
G1 X128.725 Y183.753 E17.50956
G1 X128.726 Y171.722 E18.14304
G1 X128.753 Y171.476 E18.15605
G1 X128.76 Y171.446 E18.15768
G1 X128.844 Y171.205 E18.1711
G1 X128.858 Y171.178 E18.17272
G1 X128.993 Y170.962 E18.18614
G1 X129.013 Y170.938 E18.18777
G1 X129.193 Y170.757 E18.20119
G1 X129.217 Y170.738 E18.20282
G1 X129.433 Y170.602 E18.21624
G1 X129.461 Y170.589 E18.21787
G1 X129.645 Y170.525 E18.22813
G92 E0
G1 E-0.8 F2100
G1 Z0.43125 F9000
G1 X129.645 Y165.037
G1 Z0.23125
G1 E0 F2100
G1 F2250
G1 X102.357 Y165.037 E1.43682
G1 X102.25 Y165.016 E1.44253
G1 X101.948 Y164.891 E1.45977
G1 X101.857 Y164.83 E1.46549
G1 X101.465 Y164.437 E1.49474
G1 X101.404 Y164.347 E1.50045
G1 X101.279 Y164.045 E1.5177
G1 X101.258 Y163.938 E1.52341
G1 X101.258 Y158.951 E1.78599
G1 X101.279 Y158.845 E1.7917
G1 X101.404 Y158.542 E1.80894
G1 X101.465 Y158.452 E1.81466
G1 X101.857 Y158.059 E1.84391
G1 X101.948 Y157.999 E1.84962
G1 X102.25 Y157.874 E1.86687
G1 X102.357 Y157.853 E1.87258
G1 X117.258 Y157.853 E2.65719
G1 X117.258 Y141.638 E3.51096
G1 X117.352 Y141.072 E3.54117
G1 X117.581 Y140.576 E3.56995
G1 X117.931 Y140.156 E3.59872
G1 X118.378 Y139.841 E3.62749
G1 X118.819 Y139.671 E3.65237
G1 X119.315 Y139.603 E3.67874
G1 X149.703 Y139.603 E5.27878
G1 X150.064 Y139.645 E5.29796
G1 X150.324 Y139.716 E5.31214
G1 X150.708 Y139.889 E5.3343
G1 X151.075 Y140.162 E5.35837
G1 X151.387 Y140.531 E5.38384
