; generated by SuperSlicer 2.4 on 2023-01-25 at 06:11:08 UTC


;
;

;
;
; 

; external perimeters extrusion width = 0.42mm
; perimeters extrusion width = 0.45mm
; infill extrusion width = 0.45mm
; solid infill extrusion width = 0.45mm
; top infill extrusion width = 0.42mm
; first layer extrusion width = 0.62mm

; external perimeters extrusion width = 0.42mm
; perimeters extrusion width = 0.45mm
; infill extrusion width = 0.45mm
; solid infill extrusion width = 0.45mm
; top infill extrusion width = 0.42mm
; first layer extrusion width = 0.62mm

; external perimeters extrusion width = 0.42mm
; perimeters extrusion width = 0.45mm
; infill extrusion width = 0.45mm
; solid infill extrusion width = 0.45mm
; top infill extrusion width = 0.42mm
; first layer extrusion width = 0.62mm

; external perimeters extrusion width = 0.42mm
; perimeters extrusion width = 0.45mm
; infill extrusion width = 0.45mm
; solid infill extrusion width = 0.45mm
; top infill extrusion width = 0.42mm
; first layer extrusion width = 0.62mm

; external perimeters extrusion width = 0.42mm
; perimeters extrusion width = 0.45mm
; infill extrusion width = 0.45mm
; solid infill extrusion width = 0.45mm
; top infill extrusion width = 0.42mm
; first layer extrusion width = 0.62mm

; object:{"name":"belt_chain_mount","id":"belt_chain_mount.stl id:0 copy 0","object_center":[163.186226,157.729740,0.000000],"boundingbox_center":[163.186226,157.729740,9.750000],"boundingbox_size":[35.056854,29.700001,19.500000]}
; object:{"name":"igus_chain_mount","id":"igus_chain_mount.stl id:1 copy 0","object_center":[182.198935,128.379738,0.000000],"boundingbox_center":[182.198935,128.379738,4.500000],"boundingbox_size":[19.099999,17.000004,9.000000]}
; object:{"name":"kirigami_wago_mount","id":"kirigami_wago_mount.stl id:2 copy 0","object_center":[137.450001,125.254740,0.000000],"boundingbox_center":[137.450001,125.254740,6.100000],"boundingbox_size":[58.397858,23.250000,12.200000]}
; object:{"name":"nut_block","id":"nut_block.stl id:3 copy 0","object_center":[128.159206,160.379740,0.000000],"boundingbox_center":[128.159206,160.379740,11.500001],"boundingbox_size":[27.400000,35.000002,23.000002]}
; object:{"name":"[o]_led_holder","id":"[o]_led_holder.stl id:4 copy 0","object_center":[151.472781,175.096265,0.000000],"boundingbox_center":[151.472781,175.096265,1.749000],"boundingbox_size":[14.200005,16.547993,3.498000]}
; plater:{"center":[150.000003,148.500001,0.000000],"boundingbox_center":[150.000003,148.500001,11.500001],"boundingbox_size":[83.497863,69.740521,23.000002]}

;TYPE:Custom
M104 S0 ; Stops SuperSlicer from sending temp waits separately


; Pre-Processed for Cancel-Object support by preprocess_cancellation v0.2.0
; 5 known objects
EXCLUDE_OBJECT_DEFINE NAME=belt_chain_mount_stl_id_0_copy_0 CENTER=169.992,154.626 POLYGON=[[145.868,143.09],[145.868,172.37],[180.505,172.37],[180.505,143.09]]
EXCLUDE_OBJECT_DEFINE NAME=o__led_holder_stl_id_4_copy_0 CENTER=151.587,172.436 POLYGON=[[144.678,167.032],[144.678,183.16],[158.267,183.16],[158.267,167.032]]
EXCLUDE_OBJECT_DEFINE NAME=nut_block_stl_id_3_copy_0 CENTER=129.812,159.637 POLYGON=[[114.669,143.09],[114.669,177.67],[141.649,177.67],[141.649,143.09]]
EXCLUDE_OBJECT_DEFINE NAME=kirigami_wago_mount_stl_id_2_copy_0 CENTER=137.473,128.917 POLYGON=[[108.465,113.84],[108.465,136.67],[166.435,136.67],[166.435,113.84]]
EXCLUDE_OBJECT_DEFINE NAME=igus_chain_mount_stl_id_1_copy_0 CENTER=181.129,128.312 POLYGON=[[172.859,120.09],[172.859,136.67],[191.539,136.67],[191.539,120.09]]

M140 S0

print_start EXTRUDER=248 BED=105 CHAMBER=0
G21 ; set units to millimeters
G90 ; use absolute coordinates
M83 ; use relative distances for extrusion
; Filament gcode
;_TOOLCHANGE 0
M107
;LAYER_CHANGE
;Z:0.21875
;HEIGHT:0.21875
TIMELAPSE_TAKE_FRAME
;BEFORE_LAYER_CHANGE
;0.21875


G1 E-0.8 F3000
G1 Z0.3 F9000
;AFTER_LAYER_CHANGE
;0.21875
G92 E0
G1 Z0.51875
G1 X113.759 Y114.034
G1 Z0.21875
G1 E0.8 F1800
;TYPE:Skirt
;WIDTH:0.52
G1 F1950
G1 X112.032 Y115.757 E0.10496
G1 X111.301 Y116.644 E0.04942
G1 X110.785 Y117.538 E0.04443
G1 X110.483 Y118.274 E0.03424
G1 X108.01 Y125.16 E0.31476
G1 X107.801 Y126.168 E0.0443
G1 X107.97 Y138.511 E0.53105
G1 X111.31 Y169.88 E1.35719
G1 X111.587 Y171.222 E0.05898
G1 X112.045 Y172.283 E0.04972
G1 X112.615 Y173.148 E0.04455
G1 X113.637 Y174.168 E0.06213
G1 X114.99 Y175.081 E0.07019
G1 X117.057 Y176.144 E0.10001
G1 X143.094 Y186.894 E1.21189
G1 X143.926 Y187.059 E0.03652
G1 X159.015 Y187.059 E0.64916
G1 X160.052 Y186.797 E0.046
G1 X180.902 Y175.539 E1.01941
G1 X181.857 Y174.95 E0.04828
G1 X182.648 Y174.244 E0.04561
G1 X183.085 Y173.722 E0.02929
G1 X183.644 Y172.821 E0.04561
G1 X184.079 Y171.704 E0.05157
G1 X195.089 Y132.132 E1.76717
G1 X195.271 Y131.163 E0.04241
G1 X195.326 Y126.262 E0.21086
G1 X195.214 Y125.221 E0.04506
G1 X194.939 Y124.133 E0.04829
G1 X194.532 Y123.147 E0.04587
G1 X193.85 Y122.024 E0.05653
G1 X193.304 Y121.459 E0.03379
G1 X192.324 Y120.758 E0.05185
G1 X191.343 Y120.188 E0.0488
G1 X189.874 Y119.576 E0.06848
G1 X156.373 Y110.338 E1.49508
G1 X155.631 Y110.158 E0.03287
G1 X154.659 Y110.055 E0.04206
G1 X120.413 Y110.048 E1.47334
G1 X119.269 Y110.158 E0.04942
G1 X118.272 Y110.425 E0.04443
G1 X117.328 Y110.845 E0.04443
G1 X116.739 Y111.206 E0.02973
G1 X115.978 Y111.82 E0.04206
G1 X113.802 Y113.992 E0.13227
G1 X114.135 Y114.326 F9000
G1 F1950
G1 X112.366 Y116.091 E0.10752
G1 X111.705 Y116.891 E0.04464
G1 X111.222 Y117.719 E0.04125
G1 X110.928 Y118.434 E0.03326
G1 X108.455 Y125.32 E0.31476
G1 X108.267 Y126.25 E0.04083
G1 X108.441 Y138.461 E0.52539
G1 X111.78 Y169.83 E1.35719
G1 X112.041 Y171.09 E0.05539
G1 X112.447 Y172.034 E0.04418
G1 X112.972 Y172.838 E0.04132
G1 X113.912 Y173.783 E0.05736
G1 X115.221 Y174.668 E0.06799
G1 X117.258 Y175.716 E0.09853
G1 X143.274 Y186.457 E1.21092
G1 X143.926 Y186.586 E0.0286
G1 X159.015 Y186.586 E0.64916
G1 X159.827 Y186.381 E0.03603
G1 X180.677 Y175.123 E1.01941
G1 X181.553 Y174.588 E0.04417
G1 X182.285 Y173.94 E0.04207
G1 X182.723 Y173.418 E0.02929
G1 X183.234 Y172.585 E0.04207
G1 X183.623 Y171.578 E0.04645
G1 X194.633 Y132.005 E1.76717
G1 X194.806 Y131.08 E0.04046
G1 X194.853 Y126.263 E0.20728
G1 X194.754 Y125.327 E0.0405
G1 X194.5 Y124.306 E0.04523
G1 X194.117 Y123.374 E0.04334
G1 X193.456 Y122.286 E0.05477
G1 X193.029 Y121.844 E0.02647
G1 X192.049 Y121.142 E0.05185
G1 X191.11 Y120.599 E0.04666
G1 X189.748 Y120.031 E0.06347
G1 X156.248 Y110.793 E1.49508
G1 X155.52 Y110.618 E0.03219
G1 X154.621 Y110.526 E0.03887
G1 X120.413 Y110.521 E1.47175
G1 X119.38 Y110.618 E0.04464
G1 X118.453 Y110.862 E0.04125
G1 X117.575 Y111.248 E0.04125
G1 X116.986 Y111.609 E0.02973
G1 X116.285 Y112.18 E0.03887
G1 X114.178 Y114.284 E0.12811
G1 X114.511 Y114.618 F9000
G1 F1950
G1 X112.701 Y116.426 E0.11009
G1 X112.108 Y117.138 E0.03986
G1 X111.658 Y117.9 E0.03806
G1 X111.373 Y118.594 E0.03229
G1 X108.9 Y125.479 E0.31476
G1 X108.733 Y126.331 E0.03736
G1 X108.911 Y138.411 E0.51973
G1 X112.25 Y169.779 E1.35719
G1 X112.495 Y170.958 E0.0518
G1 X112.848 Y171.784 E0.03864
G1 X113.329 Y172.528 E0.0381
G1 X114.187 Y173.399 E0.05259
G1 X115.453 Y174.256 E0.06579
G1 X117.459 Y175.288 E0.09705
G1 X143.455 Y186.02 E1.20996
G1 X143.926 Y186.114 E0.02069
G1 X159.015 Y186.113 E0.64916
G1 X159.603 Y185.965 E0.02606
G1 X180.453 Y174.707 E1.01941
G1 X181.249 Y174.226 E0.04005
G1 X181.923 Y173.636 E0.03853
G1 X182.361 Y173.114 E0.02929
G1 X182.825 Y172.348 E0.03853
G1 X183.168 Y171.451 E0.04134
G1 X194.178 Y131.878 E1.76717
G1 X194.34 Y130.998 E0.03852
G1 X194.38 Y126.263 E0.2037
G1 X194.293 Y125.432 E0.03594
G1 X194.06 Y124.48 E0.04218
G1 X193.702 Y123.602 E0.04081
G1 X193.063 Y122.548 E0.05301
G1 X192.754 Y122.228 E0.01915
G1 X191.774 Y121.527 E0.05185
G1 X190.777 Y120.959 E0.04934
G1 X189.623 Y120.487 E0.05365
G1 X156.122 Y111.249 E1.49508
G1 X155.41 Y111.077 E0.03151
G1 X154.584 Y110.997 E0.03569
G1 X120.413 Y110.993 E1.47015
G1 X119.49 Y111.077 E0.03986
G1 X118.633 Y111.299 E0.03806
G1 X117.822 Y111.651 E0.03806
G1 X117.233 Y112.012 E0.02973
G1 X116.592 Y112.539 E0.03569
G1 X114.554 Y114.575 E0.12395
G1 E-0.8 F3000
G1 Z0.51875 F9000
G1 X147.645 Y167.191
G1 Z0.21875
G1 E0.8 F1800
;WIDTH:0.62
;HEIGHT:0.22
G1 F1950
G1 X147.864 Y167.053 E0.01354
G1 X148.441 Y166.746 E0.03428
G1 X149.027 Y166.498 E0.03328
G1 X149.653 Y166.301 E0.03441
G1 X150.012 Y166.214 E0.01933
G1 X150.66 Y166.109 E0.03442
G1 X151.292 Y166.064 E0.03318
G1 X151.638 Y166.07 E0.01812
G1 X151.97 Y166.079 E0.01741
G1 X152.316 Y166.113 E0.01823
G1 X152.932 Y166.214 E0.03268
G1 X153.29 Y166.301 E0.01933
G1 X153.885 Y166.487 E0.03265
G1 X154.211 Y166.614 E0.01833
G1 X154.791 Y166.892 E0.03368
G1 X155.112 Y167.072 E0.0193
G1 X155.633 Y167.42 E0.03279
G1 X155.924 Y167.643 E0.01923
G1 X156.395 Y168.062 E0.033
G1 X156.837 Y168.534 E0.03388
G1 X157.076 Y168.828 E0.01985
G1 X157.433 Y169.339 E0.03267
G1 X157.783 Y169.959 E0.03729
G1 X158.044 Y170.546 E0.03367
G1 X158.258 Y171.175 E0.03479
G1 X158.409 Y171.817 E0.03458
G1 X158.502 Y172.474 E0.03473
G1 X158.524 Y172.819 E0.01815
G1 X158.529 Y180.439 E0.39918
G1 X158.534 Y180.89 E0.02363
G1 X158.559 Y181.311 E0.02209
G1 X158.581 Y181.467 E0.00825
G1 X158.975 Y181.865 E0.02934
G1 X159.264 Y182.266 E0.02589
G1 X159.307 Y182.354 E0.00512
G1 X159.362 Y182.542 E0.01029
G1 X159.373 Y182.64 E0.00512
G1 X159.347 Y183.069 E0.02251
G1 X159.258 Y183.264 E0.01128
G1 X158.943 Y183.569 E0.02297
G1 X158.745 Y183.653 E0.01128
G1 X158.521 Y183.659 E0.0117
G1 X158.431 Y183.822 E0.0098
G1 X158.09 Y184.103 E0.0231
G1 X157.885 Y184.171 E0.01134
G1 X157.26 Y184.135 E0.03277
G1 X156.816 Y184.133 E0.02327
G1 X156.367 Y184.15 E0.02352
G1 X155.359 Y184.229 E0.05298
G1 X148.059 Y184.229 E0.38247
G1 X147.51 Y184.159 E0.02896
G1 X147.085 Y184.135 E0.02235
G1 X145.68 Y184.135 E0.07359
G1 X145.057 Y184.171 E0.03269
G1 X144.851 Y184.103 E0.01135
G1 X144.511 Y183.822 E0.02311
G1 X144.42 Y183.659 E0.00981
G1 X144.201 Y183.653 E0.01148
G1 X144.003 Y183.569 E0.01128
G1 X143.688 Y183.264 E0.02298
G1 X143.598 Y183.068 E0.01128
G1 X143.573 Y182.64 E0.0225
G1 X143.584 Y182.543 E0.0051
G1 X143.638 Y182.355 E0.01024
G1 X143.681 Y182.268 E0.0051
G1 X143.998 Y181.831 E0.0283
G1 X144.36 Y181.468 E0.02685
G1 X144.382 Y181.311 E0.00832
G1 X144.407 Y180.89 E0.02209
G1 X144.413 Y180.439 E0.02364
G1 X144.42 Y172.791 E0.40069
G1 X144.445 Y172.442 E0.01831
G1 X144.542 Y171.779 E0.03508
G1 X144.693 Y171.148 E0.03402
G1 X144.9 Y170.546 E0.03333
G1 X145.165 Y169.949 E0.03423
G1 X145.34 Y169.623 E0.01941
G1 X145.677 Y169.09 E0.03299
G1 X146.07 Y168.576 E0.03391
G1 X146.558 Y168.052 E0.03752
G1 X147.044 Y167.624 E0.03392
G1 X147.567 Y167.24 E0.03401
G1 X147.594 Y167.223 E0.00167
G1 X147.9 Y167.707 F9000
G1 F1950
G1 X148.148 Y167.551 E0.01532
G1 X148.671 Y167.271 E0.03108
G1 X149.23 Y167.034 E0.03184
G1 X149.811 Y166.852 E0.03187
G1 X150.121 Y166.777 E0.01673
G1 X150.721 Y166.678 E0.03185
G1 X151.326 Y166.636 E0.03179
G1 X151.624 Y166.643 E0.01563
G1 X151.931 Y166.651 E0.01607
G1 X152.238 Y166.68 E0.01614
G1 X152.833 Y166.779 E0.03163
G1 X153.133 Y166.852 E0.01617
G1 X153.7 Y167.029 E0.03111
G1 X153.996 Y167.146 E0.01669
G1 X154.531 Y167.403 E0.03108
G1 X154.799 Y167.552 E0.01609
G1 X155.303 Y167.888 E0.03174
G1 X155.555 Y168.082 E0.01665
G1 X156.01 Y168.486 E0.03186
G1 X156.414 Y168.92 E0.0311
G1 X156.609 Y169.16 E0.01618
G1 X156.954 Y169.655 E0.03162
G1 X157.116 Y169.925 E0.01651
G1 X157.262 Y170.197 E0.01616
G1 X157.508 Y170.75 E0.03172
G1 X157.702 Y171.314 E0.03123
G1 X157.843 Y171.905 E0.03185
G1 X157.93 Y172.507 E0.03188
G1 X157.951 Y172.825 E0.01666
G1 X157.957 Y180.442 E0.39909
G1 X157.962 Y180.91 E0.02451
G1 X157.989 Y181.368 E0.02402
G1 X158.041 Y181.737 E0.01954
G1 X158.516 Y182.21 E0.0351
G1 X158.531 Y182.228 E0.00124
G1 X158.77 Y182.56 E0.02148
G1 X158.798 Y182.655 E0.00516
G1 X158.782 Y182.928 E0.01431
G1 X158.622 Y183.083 E0.01169
G1 X158.198 Y183.094 E0.02219
G1 X158.026 Y183.122 E0.00912
G1 X157.982 Y183.45 E0.01733
G1 X157.809 Y183.593 E0.01176
G1 X157.278 Y183.562 E0.0279
G1 X156.806 Y183.561 E0.02468
G1 X156.334 Y183.578 E0.02478
G1 X155.353 Y183.657 E0.05152
G1 X148.069 Y183.657 E0.38165
G1 X148.049 Y183.655 E0.00103
G1 X147.566 Y183.589 E0.02554
G1 X147.101 Y183.562 E0.0244
G1 X145.664 Y183.562 E0.07531
G1 X145.132 Y183.593 E0.02787
G1 X144.959 Y183.45 E0.01177
G1 X144.915 Y183.121 E0.01734
G1 X144.745 Y183.094 E0.00902
G1 X144.324 Y183.083 E0.02209
G1 X144.163 Y182.928 E0.0117
G1 X144.148 Y182.655 E0.01431
G1 X144.175 Y182.561 E0.00514
G1 X144.413 Y182.228 E0.02142
G1 X144.428 Y182.21 E0.00124
G1 X144.901 Y181.737 E0.03502
G1 X144.953 Y181.368 E0.01956
G1 X144.98 Y180.91 E0.02402
G1 X144.985 Y180.442 E0.02451
G1 X144.992 Y172.825 E0.39908
G1 X145.014 Y172.507 E0.01666
G1 X145.099 Y171.918 E0.0312
G1 X145.238 Y171.327 E0.03179
G1 X145.435 Y170.75 E0.03196
G1 X145.681 Y170.197 E0.03172
G1 X145.832 Y169.916 E0.01671
G1 X146.158 Y169.402 E0.03186
G1 X146.529 Y168.921 E0.03184
G1 X146.934 Y168.486 E0.03113
G1 X147.389 Y168.082 E0.03188
G1 X147.851 Y167.741 E0.03008
G1 E-0.8 F3000
G1 Z0.51875 F9000
G1 X141.37 Y165.925
G1 Z0.21875
G1 E0.8 F1800
G1 F1950
G1 X141.017 Y166.935 E0.05607
G1 X140.723 Y167.66 E0.04096
G1 X140.202 Y168.765 E0.06402
G1 X139.612 Y169.828 E0.06369
G1 X139.401 Y170.095 E0.01786
G1 X139.323 Y170.17 E0.00564
G1 X139.057 Y170.348 E0.01676
G1 X138.695 Y170.473 E0.02004
G1 X138.444 Y170.498 E0.01322
G1 X137.618 Y170.498 E0.04327
G1 X137.618 Y175.339 E0.25359
G1 X137.605 Y175.426 E0.00463
G1 X137.512 Y175.674 E0.01387
G1 X136.929 Y176.498 E0.05289
G1 X136.825 Y176.588 E0.0072
G1 X136.579 Y176.716 E0.01451
G1 X136.446 Y176.748 E0.0072
G1 X130.067 Y176.748 E0.33417
G1 X129.285 Y176.706 E0.04103
G1 X128.824 Y176.649 E0.02435
G1 X128.151 Y176.532 E0.0358
G1 X127.718 Y176.398 E0.02374
G1 X126.322 Y175.804 E0.0795
G1 X125.775 Y175.596 E0.03068
G1 X124.636 Y175.217 E0.06288
G1 X124.074 Y175.057 E0.03058
G1 X122.911 Y174.779 E0.06266
G1 X120.706 Y174.376 E0.1174
G1 X119.721 Y174.117 E0.0534
G1 X119.196 Y173.948 E0.02888
G1 X118.226 Y173.575 E0.05444
G1 X117.282 Y173.131 E0.05466
G1 X116.374 Y172.62 E0.05457
G1 X115.93 Y172.336 E0.02763
G1 X115.324 Y171.903 E0.03899
G1 X115.08 Y171.68 E0.01738
G1 X114.796 Y171.352 E0.02272
G1 X114.462 Y170.815 E0.03312
G1 X114.295 Y170.415 E0.02273
G1 X114.215 Y170.148 E0.0146
G1 X114.12 Y169.55 E0.03168
G1 X114.109 Y151.428 E0.94942
G1 X114.126 Y150.991 E0.02291
G1 X114.193 Y150.498 E0.02609
G1 X114.307 Y150.066 E0.0234
G1 X114.458 Y149.68 E0.02171
G1 X114.701 Y148.753 E0.05019
G1 X114.931 Y148.232 E0.02984
G1 X115.241 Y147.76 E0.02959
G1 X115.616 Y147.352 E0.02902
G1 X116.061 Y147.002 E0.02965
G1 X116.516 Y146.749 E0.0273
G1 X117.047 Y146.556 E0.02962
G1 X117.539 Y146.459 E0.02627
G1 X117.942 Y146.434 E0.02114
G1 X118.387 Y146.459 E0.02336
G1 X118.83 Y146.537 E0.02358
G1 X119.089 Y146.565 E0.01364
G1 X119.911 Y146.558 E0.04304
G1 X120.168 Y146.512 E0.01367
G1 X120.867 Y146.348 E0.03761
G1 X122.912 Y145.98 E0.10887
G1 X124.069 Y145.704 E0.06233
G1 X125.208 Y145.361 E0.06231
G1 X126.329 Y144.952 E0.06254
G1 X127.888 Y144.301 E0.08853
G1 X128.472 Y144.167 E0.03135
G1 X129.012 Y144.085 E0.02864
G1 X129.635 Y144.025 E0.03277
G1 X130.064 Y144.011 E0.02251
G1 X136.446 Y144.011 E0.33434
G1 X136.579 Y144.044 E0.0072
G1 X136.825 Y144.171 E0.01451
G1 X136.929 Y144.261 E0.0072
G1 X137.512 Y145.086 E0.05289
G1 X137.605 Y145.333 E0.01387
G1 X137.618 Y145.421 E0.00463
G1 X137.618 Y150.261 E0.25359
G1 X138.444 Y150.261 E0.04327
G1 X138.695 Y150.287 E0.01322
G1 X139.057 Y150.412 E0.02004
G1 X139.295 Y150.567 E0.01489
G1 X139.401 Y150.664 E0.00752
G1 X139.608 Y150.925 E0.01747
G1 X139.985 Y151.587 E0.03988
G1 X140.483 Y152.565 E0.05752
G1 X140.961 Y153.677 E0.06341
G1 X141.227 Y154.404 E0.04055
G1 X141.554 Y155.452 E0.05752
G1 X141.84 Y156.628 E0.06339
G1 X141.982 Y157.389 E0.04056
G1 X142.129 Y158.477 E0.05752
G1 X142.214 Y159.683 E0.06337
G1 X142.227 Y160.437 E0.03946
G1 X142.182 Y161.669 E0.06458
G1 X142.072 Y162.761 E0.05752
G1 X141.956 Y163.526 E0.04057
G1 X141.712 Y164.702 E0.06292
