; generated by SuperSlicer 2.4 on 2023-01-27 at 10:53:02 UTC


;
;

;
;
; 

; external perimeters extrusion width = 0.42mm
; perimeters extrusion width = 0.45mm
; infill extrusion width = 0.45mm
; solid infill extrusion width = 0.45mm
; top infill extrusion width = 0.42mm
; first layer extrusion width = 0.62mm

; external perimeters extrusion width = 0.42mm
; perimeters extrusion width = 0.45mm
; infill extrusion width = 0.45mm
; solid infill extrusion width = 0.45mm
; top infill extrusion width = 0.42mm
; first layer extrusion width = 0.62mm

; object:{"name":"BIQU_H2_Revo_HurakanHolder-Main","id":"BIQU_H2_Revo_HurakanHolder-Main.stl id:0 copy 0","object_center":[125.000000,112.292778,0.000000],"boundingbox_center":[125.000000,112.292778,14.781212],"boundingbox_size":[62.999992,27.964142,29.562424]}
; object:{"name":"H2_Pinda8mm_Holder_HeatInsertM3","id":"H2_Pinda8mm_Holder_HeatInsertM3.stl id:1 copy 0","object_center":[125.000005,140.886212,0.000000],"boundingbox_center":[125.000005,140.886212,24.384182],"boundingbox_size":[12.199992,23.204445,48.768364]}
; plater:{"center":[125.000000,125.399571,0.000000],"boundingbox_center":[125.000000,125.399571,24.384182],"boundingbox_size":[62.999992,54.177727,48.768364]}

;TYPE:Custom
M104 S0 ; Stops SuperSlicer from sending temp waits separately


; Pre-Processed for Cancel-Object support by preprocess_cancellation v0.2.0
; 2 known objects
EXCLUDE_OBJECT_DEFINE NAME=BIQU_H2_Revo_HurakanHolder_Main_stl_id_0_copy_0 CENTER=122.736,113.330 POLYGON=[[93.5,98.521],[93.5,126.065],[156.29,126.065],[156.29,98.521]]
EXCLUDE_OBJECT_DEFINE NAME=H2_Pinda8mm_Holder_HeatInsertM3_stl_id_1_copy_0 CENTER=125.395,140.694 POLYGON=[[119.11,129.494],[119.11,152.278],[130.89,152.278],[130.89,129.494]]

M140 S0

print_start EXTRUDER=240 BED=70 CHAMBER=0
G21 ; set units to millimeters
G90 ; use absolute coordinates
M83 ; use relative distances for extrusion
; Filament gcode
;_TOOLCHANGE 0
M107
;LAYER_CHANGE
;Z:0.2
;HEIGHT:0.2
TIMELAPSE_TAKE_FRAME
;BEFORE_LAYER_CHANGE
;0.2


G1 E-0.8 F3000
G1 Z0.2 F9000
G1 Z0.2
;AFTER_LAYER_CHANGE
;0.2
G92 E0
G1 Z0.4
G1 X90.323 Y96.917
G1 Z0.2
G1 E0.8 F1800
;TYPE:Skirt
;WIDTH:0.52
G1 F1950
G1 X89.93 Y98.311 E0.05743
G1 X89.93 Y119.584 E0.84388
G1 X90.712 Y121.471 E0.08105
G1 X91.966 Y122.717 E0.07011
G1 X118.939 Y146.399 E1.42389
G1 X119.705 Y146.99 E0.0384
G1 X120.466 Y147.468 E0.03564
G1 X121.426 Y147.936 E0.04234
G1 X122.981 Y148.429 E0.06473
G1 X123.862 Y148.582 E0.03546
G1 X125.764 Y148.62 E0.07549
G1 X126.647 Y148.505 E0.03531
G1 X127.744 Y148.236 E0.04481
G1 X129.283 Y147.604 E0.06597
G1 X130.637 Y146.742 E0.06369
G1 X156.018 Y127.398 E1.26594
G1 X157.033 Y125.715 E0.07796
G1 X160.07 Y107.336 E0.73899
G1 X160.07 Y98.938 E0.33314
G1 X159.288 Y97.05 E0.08106
G1 X158.661 Y96.423 E0.03519
G1 X156.773 Y95.641 E0.08106
G1 X92.6 Y95.641 E2.54569
G1 X91.385 Y95.934 E0.04958
G1 X90.367 Y96.876 E0.05505
G1 X90.798 Y97.061 F9000
G1 F1950
G1 X90.407 Y98.311 E0.05194
G1 X90.407 Y119.584 E0.84388
G1 X91.049 Y121.134 E0.06657
G1 X92.28 Y122.358 E0.06888
G1 X119.254 Y146.04 E1.42389
G1 X119.994 Y146.61 E0.03706
G1 X120.891 Y147.157 E0.04165
G1 X122.136 Y147.697 E0.05385
G1 X123.936 Y148.111 E0.07327
G1 X125.745 Y148.143 E0.07178
G1 X127.584 Y147.786 E0.07431
G1 X129.076 Y147.174 E0.06398
G1 X130.359 Y146.354 E0.06038
G1 X155.729 Y127.019 E1.2654
G1 X156.563 Y125.637 E0.06403
G1 X159.593 Y107.336 E0.73586
G1 X159.593 Y98.938 E0.33314
G1 X158.95 Y97.387 E0.06657
G1 X158.323 Y96.76 E0.03519
G1 X156.773 Y96.118 E0.06657
G1 X92.6 Y96.118 E2.54569
G1 X91.831 Y96.257 E0.03098
G1 X90.846 Y97.024 E0.04956
G1 X91.273 Y97.224 F9000
G1 F1950
G1 X90.884 Y98.311 E0.04579
G1 X90.884 Y119.584 E0.84388
G1 X91.387 Y120.797 E0.05209
G1 X92.595 Y122 E0.06765
G1 X119.568 Y145.682 E1.42389
G1 X120.283 Y146.23 E0.03572
G1 X121.099 Y146.728 E0.03793
G1 X122.306 Y147.251 E0.05219
G1 X124.01 Y147.64 E0.06933
G1 X125.726 Y147.666 E0.06806
G1 X127.424 Y147.337 E0.06861
G1 X128.869 Y146.744 E0.06199
G1 X130.08 Y145.967 E0.05707
G1 X155.44 Y126.639 E1.26487
G1 X156.092 Y125.558 E0.0501
G1 X159.092 Y107.619 E0.72152
G1 X159.116 Y98.938 E0.34436
G1 X158.613 Y97.725 E0.05209
G1 X157.986 Y97.098 E0.03519
G1 X156.773 Y96.595 E0.05209
G1 X92.6 Y96.595 E2.54569
G1 X91.327 Y97.198 E0.05588
G1 X91.745 Y97.414 F9000
G1 F1950
G1 X91.361 Y98.311 E0.03868
G1 X91.361 Y119.584 E0.84388
G1 X91.724 Y120.459 E0.0376
G1 X92.91 Y121.641 E0.06643
G1 X119.951 Y145.379 E1.42736
G1 X120.679 Y145.923 E0.03607
G1 X121.837 Y146.556 E0.05235
G1 X123.478 Y147.073 E0.06827
G1 X124.798 Y147.22 E0.05265
G1 X125.706 Y147.19 E0.03607
G1 X127.263 Y146.888 E0.06292
G1 X128.663 Y146.314 E0.06001
G1 X129.802 Y145.579 E0.05377
G1 X155.151 Y126.26 E1.26433
G1 X155.622 Y125.479 E0.03617
G1 X158.622 Y107.54 E0.72152
G1 X158.639 Y98.938 E0.34124
G1 X158.276 Y98.062 E0.0376
G1 X157.649 Y97.435 E0.03519
G1 X156.773 Y97.072 E0.0376
G1 X92.6 Y97.072 E2.54569
G1 X91.801 Y97.392 E0.03414
G1 E-0.8 F3000
G1 Z0.4 F9000
G1 X121.807 Y134.043
G1 Z0.2
G1 E0.8 F1800
;WIDTH:0.62
G1 F1950
G1 X121.913 Y133.996 E0.00558
G1 X122.862 Y133.98 E0.0455
G1 X123.814 Y133.895 E0.04588
G1 X126.187 Y133.895 E0.11387
G1 X126.677 Y133.946 E0.02364
G1 X127.136 Y133.98 E0.02209
G1 X128.086 Y133.996 E0.04561
G1 X128.193 Y134.043 E0.00558
G1 X130.859 Y136.858 E0.18602
G1 X130.896 Y136.928 E0.00383
G1 X131.22 Y138.46 E0.07512
G1 X131.272 Y138.933 E0.02282
G1 X131.289 Y139.54 E0.02917
G1 X131.119 Y139.715 E0.01169
G1 X130.872 Y139.715 E0.01185
G1 X130.84 Y140.134 E0.02017
G1 X130.75 Y140.652 E0.02523
G1 X130.557 Y141.33 E0.03382
G1 X130.348 Y141.849 E0.02685
G1 X130.116 Y142.3 E0.02436
G1 X129.841 Y142.736 E0.02471
G1 X129.524 Y143.153 E0.02513
G1 X129.052 Y143.656 E0.03308
G1 X128.643 Y144.01 E0.02595
G1 X128.221 Y144.313 E0.02496
G1 X127.784 Y144.573 E0.02436
G1 X127.3 Y144.804 E0.02578
G1 X126.65 Y145.036 E0.03308
G1 X126.117 Y145.165 E0.02632
G1 X125.582 Y145.243 E0.02595
G1 X124.893 Y145.271 E0.03308
G1 X124.363 Y145.238 E0.02551
G1 X123.826 Y145.154 E0.02603
G1 X123.146 Y144.973 E0.03381
G1 X122.668 Y144.791 E0.02453
G1 X122.196 Y144.562 E0.02515
G1 X121.728 Y144.279 E0.02626
G1 X121.166 Y143.853 E0.03381
G1 X120.785 Y143.496 E0.02511
G1 X120.438 Y143.107 E0.02499
G1 X120.109 Y142.662 E0.02656
G1 X119.759 Y142.068 E0.03308
G1 X119.546 Y141.603 E0.02453
G1 X119.373 Y141.118 E0.02469
G1 X119.242 Y140.615 E0.02494
G1 X119.157 Y140.112 E0.02451
G1 X119.112 Y139.372 E0.03556
G1 X119.135 Y138.862 E0.02451
G1 X119.204 Y138.347 E0.02492
G1 X119.64 Y136.361 E0.09756
G1 X119.677 Y136.292 E0.00377
G1 X121.766 Y134.087 E0.14575
G1 E-0.8 F3000
G1 Z0.4 F9000
G1 X121.766 Y119.999
G1 Z0.2
G1 E0.8 F1800
G1 F1950
G1 X94.084 Y119.999 E1.32829
G1 X93.978 Y119.955 E0.00551
G1 X93.355 Y119.333 E0.04225
G1 X93.311 Y119.227 E0.00551
G1 X93.311 Y99.191 E0.96139
G1 X93.48 Y99.022 E0.01147
G1 X96.52 Y99.022 E0.14583
G1 X96.689 Y99.191 E0.01147
G1 X96.689 Y107.725 E0.40947
G1 X99.578 Y110.614 E0.19609
G1 X112.951 Y110.614 E0.64171
G1 X113.442 Y110.609 E0.02353
G1 X113.922 Y110.582 E0.02309
G1 X114.419 Y110.515 E0.02405
G1 X114.438 Y110.514 E0.00092
G1 X118.442 Y110.514 E0.19212
G1 X118.958 Y110.571 E0.02489
G1 X119.441 Y110.603 E0.02326
G1 X120.429 Y110.614 E0.04737
G1 X129.892 Y110.614 E0.45411
G1 X130.383 Y110.609 E0.02353
G1 X130.863 Y110.582 E0.02309
G1 X131.36 Y110.515 E0.02405
G1 X131.379 Y110.514 E0.00092
G1 X135.383 Y110.514 E0.19213
G1 X135.899 Y110.573 E0.02491
G1 X136.383 Y110.604 E0.02328
G1 X136.872 Y110.613 E0.02348
G1 X149.77 Y110.614 E0.61891
G1 X152.371 Y108.995 E0.14699
G1 X153.311 Y107.083 E0.10228
G1 X153.311 Y99.191 E0.37866
G1 X153.48 Y99.022 E0.01147
G1 X156.416 Y99.022 E0.14086
G1 X156.522 Y99.066 E0.00551
G1 X156.645 Y99.189 E0.00832
G1 X156.689 Y99.295 E0.00551
G1 X156.689 Y107.136 E0.37627
G1 X156.674 Y107.201 E0.00318
G1 X153.689 Y113.27 E0.32454
G1 X153.689 Y124.394 E0.5338
G1 X153.52 Y124.563 E0.01147
G1 X150.48 Y124.563 E0.14583
G1 X150.311 Y124.394 E0.01147
G1 X150.311 Y119.999 E0.21089
G1 X121.826 Y119.999 E1.36687
M104 S240 ; set temperature
G1 E-0.8 F3000
G1 Z0.4 F9000
; printing object BIQU_H2_Revo_HurakanHolder-Main.stl id:0 copy 0
EXCLUDE_OBJECT_START NAME=BIQU_H2_Revo_HurakanHolder_Main_stl_id_0_copy_0
G1 X116.055 Y118.622
G1 Z0.2
G1 E0.8 F1800
;TYPE:Solid infill
;WIDTH:0.617895
G1 F2400
G1 X109.672 Y112.24 E0.43162
G1 X108.856 Y112.24 E0.03903
G1 X114.99 Y118.374 E0.41484
G1 X114.174 Y118.374 E0.03903
G1 X108.04 Y112.24 E0.41484
G1 X107.224 Y112.24 E0.03903
G1 X113.358 Y118.374 E0.41484
G1 X112.542 Y118.374 E0.03903
G1 X106.408 Y112.24 E0.41483
G1 X105.592 Y112.24 E0.03903
G1 X111.726 Y118.374 E0.41483
G1 X110.91 Y118.374 E0.03903
G1 X104.776 Y112.24 E0.41483
G1 X103.96 Y112.24 E0.03903
G1 X110.094 Y118.374 E0.41483
G1 X109.278 Y118.374 E0.03903
G1 X103.144 Y112.24 E0.41483
G1 X102.328 Y112.24 E0.03903
G1 X108.461 Y118.374 E0.41483
G1 X107.645 Y118.374 E0.03903
G1 X101.512 Y112.24 E0.41483
G1 X100.695 Y112.24 E0.03903
G1 X106.829 Y118.374 E0.41482
G1 X106.013 Y118.374 E0.03903
G1 X99.631 Y111.992 E0.4316
G1 E-0.8 F3000
G1 Z0.4 F9000
G1 X95.652 Y118.622
G1 Z0.2
G1 E0.8 F1800
G1 F2400
G1 X94.937 Y117.907 E0.04833
G1 X94.937 Y117.091 E0.03903
G1 X96.22 Y118.374 E0.08674
G1 X97.036 Y118.374 E0.03903
G1 X94.937 Y116.275 E0.14193
G1 X94.937 Y115.459 E0.03903
G1 X97.852 Y118.374 E0.19713
G1 X98.668 Y118.374 E0.03903
G1 X94.937 Y114.643 E0.25232
G1 X94.937 Y113.827 E0.03903
G1 X99.484 Y118.374 E0.30752
G1 X100.3 Y118.374 E0.03903
G1 X94.937 Y113.01 E0.36271
G1 X94.937 Y112.194 E0.03903
G1 X101.116 Y118.374 E0.4179
G1 X101.933 Y118.374 E0.03903
G1 X94.937 Y111.378 E0.4731
G1 X94.937 Y110.562 E0.03903
G1 X102.749 Y118.374 E0.52829
G1 X103.565 Y118.374 E0.03903
G1 X94.937 Y109.746 E0.58348
G1 X94.937 Y108.93 E0.03903
G1 X104.381 Y118.374 E0.63868
G1 X105.197 Y118.374 E0.03903
G1 X94.937 Y108.114 E0.69387
G1 X94.937 Y107.298 E0.03903
G1 X95.063 Y107.423 E0.0085
G1 X95.063 Y106.607 E0.03903
G1 X94.937 Y106.482 E0.0085
G1 X94.937 Y105.665 E0.03903
G1 X95.063 Y105.791 E0.0085
G1 X95.063 Y104.975 E0.03903
G1 X94.937 Y104.849 E0.0085
G1 X94.937 Y104.033 E0.03903
G1 X95.063 Y104.159 E0.0085
G1 X95.063 Y103.343 E0.03903
G1 X94.937 Y103.217 E0.0085
G1 X94.937 Y102.401 E0.03903
G1 X95.063 Y102.527 E0.0085
G1 X95.063 Y101.71 E0.03903
G1 X94.937 Y101.585 E0.0085
G1 X94.937 Y100.769 E0.03903
G1 X95.311 Y101.143 E0.02528
G1 E-0.8 F3000
G1 Z0.4 F9000
G1 X113.852 Y113.155
G1 Z0.2
G1 E0.8 F1800
G1 F2400
G1 X112.937 Y112.24 E0.0619
G1 X112.121 Y112.24 E0.03903
G1 X113.601 Y113.72 E0.10012
G1 X113.597 Y114.532 E0.03884
G1 X111.305 Y112.24 E0.15504
G1 X110.489 Y112.24 E0.03903
G1 X116.623 Y118.374 E0.41484
G1 X117.439 Y118.374 E0.03903
G1 X114.305 Y115.24 E0.21194
G1 X115.121 Y115.24 E0.03903
G1 X118.255 Y118.374 E0.21194
G1 X119.071 Y118.374 E0.03903
G1 X115.937 Y115.24 E0.21194
G1 X116.753 Y115.24 E0.03903
G1 X119.887 Y118.374 E0.21194
G1 X120.703 Y118.374 E0.03903
G1 X117.569 Y115.24 E0.21194
G1 X118.385 Y115.24 E0.03903
G1 X121.519 Y118.374 E0.21194
G1 X122.335 Y118.374 E0.03903
G1 X119.202 Y115.24 E0.21194
G1 X119.481 Y115.24 E0.01337
G1 X119.479 Y114.701 E0.02578
G1 X123.151 Y118.374 E0.2484
G1 X123.968 Y118.374 E0.03903
G1 X119.475 Y113.881 E0.30386
G1 X119.471 Y113.06 E0.03922
G1 X124.784 Y118.374 E0.35933
G1 X125.6 Y118.374 E0.03903
G1 X119.431 Y112.205 E0.41718
G1 X120.277 Y112.235 E0.04049
G1 X126.416 Y118.374 E0.41516
G1 X127.232 Y118.374 E0.03903
G1 X121.098 Y112.24 E0.41483
G1 X121.914 Y112.24 E0.03903
G1 X128.048 Y118.374 E0.41483
G1 X128.864 Y118.374 E0.03903
G1 X122.73 Y112.24 E0.41483
G1 X123.546 Y112.24 E0.03903
G1 X129.68 Y118.374 E0.41483
G1 X130.497 Y118.374 E0.03903
G1 X124.363 Y112.24 E0.41484
G1 X125.179 Y112.24 E0.03903
G1 X131.313 Y118.374 E0.41484
G1 X132.129 Y118.374 E0.03903
G1 X125.995 Y112.24 E0.41484
G1 X126.811 Y112.24 E0.03903
G1 X132.945 Y118.374 E0.41484
G1 X133.761 Y118.374 E0.03903
G1 X127.627 Y112.24 E0.41484
G1 X128.443 Y112.24 E0.03903
G1 X130.523 Y114.32 E0.14069
G1 X130.527 Y113.508 E0.03884
G1 X129.259 Y112.24 E0.08576
G1 X129.916 Y112.24 E0.03141
G1 X130.07 Y112.234 E0.00738
G1 X130.778 Y112.942 E0.04788
G1 X131.195 Y114.992 F9000
G1 F2400
G1 X134.577 Y118.374 E0.22872
G1 X135.393 Y118.374 E0.03903
G1 X132.259 Y115.24 E0.21194
G1 X133.076 Y115.24 E0.03903
G1 X136.209 Y118.374 E0.21194
G1 X137.025 Y118.374 E0.03903
G1 X133.892 Y115.24 E0.21194
G1 X134.708 Y115.24 E0.03903
G1 X137.842 Y118.374 E0.21194
G1 X138.658 Y118.374 E0.03903
G1 X135.524 Y115.24 E0.21194
G1 X136.34 Y115.24 E0.03903
G1 X139.474 Y118.374 E0.21194
G1 X140.29 Y118.374 E0.03903
G1 X136.403 Y114.486 E0.2629
G1 X136.399 Y113.666 E0.03922
G1 X141.106 Y118.374 E0.31836
G1 X141.922 Y118.374 E0.03903
G1 X136.395 Y112.846 E0.37383
G1 X136.394 Y112.754 E0.00439
G1 X136.345 Y112.218 E0.02574
G1 X136.593 Y112.228 E0.01186
G1 X142.738 Y118.374 E0.4156
G1 X143.554 Y118.374 E0.03903
G1 X137.419 Y112.239 E0.41491
G1 X138.235 Y112.239 E0.03903
G1 X144.37 Y118.374 E0.41491
G1 X145.187 Y118.374 E0.03903
G1 X139.052 Y112.239 E0.4149
G1 X139.868 Y112.239 E0.03903
G1 X146.003 Y118.374 E0.4149
G1 X146.819 Y118.374 E0.03903
G1 X140.684 Y112.239 E0.41489
G1 X141.5 Y112.239 E0.03903
G1 X147.635 Y118.374 E0.41488
G1 X148.451 Y118.374 E0.03903
G1 X142.316 Y112.239 E0.41488
G1 X143.133 Y112.239 E0.03903
G1 X149.267 Y118.374 E0.41487
G1 X150.083 Y118.374 E0.03903
G1 X143.949 Y112.239 E0.41487
G1 X144.765 Y112.239 E0.03903
G1 X151.147 Y118.622 E0.43164
G1 E-0.8 F3000
G1 Z0.4 F9000
G1 X151.689 Y122.428
G1 Z0.2
G1 E0.8 F1800
G1 F2400
G1 X152.063 Y122.802 E0.02528
G1 X152.063 Y121.985 E0.03903
G1 X151.937 Y121.86 E0.0085
G1 X151.937 Y121.044 E0.03903
G1 X152.063 Y121.169 E0.0085
G1 X152.063 Y120.353 E0.03903
G1 X151.937 Y120.228 E0.0085
G1 X151.937 Y119.411 E0.03903
G1 X152.063 Y119.537 E0.0085
G1 X152.063 Y118.721 E0.03903
G1 X145.581 Y112.239 E0.43835
G1 X146.397 Y112.239 E0.03903
G1 X152.063 Y117.905 E0.38315
G1 X152.063 Y117.089 E0.03903
G1 X147.214 Y112.24 E0.32795
G1 X148.03 Y112.24 E0.03903
G1 X152.063 Y116.273 E0.27275
G1 X152.063 Y115.457 E0.03903
G1 X148.846 Y112.24 E0.21755
G1 X149.662 Y112.24 E0.03903
G1 X152.063 Y114.64 E0.16235
G1 X152.063 Y113.824 E0.03903
G1 X150.385 Y112.146 E0.11347
G1 X150.888 Y111.833 E0.02833
G1 X152.063 Y113.008 E0.07945
G1 X152.063 Y112.892 E0.00557
G1 X152.294 Y112.423 E0.025
G1 X151.391 Y111.52 E0.06104
G1 X151.894 Y111.207 E0.02833
G1 X152.563 Y111.876 E0.04522
G1 X152.832 Y111.329 E0.02915
G1 X152.397 Y110.894 E0.0294
G1 X152.9 Y110.581 E0.02833
G1 X153.286 Y110.967 E0.02612
G1 E-0.8 F3000
G1 Z0.4 F9000
G1 X155.169 Y107.138
G1 Z0.2
G1 E0.8 F1800
G1 F2400
G1 X154.937 Y106.905 E0.01571
G1 X154.937 Y106.089 E0.03903
G1 X155.063 Y106.215 E0.0085
G1 X155.063 Y105.399 E0.03903
G1 X154.937 Y105.273 E0.0085
G1 X154.937 Y104.457 E0.03903
G1 X155.063 Y104.583 E0.0085
G1 X155.063 Y103.766 E0.03903
G1 X154.937 Y103.641 E0.0085
G1 X154.937 Y102.825 E0.03903
G1 X155.063 Y102.95 E0.0085
G1 X155.063 Y102.134 E0.03903
G1 X154.937 Y102.009 E0.0085
G1 X154.937 Y101.192 E0.03903
G1 X155.311 Y101.566 E0.02528
G1 X153.91 Y99.621 F9000
;TYPE:External perimeter
;WIDTH:0.62
G1 F2340
G1 X156.09 Y99.621 E0.10461
G1 X156.09 Y107.031 E0.35558
G1 X153.09 Y113.131 E0.32618
G1 X153.09 Y123.965 E0.51987
G1 X150.91 Y123.965 E0.10461
G1 X150.91 Y119.401 E0.219
G1 X94.27 Y119.401 E2.71784
G1 X93.91 Y119.041 E0.02442
G1 X93.91 Y99.621 E0.93187
G1 X96.09 Y99.621 E0.10461
G1 X96.09 Y107.972 E0.40075
G1 X99.33 Y111.213 E0.21988
G1 X112.958 Y111.212 E0.65393
G1 X113.975 Y111.179 E0.04884
G1 X114.468 Y111.113 E0.02388
G1 X118.42 Y111.113 E0.18962
G1 X119.415 Y111.201 E0.04792
G1 X120.425 Y111.213 E0.04848
G1 X129.899 Y111.212 E0.4546
G1 X130.916 Y111.179 E0.04884
G1 X131.409 Y111.113 E0.02388
G1 X135.357 Y111.113 E0.18941
G1 X135.849 Y111.17 E0.02377
G1 X136.863 Y111.211 E0.04872
G1 X149.941 Y111.213 E0.62755
G1 X152.832 Y109.413 E0.16341
G1 X153.91 Y107.222 E0.11717
G1 X153.91 Y99.681 E0.36185
;WIPE_START
G1 X154.256 Y99.821 F9000
;WIPE_END
G1 E-0.8 F3000
G1 Z0.4 F9000
