; generated by SuperSlicer 2.4 on 2023-02-15 at 00:10:05 UTC


;
;

;
;
; 

; external perimeters extrusion width = 0.42mm
; perimeters extrusion width = 0.45mm
; infill extrusion width = 0.43mm
; solid infill extrusion width = 0.45mm
; top infill extrusion width = 0.43mm
; support material extrusion width = 0.40mm
; first layer extrusion width = 0.59mm

; object:{"name":"BIQU_H2_Revo_HurakanHolder-Main","id":"BIQU_H2_Revo_HurakanHolder-Main.stl id:0 copy 0","object_center":[150.000000,148.500000,0.000000],"boundingbox_center":[150.000000,148.500000,14.781212],"boundingbox_size":[62.999992,27.964142,29.562424]}
; plater:{"center":[150.000000,148.500000,0.000000],"boundingbox_center":[150.000000,148.500000,14.781212],"boundingbox_size":[62.999992,27.964142,29.562424]}

;TYPE:Custom
M104 S0 ; Stops SuperSlicer from sending temp waits separately


; Pre-Processed for Cancel-Object support by preprocess_cancellation v0.2.0
; 1 known objects
EXCLUDE_OBJECT_DEFINE NAME=BIQU_H2_Revo_HurakanHolder_Main_stl_id_0_copy_0 CENTER=152.121,149.585 POLYGON=[[118.5,134.726],[118.5,162.274],[181.292,162.274],[181.292,134.726]]

M140 S0

print_start EXTRUDER=250 BED=105 CHAMBER=0
M107
G21 ; set units to millimeters
G90 ; use absolute coordinates
M83 ; use relative distances for extrusion
; Filament gcode
;_TOOLCHANGE 0
M107
;LAYER_CHANGE
;Z:0.2
;HEIGHT:0.2
TIMELAPSE_TAKE_FRAME
;BEFORE_LAYER_CHANGE
;0.2


G1 Z0.2 F8400
;AFTER_LAYER_CHANGE
;0.2
G92 E0
G1 E-0.8 F3000
G1 Z0.7 F8400
G1 X114.855 Y130.589
G1 Z0.2
G1 E0.8 F3000
;TYPE:Skirt
;WIDTH:0.44
G1 F1800
G1 X113.797 Y131.546 E0.04712
G1 X113.404 Y132.918 E0.04712
G1 X113.404 Y156.453 E0.77708
G1 X114.165 Y158.289 E0.06559
G1 X116.229 Y160.353 E0.0964
G1 X117.849 Y161.105 E0.05898
G1 X172.785 Y165.669 E1.82007
G1 X181 Y165.678 E0.27123
G1 X181.771 Y165.561 E0.02575
G1 X182.965 Y164.778 E0.04712
G1 X183.564 Y163.483 E0.04712
G1 X186.596 Y143.915 E0.6538
G1 X186.596 Y134.482 E0.31144
G1 X185.835 Y132.647 E0.06559
G1 X184.271 Y131.083 E0.07305
G1 X182.436 Y130.322 E0.06559
G1 X116 Y130.322 E2.19352
G1 X114.913 Y130.575 E0.03683
G1 X115.17 Y130.904 F8400
G1 F1800
G1 X114.192 Y131.667 E0.04094
G1 X113.801 Y132.918 E0.04329
G1 X113.801 Y156.453 E0.77708
G1 X114.445 Y158.008 E0.05556
G1 X116.51 Y160.073 E0.0964
G1 X117.882 Y160.709 E0.04996
G1 X172.818 Y165.273 E1.82007
G1 X181 Y165.281 E0.27015
G1 X182.592 Y164.598 E0.0572
G1 X183.172 Y163.422 E0.04329
G1 X186.172 Y144.255 E0.64055
G1 X186.199 Y134.482 E0.32267
G1 X185.555 Y132.928 E0.05556
G1 X183.99 Y131.363 E0.07305
G1 X182.436 Y130.719 E0.05556
G1 X116 Y130.719 E2.19352
G1 X115.226 Y130.86 E0.02597
G1 X115.217 Y130.867 E0.00037
G1 E-0.8 F3000
G1 Z0.7 F8400
G1 X117.406 Y133.822
G1 Z0.2
G1 E0.8 F3000
;WIDTH:0.588
G1 F1800
G1 X117.587 Y133.707 E0.00971
G1 X117.987 Y133.547 E0.01954
G1 X118.198 Y133.51 E0.00971
G1 X121.855 Y133.515 E0.16574
G1 X122.064 Y133.562 E0.00971
G1 X122.46 Y133.732 E0.01954
G1 X122.636 Y133.856 E0.00971
G1 X123.062 Y134.282 E0.02736
G1 X123.211 Y134.505 E0.01213
G1 X123.356 Y134.854 E0.01712
G1 X123.403 Y135.063 E0.00971
G1 X123.408 Y143.22 E0.3697
G1 X125.29 Y145.102 E0.12066
G1 X174.279 Y145.102 E2.22034
G1 X176.045 Y144.003 E0.09429
G1 X176.592 Y142.89 E0.0562
G1 X176.592 Y135.116 E0.35233
G1 X176.644 Y134.854 E0.01213
G1 X176.789 Y134.505 E0.01712
G1 X176.904 Y134.324 E0.00971
G1 X177.364 Y133.856 E0.02977
G1 X177.54 Y133.732 E0.00971
G1 X177.936 Y133.562 E0.01954
G1 X178.145 Y133.515 E0.00971
G1 X181.561 Y133.51 E0.15485
G1 X181.93 Y133.578 E0.01697
G1 X182.279 Y133.717 E0.01705
G1 X182.638 Y133.958 E0.01959
G1 X183.038 Y134.375 E0.02619
G1 X183.202 Y134.642 E0.01419
G1 X183.324 Y134.937 E0.01448
G1 X183.403 Y135.303 E0.01697
G1 X183.408 Y143.458 E0.36962
G1 X183.267 Y144.064 E0.02816
G1 X180.408 Y149.877 E0.29363
G1 X180.408 Y160.884 E0.49887
G1 X180.356 Y161.146 E0.01213
G1 X180.211 Y161.495 E0.01712
G1 X180.062 Y161.718 E0.01213
G1 X179.594 Y162.178 E0.02977
G1 X179.413 Y162.293 E0.00971
G1 X179.064 Y162.438 E0.01712
G1 X178.855 Y162.485 E0.00971
G1 X175.198 Y162.49 E0.16574
G1 X174.936 Y162.438 E0.01213
G1 X174.54 Y162.268 E0.01954
G1 X174.364 Y162.144 E0.00971
G1 X173.904 Y161.676 E0.02977
G1 X173.789 Y161.495 E0.00971
G1 X173.629 Y161.095 E0.01954
G1 X173.592 Y160.884 E0.00971
G1 X173.592 Y157.926 E0.13407
G1 X159.146 Y157.926 E0.65476
G1 X159.05 Y158.014 E0.00593
G1 X158.869 Y158.129 E0.00971
G1 X158.52 Y158.274 E0.01712
G1 X158.256 Y158.326 E0.01219
G1 X156.653 Y158.314 E0.07265
G1 X156.347 Y158.241 E0.01424
G1 X156.055 Y158.12 E0.01433
G1 X155.75 Y157.926 E0.0164
G1 X144.146 Y157.926 E0.52594
G1 X144.05 Y158.014 E0.00593
G1 X143.869 Y158.129 E0.00971
G1 X143.52 Y158.274 E0.01712
G1 X143.311 Y158.321 E0.00971
G1 X141.77 Y158.326 E0.06983
G1 X141.351 Y158.242 E0.01938
G1 X141.014 Y158.099 E0.0166
G1 X140.75 Y157.926 E0.01429
G1 X118.939 Y157.926 E0.98858
G1 X118.57 Y157.858 E0.01697
G1 X118.221 Y157.719 E0.01705
G1 X117.864 Y157.48 E0.01947
G1 X116.962 Y156.561 E0.05832
G1 X116.798 Y156.294 E0.01423
G1 X116.676 Y155.999 E0.01448
G1 X116.592 Y155.579 E0.01938
G1 X116.597 Y135.063 E0.92988
G1 X116.644 Y134.854 E0.00971
G1 X116.789 Y134.505 E0.01712
G1 X116.938 Y134.282 E0.01213
G1 X117.363 Y133.864 E0.02705
G1 X117.731 Y134.26 F8400
G1 F1800
G1 X117.82 Y134.2 E0.00487
G1 X118.12 Y134.076 E0.01469
G1 X118.225 Y134.055 E0.00487
G1 X121.775 Y134.055 E0.1609
G1 X121.88 Y134.076 E0.00487
G1 X122.18 Y134.2 E0.01469
G1 X122.269 Y134.26 E0.00487
G1 X122.658 Y134.649 E0.02493
G1 X122.718 Y134.738 E0.00487
G1 X122.842 Y135.038 E0.01469
G1 X122.863 Y135.143 E0.00487
G1 X122.863 Y143.445 E0.3763
G1 X125.064 Y145.647 E0.14113
G1 X174.435 Y145.647 E2.23763
G1 X176.465 Y144.383 E0.10841
G1 X177.137 Y143.017 E0.06901
G1 X177.137 Y135.143 E0.35686
G1 X177.158 Y135.038 E0.00487
G1 X177.282 Y134.738 E0.01469
G1 X177.342 Y134.649 E0.00487
G1 X177.731 Y134.26 E0.02493
G1 X177.82 Y134.2 E0.00487
G1 X178.12 Y134.076 E0.01469
G1 X178.225 Y134.055 E0.00487
G1 X181.535 Y134.055 E0.15001
G1 X181.797 Y134.107 E0.01212
G1 X182.046 Y134.21 E0.01221
G1 X182.268 Y134.359 E0.01213
G1 X182.593 Y134.691 E0.02104
G1 X182.707 Y134.872 E0.00971
G1 X182.811 Y135.121 E0.01221
G1 X182.863 Y135.383 E0.01213
G1 X182.863 Y143.427 E0.36458
G1 X182.764 Y143.851 E0.01972
G1 X179.863 Y149.75 E0.29797
G1 X179.863 Y160.857 E0.5034
G1 X179.842 Y160.962 E0.00487
G1 X179.718 Y161.262 E0.01469
G1 X179.658 Y161.351 E0.00487
G1 X179.269 Y161.74 E0.02493
G1 X179.18 Y161.8 E0.00487
G1 X178.88 Y161.924 E0.01469
G1 X178.775 Y161.945 E0.00487
G1 X175.225 Y161.945 E0.1609
G1 X175.12 Y161.924 E0.00487
G1 X174.82 Y161.8 E0.01469
G1 X174.731 Y161.74 E0.00487
G1 X174.342 Y161.351 E0.02493
G1 X174.282 Y161.262 E0.00487
G1 X174.158 Y160.962 E0.01469
G1 X174.137 Y160.857 E0.00487
G1 X174.137 Y157.381 E0.15756
G1 X158.92 Y157.381 E0.68969
G1 X158.725 Y157.576 E0.01253
G1 X158.635 Y157.636 E0.00487
G1 X158.336 Y157.76 E0.01469
G1 X158.231 Y157.781 E0.00487
G1 X156.743 Y157.776 E0.0674
G1 X156.534 Y157.729 E0.00971
G1 X156.286 Y157.626 E0.01221
G1 X156.104 Y157.511 E0.00971
G1 X155.967 Y157.381 E0.00859
G1 X143.92 Y157.381 E0.546
G1 X143.725 Y157.576 E0.01253
G1 X143.635 Y157.636 E0.00487
G1 X143.336 Y157.76 E0.01469
G1 X143.231 Y157.781 E0.00487
G1 X141.797 Y157.781 E0.06499
G1 X141.534 Y157.729 E0.01213
G1 X141.286 Y157.626 E0.01221
G1 X141.105 Y157.511 E0.00971
G1 X140.967 Y157.381 E0.00859
G1 X118.965 Y157.381 E0.99719
G1 X118.703 Y157.329 E0.01213
G1 X118.454 Y157.225 E0.01221
G1 X118.232 Y157.077 E0.01213
G1 X117.407 Y156.245 E0.05308
G1 X117.293 Y156.064 E0.00971
G1 X117.189 Y155.815 E0.01221
G1 X117.137 Y155.553 E0.01212
G1 X117.137 Y135.143 E0.92504
G1 X117.158 Y135.038 E0.00487
G1 X117.282 Y134.738 E0.01469
G1 X117.342 Y134.649 E0.00487
G1 X117.688 Y134.302 E0.02221
G1 X118.074 Y134.688 F8400
G1 F1800
G1 X118.279 Y134.6 E0.01009
G1 X121.721 Y134.6 E0.15603
G1 X121.922 Y134.683 E0.00983
G1 X122.235 Y134.996 E0.02006
G1 X122.318 Y135.197 E0.00983
G1 X122.318 Y143.671 E0.3841
G1 X124.839 Y146.192 E0.16159
G1 X174.59 Y146.192 E2.25493
G1 X176.886 Y144.763 E0.12254
G1 X177.682 Y143.143 E0.08182
G1 X177.682 Y135.197 E0.36018
G1 X177.765 Y134.996 E0.00983
G1 X178.078 Y134.683 E0.02006
G1 X178.279 Y134.6 E0.00983
G1 X181.508 Y134.6 E0.14636
G1 X181.613 Y134.621 E0.00487
G1 X181.813 Y134.704 E0.00978
G1 X181.902 Y134.763 E0.00487
G1 X182.154 Y135.016 E0.01619
G1 X182.214 Y135.105 E0.00487
G1 X182.297 Y135.305 E0.00978
G1 X182.318 Y135.41 E0.00487
G1 X182.318 Y143.396 E0.36196
G1 X182.261 Y143.638 E0.01128
G1 X179.318 Y149.623 E0.3023
G1 X179.318 Y160.803 E0.50671
G1 X179.235 Y161.004 E0.00983
G1 X178.922 Y161.317 E0.02006
G1 X178.721 Y161.4 E0.00983
G1 X175.279 Y161.4 E0.15603
G1 X175.078 Y161.317 E0.00983
G1 X174.765 Y161.004 E0.02006
G1 X174.682 Y160.803 E0.00983
G1 X174.682 Y156.836 E0.17983
G1 X158.694 Y156.836 E0.72463
G1 X158.377 Y157.153 E0.02033
G1 X158.177 Y157.236 E0.00983
G1 X156.824 Y157.236 E0.06134
G1 X156.718 Y157.215 E0.00487
G1 X156.519 Y157.132 E0.00978
G1 X156.43 Y157.073 E0.00487
G1 X156.193 Y156.836 E0.01519
G1 X143.694 Y156.836 E0.56647
G1 X143.377 Y157.153 E0.02033
G1 X143.177 Y157.236 E0.00983
G1 X141.824 Y157.236 E0.06134
G1 X141.718 Y157.215 E0.00487
G1 X141.519 Y157.132 E0.00978
G1 X141.43 Y157.073 E0.00487
G1 X141.193 Y156.836 E0.01519
G1 X118.992 Y156.836 E1.00621
G1 X118.887 Y156.815 E0.00487
G1 X118.687 Y156.732 E0.00978
G1 X118.598 Y156.672 E0.00487
G1 X117.846 Y155.92 E0.04824
G1 X117.786 Y155.831 E0.00487
G1 X117.703 Y155.631 E0.00978
G1 X117.682 Y155.526 E0.00487
G1 X117.682 Y135.197 E0.92139
G1 X117.765 Y134.996 E0.00983
G1 X118.031 Y134.73 E0.01706
G1 X118.387 Y135.145 F8400
G1 F1800
G1 X121.613 Y135.145 E0.1462
G1 X121.773 Y135.305 E0.01023
G1 X121.773 Y143.897 E0.38942
G1 X124.613 Y146.737 E0.18206
G1 X174.746 Y146.737 E2.27222
G1 X177.306 Y145.144 E0.13666
G1 X178.227 Y143.27 E0.09463
G1 X178.227 Y135.305 E0.36101
G1 X178.387 Y135.145 E0.01023
G1 X181.454 Y135.145 E0.13901
G1 X181.554 Y135.187 E0.00491
G1 X181.731 Y135.364 E0.01132
G1 X181.773 Y135.464 E0.00491
G1 X181.773 Y143.365 E0.35811
G1 X181.758 Y143.426 E0.00284
G1 X178.773 Y149.497 E0.30663
G1 X178.773 Y160.695 E0.50755
G1 X178.613 Y160.855 E0.01023
G1 X175.387 Y160.855 E0.1462
G1 X175.227 Y160.695 E0.01023
G1 X175.227 Y156.291 E0.19962
G1 X158.469 Y156.291 E0.75957
G1 X158.341 Y156.418 E0.00817
G1 X158.228 Y156.418 E0.00512
G1 X158.228 Y156.531 E0.00512
G1 X158.069 Y156.691 E0.01023
G1 X156.877 Y156.691 E0.05399
G1 X156.777 Y156.649 E0.00491
G1 X156.541 Y156.413 E0.01515
G1 X156.499 Y156.313 E0.00491
G1 X156.499 Y156.291 E0.001
G1 X143.469 Y156.291 E0.59059
G1 X143.341 Y156.418 E0.00817
G1 X143.228 Y156.418 E0.00512
G1 X143.228 Y156.531 E0.00512
G1 X143.068 Y156.691 E0.01023
G1 X141.877 Y156.691 E0.05399
G1 X141.777 Y156.649 E0.00491
G1 X141.541 Y156.413 E0.01515
G1 X141.499 Y156.313 E0.00491
G1 X141.499 Y156.291 E0.001
G1 X119.046 Y156.291 E1.01767
G1 X118.946 Y156.249 E0.00491
G1 X118.269 Y155.572 E0.04337
G1 X118.227 Y155.472 E0.00491
G1 X118.227 Y135.305 E0.91405
G1 X118.345 Y135.188 E0.00751
M104 S250 ; set temperature
; printing object BIQU_H2_Revo_HurakanHolder-Main.stl id:0 copy 0
EXCLUDE_OBJECT_START NAME=BIQU_H2_Revo_HurakanHolder_Main_stl_id_0_copy_0
G1 X118.794 Y135.712 F8400
;TYPE:External perimeter
G1 F1800
G1 X121.206 Y135.712 E0.10823
G1 X121.206 Y144.132 E0.3778
G1 X124.378 Y147.304 E0.2013
G1 X174.908 Y147.304 E2.2673
G1 X177.743 Y145.539 E0.14983
G1 X178.794 Y143.402 E0.10686
G1 X178.794 Y135.712 E0.34506
G1 X181.206 Y135.712 E0.10823
G1 X181.206 Y143.265 E0.33892
G1 X178.206 Y149.365 E0.30501
G1 X178.206 Y160.288 E0.49013
G1 X175.794 Y160.288 E0.10823
G1 X175.794 Y155.724 E0.20479
G1 X119.222 Y155.724 E2.53841
G1 X118.794 Y155.296 E0.02715
G1 X118.794 Y135.772 E0.87606
;WIPE_START
G1 X119.14 Y135.912 F8400
;WIPE_END
G1 E-0.8 F3000
G1 Z0.7 F8400
G1 X139.743 Y147.716
G1 Z0.2
G1 E0.8 F3000
G1 F1800
G1 X139.743 Y150.304 E0.11612
G1 X143.331 Y150.304 E0.16099
G1 X143.331 Y147.716 E0.11612
G1 X139.803 Y147.716 E0.1583
;WIPE_START
G1 X139.343 Y147.716 F8400
;WIPE_END
G1 X156.669 Y147.716
G1 F1800
G1 X156.669 Y150.304 E0.11612
G1 X160.257 Y150.304 E0.16099
G1 X160.257 Y147.716 E0.11612
G1 X156.729 Y147.716 E0.1583
;WIPE_START
G1 X156.269 Y147.716 F8400
;WIPE_END
G1 X139.198 Y147.849
;TYPE:Internal perimeter
G1 F1800
G1 X139.198 Y150.849 E0.13461
G1 X143.877 Y150.849 E0.20991
G1 X143.877 Y147.849 E0.13461
G1 X156.123 Y147.849 E0.54952
G1 X156.123 Y150.849 E0.13461
G1 X160.802 Y150.849 E0.20991
G1 X160.802 Y147.849 E0.13461
G1 X175.064 Y147.849 E0.63996
G1 X178.163 Y145.919 E0.16381
G1 X179.339 Y143.529 E0.11954
G1 X179.339 Y136.257 E0.32629
G1 X180.661 Y136.257 E0.05931
G1 X180.661 Y143.138 E0.30877
G1 X177.661 Y149.238 E0.30501
G1 X177.661 Y159.743 E0.47136
G1 X176.339 Y159.743 E0.05931
G1 X176.339 Y155.179 E0.20479
G1 X119.339 Y155.179 E2.55761
G1 X119.339 Y136.257 E0.84903
G1 X120.661 Y136.257 E0.05931
G1 X120.661 Y144.357 E0.36347
G1 X124.152 Y147.849 E0.22156
G1 X139.138 Y147.849 E0.67243
G1 X138.653 Y148.394 F8400
G1 F1800
G1 X138.653 Y151.394 E0.13461
G1 X144.422 Y151.394 E0.25883
G1 X144.422 Y148.394 E0.13461
G1 X155.578 Y148.394 E0.50061
G1 X155.578 Y151.394 E0.13461
G1 X161.347 Y151.394 E0.25883
G1 X161.347 Y148.394 E0.13461
G1 X175.22 Y148.394 E0.62249
G1 X177.953 Y146.692 E0.14447
G1 X178.197 Y146.913 E0.01476
G1 X177.116 Y149.111 E0.10992
G1 X177.116 Y154.634 E0.2478
G1 X119.884 Y154.634 E2.568
G1 X119.884 Y144.352 E0.46137
G1 X123.927 Y148.394 E0.25652
G1 X138.593 Y148.394 E0.6581
G1 X138.108 Y148.939 F8400
G1 F1800
G1 X138.108 Y151.939 E0.13461
G1 X144.967 Y151.939 E0.30774
G1 X144.967 Y148.939 E0.13461
G1 X155.033 Y148.939 E0.45169
G1 X155.033 Y151.939 E0.13461
G1 X161.892 Y151.939 E0.30774
G1 X161.892 Y148.939 E0.13461
G1 X175.376 Y148.939 E0.60503
G1 X176.622 Y148.163 E0.0659
G1 X176.866 Y148.384 E0.01476
G1 X176.571 Y148.985 E0.03005
G1 X176.571 Y154.089 E0.22903
G1 X120.429 Y154.089 E2.51909
G1 X120.429 Y145.667 E0.37787
G1 X123.701 Y148.939 E0.20761
G1 X138.048 Y148.939 E0.64377
G1 X137.945 Y149.661 F8400
;TYPE:Solid infill
;WIDTH:0.573471
G1 F1800
G1 X137.621 Y149.337 E0.02007
G1 X136.85 Y149.337 E0.03373
G1 X137.71 Y150.198 E0.05327
G1 X137.71 Y150.969 E0.03373
G1 X136.079 Y149.337 E0.10098
G1 X135.308 Y149.337 E0.03373
G1 X137.71 Y151.739 E0.14868
G1 X137.71 Y152.337 E0.02615
G1 X138.308 Y152.337 E0.02615
G1 X139.662 Y153.691 E0.08379
G1 X140.433 Y153.691 E0.03373
G1 X139.079 Y152.337 E0.08379
G1 X139.85 Y152.337 E0.03373
G1 X141.203 Y153.691 E0.08379
G1 X141.974 Y153.691 E0.03373
G1 X140.62 Y152.337 E0.08379
G1 X141.391 Y152.337 E0.03373
G1 X142.745 Y153.691 E0.08379
G1 X143.516 Y153.691 E0.03373
G1 X142.162 Y152.337 E0.08379
G1 X142.933 Y152.337 E0.03373
G1 X144.287 Y153.691 E0.08379
G1 X145.058 Y153.691 E0.03373
G1 X143.704 Y152.337 E0.08379
G1 X144.475 Y152.337 E0.03373
G1 X145.829 Y153.691 E0.08379
G1 X146.599 Y153.691 E0.03373
G1 X145.246 Y152.337 E0.08379
G1 X145.365 Y152.337 E0.00521
G1 X145.365 Y151.685 E0.02853
G1 X147.37 Y153.691 E0.12413
G1 X148.141 Y153.691 E0.03373
G1 X145.365 Y150.914 E0.17184
G1 X145.365 Y150.143 E0.03373
G1 X148.912 Y153.691 E0.21955
G1 X149.683 Y153.691 E0.03373
G1 X145.365 Y149.373 E0.26725
G1 X145.365 Y149.337 E0.00155
G1 X146.1 Y149.337 E0.03218
G1 X150.454 Y153.691 E0.26945
G1 X151.225 Y153.691 E0.03373
G1 X146.871 Y149.337 E0.26945
G1 X147.642 Y149.337 E0.03373
G1 X151.996 Y153.691 E0.26945
G1 X152.766 Y153.691 E0.03373
G1 X148.413 Y149.337 E0.26945
G1 X149.183 Y149.337 E0.03373
G1 X153.537 Y153.691 E0.26945
G1 X154.308 Y153.691 E0.03373
G1 X149.954 Y149.337 E0.26945
G1 X150.725 Y149.337 E0.03373
G1 X155.313 Y153.925 E0.28396
G1 X154.345 Y149.103 F8400
G1 F1800
G1 X154.635 Y149.393 E0.01797
G1 X154.635 Y150.164 E0.03373
G1 X153.809 Y149.337 E0.05117
G1 X153.038 Y149.337 E0.03373
G1 X154.635 Y150.935 E0.09888
G1 X154.635 Y151.706 E0.03373
G1 X152.267 Y149.337 E0.14659
G1 X151.496 Y149.337 E0.03373
G1 X155.85 Y153.691 E0.26945
G1 X156.621 Y153.691 E0.03373
