; generated by SuperSlicer 2.5.59 on 2023-04-28 at 10:20:04 UTC


;
;

;
;
; 

; external perimeters extrusion width = 0.44mm
; perimeters extrusion width = 0.45mm
; infill extrusion width = 0.45mm
; solid infill extrusion width = 0.45mm
; top infill extrusion width = 0.43mm
; support material extrusion width = 0.42mm
; first layer extrusion width = 0.57mm

; object:{"name":"Brush Holder","id":"Brush Holder id:0 copy 0","object_center":[150.000000,148.500000,0.000000],"boundingbox_center":[150.000000,148.500000,7.000000],"boundingbox_size":[63.000000,41.500000,14.000000]}
EXCLUDE_OBJECT_DEFINE NAME=Brush_Holder_id_0_copy_0 CENTER=150.000000,148.500000 POLYGON=[[118.500000,135.750000],[118.504824,135.553728],[118.515224,135.401376],[118.519264,135.357920],[118.543296,135.163088],[118.560768,135.055408],[118.576856,134.969632],[118.619872,134.778080],[118.636296,134.714720],[118.672240,134.588864],[118.733824,134.402432],[118.741224,134.381920],[118.804480,134.219264],[118.874768,134.059528],[118.884040,134.039784],[118.972312,133.864408],[119.035896,133.750000],[119.069088,133.693592],[119.174120,133.527728],[119.223392,133.455688],[119.287168,133.367200],[119.407960,133.212432],[119.435824,133.178848],[119.536192,133.063768],[119.671568,132.921568],[119.813768,132.786192],[119.928848,132.685824],[119.962424,132.657960],[120.117200,132.537168],[120.205696,132.473392],[120.277720,132.424120],[120.443592,132.319096],[120.500000,132.285904],[120.614408,132.222320],[120.789776,132.134048],[120.809528,132.124768],[120.969272,132.054472],[121.131920,131.991224],[121.152440,131.983824],[121.338856,131.922240],[121.464720,131.886288],[121.528088,131.869872],[121.719632,131.826856],[140.021360,127.808120],[140.258928,127.764584],[140.500000,127.750000],[179.500000,127.750000],[179.741072,127.764584],[179.978640,127.808120],[180.209216,127.879968],[180.429440,127.979088],[180.636144,128.104032],[180.826256,128.252976],[180.997024,128.423752],[181.145968,128.613880],[181.270912,128.820560],[181.370032,129.040784],[181.441888,129.271360],[181.485408,129.508928],[181.500000,129.750000],[181.500000,142.750000],[181.485408,142.991072],[181.441888,143.228640],[181.370032,143.459216],[181.270912,143.679440],[181.145968,143.886128],[180.997024,144.076256],[180.826256,144.247024],[180.636144,144.395968],[180.429440,144.520912],[136.385584,168.777680],[136.210224,168.865952],[136.190480,168.875232],[136.030736,168.945520],[135.868080,169.008752],[135.847568,169.016176],[135.661136,169.077760],[135.535280,169.113712],[135.471920,169.130128],[135.280368,169.173136],[135.194592,169.189232],[135.086912,169.206704],[134.892064,169.230736],[134.848640,169.234768],[134.696272,169.245184],[134.500000,169.250000],[122.500000,169.250000],[122.303728,169.245184],[122.151376,169.234768],[122.107936,169.230736],[121.913080,169.206704],[121.805408,169.189232],[121.719632,169.173136],[121.528088,169.130128],[121.464720,169.113712],[121.338856,169.077760],[121.152440,169.016176],[121.131920,169.008752],[120.969272,168.945520],[120.809528,168.875232],[120.789776,168.865952],[120.614408,168.777680],[120.500000,168.714096],[120.443592,168.680912],[120.277720,168.575888],[120.205696,168.526608],[120.117200,168.462832],[119.962424,168.342048],[119.928848,168.314176],[119.813768,168.213808],[119.671568,168.078432],[119.536192,167.936240],[119.435824,167.821152],[119.407960,167.787568],[119.287168,167.632800],[119.223392,167.544304],[119.174120,167.472288],[119.069088,167.306416],[119.035896,167.250000],[118.972312,167.135584],[118.884040,166.960224],[118.874768,166.940480],[118.804480,166.780736],[118.741224,166.618080],[118.733824,166.597568],[118.672240,166.411136],[118.636296,166.285280],[118.619872,166.221920],[118.576856,166.030368],[118.560768,165.944592],[118.543296,165.836912],[118.519264,165.642064],[118.515224,165.598624],[118.504824,165.446256],[118.500000,165.250000],[118.500000,135.750000]]
; plater:{"center":[150.000000,148.500000,0.000000],"boundingbox_center":[150.000000,148.500000,7.000000],"boundingbox_size":[63.000000,41.500000,14.000000]}

;TYPE:Custom
SET_PRINT_STATS_INFO TOTAL_LAYER=70

M104 S0 ; Stops SuperSlicer from sending temp waits separately

M109 S0

M140 S0

print_start EXTRUDER=255 BED=105 CHAMBER=0
M107
G21 ; set units to millimeters
G90 ; use absolute coordinates
M82 ; use absolute distances for extrusion
G92 E0
; Filament gcode
;_TOOLCHANGE 0
M107
;LAYER_CHANGE
;Z:0.2
;HEIGHT:0.2
TIMELAPSE_TAKE_FRAME
;BEFORE_LAYER_CHANGE
;0.2


G1 Z0.2 F12000
SET_PRINT_STATS_INFO CURRENT_LAYER=1
;AFTER_LAYER_CHANGE
;0.2
G1 E-0.7 F3000
G1 Z0.5 F12000
M204 S2000
G1 X114.698 Y127.754
G1 Z0.2
G1 E0 F2880
;TYPE:Skirt
;WIDTH:0.52
G1 F3600
G1 X113.857 Y128.672 E0.04938
G1 X113.267 Y129.46 E0.08845
G1 X112.435 Y130.904 E0.15456
G1 X111.958 Y132.052 E0.20388
G1 X111.674 Y132.993 E0.24285
G1 X111.476 Y133.942 E0.28132
G1 X111.333 Y135.524 E0.34432
G1 X111.36 Y166.087 E1.55677
G1 X111.523 Y167.324 E1.60623
G1 X112.05 Y169.2 E1.68357
G1 X112.896 Y170.957 E1.76089
G1 X113.857 Y172.328 E1.82734
G1 X115.21 Y173.715 E1.90418
G1 X116.8 Y174.858 E1.98187
G1 X117.904 Y175.432 E2.03124
G1 X118.811 Y175.795 E2.06997
G1 X120.7 Y176.275 E2.14728
G1 X122.409 Y176.42 E2.21533
G1 X134.726 Y176.417 E2.70394
G1 X136.581 Y176.226 E2.77791
G1 X138.191 Y175.794 E2.84404
G1 X140.027 Y174.96 E2.92404
G1 X183.821 Y150.846 E4.90726
G1 X185.438 Y149.742 E4.98495
G1 X186.492 Y148.688 E5.04405
G1 X187.532 Y147.182 E5.11668
G1 X188.143 Y145.823 E5.17577
G1 X188.581 Y144.045 E5.2484
G1 X188.67 Y142.871 E5.29513
G1 X188.67 Y129.629 E5.82042
G1 X188.451 Y127.741 E5.89583
G1 X188.007 Y126.319 E5.95492
G1 X187.532 Y125.318 E5.99886
G1 X186.492 Y123.812 E6.07149
G1 X185.438 Y122.758 E6.13058
G1 X184.552 Y122.093 E6.17453
G1 X182.931 Y121.243 E6.24716
G1 X181.509 Y120.799 E6.30625
G1 X179.812 Y120.586 E6.37409
G1 X139.584 Y120.623 E7.9699
G1 X138.381 Y120.822 E8.01829
G1 X119.472 Y124.997 E8.78646
G1 X117.904 Y125.568 E8.85268
G1 X117.032 Y126.008 E8.89141
G1 X115.422 Y127.107 E8.96876
G1 X114.743 Y127.714 E9.00486
G1 X115.114 Y128.084 F12000
G1 F3600
G1 X114.236 Y128.962 E9.0541
G1 X113.67 Y129.716 E9.09151
G1 X112.858 Y131.124 E9.15597
G1 X112.14 Y133.096 E9.23923
G1 X111.949 Y134.004 E9.27605
G1 X111.81 Y135.545 E9.3374
G1 X111.837 Y166.067 E10.54819
G1 X111.989 Y167.22 E10.59435
G1 X112.491 Y169.018 E10.66839
G1 X113.298 Y170.7 E10.74242
G1 X114.236 Y172.038 E10.80722
G1 X115.712 Y173.514 E10.89004
G1 X117.259 Y174.572 E10.96437
G1 X118.954 Y175.34 E11.0382
G1 X120.762 Y175.802 E11.11222
G1 X122.409 Y175.943 E11.17779
G1 X134.705 Y175.94 E11.66558
G1 X136.477 Y175.76 E11.73624
G1 X138.047 Y175.339 E11.80073
G1 X139.797 Y174.542 E11.87699
G1 X183.591 Y150.428 E13.86021
G1 X184.573 Y149.814 E13.90618
G1 X185.901 Y148.638 E13.97653
G1 X186.564 Y147.823 E14.01819
G1 X187.124 Y146.935 E14.05985
G1 X187.688 Y145.681 E14.11437
G1 X188.112 Y143.959 E14.18472
G1 X188.193 Y142.871 E14.22803
G1 X188.193 Y129.629 E14.75332
G1 X188.112 Y128.541 E14.79662
G1 X187.688 Y126.819 E14.86697
G1 X187.275 Y125.853 E14.90863
G1 X186.564 Y124.677 E14.96315
G1 X185.388 Y123.349 E15.0335
G1 X184.306 Y122.502 E15.08803
G1 X182.735 Y121.678 E15.15838
G1 X181.423 Y121.269 E15.21291
G1 X179.783 Y121.062 E15.27846
G1 X139.613 Y121.099 E16.87199
G1 X138.484 Y121.287 E16.91742
G1 X119.843 Y125.391 E17.6746
G1 X117.873 Y126.108 E17.75777
G1 X116.464 Y126.922 E17.82232
G1 X115.712 Y127.486 E17.85958
G1 X115.156 Y128.042 E17.89078
G1 X115.479 Y128.365 F12000
G1 F3600
G1 X114.738 Y129.105 E17.93231
G1 X113.601 Y130.73 E18.011
G1 X112.934 Y132.158 E18.07354
G1 X112.656 Y133.012 E18.10914
G1 X112.313 Y134.953 E18.18735
G1 X112.313 Y166.046 E19.42077
G1 X112.454 Y167.117 E19.46363
G1 X112.866 Y168.654 E19.52675
G1 X113.282 Y169.657 E19.56983
G1 X114.185 Y171.189 E19.64038
G1 X114.738 Y171.895 E19.67597
G1 X115.855 Y173.012 E19.7386
G1 X117.312 Y174.053 E19.80966
G1 X119.098 Y174.885 E19.88778
G1 X120.824 Y175.329 E19.95851
G1 X122.409 Y175.466 E20.02161
G1 X134.587 Y175.466 E20.50473
G1 X136.183 Y175.328 E20.56825
G1 X137.242 Y175.093 E20.61128
G1 X138.73 Y174.551 E20.67413
G1 X139.567 Y174.124 E20.71138
G1 X183.36 Y150.01 E22.69459
G1 X184.279 Y149.438 E22.73752
G1 X185.563 Y148.3 E22.80558
G1 X186.188 Y147.529 E22.84496
G1 X186.715 Y146.688 E22.88433
G1 X187.232 Y145.539 E22.9343
G1 X187.643 Y143.873 E23.00236
G1 X187.716 Y142.871 E23.04224
G1 X187.716 Y129.629 E23.56753
G1 X187.643 Y128.627 E23.60741
G1 X187.232 Y126.961 E23.67547
G1 X186.84 Y126.049 E23.71485
G1 X186.188 Y124.971 E23.76481
G1 X185.05 Y123.687 E23.83287
G1 X184.059 Y122.91 E23.88284
G1 X182.54 Y122.113 E23.9509
G1 X181.337 Y121.738 E24.00087
G1 X179.755 Y121.538 E24.06414
G1 X139.642 Y121.575 E25.65538
G1 X119.946 Y125.857 E26.45496
G1 X118.269 Y126.449 E26.52553
G1 X116.561 Y127.436 E26.60376
G1 X115.855 Y127.988 E26.63933
G1 X115.521 Y128.322 E26.65805
G1 X115.858 Y128.659 F12000
G1 F3600
G1 X115.09 Y129.427 E26.70114
G1 X114.024 Y130.95 E26.77488
G1 X113.375 Y132.341 E26.83578
G1 X113.111 Y133.155 E26.86973
G1 X112.79 Y134.974 E26.943
G1 X112.79 Y166.025 E28.17476
G1 X112.92 Y167.014 E28.21432
G1 X113.321 Y168.51 E28.27579
G1 X113.705 Y169.437 E28.31557
G1 X114.564 Y170.898 E28.38282
G1 X115.09 Y171.573 E28.41677
G1 X116.177 Y172.66 E28.47775
G1 X117.568 Y173.65 E28.5455
G1 X119.241 Y174.43 E28.61869
G1 X120.886 Y174.856 E28.68612
G1 X122.409 Y174.988 E28.74674
G1 X134.587 Y174.989 E29.22986
G1 X136.121 Y174.855 E29.29091
G1 X137.098 Y174.638 E29.33064
G1 X138.548 Y174.11 E29.39184
G1 X139.337 Y173.706 E29.427
G1 X183.985 Y149.062 E31.45004
G1 X185.226 Y147.963 E31.51582
G1 X185.812 Y147.235 E31.55291
G1 X186.307 Y146.441 E31.59
G1 X186.777 Y145.397 E31.63541
G1 X187.174 Y143.787 E31.70118
G1 X187.239 Y142.871 E31.73764
G1 X187.239 Y129.629 E32.26293
G1 X187.174 Y128.713 E32.29938
G1 X186.777 Y127.103 E32.36516
G1 X186.405 Y126.245 E32.40225
G1 X185.812 Y125.265 E32.44765
G1 X184.713 Y124.024 E32.51343
G1 X183.812 Y123.318 E32.55884
G1 X182.344 Y122.548 E32.62461
G1 X181.251 Y122.207 E32.67002
G1 X179.726 Y122.015 E32.731
G1 X139.671 Y122.051 E34.31995
G1 X120.049 Y126.322 E35.11656
G1 X118.451 Y126.89 E35.18383
G1 X116.851 Y127.814 E35.25711
G1 X116.177 Y128.34 E35.29104
G1 X115.9 Y128.617 E35.30656
G92 E0
G1 E-0.7 F3000
M204 S6000
G1 Z0.5 F12000
; acceleration to travel
M204 S7000
G1 X133.695 Y156.82
; decel to extrusion
M204 S2000
G1 X138.779 Y164.878
; end travel
G1 Z0.2
G1 E0 F2880
;WIDTH:0.568
G1 F3600
G1 X139.1 Y165.011 E0.01516
G1 X139.17 Y165.04 E0.01847
G1 X139.835 Y165.551 E0.05506
G1 X140.345 Y166.215 E0.09164
G1 X140.549 Y166.707 E0.1149
G1 X140.666 Y166.99 E0.12823
G1 X140.775 Y167.82 E0.16482
G1 X140.753 Y167.989 E0.17226
G1 X140.666 Y168.651 E0.20141
G1 X140.345 Y169.425 E0.23799
G1 X139.835 Y170.09 E0.27458
G1 X139.17 Y170.6 E0.31117
G1 X138.396 Y170.921 E0.34776
G1 X137.565 Y171.031 E0.38435
G1 X136.969 Y170.952 E0.41058
G1 X136.734 Y170.921 E0.42093
G1 X135.96 Y170.6 E0.45752
G1 X135.295 Y170.09 E0.49411
G1 X134.962 Y169.657 E0.51796
G1 X134.866 Y169.531 E0.52487
G1 X135.606 Y169.367 E0.55796
G1 X135.958 Y169.256 E0.57407
G1 X136.302 Y169.113 E0.59034
G1 X136.629 Y168.943 E0.60644
G1 X136.769 Y168.854 E0.61367
G1 X136.943 Y168.743 E0.62271
G1 X137.239 Y168.516 E0.63899
G1 X137.514 Y168.264 E0.65527
G1 X137.766 Y167.989 E0.67155
G1 X137.993 Y167.693 E0.68783
G1 X138.191 Y167.383 E0.70391
G1 X138.363 Y167.052 E0.72019
G1 X138.506 Y166.707 E0.73648
G1 X138.618 Y166.352 E0.75276
G1 X138.698 Y165.992 E0.76883
G1 X138.746 Y165.623 E0.78511
G1 X138.763 Y165.256 E0.80115
G1 X138.776 Y164.938 E0.81501
; acceleration to travel
M204 S7000
G1 X139.643 Y165.504 F12000
; decel to extrusion
M204 S2000
G1 X139.89 Y165.666
; end travel
G1 F3600
G1 X138.995 Y165.666 E0.85411
G1 X138.946 Y166.036 E0.87041
G1 X138.912 Y166.191 E0.87734
G1 X140.009 Y166.191 E0.92523
G1 X140.125 Y166.342 E0.93355
G1 X140.28 Y166.716 E0.95122
G1 X138.767 Y166.716 E1.01724
G1 X138.743 Y166.794 E1.02079
G1 X138.592 Y167.159 E1.03804
G1 X138.549 Y167.241 E1.04211
G1 X140.444 Y167.241 E1.12488
G1 X140.514 Y167.766 E1.148
G1 X138.245 Y167.766 E1.24704
G1 X138.2 Y167.838 E1.25074
G1 X137.959 Y168.151 E1.26798
G1 X137.831 Y168.292 E1.27628
G1 X140.459 Y168.292 E1.391
G1 X140.42 Y168.585 E1.40395
G1 X140.324 Y168.817 E1.41487
G1 X137.262 Y168.817 E1.54859
G1 X137.088 Y168.95 E1.55814
G1 X136.904 Y169.067 E1.56766
G1 X136.755 Y169.162 E1.57536
G1 X136.409 Y169.342 E1.59241
G1 X140.091 Y169.342 E1.75319
G1 X139.689 Y169.867 E1.78209
G1 X135.441 Y169.867 E1.96753
G1 X135.475 Y169.911 E1.96994
G1 X136.087 Y170.38 E2.00363
G1 X136.115 Y170.392 E2.00495
G1 X139.399 Y170.392 E2.14832
G92 E0
G1 E-0.7 F3000
M204 S6000
G1 Z0.5 F12000
; acceleration to travel
M204 S7000
G1 X125.671 Y169.681
; decel to extrusion
M204 S2000
G1 X121.749 Y169.478
; end travel
G1 Z0.2
G1 E0 F2880
G1 F3600
G1 X121.518 Y169.779 E0.01654
G1 X121.492 Y169.813 E0.01839
G1 X120.827 Y170.323 E0.05498
G1 X120.053 Y170.643 E0.09157
G1 X119.222 Y170.753 E0.12816
G1 X118.627 Y170.674 E0.15438
G1 X118.391 Y170.643 E0.16474
G1 X117.617 Y170.323 E0.20133
G1 X116.952 Y169.813 E0.23792
G1 X116.442 Y169.148 E0.27451
G1 X116.122 Y168.373 E0.31109
G1 X116.091 Y168.138 E0.32145
G1 X116.012 Y167.543 E0.34768
G1 X116.122 Y166.712 E0.38427
G1 X116.442 Y165.938 E0.42086
G1 X116.952 Y165.273 E0.45745
G1 X117.617 Y164.763 E0.49403
G1 X117.824 Y164.677 E0.5038
G1 X118.237 Y164.506 E0.52335
G1 X118.237 Y165.256 E0.55609
G1 X118.254 Y165.623 E0.57213
G1 X118.302 Y165.988 E0.5882
G1 X118.383 Y166.356 E0.60469
G1 X118.46 Y166.598 E0.61575
G1 X118.494 Y166.707 E0.62077
G1 X118.637 Y167.052 E0.63705
G1 X118.776 Y167.319 E0.65017
G1 X118.809 Y167.383 E0.65333
G1 X119.007 Y167.693 E0.66941
G1 X119.237 Y167.993 E0.68588
G1 X119.486 Y168.264 E0.70197
G1 X119.757 Y168.513 E0.71806
G1 X119.979 Y168.684 E0.73029
G1 X120.056 Y168.743 E0.73452
G1 X120.371 Y168.943 E0.7508
G1 X120.527 Y169.024 E0.75846
G1 X120.698 Y169.113 E0.7669
G1 X120.935 Y169.211 E0.7781
G1 X121.042 Y169.256 E0.78317
G1 X121.32 Y169.343 E0.79586
G1 X121.398 Y169.368 E0.79945
G1 X121.691 Y169.46 E0.81288
G1 X121.18 Y170.019 F12000
G1 F3600
G1 X117.636 Y170.019 E0.96763
G1 X117.132 Y169.633 E0.99533
G1 X117.026 Y169.494 E1.00297
G1 X120.96 Y169.494 E1.17472
G1 X120.839 Y169.444 E1.18043
G1 X120.592 Y169.342 E1.19211
G1 X120.41 Y169.248 E1.20103
G1 X120.245 Y169.162 E1.20917
G1 X119.942 Y168.969 E1.22484
G1 X116.641 Y168.969 E1.36897
G1 X116.423 Y168.444 E1.39378
G1 X119.309 Y168.444 E1.51975
G1 X119.044 Y168.155 E1.53687
G1 X118.862 Y167.919 E1.54987
G1 X116.316 Y167.919 E1.66105
G1 X116.266 Y167.543 E1.67761
G1 X116.286 Y167.394 E1.68417
G1 X118.531 Y167.394 E1.78217
G1 X118.408 Y167.159 E1.79374
G1 X118.288 Y166.869 E1.80745
G1 X116.355 Y166.869 E1.89184
G1 X116.367 Y166.778 E1.89585
G1 X116.547 Y166.344 E1.91636
G1 X118.122 Y166.344 E1.98515
G1 X118.053 Y166.031 E1.99911
G1 X118.025 Y165.818 E2.00848
G1 X116.851 Y165.818 E2.05973
G1 X117.132 Y165.453 E2.07987
G1 X117.34 Y165.293 E2.09128
G1 X118.213 Y165.293 E2.12941
G92 E0
G1 E-0.7 F3000
M204 S6000
G1 Z0.5 F12000
; acceleration to travel
M204 S7000
G1 X164.353 Y149.686
; decel to extrusion
M204 S2000
G1 X177.535 Y145.227
; end travel
G1 Z0.2
G1 E0 F2880
G1 F3600
G1 X177.507 Y145.013 E0.00944
G1 X179.508 Y145.013 E0.09679
G1 X179.773 Y144.997 E0.10837
G1 X180.042 Y144.947 E0.1203
G1 X180.302 Y144.866 E0.13224
G1 X180.479 Y144.786 E0.1407
G1 X180.552 Y144.754 E0.14417
G1 X180.669 Y144.683 E0.15013
G1 X180.786 Y144.612 E0.1561
G1 X180.903 Y144.52 E0.16262
G1 X181.001 Y144.444 E0.16803
G1 X181.049 Y144.396 E0.17099
G1 X181.194 Y144.251 E0.17996
G1 X181.362 Y144.036 E0.19189
G1 X181.504 Y143.802 E0.20382
G1 X181.616 Y143.552 E0.21576
G1 X181.697 Y143.292 E0.22769
G1 X181.747 Y143.023 E0.23962
G1 X181.763 Y142.758 E0.2512
G1 X181.763 Y141.418 E0.30972
G1 X182.064 Y141.543 E0.32398
G1 X182.241 Y141.616 E0.33234
G1 X182.906 Y142.126 E0.36893
G1 X183.416 Y142.791 E0.40552
G1 X183.737 Y143.565 E0.4421
