; generated by SuperSlicer 2.5.59 on 2023-05-11 at 22:24:05 UTC


;
;

;
;
; 

; external perimeters extrusion width = 0.43mm
; perimeters extrusion width = 0.45mm
; infill extrusion width = 0.45mm
; solid infill extrusion width = 0.45mm
; top infill extrusion width = 0.42mm
; support material extrusion width = 0.42mm
; first layer extrusion width = 0.57mm

; object:{"name":"BTT Pi","id":"BTT Pi.stl id:0 copy 0","object_center":[150.000000,148.500000,0.000000],"boundingbox_center":[150.000000,148.500000,3.500010],"boundingbox_size":[54.243795,68.843941,7.000019]}
EXCLUDE_OBJECT_DEFINE NAME=BTT_Pi_stl_id_0_copy_0 CENTER=150.000000,148.500000 POLYGON=[[122.878104,116.554184],[122.882312,116.430816],[122.892592,116.307800],[122.908936,116.185448],[122.931304,116.064048],[122.959640,115.943904],[122.993864,115.825304],[123.033904,115.708536],[123.079664,115.593888],[123.131016,115.481632],[123.187856,115.372056],[123.250040,115.265408],[123.317400,115.161976],[123.389792,115.061984],[123.467024,114.965688],[123.548920,114.873328],[123.635280,114.785120],[123.725880,114.701280],[123.820512,114.622016],[123.918944,114.547520],[124.020936,114.477976],[124.126232,114.413544],[124.234576,114.354400],[124.345712,114.300656],[124.459360,114.252488],[124.575248,114.209976],[124.693104,114.173232],[124.812624,114.142360],[124.933520,114.117416],[125.055496,114.098480],[125.178264,114.085576],[125.301512,114.078760],[125.424960,114.078032],[125.548280,114.083400],[125.671200,114.094840],[174.943664,119.953000],[175.065648,119.971936],[175.186560,119.996872],[175.306064,120.027744],[175.423920,120.064472],[175.539808,120.106976],[175.653472,120.155144],[175.764608,120.208872],[175.872960,120.268016],[175.978256,120.332432],[176.080240,120.401976],[176.178688,120.476464],[176.273312,120.555728],[176.363920,120.639560],[176.450288,120.727752],[176.532192,120.820112],[176.609440,120.916408],[176.681824,121.016392],[176.749200,121.119824],[176.811392,121.226456],[176.868224,121.336040],[176.919584,121.448280],[176.965360,121.562928],[177.005408,121.679696],[177.039648,121.798296],[177.067984,121.918440],[177.090368,122.039840],[177.106704,122.162184],[177.117008,122.285200],[177.121216,122.408568],[177.121904,180.398400],[177.120016,180.521840],[177.112048,180.645024],[177.098000,180.767648],[177.077904,180.889456],[177.051856,181.010112],[177.019856,181.129328],[176.982016,181.246848],[176.938416,181.362320],[176.889168,181.475520],[176.834416,181.586144],[176.774224,181.693936],[176.708832,181.798624],[176.638336,181.899968],[176.562912,181.997680],[176.482768,182.091568],[176.398080,182.181376],[176.309088,182.266912],[176.215936,182.347936],[176.118928,182.424272],[176.018288,182.495728],[175.914208,182.562112],[175.806992,182.623296],[175.696880,182.679088],[175.584160,182.729408],[175.469088,182.774096],[175.351952,182.813040],[175.233040,182.846144],[175.112624,182.873360],[174.991024,182.894576],[174.868512,182.909792],[174.745424,182.918912],[174.622016,182.921968],[125.617064,182.921968],[125.540752,182.920800],[125.417496,182.913984],[125.294720,182.901104],[125.172744,182.882176],[125.051848,182.857232],[124.932328,182.826368],[124.814480,182.789648],[124.698576,182.747136],[124.584920,182.698960],[124.473784,182.645232],[124.365432,182.586096],[124.260136,182.521664],[124.158144,182.452128],[124.059704,182.377648],[123.965072,182.298384],[123.874464,182.214560],[123.788104,182.126336],[123.706208,182.033984],[123.628960,181.937696],[123.556568,181.837712],[123.489200,181.734288],[123.427008,181.627648],[123.370160,181.518064],[123.318800,181.405824],[123.273032,181.291168],[123.232984,181.174416],[123.198752,181.055824],[123.170408,180.935664],[123.148040,180.814272],[123.131680,180.691904],[123.121384,180.568896],[123.117176,180.445520],[122.878104,116.554184]]
; plater:{"center":[150.000000,148.500000,0.000000],"boundingbox_center":[150.000000,148.500000,3.500010],"boundingbox_size":[54.243795,68.843941,7.000019]}

;TYPE:Custom
SET_PRINT_STATS_INFO TOTAL_LAYER=35

M104 S0 ; Stops SuperSlicer from sending temp waits separately

M109 S0

M140 S0

print_start EXTRUDER=250 BED=105 CHAMBER=0
M107
G21 ; set units to millimeters
G90 ; use absolute coordinates
M82 ; use absolute distances for extrusion
G92 E0
; Filament gcode
;_TOOLCHANGE 0
M107
;LAYER_CHANGE
;Z:0.2
;HEIGHT:0.2
TIMELAPSE_TAKE_FRAME
;BEFORE_LAYER_CHANGE
;0.2


G1 Z0.2 F12000
SET_PRINT_STATS_INFO CURRENT_LAYER=1
;AFTER_LAYER_CHANGE
;0.2
G1 E-0.7 F3300
G1 Z0.5 F12000
M204 S1500
G1 X121.482 Y113.193
G1 Z0.2
G1 E0 F2700
;TYPE:Skirt
;WIDTH:0.52
G1 X121.217 Y113.477 E0.01543
G1 X120.63 Y114.484 E0.06164
G1 X120.288 Y115.567 E0.10673
G1 X120.195 Y116.33 E0.1372
G1 X120.426 Y180.332 E2.67615
G1 X120.527 Y181.432 E2.71998
G1 X120.708 Y182.111 E2.74782
G1 X121.41 Y183.463 E2.80824
G1 X122.34 Y184.446 E2.86194
G1 X123.126 Y184.976 E2.89954
G1 X124.314 Y185.447 E2.95026
G1 X125.617 Y185.615 E3.00236
G1 X174.562 Y185.615 E4.94398
G1 X175.945 Y185.44 E4.99929
G1 X176.843 Y185.109 E5.03725
G1 X177.567 Y184.694 E5.07034
G1 X178.522 Y183.845 E5.12104
G1 X179.24 Y182.788 E5.17174
G1 X179.637 Y181.763 E5.21534
G1 X179.813 Y180.522 E5.26506
G1 X179.812 Y122.532 E7.56547
G1 X179.766 Y121.74 E7.59696
G1 X179.552 Y120.816 E7.63456
G1 X179.344 Y120.276 E7.65752
G1 X178.901 Y119.503 E7.69286
G1 X178.243 Y118.72 E7.73344
G1 X177.326 Y118.002 E7.77964
G1 X176.295 Y117.523 E7.82473
G1 X175.261 Y117.279 E7.86687
G1 X125.866 Y111.41 E9.84014
G1 X124.765 Y111.425 E9.88382
G1 X123.658 Y111.682 E9.92891
G1 X122.609 Y112.189 E9.97512
G1 X121.992 Y112.646 E10.00559
G1 X121.523 Y113.149 E10.03286
G92 E0
G1 E-0.7 F3300
M204 S6000
G1 Z0.5 F12000
M204 S1500
G1 X121.871 Y113.473
G1 Z0.2
G1 E0 F2700
G1 X121.589 Y113.776 E0.01641
G1 X121.073 Y114.66 E0.05704
G1 X120.752 Y115.677 E0.09932
G1 X120.67 Y116.37 E0.12699
G1 X120.903 Y180.33 E2.6643
G1 X120.992 Y181.323 E2.70382
G1 X121.156 Y181.945 E2.72933
G1 X121.803 Y183.192 E2.78509
G1 X122.628 Y184.065 E2.83274
G1 X123.365 Y184.563 E2.868
G1 X124.445 Y184.988 E2.91406
G1 X125.617 Y185.138 E2.96093
G1 X174.562 Y185.138 E4.90256
G1 X175.84 Y184.974 E4.95367
G1 X176.66 Y184.668 E4.98836
G1 X177.311 Y184.292 E5.01819
G1 X178.175 Y183.518 E5.06423
G1 X178.824 Y182.555 E5.11027
G1 X179.173 Y181.651 E5.14874
G1 X179.336 Y180.522 E5.19398
G1 X179.335 Y122.532 E7.4944
G1 X179.295 Y121.815 E7.5229
G1 X179.094 Y120.948 E7.55817
G1 X178.495 Y119.753 E7.6112
G1 X177.894 Y119.045 E7.64804
G1 X177.088 Y118.415 E7.68867
G1 X176.12 Y117.967 E7.73095
G1 X175.205 Y117.753 E7.76823
G1 X125.81 Y111.883 E9.74149
G1 X124.838 Y111.896 E9.78003
G1 X123.8 Y112.137 E9.82232
G1 X122.878 Y112.583 E9.86295
G1 X122.316 Y112.996 E9.89061
G1 X121.912 Y113.429 E9.91411
G92 E0
G1 E-0.7 F3300
M204 S6000
G1 Z0.5 F12000
M204 S1500
G1 X122.26 Y113.753
G1 Z0.2
G1 E0 F2700
G1 X121.961 Y114.074 E0.01739
G1 X121.516 Y114.837 E0.05243
G1 X121.217 Y115.786 E0.09191
G1 X121.146 Y116.409 E0.11679
G1 X121.381 Y180.329 E2.65244
G1 X121.456 Y181.213 E2.68766
G1 X121.603 Y181.779 E2.71084
G1 X122.196 Y182.922 E2.76194
G1 X122.916 Y183.685 E2.80354
G1 X123.603 Y184.15 E2.83647
G1 X124.576 Y184.529 E2.87787
G1 X125.617 Y184.661 E2.91951
G1 X174.562 Y184.661 E4.86113
G1 X175.735 Y184.509 E4.90804
G1 X176.476 Y184.228 E4.93948
G1 X177.054 Y183.89 E4.96604
G1 X177.828 Y183.19 E5.00742
G1 X178.407 Y182.323 E5.0488
G1 X178.71 Y181.538 E5.08215
G1 X178.859 Y180.522 E5.12291
G1 X178.858 Y122.532 E7.42333
G1 X178.824 Y121.889 E7.44886
G1 X178.636 Y121.081 E7.48179
G1 X178.089 Y120.004 E7.5297
G1 X177.545 Y119.37 E7.56282
G1 X176.849 Y118.827 E7.59785
G1 X175.945 Y118.411 E7.63733
G1 X175.149 Y118.227 E7.66974
G1 X125.753 Y112.357 E9.64301
G1 X124.912 Y112.368 E9.67641
G1 X123.942 Y112.593 E9.7159
G1 X123.369 Y112.848 E9.74077
G1 X122.64 Y113.346 E9.77581
G1 X122.301 Y113.71 E9.79552
M104 S250 ; set temperature
G92 E0
G1 E-0.7 F3300
M204 S6000
G1 Z0.5 F12000
; printing object BTT Pi.stl id:0 copy 0
EXCLUDE_OBJECT_START NAME=BTT_Pi_stl_id_0_copy_0
; acceleration to travel
M204 S6500
G1 X125.362 Y114.317
; decel to extrusion
M204 S1000
G1 X125.853 Y114.414
; end travel
G1 Z0.2
G1 E0 F2700
;TYPE:External perimeter
;WIDTH:0.568
G1 F3600
G1 X126.171 Y114.509 E0.01447
G1 X135.446 Y118.579 E0.4567
G1 X136.268 Y118.918 E0.49551
G1 X137.108 Y119.22 E0.53447
G1 X137.96 Y119.482 E0.57343
G1 X138.824 Y119.706 E0.61239
G1 X139.698 Y119.889 E0.65135
G1 X140.578 Y120.032 E0.69031
G1 X141.465 Y120.134 E0.72926
G1 X142.355 Y120.196 E0.76822
G1 X143.244 Y120.216 E0.80704
G1 X174.686 Y120.217 E2.17983
G1 X174.903 Y120.235 E2.18935
G1 X175.225 Y120.301 E2.20366
G1 X175.641 Y120.465 E2.22319
G1 X175.821 Y120.569 E2.23228
G1 X176.082 Y120.767 E2.2466
G1 X176.382 Y121.089 E2.26582
G1 X176.615 Y121.467 E2.2852
G1 X176.697 Y121.659 E2.29429
G1 X176.79 Y121.98 E2.30891
G1 X176.823 Y122.189 E2.31815
G1 X176.835 Y122.524 E2.33278
G1 X176.816 Y122.735 E2.34202
G1 X176.747 Y123.055 E2.35633
G1 X176.58 Y123.467 E2.37571
G1 X176.406 Y123.745 E2.39002
G1 X176.273 Y123.909 E2.39927
G1 X176.031 Y124.141 E2.41389
G1 X175.859 Y124.27 E2.42329
G1 X175.675 Y124.381 E2.43268
G1 X175.372 Y124.516 E2.44715
G1 X175.056 Y124.604 E2.46147
G1 X174.727 Y124.645 E2.47594
G1 X167.149 Y124.648 E2.80679
G1 X166.377 Y124.686 E2.84056
G1 X165.605 Y124.801 E2.87464
G1 X164.851 Y124.989 E2.90856
G1 X164.477 Y125.113 E2.92575
G1 X164.11 Y125.255 E2.94295
G1 X163.407 Y125.587 E2.97687
G1 X162.738 Y125.988 E3.01095
G1 X162.111 Y126.453 E3.04502
G1 X161.535 Y126.975 E3.07895
G1 X161.261 Y127.263 E3.09629
G1 X160.768 Y127.863 E3.13022
G1 X160.337 Y128.509 E3.16414
G1 X160.143 Y128.852 E3.18133
G1 X159.966 Y129.204 E3.19853
G1 X159.668 Y129.922 E3.23245
G1 X159.443 Y130.665 E3.26638
G1 X159.356 Y131.053 E3.28372
G1 X159.242 Y131.821 E3.31765
G1 X159.204 Y132.594 E3.35142
G1 X159.204 Y169.967 E4.98313
G1 X159.243 Y170.764 E5.01801
G1 X159.293 Y171.173 E5.03598
G1 X159.451 Y171.963 E5.07116
G1 X159.685 Y172.738 E5.1065
G1 X159.994 Y173.482 E5.14168
G1 X160.179 Y173.85 E5.15966
G1 X160.593 Y174.541 E5.19484
G1 X161.075 Y175.191 E5.23017
G1 X161.619 Y175.791 E5.26551
G1 X162.218 Y176.334 E5.30084
G1 X162.868 Y176.816 E5.33618
G1 X163.56 Y177.231 E5.37136
G1 X163.927 Y177.416 E5.38934
G1 X164.672 Y177.724 E5.42452
G1 X165.443 Y177.958 E5.4597
G1 X165.841 Y178.048 E5.47753
G1 X166.244 Y178.117 E5.49535
G1 X167.045 Y178.196 E5.53052
G1 X174.687 Y178.207 E5.86415
G1 X174.904 Y178.225 E5.87368
G1 X175.229 Y178.291 E5.88815
G1 X175.54 Y178.406 E5.90261
G1 X175.731 Y178.504 E5.91201
G1 X175.912 Y178.621 E5.92141
G1 X176.169 Y178.836 E5.93603
G1 X176.313 Y178.991 E5.94527
G1 X176.507 Y179.259 E5.95974
G1 X176.66 Y179.553 E5.97421
G1 X176.734 Y179.752 E5.98345
G1 X176.811 Y180.078 E5.99808
G1 X176.834 Y180.292 E6.00747
G1 X176.836 Y180.507 E6.01687
G1 X176.798 Y180.84 E6.03149
G1 X176.748 Y181.045 E6.04074
G1 X176.631 Y181.356 E6.05521
G1 X176.469 Y181.645 E6.06967
G1 X176.344 Y181.816 E6.07892
G1 X176.114 Y182.059 E6.09354
G1 X175.951 Y182.194 E6.10278
G1 X175.675 Y182.371 E6.1171
G1 X175.265 Y182.541 E6.13648
G1 X174.95 Y182.613 E6.15057
G1 X174.553 Y182.638 E6.16795
G1 X125.626 Y182.638 E8.30413
G1 X125.329 Y182.619 E8.31712
G1 X125.116 Y182.58 E8.32658
G1 X124.909 Y182.521 E8.33597
G1 X124.601 Y182.391 E8.3506
G1 X124.418 Y182.285 E8.35984
G1 X124.156 Y182.087 E8.37416
G1 X123.851 Y181.759 E8.39369
G1 X123.733 Y181.588 E8.40278
G1 X123.579 Y181.291 E8.4174
G1 X123.505 Y181.092 E8.42664
G1 X123.43 Y180.773 E8.44096
G1 X123.404 Y180.326 E8.46049
G1 X123.422 Y180.119 E8.46958
G1 X123.492 Y179.799 E8.48389
G1 X123.659 Y179.387 E8.50327
G1 X123.832 Y179.109 E8.51758
G1 X123.964 Y178.948 E8.52667
G1 X124.296 Y178.643 E8.54636
G1 X124.469 Y178.527 E8.55545
G1 X124.765 Y178.377 E8.56992
G1 X125.072 Y178.275 E8.58408
G1 X125.515 Y178.209 E8.60361
G1 X132.616 Y178.206 E8.91365
G1 X133.435 Y178.166 E8.94944
G1 X133.854 Y178.114 E8.96788
G1 X134.661 Y177.953 E9.00383
G1 X135.068 Y177.841 E9.02227
G1 X135.847 Y177.562 E9.05837
G1 X136.598 Y177.207 E9.09462
G1 X137.31 Y176.78 E9.13088
G1 X137.977 Y176.286 E9.16713
G1 X138.589 Y175.73 E9.20324
G1 X138.881 Y175.424 E9.22167
G1 X139.403 Y174.788 E9.25762
G1 X139.646 Y174.443 E9.27606
G1 X140.071 Y173.734 E9.31216
G1 X140.425 Y172.986 E9.34826
G1 X140.577 Y172.592 E9.3667
G1 X140.817 Y171.801 E9.4028
G1 X140.979 Y170.986 E9.43906
G1 X141.06 Y170.16 E9.47531
G1 X141.07 Y134.811 E11.01865
G1 X141.054 Y134.156 E11.04727
G1 X141.007 Y133.499 E11.07603
G1 X140.927 Y132.845 E11.10479
G1 X140.817 Y132.196 E11.13356
G1 X140.675 Y131.552 E11.16232
G1 X140.502 Y130.916 E11.19108
G1 X140.299 Y130.29 E11.21985
G1 X140.066 Y129.673 E11.24861
G1 X139.804 Y129.069 E11.27737
G1 X139.513 Y128.478 E11.30614
G1 X139.193 Y127.902 E11.3349
G1 X138.846 Y127.342 E11.36367
G1 X138.473 Y126.799 E11.39243
G1 X138.074 Y126.275 E11.42119
G1 X137.65 Y125.771 E11.44996
G1 X137.202 Y125.287 E11.47872
G1 X136.732 Y124.826 E11.50748
G1 X136.24 Y124.388 E11.53625
G1 X135.727 Y123.975 E11.56501
G1 X135.195 Y123.586 E11.59377
G1 X134.645 Y123.224 E11.62254
G1 X134.078 Y122.888 E11.6513
G1 X133.495 Y122.58 E11.68007
G1 X132.902 Y122.302 E11.70868
G1 X124.434 Y118.582 E12.11248
G1 X124.052 Y118.351 E12.13198
G1 X123.727 Y118.054 E12.1512
G1 X123.529 Y117.798 E12.16536
G1 X123.369 Y117.511 E12.17968
G1 X123.253 Y117.205 E12.19399
G1 X123.184 Y116.884 E12.20831
G1 X123.163 Y116.557 E12.22262
G1 X123.19 Y116.23 E12.23694
G1 X123.265 Y115.911 E12.25125
G1 X123.387 Y115.606 E12.26557
G1 X123.552 Y115.323 E12.27988
G1 X123.757 Y115.067 E12.2942
G1 X123.998 Y114.845 E12.30851
G1 X124.269 Y114.66 E12.32283
G1 X124.564 Y114.517 E12.33714
G1 X124.877 Y114.42 E12.35146
G1 X125.201 Y114.369 E12.36577
G1 X125.601 Y114.378 E12.38323
G1 X125.794 Y114.405 E12.39176
;WIPE_START
M204 S6000
G1 X125.965 Y114.798 F12000
;WIPE_END
G92 E0
G1 E-0.7 F3300
G1 Z0.5 F12000
; acceleration to travel
M204 S6500
G1 X126.715 Y171.635
; decel to extrusion
M204 S1000
G1 X126.828 Y180.176
; end travel
G1 Z0.2
G1 E0 F2700
G1 F3138.5901
G1 X126.755 Y179.941 E0.01074
G1 X126.637 Y179.725 E0.02148
G1 X126.479 Y179.537 E0.03222
G1 X126.287 Y179.384 E0.04296
G1 X126.068 Y179.272 E0.05371
G1 X125.831 Y179.205 E0.06445
G1 X125.585 Y179.187 E0.07519
G1 X125.341 Y179.218 E0.08593
G1 X125.108 Y179.296 E0.09667
G1 X124.895 Y179.419 E0.10741
G1 X124.711 Y179.582 E0.11815
G1 X124.565 Y179.776 E0.12874
G1 X124.477 Y179.946 E0.13711
G1 X124.406 Y180.178 E0.14769
G1 X124.382 Y180.423 E0.15843
G1 X124.406 Y180.668 E0.16917
G1 X124.479 Y180.903 E0.17991
G1 X124.597 Y181.119 E0.19065
G1 X124.755 Y181.307 E0.20139
G1 X124.948 Y181.46 E0.21214
G1 X125.167 Y181.572 E0.22288
G1 X125.403 Y181.639 E0.23362
G1 X125.649 Y181.657 E0.24436
G1 X125.893 Y181.626 E0.2551
G1 X126.126 Y181.548 E0.26584
G1 X126.339 Y181.424 E0.27658
G1 X126.523 Y181.262 E0.28732
G1 X126.672 Y181.065 E0.29806
G1 X126.777 Y180.847 E0.30865
G1 X126.829 Y180.662 E0.31702
G1 X126.852 Y180.421 E0.3276
G1 X126.834 Y180.236 E0.33573
;WIPE_START
M204 S6000
G1 X127.119 Y179.902 F12000
;WIPE_END
; acceleration to travel
M204 S6500
G1 X167.404 Y180.956
; decel to extrusion
M204 S1000
G1 X173.602 Y181.119
; end travel
G1 F3138.3131
G1 X173.76 Y181.307 E0.34647
G1 X173.953 Y181.46 E0.35721
G1 X174.172 Y181.572 E0.36795
G1 X174.408 Y181.639 E0.37869
G1 X174.654 Y181.657 E0.38943
G1 X174.898 Y181.626 E0.40017
G1 X175.131 Y181.548 E0.41091
G1 X175.344 Y181.424 E0.42165
G1 X175.528 Y181.262 E0.43239
G1 X175.677 Y181.065 E0.44314
G1 X175.783 Y180.844 E0.45388
G1 X175.844 Y180.605 E0.46462
G1 X175.856 Y180.359 E0.47536
G1 X175.819 Y180.116 E0.4861
G1 X175.735 Y179.885 E0.49684
G1 X175.606 Y179.675 E0.50758
G1 X175.439 Y179.495 E0.51832
G1 X175.239 Y179.352 E0.52906
G1 X175.018 Y179.252 E0.53965
G1 X174.832 Y179.205 E0.54802
G1 X174.529 Y179.195 E0.56125
G1 X174.346 Y179.218 E0.5693
G1 X174.113 Y179.296 E0.58004
G1 X173.9 Y179.419 E0.59078
G1 X173.716 Y179.582 E0.60152
G1 X173.567 Y179.779 E0.61226
G1 X173.461 Y180 E0.62301
G1 X173.4 Y180.239 E0.63375
