; generated by SuperSlicer 2.5.59 on 2023-04-28 at 20:29:09 UTC


;
;

;
;
; 

; external perimeters extrusion width = 0.44mm
; perimeters extrusion width = 0.45mm
; infill extrusion width = 0.45mm
; solid infill extrusion width = 0.45mm
; top infill extrusion width = 0.43mm
; support material extrusion width = 0.42mm
; first layer extrusion width = 0.57mm

; object:{"name":"cable_routing_z_belt_cover_a_mod","id":"cable_routing_z_belt_cover_a_mod.stl id:0 copy 0","object_center":[127.313206,125.824429,0.000000],"boundingbox_center":[127.313206,125.824429,2.500002],"boundingbox_size":[62.000000,62.000000,5.000004]}
EXCLUDE_OBJECT_DEFINE NAME=cable_routing_z_belt_cover_a_mod_stl_id_0_copy_0 CENTER=127.313206,125.824429 POLYGON=[[96.313208,117.824432],[96.343744,117.397488],[96.434728,116.979232],[96.584312,116.578184],[96.789448,116.202504],[97.045960,115.859848],[117.270672,95.627152],[117.348624,95.557184],[117.621432,95.346952],[117.691288,95.300672],[118.010072,95.122240],[118.066960,95.095536],[118.427896,94.958040],[118.468008,94.945952],[118.865536,94.858016],[118.886272,94.854968],[119.313208,94.824432],[155.313200,94.824432],[155.740144,94.854968],[156.158416,94.945952],[156.559456,95.095536],[156.935120,95.300672],[157.277808,95.557184],[157.580448,95.859848],[157.836976,96.202504],[158.042112,96.578184],[158.191680,96.979232],[158.282688,97.397488],[158.313200,97.824432],[158.313200,135.581792],[158.287536,135.973376],[158.210992,136.358240],[158.084832,136.729840],[157.911280,137.081792],[157.693264,137.408080],[157.434544,137.703104],[139.191888,155.945760],[138.896848,156.204496],[138.570576,156.422512],[138.218624,156.596064],[137.847008,156.722208],[137.462160,156.798768],[137.070576,156.824432],[99.313208,156.824432],[98.886272,156.793904],[98.468008,156.702912],[98.066960,156.553328],[97.691288,156.348192],[97.348624,156.091680],[97.045960,155.789024],[96.789448,155.446352],[96.584312,155.070672],[96.434728,154.669632],[96.343744,154.251376],[96.313208,153.824432],[96.313208,117.824432]]
; object:{"name":"cable_routing_z_belt_cover_a_mod","id":"cable_routing_z_belt_cover_a_mod.stl id:0 copy 1","object_center":[172.686795,171.175572,0.000000],"boundingbox_center":[172.686795,171.175572,2.500002],"boundingbox_size":[62.000000,62.000000,5.000004]}
EXCLUDE_OBJECT_DEFINE NAME=cable_routing_z_belt_cover_a_mod_stl_id_0_copy_1 CENTER=172.686795,171.175572 POLYGON=[[141.686800,163.175568],[141.717328,162.748624],[141.808320,162.330368],[141.957904,161.929328],[142.163040,161.553648],[142.419552,161.210976],[162.644256,140.978288],[162.722208,140.908320],[162.995024,140.698096],[163.064880,140.651808],[163.383664,140.473376],[163.440560,140.446672],[163.801488,140.309168],[163.841600,140.297088],[164.239136,140.209152],[164.259856,140.206096],[164.686800,140.175568],[200.686800,140.175568],[201.113744,140.206096],[201.532000,140.297088],[201.933040,140.446672],[202.308720,140.651808],[202.651376,140.908320],[202.954048,141.210976],[203.210560,141.553648],[203.415696,141.929328],[203.565280,142.330368],[203.656272,142.748624],[203.686800,143.175568],[203.686800,180.932928],[203.661136,181.324512],[203.584576,181.709376],[203.458432,182.080976],[203.284880,182.432928],[203.066864,182.759216],[202.808128,183.054240],[184.565472,201.296896],[184.270448,201.555632],[183.944160,201.773648],[183.592208,201.947200],[183.220608,202.073344],[182.835744,202.149904],[182.444160,202.175568],[144.686800,202.175568],[144.259856,202.145040],[143.841600,202.054048],[143.440560,201.904464],[143.064880,201.699328],[142.722208,201.442816],[142.419552,201.140160],[142.163040,200.797488],[141.957904,200.421808],[141.808320,200.020768],[141.717328,199.602512],[141.686800,199.175568],[141.686800,163.175568]]
; plater:{"center":[150.000000,148.500000,0.000000],"boundingbox_center":[150.000000,148.500000,2.500002],"boundingbox_size":[107.373589,107.351143,5.000004]}

;TYPE:Custom
SET_PRINT_STATS_INFO TOTAL_LAYER=25

M104 S0 ; Stops SuperSlicer from sending temp waits separately

M109 S0

M140 S0

print_start EXTRUDER=255 BED=105 CHAMBER=0
M107
G21 ; set units to millimeters
G90 ; use absolute coordinates
M82 ; use absolute distances for extrusion
G92 E0
; Filament gcode
;_TOOLCHANGE 0
M107
;LAYER_CHANGE
;Z:0.2
;HEIGHT:0.2
TIMELAPSE_TAKE_FRAME
;BEFORE_LAYER_CHANGE
;0.2


G1 Z0.2 F12000
SET_PRINT_STATS_INFO CURRENT_LAYER=1
;AFTER_LAYER_CHANGE
;0.2
G1 E-0.7 F3000
G1 Z0.5 F12000
M204 S2000
G1 X103.429 Y103.556
G1 Z0.2
G1 E0 F2880
;TYPE:Skirt
;WIDTH:0.52
G1 F3600
G1 X93.977 Y112.996 E0.52994
G1 X93.225 Y113.991 E0.5794
G1 X92.62 Y115.19 E0.63268
G1 X92.264 Y116.392 E0.68243
G1 X92.121 Y117.74 E0.73618
G1 X92.121 Y153.909 E2.17099
G1 X92.275 Y155.311 E2.22693
G1 X92.502 Y156.134 E2.26083
G1 X93 Y157.272 E2.31008
G1 X93.605 Y158.198 E2.35397
G1 X94.446 Y159.121 E2.40349
G1 X139.859 Y204.512 E4.95059
G1 X141.277 Y205.509 E5.01937
G1 X142.053 Y205.868 E5.05326
G1 X143.255 Y206.225 E5.103
G1 X144.602 Y206.368 E5.15676
G1 X182.52 Y206.368 E6.66096
G1 X183.332 Y206.314 E6.69323
G1 X184.405 Y206.096 E6.73666
G1 X185.8 Y205.537 E6.79629
G1 X186.741 Y204.942 E6.84042
G1 X187.464 Y204.328 E6.87806
G1 X205.839 Y185.952 E7.90894
G1 X206.665 Y184.931 E7.96103
G1 X207.429 Y183.439 E8.02755
G1 X207.753 Y182.279 E8.07531
G1 X207.879 Y181.009 E8.12594
G1 X207.879 Y143.091 E9.63013
G1 X207.736 Y141.743 E9.68389
G1 X207.38 Y140.541 E9.73363
G1 X207.02 Y139.766 E9.76753
G1 X206.035 Y138.364 E9.8355
G1 X160.112 Y92.464 E12.41118
G1 X159.022 Y91.663 E12.46484
G1 X157.909 Y91.116 E12.51402
G1 X156.748 Y90.776 E12.56203
G1 X155.472 Y90.637 E12.61294
G1 X119.229 Y90.632 E14.05068
G1 X118.314 Y90.7 E14.08707
G1 X117.003 Y91.013 E14.14055
G1 X115.866 Y91.511 E14.18979
G1 X114.62 Y92.379 E14.25004
G1 X103.472 Y103.513 E14.87507
G1 X103.809 Y103.851 F12000
G1 F3600
G1 X94.315 Y113.333 E15.40738
G1 X93.615 Y114.267 E15.45365
G1 X93.053 Y115.391 E15.50349
G1 X92.725 Y116.512 E15.54983
G1 X92.598 Y117.74 E15.5988
G1 X92.598 Y153.909 E17.03361
G1 X92.735 Y155.184 E17.08449
G1 X92.962 Y156.008 E17.11838
G1 X93.43 Y157.065 E17.16426
G1 X93.996 Y157.925 E17.20506
G1 X94.79 Y158.79 E17.25168
G1 X140.196 Y204.175 E19.79839
G1 X141.478 Y205.076 E19.86055
G1 X142.629 Y205.57 E19.91023
G1 X143.743 Y205.826 E19.95559
G1 X144.602 Y205.891 E19.98976
G1 X182.52 Y205.891 E21.49396
G1 X183.296 Y205.838 E21.52479
G1 X184.297 Y205.632 E21.56533
G1 X185.558 Y205.126 E21.61922
G1 X186.436 Y204.575 E21.66037
G1 X187.126 Y203.991 E21.69623
G1 X205.502 Y185.615 E22.72712
G1 X206.258 Y184.682 E22.77476
G1 X206.99 Y183.251 E22.83852
G1 X207.29 Y182.164 E22.88325
G1 X207.402 Y181.009 E22.92928
G1 X207.402 Y143.091 E24.43348
G1 X207.275 Y141.863 E24.48245
G1 X206.947 Y140.742 E24.52879
G1 X206.587 Y139.967 E24.56268
G1 X205.698 Y138.702 E24.62404
G1 X159.775 Y92.801 E27.19972
G1 X158.753 Y92.057 E27.24987
G1 X157.713 Y91.551 E27.29572
G1 X156.628 Y91.237 E27.34054
G1 X155.472 Y91.114 E27.38666
G1 X119.229 Y91.109 E28.8244
G1 X118.355 Y91.175 E28.85919
G1 X117.13 Y91.473 E28.90919
G1 X116.072 Y91.941 E28.95507
G1 X114.95 Y92.723 E29.00933
G1 X103.851 Y103.808 E29.63161
G1 X104.183 Y104.14 F12000
G1 F3600
G1 X94.652 Y113.671 E30.16629
G1 X94.004 Y114.542 E30.20937
G1 X93.486 Y115.591 E30.25578
G1 X93.187 Y116.632 E30.29872
G1 X93.075 Y117.74 E30.3429
G1 X93.075 Y153.909 E31.77771
G1 X93.195 Y155.057 E31.82351
G1 X93.422 Y155.881 E31.85741
G1 X93.86 Y156.859 E31.89992
G1 X94.386 Y157.651 E31.93763
G1 X95.134 Y158.46 E31.98134
G1 X140.533 Y203.837 E34.52766
G1 X141.679 Y204.643 E34.58321
G1 X142.749 Y205.108 E34.62949
G1 X143.784 Y205.351 E34.67166
G1 X144.602 Y205.414 E34.70423
G1 X182.52 Y205.414 E36.20843
G1 X183.26 Y205.363 E36.23782
G1 X184.189 Y205.167 E36.27548
G1 X185.315 Y204.715 E36.32361
G1 X186.132 Y204.207 E36.36179
G1 X186.789 Y203.653 E36.39587
G1 X205.165 Y185.278 E37.42676
G1 X205.851 Y184.433 E37.46995
G1 X206.552 Y183.064 E37.53096
G1 X206.827 Y182.049 E37.57266
G1 X206.925 Y181.009 E37.6141
G1 X206.925 Y143.091 E39.11829
G1 X206.813 Y141.983 E39.16247
G1 X206.514 Y140.943 E39.20541
G1 X206.155 Y140.167 E39.23931
G1 X205.36 Y139.039 E39.29405
G1 X159.438 Y93.139 E41.86972
G1 X158.484 Y92.451 E41.91637
G1 X157.518 Y91.986 E41.95889
G1 X156.509 Y91.699 E42.00052
G1 X155.472 Y91.591 E42.04186
G1 X119.229 Y91.586 E43.47959
G1 X118.395 Y91.65 E43.51278
G1 X117.256 Y91.933 E43.55932
G1 X116.033 Y92.515 E43.61306
G1 X115.28 Y93.067 E43.65009
G1 X114.678 Y93.646 E43.68323
G1 X104.225 Y104.098 E44.26961
G92 E0
G1 E-0.7 F3000
M204 S6000
G1 Z0.5 F12000
; acceleration to travel
M204 S7000
G1 X156.262 Y179.588
; decel to extrusion
M204 S2000
G1 X171.13 Y201.157
; end travel
G1 Z0.2
G1 E0 F2880
;WIDTH:0.568
G1 F3600
G1 X171.694 Y201.556 E0.0302
G1 X171.96 Y201.679 E0.04296
G1 X172.183 Y201.783 E0.05372
G1 X172.634 Y201.9 E0.07406
G1 X173.393 Y201.964 E0.1073
G1 X173.32 Y202.14 E0.1156
G1 X173.128 Y202.39 E0.12939
G1 X173.002 Y202.487 E0.13629
G1 X172.877 Y202.583 E0.14318
G1 X172.671 Y202.668 E0.15294
G1 X172.585 Y202.704 E0.15697
G1 X172.272 Y202.745 E0.17077
G1 X171.959 Y202.704 E0.18456
G1 X171.667 Y202.583 E0.19835
G1 X171.416 Y202.39 E0.21214
G1 X171.224 Y202.14 E0.22594
G1 X171.103 Y201.848 E0.23973
G1 X171.062 Y201.535 E0.25352
G1 X171.107 Y201.212 E0.26775
; acceleration to travel
M204 S7000
G1 X172.07 Y201.71 F12000
; decel to extrusion
M204 S2000
G1 X172.346 Y201.852
; end travel
G1 F3600
G1 X171.378 Y201.852 E0.31002
G1 X171.444 Y202.013 E0.3176
G1 X171.596 Y202.211 E0.32849
G1 X171.794 Y202.363 E0.33939
G1 X171.83 Y202.377 E0.34107
G1 X173.102 Y202.377 E0.39661
G92 E0
G1 E-0.7 F3000
M204 S6000
G1 Z0.5 F12000
; acceleration to travel
M204 S7000
G1 X150.45 Y201.989
; decel to extrusion
M204 S2000
G1 X143.978 Y201.878
; end travel
G1 Z0.2
G1 E0 F2880
G1 F3600
G1 X143.929 Y201.941 E0.00348
G1 X143.679 Y202.134 E0.01728
G1 X143.427 Y202.238 E0.02919
G1 X143.387 Y202.254 E0.03107
G1 X143.074 Y202.296 E0.04486
G1 X142.761 Y202.254 E0.05865
G1 X142.469 Y202.134 E0.07245
G1 X142.218 Y201.941 E0.08624
G1 X142.026 Y201.691 E0.10003
G1 X141.905 Y201.399 E0.11382
G1 X141.864 Y201.086 E0.12762
G1 X141.905 Y200.772 E0.14141
G1 X142.026 Y200.48 E0.1552
G1 X142.137 Y200.336 E0.16315
G1 X142.419 Y200.74 E0.18466
G1 X142.531 Y200.899 E0.19314
G1 X142.71 Y201.086 E0.20445
G1 X142.902 Y201.285 E0.21654
G1 X143.284 Y201.556 E0.23701
G1 X143.402 Y201.611 E0.24267
G1 X143.773 Y201.783 E0.26053
G1 X143.924 Y201.853 E0.26778
G1 X143.322 Y201.603 F12000
G1 F3600
G1 X142.276 Y201.603 E0.31345
G1 X142.246 Y201.563 E0.31562
G1 X142.15 Y201.333 E0.32652
G1 X142.119 Y201.078 E0.33774
G1 X142.666 Y201.078 E0.36163
G92 E0
G1 E-0.7 F3000
M204 S6000
G1 Z0.5 F12000
; acceleration to travel
M204 S7000
G1 X160.704 Y201.582
; decel to extrusion
M204 S2000
G1 X165.857 Y201.726
; end travel
G1 Z0.2
G1 E0 F2880
G1 F3600
G1 X166.1 Y201.556 E0.01294
G1 X166.42 Y201.332 E0.02999
G1 X166.807 Y200.961 E0.05339
G1 X167.078 Y200.578 E0.07386
G1 X167.304 Y200.089 E0.09738
G1 X167.399 Y199.884 E0.10724
G1 X167.462 Y199.933 E0.11073
G1 X167.655 Y200.184 E0.12452
G1 X167.76 Y200.437 E0.13649
G1 X167.776 Y200.475 E0.13831
G1 X167.817 Y200.789 E0.15211
G1 X167.776 Y201.102 E0.1659
G1 X167.655 Y201.394 E0.17969
G1 X167.462 Y201.644 E0.19348
G1 X167.295 Y201.772 E0.20268
G1 X167.212 Y201.837 E0.20728
G1 X167.005 Y201.922 E0.21703
G1 X166.92 Y201.957 E0.22107
G1 X166.607 Y201.999 E0.23486
G1 X166.294 Y201.957 E0.24865
G1 X166.228 Y201.93 E0.25176
G1 X166.002 Y201.837 E0.26245
G1 X165.905 Y201.762 E0.26778
G1 X166.122 Y201.572 F12000
G1 F3600
G1 X167.142 Y201.572 E0.31231
G1 X167.283 Y201.465 E0.32003
G1 X167.435 Y201.267 E0.33093
G1 X167.526 Y201.047 E0.3413
G1 X167.054 Y201.047 E0.36187
G1 X167.297 Y200.705 E0.38018
G1 X167.381 Y200.522 E0.38898
G1 X167.755 Y200.522 E0.40531
G92 E0
G1 E-0.7 F3000
M204 S6000
G1 Z0.5 F12000
; acceleration to travel
M204 S7000
G1 X194.241 Y187.452
; decel to extrusion
M204 S2000
G1 X201.809 Y183.718
; end travel
G1 Z0.2
G1 E0 F2880
G1 F3600
G1 X202.649 Y182.878 E0.05186
G1 X202.952 Y182.512 E0.07261
G1 X203.058 Y182.339 E0.08146
G1 X203.338 Y181.881 E0.10488
G1 X203.503 Y182.096 E0.11667
G1 X203.623 Y182.387 E0.13046
G1 X203.665 Y182.701 E0.14426
G1 X203.623 Y183.014 E0.15805
G1 X203.503 Y183.306 E0.17184
G1 X203.31 Y183.556 E0.18563
G1 X203.143 Y183.685 E0.19483
G1 X203.06 Y183.749 E0.19943
G1 X202.904 Y183.813 E0.20679
G1 X202.768 Y183.87 E0.21322
G1 X202.455 Y183.911 E0.22701
G1 X202.141 Y183.87 E0.24081
G1 X201.858 Y183.752 E0.25421
G1 X201.918 Y183.646 F12000
G1 F3600
G1 X202.539 Y183.646 E0.2813
G1 X202.702 Y183.624 E0.28849
G1 X202.807 Y183.58 E0.29347
G1 X202.933 Y183.529 E0.29939
G1 X202.99 Y183.485 E0.30254
G1 X203.13 Y183.377 E0.31028
G1 X203.282 Y183.179 E0.32118
G1 X203.307 Y183.12 E0.32393
G1 X202.763 Y183.12 E0.34768
G1 X202.836 Y183.047 E0.35218
G1 X203.158 Y182.659 E0.37423
G1 X203.196 Y182.595 E0.37746
G1 X203.624 Y182.595 E0.39615
G92 E0
G1 E-0.7 F3000
M204 S6000
G1 Z0.5 F12000
; acceleration to travel
M204 S7000
G1 X156.881 Y165.508
; decel to extrusion
M204 S2000
G1 X143.526 Y160.625
; end travel
G1 Z0.2
G1 E0 F2880
G1 F3600
G1 X142.964 Y161.019 E0.02999
G1 X142.577 Y161.39 E0.05339
G1 X142.306 Y161.773 E0.07386
G1 X141.984 Y162.467 E0.10724
G1 X141.921 Y162.418 E0.11073
G1 X141.729 Y162.168 E0.12452
G1 X141.608 Y161.876 E0.13831
G1 X141.567 Y161.563 E0.1521
G1 X141.608 Y161.249 E0.1659
G1 X141.729 Y160.958 E0.17969
G1 X141.921 Y160.707 E0.19348
G1 X142.088 Y160.579 E0.20268
G1 X142.172 Y160.515 E0.20728
G1 X142.464 Y160.394 E0.22107
G1 X142.777 Y160.352 E0.23486
G1 X143.09 Y160.394 E0.24865
G1 X143.128 Y160.41 E0.25046
G1 X143.382 Y160.515 E0.26244
G1 X143.479 Y160.589 E0.26778
G1 X143.495 Y160.615 F12000
G1 F3600
G1 X142.713 Y160.615 E0.30193
G1 X142.529 Y160.639 E0.31002
G1 X142.299 Y160.735 E0.32092
G1 X142.242 Y160.779 E0.32407
G1 X142.101 Y160.887 E0.33181
G1 X141.949 Y161.085 E0.34271
G1 X141.926 Y161.14 E0.34533
G1 X142.474 Y161.14 E0.36925
G1 X142.385 Y161.225 E0.37461
G1 X142.087 Y161.646 E0.39714
G1 X142.078 Y161.665 E0.39805
G1 X141.607 Y161.665 E0.41864
G92 E0
G1 E-0.7 F3000
M204 S6000
G1 Z0.5 F12000
; acceleration to travel
M204 S7000
G1 X158.255 Y158.785
; decel to extrusion
M204 S2000
G1 X163.011 Y157.962
; end travel
G1 Z0.2
G1 E0 F2880
G1 F3600
G1 X163.018 Y157.911 E0.00223
G1 X163.139 Y157.619 E0.01602
G1 X163.331 Y157.369 E0.02982
G1 X163.498 Y157.241 E0.03901
G1 X163.582 Y157.176 E0.04361
G1 X163.874 Y157.056 E0.0574
G1 X164.187 Y157.014 E0.07119
G1 X164.5 Y157.056 E0.08499
G1 X164.792 Y157.176 E0.09878
G1 X164.868 Y157.235 E0.10295
G1 X165.042 Y157.369 E0.11257
G1 X165.177 Y157.544 E0.12219
G1 X165.235 Y157.619 E0.12636
G1 X165.356 Y157.911 E0.14016
G1 X165.397 Y158.224 E0.15395
G1 X165.356 Y158.538 E0.16774
G1 X165.235 Y158.83 E0.18153
G1 X165.042 Y159.08 E0.19533
G1 X164.792 Y159.272 E0.20912
G1 X164.5 Y159.393 E0.22291
G1 X164.449 Y159.4 E0.22514
G1 X164.449 Y157.962 E0.28793
G1 X163.071 Y157.962 E0.3481
; acceleration to travel
M204 S7000
G1 X164.478 Y157.429 F12000
; decel to extrusion
M204 S2000
G1 X164.88 Y157.277
; end travel
G1 F3600
G1 X164.123 Y157.277 E0.38113
G1 X163.939 Y157.301 E0.38922
G1 X163.709 Y157.397 E0.40012
G1 X163.652 Y157.441 E0.40326
G1 X163.511 Y157.549 E0.41101
G1 X163.387 Y157.71 E0.41989
G1 X164.701 Y157.71 E0.47727
G1 X164.701 Y157.802 E0.4813
G1 X165.038 Y157.802 E0.49598
G1 X165.11 Y157.977 E0.50425
G1 X165.143 Y158.224 E0.51514
G1 X165.129 Y158.327 E0.51966
G1 X164.701 Y158.327 E0.53834
G1 X164.701 Y158.852 E0.56127
G1 X165.184 Y158.852 E0.58235
G92 E0
G1 E-0.7 F3000
M204 S6000
G1 Z0.5 F12000
; acceleration to travel
M204 S7000
G1 X136.278 Y157.111
; decel to extrusion
M204 S2000
G1 X128.019 Y156.613
; end travel
G1 Z0.2
G1 E0 F2880
G1 F3600
G1 X127.946 Y156.789 E0.0083
G1 X127.754 Y157.039 E0.02209
G1 X127.629 Y157.135 E0.02899
G1 X127.503 Y157.232 E0.03588
G1 X127.297 Y157.317 E0.04564
G1 X127.212 Y157.352 E0.04968
G1 X126.898 Y157.394 E0.06347
G1 X126.585 Y157.352 E0.07726
G1 X126.293 Y157.232 E0.09105
