; generated by SuperSlicer 2.5.59 on 2023-03-19 at 21:01:13 UTC


;
;

;
;
; 

; external perimeters extrusion width = 0.45mm
; perimeters extrusion width = 0.45mm
; infill extrusion width = 0.45mm
; solid infill extrusion width = 0.45mm
; top infill extrusion width = 0.45mm
; support material extrusion width = 0.40mm
; first layer extrusion width = 0.60mm

; object:{"name":"Cable gland attachement and sensor","id":"Cable gland attachement and sensor.stl id:0 copy 0","object_center":[150.000000,148.500000,0.000000],"boundingbox_center":[150.000000,148.500000,13.180592],"boundingbox_size":[28.411072,16.500000,26.361183]}
EXCLUDE_OBJECT_DEFINE NAME=Cable_gland_attachement_and_sensor_stl_id_0_copy_0 CENTER=150.000000,148.500000 POLYGON=[[135.794464,148.500000],[135.802736,148.131280],[135.827552,147.763312],[135.868832,147.396816],[135.926544,147.032528],[136.000512,146.671232],[136.090640,146.313600],[136.196704,145.960352],[136.318512,145.612240],[136.455824,145.269952],[136.608336,144.934160],[136.775792,144.605552],[136.957792,144.284768],[137.154016,143.972496],[137.364048,143.669328],[137.587456,143.375888],[137.823824,143.092768],[138.072656,142.820560],[138.333456,142.559760],[138.605664,142.310944],[138.888800,142.074576],[139.182224,141.851152],[139.485376,141.641120],[139.797664,141.444896],[140.118432,141.262880],[140.447056,141.095456],[140.782832,140.942928],[141.125152,140.805616],[141.473264,140.683808],[141.826496,140.577728],[142.184128,140.487632],[142.545440,140.413632],[142.909712,140.355952],[143.276192,140.314656],[144.012896,140.250000],[164.205536,140.250000],[164.205536,156.750000],[144.012896,156.750000],[143.276192,156.685344],[142.909712,156.644048],[142.545440,156.586368],[142.184128,156.512368],[141.826496,156.422256],[141.473264,156.316192],[141.125152,156.194384],[140.782832,156.057072],[140.447056,155.904544],[140.118432,155.737104],[139.797664,155.555104],[139.485376,155.358880],[139.182224,155.148848],[138.888800,154.925424],[138.605664,154.689056],[138.333456,154.440240],[138.072656,154.179440],[137.823824,153.907232],[137.587456,153.624112],[137.364048,153.330672],[137.154016,153.027504],[136.957792,152.715232],[136.775792,152.394448],[136.608336,152.065840],[136.455824,151.730048],[136.318512,151.387760],[136.196704,151.039648],[136.090640,150.686400],[136.000512,150.328768],[135.926544,149.967456],[135.868832,149.603184],[135.827552,149.236688],[135.802736,148.868720],[135.794464,148.500000]]
; plater:{"center":[150.000000,148.500000,0.000000],"boundingbox_center":[150.000000,148.500000,13.180592],"boundingbox_size":[28.411072,16.500000,26.361183]}

;TYPE:Custom
SET_PRINT_STATS_INFO TOTAL_LAYER=138

M104 S0 ; Stops SuperSlicer from sending temp waits separately

M109 S0

M140 S0

print_start EXTRUDER=250 BED=105 CHAMBER=0
G21 ; set units to millimeters
G90 ; use absolute coordinates
M82 ; use absolute distances for extrusion
G92 E0
; Filament gcode
;_TOOLCHANGE 0
M107
;LAYER_CHANGE
;Z:0.21875
;HEIGHT:0.21875
TIMELAPSE_TAKE_FRAME
;BEFORE_LAYER_CHANGE
;0.21875


G1 E-0.8 F2400
G1 Z0.2 F9000
G1 Z0.21875
SET_PRINT_STATS_INFO CURRENT_LAYER=1
;AFTER_LAYER_CHANGE
;0.21875
G92 E0
G1 Z0.41875
G1 X136.4 Y139.939
G1 Z0.21875
G1 E0.8 F2400
;TYPE:Skirt
;WIDTH:0.54
G1 F2100
G1 X135.41 Y140.932 E0.86288
G1 X134.685 Y141.847 E0.91523
G1 X133.673 Y143.564 E1.00458
G1 X133.148 Y144.864 E1.06746
G1 X132.866 Y145.853 E1.11356
G1 X132.674 Y146.863 E1.15966
G1 X132.564 Y148.086 E1.21475
G1 X132.674 Y150.137 E1.30686
G1 X133.148 Y152.136 E1.39896
G1 X133.673 Y153.436 E1.46184
G1 X134.23 Y154.462 E1.51418
G1 X134.766 Y155.266 E1.55753
G1 X135.663 Y156.344 E1.62041
G1 X136.551 Y157.194 E1.6755
G1 X137.36 Y157.827 E1.7216
G1 X138.223 Y158.386 E1.7677
G1 X139.556 Y159.055 E1.83457
G1 X140.868 Y159.517 E1.89695
G1 X142.47 Y159.922 E1.97105
G1 X160.071 Y161.124 E2.76215
G1 X161.856 Y161.124 E2.84218
G1 X162.717 Y160.952 E2.88154
G1 X164.373 Y160.192 E2.96326
G1 X165.627 Y159.195 E3.03506
G1 X166.906 Y157.667 E3.12441
G1 X167.306 Y156.916 E3.16257
G1 X167.834 Y155.2 E3.24308
G1 X167.932 Y154.622 E3.26939
G1 X168.14 Y148.8 E3.53063
G1 X168.119 Y142.958 E3.79256
G1 X167.638 Y140.733 E3.89466
G1 X167.152 Y139.499 E3.95413
G1 X166.825 Y138.932 E3.9835
G1 X165.627 Y137.465 E4.06841
G1 X164.96 Y136.88 E4.10819
G1 X163.677 Y136.007 E4.17779
G1 X162.417 Y135.619 E4.23692
G1 X159.647 Y135.626 E4.36109
G1 X142.828 Y137.018 E5.11787
G1 X140.367 Y137.639 E5.23171
G1 X139.418 Y138.005 E5.2773
G1 X138.041 Y138.723 E5.34692
G1 X136.448 Y139.903 E5.43583
G1 X136.74 Y140.295 F9000
G1 F2100
G1 X135.774 Y141.265 E5.49722
G1 X135.097 Y142.119 E5.5461
G1 X134.122 Y143.768 E5.63199
G1 X133.61 Y145.037 E5.69338
G1 X133.341 Y145.984 E5.7375
G1 X133.063 Y147.93 E5.82564
G1 X133.159 Y150.049 E5.92078
G1 X133.61 Y151.963 E6.00893
G1 X134.122 Y153.232 E6.07032
G1 X134.641 Y154.191 E6.1192
G1 X135.159 Y154.968 E6.16106
G1 X136.034 Y156.02 E6.22245
G1 X137.632 Y157.416 E6.31759
G1 X138.457 Y157.952 E6.3617
G1 X139.74 Y158.598 E6.4261
G1 X141.021 Y159.048 E6.48698
G1 X142.59 Y159.444 E6.55956
G1 X160.071 Y160.631 E7.34526
G1 X161.856 Y160.631 E7.4253
G1 X162.528 Y160.497 E7.45599
G1 X164.081 Y159.795 E7.53242
G1 X165.301 Y158.825 E7.60234
G1 X166.523 Y157.357 E7.68797
G1 X166.835 Y156.771 E7.71774
G1 X167.363 Y155.055 E7.79825
G1 X167.439 Y154.604 E7.81876
G1 X167.648 Y148.782 E8.08
G1 X167.627 Y142.961 E8.34104
G1 X167.18 Y140.914 E8.43499
G1 X166.693 Y139.68 E8.49445
G1 X166.438 Y139.237 E8.51736
G1 X165.292 Y137.826 E8.59887
G1 X164.682 Y137.288 E8.63536
G1 X163.399 Y136.414 E8.70496
G1 X162.417 Y136.111 E8.75107
G1 X159.688 Y136.117 E8.87342
G1 X142.869 Y137.51 E9.6302
G1 X140.54 Y138.101 E9.73795
G1 X139.632 Y138.449 E9.78156
G1 X138.313 Y139.134 E9.84821
G1 X136.788 Y140.259 E9.93316
G92 E0
G1 E-0.8 F2400
G1 Z0.41875 F9000
G1 X138.419 Y142.107
G1 Z0.21875
G1 E0 F2400
;WIDTH:0.6
;HEIGHT:0.22
G1 F2100
G1 X139.025 Y141.624 E0.03917
G1 X139.649 Y141.212 E0.077
G1 X139.994 Y141.016 E0.09706
G1 X140.668 Y140.691 E0.13489
G1 X141.38 Y140.423 E0.17335
G1 X141.76 Y140.309 E0.19341
G1 X142.502 Y140.141 E0.23187
G1 X143.245 Y140.04 E0.26979
G1 X143.86 Y140.012 E0.30092
G1 X143.898 Y139.974 E0.30364
G1 X157.889 Y139.974 E1.011
G1 X157.856 Y139.942 E1.01329
G1 X157.814 Y139.833 E1.01916
G1 X157.83 Y139.474 E1.03735
G1 X157.882 Y139.369 E1.04328
G1 X158.571 Y138.798 E1.08854
G1 X158.606 Y138.777 E1.09059
G1 X159.249 Y138.505 E1.12589
G1 X159.859 Y138.317 E1.15817
G1 X159.9 Y138.311 E1.16024
G1 X162.17 Y138.305 E1.27505
G1 X162.212 Y138.311 E1.27716
G1 X162.331 Y138.348 E1.28348
G1 X162.368 Y138.366 E1.28557
G1 X163.349 Y139.033 E1.34553
G1 X163.367 Y139.032 E1.34646
G1 X163.42 Y139.082 E1.35015
G1 X163.481 Y139.123 E1.35385
G1 X163.484 Y139.141 E1.35477
G1 X163.762 Y139.399 E1.37393
G1 X163.776 Y139.414 E1.37499
G1 X164.651 Y140.513 E1.44598
G1 X164.671 Y140.548 E1.44802
G1 X165.131 Y141.695 E1.51052
G1 X165.141 Y141.744 E1.51306
G1 X165.15 Y142.26 E1.53914
G1 X165.424 Y142.954 E1.57688
G1 X165.434 Y143.005 E1.57951
G1 X165.434 Y143.162 E1.58746
G1 X165.424 Y143.214 E1.59009
G1 X165.15 Y143.911 E1.62796
G1 X165.141 Y144.426 E1.65403
G1 X165.131 Y144.475 E1.65653
G1 X164.912 Y145.03 E1.68668
G1 X164.85 Y145.327 E1.70208
G1 X164.836 Y145.364 E1.70402
G1 X164.785 Y145.461 E1.70959
G1 X165.443 Y147.156 E1.80155
G1 X165.453 Y147.207 E1.80413
G1 X165.456 Y148.751 E1.88221
G1 X165.448 Y148.798 E1.88463
G1 X165.354 Y149.06 E1.89872
G1 X165.354 Y150.156 E1.95413
G1 X165.343 Y150.21 E1.95688
G1 X165.28 Y150.362 E1.9652
G1 X165.25 Y150.407 E1.96795
G1 X164.711 Y150.946 E2.00652
G1 X165.141 Y152.063 E2.06703
G1 X165.151 Y152.113 E2.06961
G1 X165.151 Y152.578 E2.09312
G1 X165.244 Y152.837 E2.10704
G1 X165.252 Y152.884 E2.10946
G1 X165.253 Y154.425 E2.18735
G1 X165.243 Y154.475 E2.1899
G1 X164.914 Y155.338 E2.23664
G1 X164.8 Y155.935 E2.26734
G1 X164.789 Y155.969 E2.26916
G1 X164.742 Y156.066 E2.27463
G1 X164.723 Y156.096 E2.27643
G1 X164.011 Y156.932 E2.33195
G1 X163.841 Y157.183 E2.34726
G1 X163.817 Y157.209 E2.34903
G1 X163.413 Y157.562 E2.37618
G1 X162.842 Y157.984 E2.41207
G1 X162.805 Y158.003 E2.41419
G1 X162.346 Y158.161 E2.43871
G1 X161.858 Y158.402 E2.46623
G1 X161.828 Y158.412 E2.46783
G1 X161.736 Y158.434 E2.47264
G1 X161.704 Y158.437 E2.47424
G1 X160.217 Y158.437 E2.54945
G1 X160.165 Y158.427 E2.55211
G1 X159.313 Y158.087 E2.59848
G1 X159.288 Y158.074 E2.59993
G1 X158.932 Y157.837 E2.62154
G1 X158.568 Y157.725 E2.6408
G1 X158.537 Y157.711 E2.64251
G1 X158.45 Y157.659 E2.64765
G1 X158.423 Y157.638 E2.64936
G1 X158.166 Y157.381 E2.66775
G1 X158.136 Y157.336 E2.6705
G1 X158.073 Y157.184 E2.67882
G1 X158.062 Y157.13 E2.68157
G1 X158.062 Y156.893 E2.69356
G1 X157.929 Y157.026 E2.70307
G1 X143.898 Y157.026 E3.41249
G1 X143.864 Y156.992 E3.41498
G1 X143.624 Y156.986 E3.42709
G1 X142.871 Y156.918 E3.46532
G1 X142.488 Y156.857 E3.48491
G1 X141.759 Y156.69 E3.52274
G1 X141.027 Y156.453 E3.56167
G1 X140.671 Y156.31 E3.58103
G1 X140.32 Y156.15 E3.60053
G1 X139.651 Y155.789 E3.639
G1 X139.025 Y155.376 E3.67691
G1 X138.428 Y154.901 E3.71545
G1 X137.869 Y154.366 E3.75461
G1 X137.376 Y153.802 E3.79245
G1 X137.141 Y153.494 E3.81204
G1 X136.717 Y152.852 E3.85097
G1 X136.363 Y152.193 E3.8888
G1 X136.199 Y151.832 E3.90886
G1 X135.932 Y151.119 E3.94732
G1 X135.732 Y150.396 E3.98523
G1 X135.596 Y149.646 E4.02377
G1 X135.526 Y148.875 E4.06294
G1 X135.527 Y148.113 E4.10148
G1 X135.594 Y147.366 E4.13939
G1 X135.73 Y146.616 E4.17793
G1 X135.936 Y145.869 E4.2171
G1 X136.199 Y145.168 E4.25493
G1 X136.359 Y144.816 E4.27452
G1 X136.724 Y144.138 E4.31345
G1 X137.137 Y143.512 E4.35136
G1 X137.611 Y142.917 E4.38983
G1 X137.878 Y142.624 E4.40988
G1 X138.376 Y142.148 E4.44468
M104 S250 ; set temperature
G92 E0
G1 E-0.8 F2400
G1 Z0.41875 F9000
; printing object Cable gland attachement and sensor.stl id:0 copy 0
EXCLUDE_OBJECT_START NAME=Cable_gland_attachement_and_sensor_stl_id_0_copy_0
G1 X158.375 Y139.678
G1 Z0.21875
G1 E0 F2400
;TYPE:Support material
;HEIGHT:0.21875
G1 X158.859 Y139.27 E0.03183
G1 X159.438 Y139.025 E0.06349
G1 X159.982 Y138.858 E0.09211
G1 X162.109 Y138.858 E0.19905
G1 X163.075 Y139.516 E0.25786
G1 X163.371 Y139.79 E0.27816
G1 X164.193 Y140.826 E0.34466
G1 X164.598 Y141.852 E0.40014
G1 X164.598 Y142.368 E0.42608
G1 X164.881 Y143.084 E0.46484
G1 X164.598 Y143.803 E0.50371
G1 X164.598 Y144.319 E0.52966
G1 X164.38 Y144.873 E0.55958
G1 X164.329 Y145.141 E0.57329
G1 X164.178 Y145.426 E0.58956
G1 X164.9 Y147.26 E0.68866
G1 X164.903 Y148.702 E0.76118
G1 X164.801 Y148.96 E0.77516
G1 X164.801 Y150.074 E0.8312
G1 X164.064 Y150.811 E0.88359
G1 X164.598 Y152.165 E0.95679
G1 X164.598 Y152.679 E0.98267
G1 X164.699 Y152.935 E0.99649
G1 X164.7 Y154.374 E1.06887
G1 X164.38 Y155.185 E1.11275
G1 X164.267 Y155.778 E1.14311
G1 X163.575 Y156.589 E1.19673
G1 X163.425 Y156.817 E1.21044
G1 X163.076 Y157.124 E1.23385
G1 X162.548 Y157.513 E1.2668
G1 X162.135 Y157.649 E1.28868
G1 X161.656 Y157.884 E1.31552
G1 X160.27 Y157.884 E1.38524
G1 X159.548 Y157.585 E1.42456
G1 X159.172 Y157.332 E1.44735
G1 X158.779 Y157.211 E1.46808
G1 X158.615 Y157.048 E1.47967
G1 X158.615 Y139.918 E2.34127
G1 X158.417 Y139.72 E2.35538
G1 X164.011 Y155.865 F9000
G1 F2400
G1 X164.011 Y151.701 E2.56486
G1 X163.624 Y150.719 E2.61792
G1 X164.011 Y150.332 E2.64543
G1 X164.011 Y141.389 E3.09529
G1 X163.864 Y141.016 E3.11542
G1 X163.273 Y140.27 E3.16328
G1 X163.273 Y156.363 E3.97273
G1 X163.139 Y156.568 E3.98506
G1 X162.84 Y156.831 E4.0051
G1 X162.536 Y157.055 E4.02407
G1 X162.536 Y139.604 E4.90184
G1 X161.993 Y139.234 E4.9349
G1 X161.799 Y139.234 E4.94466
G1 X161.799 Y157.395 E5.85815
G1 X161.569 Y157.508 E5.87102
G1 X161.061 Y157.508 E5.89656
G1 X161.061 Y139.234 E6.81573
G1 X160.324 Y139.234 E6.85282
G1 X160.324 Y157.499 E7.77154
G1 X159.727 Y157.252 E7.80402
G1 X159.586 Y157.157 E7.81257
G1 X159.586 Y139.124 E8.71961
G92 E0
G1 E-0.8
G1 Z0.41875 F9000
G1 X157.515 Y140.55
G1 Z0.21875
G1 E0 F2400
;TYPE:External perimeter
G1 X157.515 Y156.45 E0.79974
G1 X144.313 Y156.45 E1.46377
G1 X144.313 Y156.425 E1.46503
G1 X143.661 Y156.41 E1.49782
G1 X142.947 Y156.346 E1.5339
G1 X142.602 Y156.292 E1.55143
G1 X141.906 Y156.133 E1.58734
G1 X141.227 Y155.912 E1.62325
G1 X140.901 Y155.781 E1.64095
G1 X140.58 Y155.636 E1.65865
G1 X139.952 Y155.297 E1.69456
G1 X139.359 Y154.906 E1.7303
G1 X138.803 Y154.463 E1.76603
G1 X138.29 Y153.972 E1.80177
G1 X137.82 Y153.434 E1.83767
G1 X137.609 Y153.157 E1.85521
G1 X137.216 Y152.561 E1.89111
G1 X136.877 Y151.933 E1.92702
G1 X136.733 Y151.615 E1.94455
G1 X136.482 Y150.947 E1.98046
G1 X136.293 Y150.262 E2.0162
G1 X136.166 Y149.563 E2.05193
G1 X136.103 Y148.855 E2.08767
G1 X136.103 Y148.145 E2.12341
G1 X136.166 Y147.437 E2.15914
G1 X136.293 Y146.738 E2.19488
G1 X136.482 Y146.053 E2.23062
G1 X136.733 Y145.385 E2.26652
G1 X136.877 Y145.067 E2.28406
G1 X137.216 Y144.439 E2.31996
G1 X137.607 Y143.846 E2.3557
G1 X138.052 Y143.288 E2.3916
G1 X138.287 Y143.03 E2.40914
G1 X138.803 Y142.537 E2.44504
G1 X139.359 Y142.094 E2.48078
G1 X139.955 Y141.701 E2.51669
G1 X140.258 Y141.529 E2.53422
G1 X140.901 Y141.219 E2.57012
G1 X141.569 Y140.968 E2.60603
G1 X141.903 Y140.868 E2.62357
G1 X142.599 Y140.709 E2.65947
G1 X143.303 Y140.614 E2.69521
G1 X144.313 Y140.568 E2.74605
G1 X144.313 Y140.55 E2.74697
G1 X157.455 Y140.55 E3.40799
;WIPE_START
G1 X157.315 Y140.896 F9000
;WIPE_END
G92 E0
G1 E-0.8 F2400
G1 Z0.41875 F9000
G1 X148.213 Y153.015
G1 Z0.21875
G1 E0 F2400
G1 X148.571 Y152.692 E0.02426
G1 X148.939 Y152.305 E0.05114
G1 X149.368 Y151.749 E0.08645
G1 X149.677 Y151.249 E0.116
G1 X149.983 Y150.619 E0.15123
G1 X150.185 Y150.063 E0.18099
G1 X150.337 Y149.485 E0.21105
G1 X150.444 Y148.795 E0.24617
G1 X150.476 Y148.188 E0.27677
G1 X150.45 Y147.57 E0.30784
G1 X150.376 Y147.014 E0.33605
G1 X150.238 Y146.408 E0.36734
G1 X150.023 Y145.765 E0.40145
G1 X149.755 Y145.17 E0.43428
G1 X149.521 Y144.773 E0.45743
G1 X149.119 Y144.239 E0.49105
G1 X148.667 Y143.749 E0.52458
G1 X148.168 Y143.307 E0.55811
G1 X147.627 Y142.918 E0.59164
G1 X147.05 Y142.584 E0.62518
G1 X146.446 Y142.311 E0.6585
G1 X145.816 Y142.099 E0.69192
G1 X145.166 Y141.95 E0.7255
G1 X144.493 Y141.867 E0.75959
G1 X144.035 Y141.874 E0.78266
G1 X143.588 Y141.911 E0.80522
G1 X142.933 Y142.022 E0.83859
G1 X142.295 Y142.198 E0.87191
G1 X141.681 Y142.436 E0.90504
G1 X141.098 Y142.734 E0.93795
G1 X140.622 Y143.036 E0.9663
G1 X140.134 Y143.414 E0.99735
G1 X139.723 Y143.796 E1.0256
G1 X139.344 Y144.218 E1.05413
G1 X138.943 Y144.764 E1.08819
G1 X138.605 Y145.346 E1.12201
G1 X138.368 Y145.868 E1.15086
G1 X138.179 Y146.416 E1.17999
G1 X138.046 Y146.953 E1.20785
G1 X137.96 Y147.524 E1.23687
G1 X137.928 Y148.165 E1.26917
G1 X137.957 Y148.752 E1.29875
G1 X138.047 Y149.348 E1.32906
G1 X138.223 Y150.128 E1.3693
G1 X138.417 Y150.703 E1.39976
G1 X138.667 Y151.254 E1.43022
G1 X138.971 Y151.778 E1.46068
G1 X139.325 Y152.268 E1.4911
G1 X139.69 Y152.682 E1.51886
G1 X140.152 Y153.111 E1.5506
G1 X140.656 Y153.49 E1.5823
G1 X141.195 Y153.813 E1.61391
G1 X141.763 Y154.077 E1.64539
G1 X142.35 Y154.279 E1.67662
G1 X142.804 Y154.391 E1.70012
G1 X143.426 Y154.485 E1.73178
G1 X144.054 Y154.514 E1.7634
G1 X144.677 Y154.477 E1.79481
G1 X145.288 Y154.377 E1.82595
G1 X146.058 Y154.168 E1.8661
G1 X146.63 Y153.966 E1.8966
G1 X147.186 Y153.705 E1.92751
G1 X147.716 Y153.387 E1.95859
G1 X148.165 Y153.051 E1.98676
;WIPE_START
G1 X148.589 Y153.15 F9000
;WIPE_END
G92 E0
G1 E-0.8 F2400
G1 Z0.41875 F9000
G1 X156.962 Y155.897
G1 Z0.21875
G1 E0 F2400
;TYPE:Internal perimeter
G1 X144.866 Y155.897 E0.6084
G1 X144.866 Y155.884 E0.60904
G1 X143.692 Y155.858 E0.6681
G1 X143.015 Y155.797 E0.7023
G1 X142.707 Y155.748 E0.71796
G1 X142.054 Y155.599 E0.75168
G1 X141.416 Y155.392 E0.7854
G1 X141.118 Y155.272 E0.80154
G1 X140.826 Y155.14 E0.81769
G1 X140.236 Y154.822 E0.8514
G1 X139.684 Y154.458 E0.88464
G1 X139.168 Y154.046 E0.91788
G1 X138.69 Y153.589 E0.95112
G1 X138.249 Y153.084 E0.98484
G1 X138.06 Y152.837 E1.0005
G1 X137.691 Y152.277 E1.03422
G1 X137.373 Y151.687 E1.06794
G1 X137.244 Y151.403 E1.0836
