; generated by SuperSlicer 2.4 on 2023-02-27 at 07:34:56 UTC


;
;

;
;
; 

; external perimeters extrusion width = 0.42mm
; perimeters extrusion width = 0.46mm
; infill extrusion width = 0.44mm
; solid infill extrusion width = 0.46mm
; top infill extrusion width = 0.44mm
; support material extrusion width = 0.40mm
; first layer extrusion width = 0.60mm

; object:{"name":"cable_channel_narrow_lid_120mm","id":"cable_channel_narrow_lid_120mm.stl id:0 copy 0","object_center":[150.000000,150.000000,0.000000],"boundingbox_center":[150.000000,150.000000,2.750000],"boundingbox_size":[120.000000,22.500000,5.500001]}
; plater:{"center":[150.000000,150.000000,0.000000],"boundingbox_center":[150.000000,150.000000,2.750000],"boundingbox_size":[120.000000,22.500000,5.500001]}

;TYPE:Custom
M104 S0 ; Stops SuperSlicer from sending temp waits separately


; Pre-Processed for Cancel-Object support by preprocess_cancellation v0.2.0
; 1 known objects
EXCLUDE_OBJECT_DEFINE NAME=cable_channel_narrow_lid_120mm_stl_id_0_copy_0 CENTER=149.660,150.071 POLYGON=[[90.21,138.96],[90.21,161.04],[209.79,161.04],[209.79,138.96]]

M140 S0

print_start EXTRUDER=245 BED=101 CHAMBER=0
M107
G21 ; set units to millimeters
G90 ; use absolute coordinates
M83 ; use relative distances for extrusion
; Filament gcode
;_TOOLCHANGE 0
M107
;LAYER_CHANGE
;Z:0.2
;HEIGHT:0.2
TIMELAPSE_TAKE_FRAME
;BEFORE_LAYER_CHANGE
;0.2


G1 Z0.2 F12000
;AFTER_LAYER_CHANGE
;0.2
G92 E0
G1 E-0.4 F2700
G1 Z0.3 F12000
G1 X88.316 Y136.447
G1 Z0.2
G1 E0.4 F2700
;TYPE:Skirt
;WIDTH:0.44
G1 F1860
G1 X87.632 Y137.144 E0.03225
G1 X87.226 Y137.819 E0.02601
G1 X86.966 Y138.495 E0.02391
G1 X86.859 Y139.042 E0.01841
G1 X86.82 Y160.555 E0.71029
G1 X86.966 Y161.505 E0.03176
G1 X87.226 Y162.181 E0.0239
G1 X87.632 Y162.856 E0.02601
G1 X88.316 Y163.553 E0.03224
G1 X89.003 Y163.983 E0.02674
G1 X89.709 Y164.263 E0.0251
G1 X90.653 Y164.409 E0.03154
G1 X209.347 Y164.409 E3.91892
G1 X210.291 Y164.263 E0.03154
G1 X210.997 Y163.983 E0.0251
G1 X211.684 Y163.553 E0.02675
G1 X212.368 Y162.856 E0.03224
G1 X212.774 Y162.181 E0.02601
G1 X213.034 Y161.505 E0.02391
G1 X213.141 Y160.958 E0.01841
G1 X213.18 Y139.445 E0.71029
G1 X213.034 Y138.495 E0.03176
G1 X212.774 Y137.819 E0.02391
G1 X212.368 Y137.144 E0.02601
G1 X211.684 Y136.447 E0.03224
G1 X210.997 Y136.017 E0.02674
G1 X210.291 Y135.737 E0.0251
G1 X209.752 Y135.631 E0.01813
G1 X90.653 Y135.591 E3.93232
G1 X89.709 Y135.737 E0.03154
G1 X89.003 Y136.017 E0.0251
G1 X88.367 Y136.415 E0.02476
G1 X88.578 Y136.752 F12000
G1 F1860
G1 X88.527 Y136.783 E0.00198
G1 X87.972 Y137.348 E0.02614
G1 X87.567 Y138.024 E0.02601
G1 X87.356 Y138.571 E0.01938
G1 X87.217 Y139.445 E0.02923
G1 X87.217 Y160.555 E0.69697
G1 X87.356 Y161.429 E0.02923
G1 X87.567 Y161.976 E0.01938
G1 X87.972 Y162.652 E0.02601
G1 X88.527 Y163.217 E0.02614
G1 X89.213 Y163.647 E0.02674
G1 X89.786 Y163.873 E0.02034
G1 X90.653 Y164.012 E0.029
G1 X209.347 Y164.012 E3.91892
G1 X210.214 Y163.873 E0.029
G1 X210.787 Y163.647 E0.02034
G1 X211.473 Y163.217 E0.02675
G1 X212.028 Y162.652 E0.02613
G1 X212.433 Y161.976 E0.02601
G1 X212.644 Y161.429 E0.01938
G1 X212.751 Y160.882 E0.01841
G1 X212.783 Y139.445 E0.70776
G1 X212.644 Y138.571 E0.02923
G1 X212.433 Y138.024 E0.01938
G1 X212.028 Y137.348 E0.02601
G1 X211.473 Y136.783 E0.02613
G1 X210.787 Y136.353 E0.02674
G1 X210.214 Y136.127 E0.02034
G1 X209.675 Y136.02 E0.01813
G1 X90.653 Y135.988 E3.92978
G1 X89.786 Y136.127 E0.029
G1 X89.213 Y136.353 E0.02034
G1 X88.629 Y136.72 E0.02278
G1 E-0.4 F2700
G1 Z0.3 F12000
G1 X90.026 Y138.625
G1 Z0.2
G1 E0.4 F2700
;WIDTH:0.604
G1 F1860
G1 X90.273 Y138.471 E0.01359
G1 X90.414 Y138.41 E0.00716
G1 X90.664 Y138.356 E0.01192
G1 X90.773 Y138.345 E0.0051
G1 X209.255 Y138.346 E5.52765
G1 X209.537 Y138.395 E0.01335
G1 X209.681 Y138.447 E0.00716
G1 X209.974 Y138.625 E0.01598
G1 X210.118 Y138.761 E0.00924
G1 X210.303 Y139.053 E0.01613
G1 X210.359 Y139.188 E0.00682
G1 X210.426 Y139.564 E0.0178
G1 X210.425 Y160.463 E0.97503
G1 X210.372 Y160.765 E0.01428
G1 X210.324 Y160.903 E0.00682
G1 X210.118 Y161.239 E0.0184
G1 X209.974 Y161.375 E0.00924
G1 X209.727 Y161.529 E0.0136
G1 X209.586 Y161.59 E0.00716
G1 X209.336 Y161.644 E0.01192
G1 X209.227 Y161.655 E0.0051
G1 X90.773 Y161.655 E5.52638
G1 X90.463 Y161.605 E0.01462
G1 X90.319 Y161.553 E0.00716
G1 X89.975 Y161.333 E0.01903
G1 X89.842 Y161.187 E0.00924
G1 X89.697 Y160.947 E0.01307
G1 X89.628 Y160.765 E0.00908
G1 X89.584 Y160.544 E0.01049
G1 X89.574 Y160.436 E0.00507
G1 X89.575 Y139.537 E0.97503
G1 X89.628 Y139.235 E0.01428
G1 X89.676 Y139.097 E0.00682
G1 X89.882 Y138.761 E0.0184
G1 X89.983 Y138.666 E0.00644
G1 X90.352 Y139.083 F12000
G1 F1860
G1 X90.549 Y138.96 E0.01086
G1 X90.597 Y138.941 E0.00239
G1 X90.759 Y138.909 E0.0077
G1 X90.786 Y138.906 E0.00128
G1 X209.214 Y138.906 E5.5251
G1 X209.241 Y138.909 E0.00128
G1 X209.403 Y138.941 E0.0077
G1 X209.451 Y138.96 E0.00239
G1 X209.648 Y139.083 E0.01086
G1 X209.694 Y139.131 E0.00309
G1 X209.809 Y139.322 E0.01039
G1 X209.827 Y139.367 E0.00228
G1 X209.863 Y139.55 E0.00872
G1 X209.865 Y139.578 E0.00127
G1 X209.865 Y160.422 E0.9725
G1 X209.863 Y160.45 E0.00127
G1 X209.827 Y160.633 E0.00872
G1 X209.809 Y160.678 E0.00228
G1 X209.694 Y160.869 E0.01039
G1 X209.648 Y160.917 E0.00309
G1 X209.451 Y161.04 E0.01086
G1 X209.403 Y161.059 E0.00239
G1 X209.241 Y161.091 E0.0077
G1 X209.214 Y161.094 E0.00128
G1 X90.786 Y161.094 E5.5251
G1 X90.759 Y161.091 E0.00128
G1 X90.597 Y161.059 E0.0077
G1 X90.549 Y161.04 E0.00239
G1 X90.352 Y160.917 E0.01086
G1 X90.306 Y160.869 E0.00309
G1 X90.191 Y160.678 E0.01039
G1 X90.173 Y160.633 E0.00228
G1 X90.137 Y160.45 E0.00872
G1 X90.135 Y160.422 E0.00127
G1 X90.135 Y139.578 E0.9725
G1 X90.137 Y139.55 E0.00127
G1 X90.173 Y139.367 E0.00872
G1 X90.191 Y139.322 E0.00228
G1 X90.31 Y139.126 E0.01068
M104 S245 ; set temperature
; printing object cable_channel_narrow_lid_120mm.stl id:0 copy 0
EXCLUDE_OBJECT_START NAME=cable_channel_narrow_lid_120mm_stl_id_0_copy_0
G1 X90.751 Y139.521 F12000
;TYPE:External perimeter
G1 F3000
G1 X90.83 Y139.489 E0.00397
G1 X209.21 Y139.497 E5.52294
G1 X209.27 Y139.555 E0.00389
G1 X209.283 Y139.62 E0.0031
G1 X209.283 Y160.38 E0.96849
G1 X209.249 Y160.479 E0.00489
G1 X209.17 Y160.511 E0.00397
G1 X90.83 Y160.511 E5.52108
G1 X90.751 Y160.479 E0.00397
G1 X90.717 Y160.38 E0.00489
G1 X90.717 Y139.62 E0.96849
G1 X90.732 Y139.578 E0.0021
;WIPE_START
G1 X91.123 Y139.667 F12000
;WIPE_END
G1 X91.278 Y140.05
;TYPE:Internal perimeter
G1 F3000
G1 X208.722 Y140.058 E5.47918
G1 X208.722 Y159.95 E0.92806
G1 X91.278 Y159.95 E5.47918
G1 X91.278 Y140.11 E0.92563
G1 X91.84 Y140.611 F12000
G1 F3000
G1 X208.16 Y140.619 E5.42683
G1 X208.16 Y159.389 E0.87571
G1 X91.84 Y159.389 E5.42683
G1 X91.84 Y140.671 E0.87327
G1 X92.401 Y141.172 F12000
G1 F3000
G1 X207.599 Y141.18 E5.37448
G1 X207.599 Y158.828 E0.82336
G1 X92.401 Y158.828 E5.37448
G1 X92.401 Y141.232 E0.82092
G1 E-0.4 F2700
G1 Z0.3 F12000
G1 X92.569 Y157.752
G1 Z0.2
G1 E0.4 F2700
;TYPE:Solid infill
;WIDTH:0.600619
G1 F3000
G1 X93.236 Y158.418 E0.04374
G1 X94.029 Y158.418 E0.03681
G1 X92.81 Y157.2 E0.07997
G1 X92.81 Y156.406 E0.03681
G1 X94.823 Y158.418 E0.13203
G1 X95.616 Y158.418 E0.03681
G1 X92.81 Y155.613 E0.18409
G1 X92.81 Y154.819 E0.03681
G1 X96.41 Y158.418 E0.23615
G1 X97.203 Y158.418 E0.03681
G1 X92.81 Y154.026 E0.28821
G1 X92.81 Y153.232 E0.03681
G1 X97.997 Y158.418 E0.34027
G1 X98.79 Y158.418 E0.03681
G1 X92.81 Y152.439 E0.39233
G1 X92.81 Y151.645 E0.03681
G1 X99.584 Y158.418 E0.44439
G1 X100.377 Y158.418 E0.03681
G1 X92.81 Y150.852 E0.49646
G1 X92.81 Y150.058 E0.03681
G1 X101.171 Y158.418 E0.54852
G1 X101.964 Y158.418 E0.03681
G1 X92.81 Y149.265 E0.60058
G1 X92.81 Y148.471 E0.03681
G1 X102.757 Y158.418 E0.65264
G1 X103.551 Y158.418 E0.03681
G1 X92.81 Y147.678 E0.7047
G1 X92.81 Y146.884 E0.03681
G1 X104.344 Y158.418 E0.75676
G1 X105.138 Y158.418 E0.03681
G1 X92.81 Y146.091 E0.80882
G1 X92.81 Y145.297 E0.03681
G1 X105.931 Y158.418 E0.86088
G1 X106.725 Y158.418 E0.03681
G1 X92.81 Y144.504 E0.91294
G1 X92.81 Y143.71 E0.03681
G1 X107.518 Y158.418 E0.965
G1 X108.312 Y158.418 E0.03681
G1 X92.81 Y142.917 E1.01706
G1 X92.81 Y142.123 E0.03681
G1 X109.105 Y158.418 E1.06912
G1 X109.899 Y158.418 E0.03681
G1 X93.062 Y141.582 E1.10465
G1 X93.856 Y141.582 E0.03681
G1 X110.692 Y158.418 E1.10465
G1 X111.486 Y158.418 E0.03681
G1 X94.649 Y141.582 E1.10464
G1 X95.443 Y141.582 E0.03681
G1 X112.279 Y158.418 E1.10464
G1 X113.073 Y158.418 E0.03681
G1 X96.236 Y141.582 E1.10463
G1 X97.03 Y141.582 E0.03681
G1 X113.866 Y158.418 E1.10463
G1 X114.66 Y158.418 E0.03681
G1 X97.823 Y141.582 E1.10463
G1 X98.617 Y141.582 E0.03681
G1 X115.453 Y158.418 E1.10462
G1 X116.247 Y158.418 E0.03681
G1 X99.41 Y141.582 E1.10462
G1 X100.204 Y141.582 E0.03681
G1 X117.04 Y158.418 E1.10462
G1 X117.834 Y158.418 E0.03681
G1 X100.997 Y141.582 E1.10461
G1 X101.791 Y141.582 E0.03681
G1 X118.627 Y158.418 E1.10461
G1 X119.421 Y158.418 E0.03681
G1 X102.585 Y141.582 E1.10461
G1 X103.378 Y141.582 E0.03681
G1 X120.214 Y158.418 E1.1046
G1 X121.008 Y158.418 E0.03681
G1 X104.172 Y141.582 E1.1046
G1 X104.965 Y141.582 E0.03681
G1 X121.801 Y158.418 E1.1046
G1 X122.595 Y158.418 E0.03681
G1 X105.759 Y141.583 E1.10459
G1 X106.552 Y141.583 E0.03681
G1 X123.388 Y158.418 E1.10459
G1 X124.182 Y158.418 E0.03681
G1 X107.346 Y141.583 E1.10459
G1 X108.139 Y141.583 E0.03681
G1 X124.975 Y158.418 E1.10458
G1 X125.769 Y158.418 E0.03681
G1 X108.933 Y141.583 E1.10458
G1 X109.726 Y141.583 E0.03681
G1 X126.562 Y158.418 E1.10458
G1 X127.356 Y158.418 E0.03681
G1 X110.52 Y141.583 E1.10457
G1 X111.313 Y141.583 E0.03681
G1 X128.149 Y158.418 E1.10457
G1 X128.943 Y158.418 E0.03681
G1 X112.107 Y141.583 E1.10457
G1 X112.901 Y141.583 E0.03681
G1 X129.736 Y158.418 E1.10456
G1 X130.529 Y158.418 E0.03681
G1 X113.694 Y141.583 E1.10456
G1 X114.488 Y141.583 E0.03681
G1 X131.323 Y158.418 E1.10456
G1 X132.116 Y158.418 E0.03681
G1 X115.281 Y141.583 E1.10455
G1 X116.075 Y141.583 E0.03681
G1 X132.91 Y158.418 E1.10455
G1 X133.703 Y158.418 E0.03681
G1 X116.868 Y141.583 E1.10454
G1 X117.662 Y141.583 E0.03681
G1 X134.497 Y158.418 E1.10454
G1 X135.29 Y158.418 E0.03681
G1 X118.455 Y141.583 E1.10454
G1 X119.249 Y141.583 E0.03681
G1 X136.084 Y158.418 E1.10453
G1 X136.877 Y158.418 E0.03681
G1 X120.042 Y141.583 E1.10453
G1 X120.836 Y141.584 E0.03681
G1 X137.671 Y158.418 E1.10453
G1 X138.464 Y158.418 E0.03681
G1 X121.629 Y141.584 E1.10452
G1 X122.423 Y141.584 E0.03681
G1 X139.258 Y158.418 E1.10452
G1 X140.051 Y158.418 E0.03681
G1 X123.217 Y141.584 E1.10452
G1 X124.01 Y141.584 E0.03681
G1 X140.845 Y158.418 E1.10451
G1 X141.638 Y158.418 E0.03681
G1 X124.804 Y141.584 E1.10451
G1 X125.597 Y141.584 E0.03681
G1 X142.432 Y158.418 E1.10451
G1 X143.225 Y158.418 E0.03681
G1 X126.391 Y141.584 E1.1045
G1 X127.184 Y141.584 E0.03681
G1 X144.019 Y158.418 E1.1045
G1 X144.812 Y158.418 E0.03681
G1 X127.978 Y141.584 E1.1045
G1 X128.771 Y141.584 E0.03681
G1 X145.606 Y158.418 E1.10449
G1 X146.399 Y158.418 E0.03681
G1 X129.565 Y141.584 E1.10449
G1 X130.358 Y141.584 E0.03681
G1 X147.193 Y158.418 E1.10449
G1 X147.986 Y158.418 E0.03681
G1 X131.152 Y141.584 E1.10448
G1 X131.945 Y141.584 E0.03681
G1 X148.78 Y158.418 E1.10448
G1 X149.573 Y158.418 E0.03681
G1 X132.739 Y141.584 E1.10448
G1 X133.533 Y141.584 E0.03681
G1 X150.367 Y158.418 E1.10447
G1 X151.16 Y158.418 E0.03681
G1 X134.326 Y141.584 E1.10447
G1 X135.12 Y141.584 E0.03681
G1 X151.954 Y158.418 E1.10447
G1 X152.747 Y158.418 E0.03681
G1 X135.913 Y141.585 E1.10446
G1 X136.707 Y141.585 E0.03681
G1 X153.541 Y158.418 E1.10446
G1 X154.334 Y158.418 E0.03681
G1 X137.5 Y141.585 E1.10445
G1 X138.294 Y141.585 E0.03681
G1 X155.128 Y158.418 E1.10445
G1 X155.921 Y158.418 E0.03681
G1 X139.087 Y141.585 E1.10445
G1 X139.881 Y141.585 E0.03681
G1 X156.715 Y158.418 E1.10444
G1 X157.508 Y158.418 E0.03681
G1 X140.674 Y141.585 E1.10444
G1 X141.468 Y141.585 E0.03681
G1 X158.301 Y158.418 E1.10444
G1 X159.095 Y158.418 E0.03681
G1 X142.261 Y141.585 E1.10443
G1 X143.055 Y141.585 E0.03681
G1 X159.888 Y158.418 E1.10443
G1 X160.682 Y158.418 E0.03681
G1 X143.849 Y141.585 E1.10443
G1 X144.642 Y141.585 E0.03681
G1 X161.475 Y158.418 E1.10442
G1 X162.269 Y158.418 E0.03681
G1 X145.436 Y141.585 E1.10442
G1 X146.229 Y141.585 E0.03681
G1 X163.062 Y158.418 E1.10442
G1 X163.856 Y158.418 E0.03681
G1 X147.023 Y141.585 E1.10441
G1 X147.816 Y141.585 E0.03681
G1 X164.649 Y158.418 E1.10441
G1 X165.443 Y158.418 E0.03681
G1 X148.61 Y141.585 E1.10441
G1 X149.403 Y141.585 E0.03681
G1 X166.236 Y158.418 E1.1044
G1 X167.03 Y158.418 E0.03681
G1 X150.197 Y141.585 E1.1044
G1 X150.99 Y141.586 E0.03681
G1 X167.823 Y158.418 E1.1044
G1 X168.617 Y158.418 E0.03681
G1 X151.784 Y141.586 E1.10439
G1 X152.577 Y141.586 E0.03681
G1 X169.41 Y158.418 E1.10439
G1 X170.204 Y158.418 E0.03681
G1 X153.371 Y141.586 E1.10439
G1 X154.165 Y141.586 E0.03681
G1 X170.997 Y158.418 E1.10438
G1 X171.791 Y158.418 E0.03681
G1 X154.958 Y141.586 E1.10438
G1 X155.752 Y141.586 E0.03681
G1 X172.584 Y158.418 E1.10438
G1 X173.378 Y158.418 E0.03681
G1 X156.545 Y141.586 E1.10437
G1 X157.339 Y141.586 E0.03681
G1 X174.171 Y158.418 E1.10437
G1 X174.965 Y158.418 E0.03681
G1 X158.132 Y141.586 E1.10437
G1 X158.926 Y141.586 E0.03681
G1 X175.758 Y158.418 E1.10436
G1 X176.552 Y158.418 E0.03681
G1 X159.719 Y141.586 E1.10436
G1 X160.513 Y141.586 E0.03681
G1 X177.345 Y158.418 E1.10435
G1 X178.139 Y158.418 E0.03681
G1 X161.306 Y141.586 E1.10435
G1 X162.1 Y141.586 E0.03681
G1 X178.932 Y158.418 E1.10435
G1 X179.726 Y158.418 E0.03681
G1 X162.893 Y141.586 E1.10434
G1 X163.687 Y141.586 E0.03681
G1 X180.519 Y158.418 E1.10434
G1 X181.313 Y158.418 E0.03681
G1 X164.481 Y141.586 E1.10434
G1 X165.274 Y141.586 E0.03681
G1 X182.106 Y158.418 E1.10433
G1 X182.9 Y158.418 E0.03681
G1 X166.068 Y141.587 E1.10433
G1 X166.861 Y141.587 E0.03681
G1 X183.693 Y158.418 E1.10433
G1 X184.486 Y158.418 E0.03681
G1 X167.655 Y141.587 E1.10432
G1 X168.448 Y141.587 E0.03681
G1 X185.28 Y158.418 E1.10432
G1 X186.073 Y158.418 E0.03681
G1 X169.242 Y141.587 E1.10432
G1 X170.035 Y141.587 E0.03681
G1 X186.867 Y158.418 E1.10431
G1 X187.66 Y158.418 E0.03681
G1 X170.829 Y141.587 E1.10431
G1 X171.622 Y141.587 E0.03681
G1 X188.454 Y158.418 E1.10431
G1 X189.247 Y158.418 E0.03681
G1 X172.416 Y141.587 E1.1043
G1 X173.209 Y141.587 E0.03681
G1 X190.041 Y158.418 E1.1043
G1 X190.834 Y158.418 E0.03681
G1 X174.003 Y141.587 E1.1043
G1 X174.797 Y141.587 E0.03681
G1 X191.628 Y158.418 E1.10429
G1 X192.421 Y158.418 E0.03681
G1 X175.59 Y141.587 E1.10429
G1 X176.384 Y141.587 E0.03681
G1 X193.215 Y158.418 E1.10429
G1 X194.008 Y158.418 E0.03681
G1 X177.177 Y141.587 E1.10428
G1 X177.971 Y141.587 E0.03681
G1 X194.802 Y158.418 E1.10428
G1 X195.595 Y158.418 E0.03681
G1 X178.764 Y141.587 E1.10428
G1 X179.558 Y141.587 E0.03681
G1 X196.389 Y158.418 E1.10427
G1 X197.182 Y158.418 E0.03681
G1 X180.351 Y141.587 E1.10427
G1 X181.145 Y141.588 E0.03681
G1 X197.976 Y158.418 E1.10426
G1 X198.769 Y158.418 E0.03681
G1 X181.938 Y141.588 E1.10426
G1 X182.732 Y141.588 E0.03681
G1 X199.563 Y158.418 E1.10426
G1 X200.356 Y158.418 E0.03681
G1 X183.525 Y141.588 E1.10425
G1 X184.319 Y141.588 E0.03681
G1 X201.15 Y158.418 E1.10425
G1 X201.943 Y158.418 E0.03681
G1 X185.113 Y141.588 E1.10425
G1 X185.906 Y141.588 E0.03681
G1 X202.737 Y158.418 E1.10424
G1 X203.53 Y158.418 E0.03681
G1 X186.7 Y141.588 E1.10424
G1 X187.493 Y141.588 E0.03681
G1 X204.324 Y158.418 E1.10424
G1 X205.117 Y158.418 E0.03681
G1 X188.287 Y141.588 E1.10423
G1 X189.08 Y141.588 E0.03681
G1 X205.911 Y158.418 E1.10423
G1 X206.704 Y158.418 E0.03681
G1 X189.874 Y141.588 E1.10423
G1 X190.667 Y141.588 E0.03681
G1 X207.19 Y158.111 E1.08403
G1 X207.19 Y157.317 E0.03681
G1 X191.461 Y141.588 E1.03197
G1 X192.254 Y141.588 E0.03681
G1 X207.19 Y156.524 E0.9799
G1 X207.19 Y155.73 E0.03681
G1 X193.048 Y141.588 E0.92784
G1 X193.841 Y141.588 E0.03681
G1 X207.19 Y154.937 E0.87578
G1 X207.19 Y154.143 E0.03681
G1 X194.635 Y141.588 E0.82371
G1 X195.429 Y141.588 E0.03681
G1 X207.19 Y153.35 E0.77165
G1 X207.19 Y152.556 E0.03681
G1 X196.222 Y141.589 E0.71959
G1 X197.016 Y141.589 E0.03681
