; generated by SuperSlicer 2.4 on 2023-01-18 at 16:57:42 UTC


;
;

;
;
; 

; external perimeters extrusion width = 0.63mm
; perimeters extrusion width = 0.68mm
; infill extrusion width = 0.68mm
; solid infill extrusion width = 0.68mm
; top infill extrusion width = 0.63mm
; first layer extrusion width = 0.93mm

; object:{"name":"light_bar_400","id":"light_bar_400.stl id:0 copy 0","object_center":[152.209948,149.189590,0.000000],"boundingbox_center":[152.209948,149.189590,7.013926],"boundingbox_size":[220.142717,250.000000,14.027852]}
; plater:{"center":[152.209948,149.189590,0.000000],"boundingbox_center":[152.209948,149.189590,7.013926],"boundingbox_size":[220.142717,250.000000,14.027852]}

;TYPE:Custom
M104 S0 ; Stops SuperSlicer from sending temp waits separately

M140 S0

print_start EXTRUDER=242 BED=100 CHAMBER=0
M107
G21 ; set units to millimeters
G90 ; use absolute coordinates
M83 ; use relative distances for extrusion
; Filament gcode
;_TOOLCHANGE 0
M107
;LAYER_CHANGE
;Z:0.2
;HEIGHT:0.2
TIMELAPSE_TAKE_FRAME
;BEFORE_LAYER_CHANGE
;0.2


G1 E-0.8 F3000
G1 Z0.2 F8400
G1 Z0.2
;AFTER_LAYER_CHANGE
;0.2
G92 E0
G1 Z0.4
G1 X152.527 Y132.745
G1 Z0.2
G1 E0.8 F1800
;TYPE:Skirt
;WIDTH:0.78
G1 X38.547 Y263.711 E10.64082
G1 X38.167 Y264.338 E0.04494
G1 X38.083 Y265.629 E0.0793
G1 X38.757 Y266.734 E0.0793
G1 X51.451 Y277.781 E1.03135
G1 X52.078 Y278.161 E0.04494
G1 X53.369 Y278.245 E0.0793
G1 X54.473 Y277.571 E0.0793
G1 X265.873 Y34.669 E19.73558
G1 X266.252 Y34.041 E0.04494
G1 X266.337 Y32.75 E0.0793
G1 X265.663 Y31.646 E0.0793
G1 X252.969 Y20.598 E1.03135
G1 X252.342 Y20.218 E0.04494
G1 X251.051 Y20.134 E0.0793
G1 X249.946 Y20.808 E0.0793
G1 X152.586 Y132.677 E9.08925
G1 X153.142 Y133.161 F8400
G1 F1800
G1 X39.103 Y264.195 E10.64633
G1 X38.764 Y265.252 E0.06803
G1 X39.241 Y266.178 E0.06383
G1 X51.934 Y277.225 E1.03135
G1 X52.991 Y277.564 E0.06803
G1 X53.917 Y277.088 E0.06383
G1 X265.317 Y34.185 E19.73558
G1 X265.656 Y33.128 E0.06803
G1 X265.179 Y32.202 E0.06383
G1 X252.485 Y21.154 E1.03135
G1 X251.428 Y20.815 E0.06803
G1 X250.502 Y21.292 E0.06383
G1 X153.201 Y133.093 E9.08373
G1 X153.757 Y133.577 F8400
G1 F1800
G1 X39.659 Y264.678 E10.65185
G1 X39.725 Y265.622 E0.05795
G1 X52.418 Y276.669 E1.03135
G1 X53.361 Y276.604 E0.05795
G1 X264.761 Y33.701 E19.73558
G1 X264.695 Y32.758 E0.05795
G1 X252.002 Y21.71 E1.03135
G1 X251.058 Y21.776 E0.05795
G1 X153.816 Y133.509 E9.07822
G1 X155.118 Y134.641 F8400
;WIDTH:0.93
G1 F1800
G1 X251.495 Y23.901 E10.8286
G1 X251.862 Y23.875 E0.0271
G1 X255.209 Y26.788 E0.32729
G1 X262.57 Y33.195 E0.71977
G1 X262.595 Y33.561 E0.0271
G1 X52.924 Y274.478 E23.55771
G1 X52.558 Y274.504 E0.0271
G1 X41.85 Y265.185 E1.04706
G1 X41.824 Y264.818 E0.0271
G1 X155.058 Y134.709 E12.72247
M104 S242 ; set temperature
G1 E-0.8 F3000
G1 Z0.4 F8400
; printing object light_bar_400.stl id:0 copy 0
G1 X258.988 Y34.539
G1 Z0.2
G1 E0.8 F1800
;TYPE:Solid infill
;WIDTH:0.912549
G1 F2400
G1 X251.776 Y27.327 E0.73817
G1 X251.192 Y27.998 E0.06436
G1 X258.134 Y34.939 E0.7105
G1 X257.55 Y35.61 E0.06436
G1 X250.608 Y28.669 E0.7105
G1 X250.025 Y29.34 E0.06436
G1 X256.966 Y36.281 E0.7105
G1 X256.382 Y36.952 E0.06436
G1 X249.441 Y30.01 E0.7105
G1 X248.857 Y30.681 E0.06436
G1 X255.799 Y37.622 E0.7105
G1 X255.215 Y38.293 E0.06436
G1 X248.273 Y31.352 E0.7105
G1 X247.69 Y32.023 E0.06436
G1 X254.631 Y38.964 E0.7105
G1 X254.047 Y39.635 E0.06436
G1 X247.106 Y32.693 E0.7105
G1 X246.522 Y33.364 E0.06436
G1 X253.463 Y40.305 E0.7105
G1 X252.88 Y40.976 E0.06436
G1 X245.938 Y34.035 E0.7105
G1 X245.355 Y34.706 E0.06436
G1 X252.296 Y41.647 E0.7105
G1 X251.712 Y42.318 E0.06436
G1 X244.771 Y35.376 E0.7105
G1 X244.187 Y36.047 E0.06436
G1 X251.128 Y42.989 E0.7105
G1 X250.545 Y43.659 E0.06436
G1 X243.603 Y36.718 E0.7105
G1 X243.019 Y37.389 E0.06436
G1 X249.961 Y44.33 E0.7105
G1 X249.377 Y45.001 E0.06436
G1 X242.436 Y38.059 E0.7105
G1 X241.852 Y38.73 E0.06436
G1 X248.793 Y45.672 E0.7105
G1 X248.21 Y46.342 E0.06436
G1 X241.268 Y39.401 E0.7105
G1 X240.684 Y40.072 E0.06436
G1 X247.626 Y47.013 E0.7105
G1 X247.042 Y47.684 E0.06436
G1 X240.101 Y40.742 E0.7105
G1 X239.517 Y41.413 E0.06436
G1 X246.458 Y48.355 E0.7105
G1 X245.875 Y49.025 E0.06436
G1 X238.933 Y42.084 E0.7105
G1 X238.349 Y42.755 E0.06436
G1 X245.291 Y49.696 E0.7105
G1 X244.707 Y50.367 E0.06436
G1 X237.766 Y43.425 E0.7105
G1 X237.182 Y44.096 E0.06436
G1 X244.123 Y51.038 E0.7105
G1 X243.539 Y51.708 E0.06436
G1 X236.598 Y44.767 E0.7105
G1 X236.014 Y45.438 E0.06436
G1 X242.956 Y52.379 E0.7105
G1 X242.372 Y53.05 E0.06436
G1 X235.431 Y46.108 E0.7105
G1 X234.847 Y46.779 E0.06436
G1 X241.788 Y53.721 E0.7105
G1 X241.204 Y54.391 E0.06436
G1 X234.263 Y47.45 E0.7105
G1 X233.679 Y48.121 E0.06436
G1 X240.621 Y55.062 E0.7105
G1 X240.037 Y55.733 E0.06436
G1 X233.096 Y48.791 E0.7105
G1 X232.512 Y49.462 E0.06436
G1 X239.453 Y56.404 E0.7105
G1 X238.869 Y57.074 E0.06436
G1 X231.928 Y50.133 E0.7105
G1 X231.344 Y50.804 E0.06436
G1 X238.286 Y57.745 E0.7105
G1 X237.702 Y58.416 E0.06436
G1 X230.76 Y51.475 E0.7105
G1 X230.177 Y52.145 E0.06436
G1 X237.118 Y59.087 E0.7105
G1 X236.534 Y59.757 E0.06436
G1 X229.593 Y52.816 E0.7105
G1 X229.009 Y53.487 E0.06436
G1 X235.951 Y60.428 E0.7105
G1 X235.367 Y61.099 E0.06436
G1 X228.425 Y54.158 E0.7105
G1 X227.842 Y54.828 E0.06436
G1 X234.783 Y61.77 E0.7105
G1 X234.199 Y62.44 E0.06436
G1 X227.258 Y55.499 E0.7105
G1 X226.674 Y56.17 E0.06436
G1 X233.616 Y63.111 E0.7105
G1 X233.032 Y63.782 E0.06436
G1 X226.09 Y56.841 E0.7105
G1 X225.507 Y57.511 E0.06436
G1 X232.448 Y64.453 E0.7105
G1 X231.864 Y65.123 E0.06436
G1 X224.923 Y58.182 E0.7105
G1 X224.339 Y58.853 E0.06436
G1 X231.28 Y65.794 E0.7105
G1 X230.697 Y66.465 E0.06436
G1 X223.755 Y59.524 E0.7105
G1 X223.172 Y60.194 E0.06436
G1 X230.113 Y67.136 E0.7105
G1 X229.529 Y67.807 E0.06436
G1 X222.588 Y60.865 E0.7105
G1 X222.004 Y61.536 E0.06436
G1 X228.945 Y68.477 E0.7105
G1 X228.362 Y69.148 E0.06436
G1 X221.42 Y62.207 E0.7105
G1 X220.836 Y62.877 E0.06436
G1 X227.778 Y69.819 E0.7105
G1 X227.194 Y70.49 E0.06436
G1 X220.253 Y63.548 E0.7105
G1 X219.669 Y64.219 E0.06436
G1 X226.61 Y71.16 E0.7105
G1 X226.027 Y71.831 E0.06436
G1 X219.085 Y64.89 E0.7105
G1 X218.501 Y65.56 E0.06436
G1 X225.443 Y72.502 E0.7105
G1 X224.859 Y73.173 E0.06436
G1 X217.918 Y66.231 E0.7105
G1 X217.334 Y66.902 E0.06436
G1 X224.275 Y73.843 E0.7105
G1 X223.692 Y74.514 E0.06436
G1 X216.75 Y67.573 E0.7105
G1 X216.166 Y68.243 E0.06436
G1 X223.108 Y75.185 E0.7105
G1 X222.524 Y75.856 E0.06436
G1 X215.583 Y68.914 E0.7105
G1 X214.999 Y69.585 E0.06436
G1 X221.94 Y76.526 E0.7105
G1 X221.357 Y77.197 E0.06436
G1 X214.415 Y70.256 E0.7105
G1 X213.831 Y70.926 E0.06436
G1 X220.773 Y77.868 E0.7105
G1 X220.189 Y78.539 E0.06436
G1 X213.248 Y71.597 E0.7105
G1 X212.664 Y72.268 E0.06436
G1 X219.605 Y79.209 E0.7105
G1 X219.021 Y79.88 E0.06436
G1 X212.08 Y72.939 E0.7105
G1 X211.496 Y73.609 E0.06436
G1 X218.438 Y80.551 E0.7105
G1 X217.854 Y81.222 E0.06436
G1 X210.913 Y74.28 E0.7105
G1 X210.329 Y74.951 E0.06436
G1 X217.27 Y81.892 E0.7105
G1 X216.686 Y82.563 E0.06436
G1 X209.745 Y75.622 E0.7105
G1 X209.161 Y76.293 E0.06436
G1 X216.103 Y83.234 E0.7105
G1 X215.519 Y83.905 E0.06436
G1 X208.577 Y76.963 E0.7105
G1 X207.994 Y77.634 E0.06436
G1 X214.935 Y84.575 E0.7105
G1 X214.351 Y85.246 E0.06436
G1 X207.41 Y78.305 E0.7105
G1 X206.826 Y78.976 E0.06436
G1 X213.768 Y85.917 E0.7105
G1 X213.184 Y86.588 E0.06436
G1 X206.242 Y79.646 E0.7105
G1 X205.659 Y80.317 E0.06436
G1 X212.6 Y87.258 E0.7105
G1 X212.016 Y87.929 E0.06436
G1 X205.075 Y80.988 E0.7105
G1 X204.491 Y81.659 E0.06436
G1 X211.433 Y88.6 E0.7105
G1 X210.849 Y89.271 E0.06436
G1 X203.907 Y82.329 E0.7105
G1 X203.324 Y83 E0.06436
G1 X210.265 Y89.942 E0.7105
G1 X209.681 Y90.612 E0.06436
G1 X202.74 Y83.671 E0.7105
G1 X202.156 Y84.342 E0.06436
G1 X209.098 Y91.283 E0.7105
G1 X208.514 Y91.954 E0.06436
G1 X201.572 Y85.012 E0.7105
G1 X200.989 Y85.683 E0.06436
G1 X207.93 Y92.625 E0.7105
G1 X207.346 Y93.295 E0.06436
G1 X200.405 Y86.354 E0.7105
G1 X199.821 Y87.025 E0.06436
G1 X206.762 Y93.966 E0.7105
G1 X206.179 Y94.637 E0.06436
G1 X199.237 Y87.695 E0.7105
G1 X198.654 Y88.366 E0.06436
G1 X205.595 Y95.308 E0.7105
G1 X205.011 Y95.978 E0.06436
G1 X198.07 Y89.037 E0.7105
G1 X197.486 Y89.708 E0.06436
G1 X204.427 Y96.649 E0.7105
G1 X203.844 Y97.32 E0.06436
G1 X196.902 Y90.378 E0.7105
G1 X196.318 Y91.049 E0.06436
G1 X203.26 Y97.991 E0.7105
G1 X202.676 Y98.661 E0.06436
G1 X195.735 Y91.72 E0.7105
G1 X195.151 Y92.391 E0.06436
G1 X202.092 Y99.332 E0.7105
G1 X201.509 Y100.003 E0.06436
G1 X194.567 Y93.061 E0.7105
G1 X193.983 Y93.732 E0.06436
G1 X200.925 Y100.674 E0.7105
G1 X200.341 Y101.344 E0.06436
G1 X193.4 Y94.403 E0.7105
G1 X192.816 Y95.074 E0.06436
G1 X199.757 Y102.015 E0.7105
G1 X199.174 Y102.686 E0.06436
G1 X192.232 Y95.744 E0.7105
G1 X191.648 Y96.415 E0.06436
G1 X198.59 Y103.357 E0.7105
G1 X198.006 Y104.027 E0.06436
G1 X191.065 Y97.086 E0.7105
G1 X190.481 Y97.757 E0.06436
G1 X197.422 Y104.698 E0.7105
G1 X196.839 Y105.369 E0.06436
G1 X189.897 Y98.427 E0.7105
G1 X189.313 Y99.098 E0.06436
G1 X196.255 Y106.04 E0.7105
G1 X195.671 Y106.71 E0.06436
G1 X188.73 Y99.769 E0.7105
G1 X188.146 Y100.44 E0.06436
G1 X195.087 Y107.381 E0.7105
G1 X194.503 Y108.052 E0.06436
G1 X187.562 Y101.111 E0.7105
G1 X186.978 Y101.781 E0.06436
G1 X193.92 Y108.723 E0.7105
G1 X193.336 Y109.393 E0.06436
G1 X186.395 Y102.452 E0.7105
G1 X185.811 Y103.123 E0.06436
G1 X192.752 Y110.064 E0.7105
G1 X192.168 Y110.735 E0.06436
G1 X185.227 Y103.794 E0.7105
G1 X184.643 Y104.464 E0.06436
G1 X191.585 Y111.406 E0.7105
G1 X191.001 Y112.076 E0.06436
G1 X184.059 Y105.135 E0.7105
G1 X183.476 Y105.806 E0.06436
G1 X190.417 Y112.747 E0.7105
G1 X189.833 Y113.418 E0.06436
G1 X182.892 Y106.477 E0.7105
G1 X182.308 Y107.147 E0.06436
G1 X189.25 Y114.089 E0.7105
G1 X188.666 Y114.76 E0.06436
G1 X181.724 Y107.818 E0.7105
G1 X181.141 Y108.489 E0.06436
G1 X188.082 Y115.43 E0.7105
G1 X187.498 Y116.101 E0.06436
G1 X180.557 Y109.16 E0.7105
G1 X179.973 Y109.83 E0.06436
G1 X186.915 Y116.772 E0.7105
G1 X186.331 Y117.443 E0.06436
G1 X179.389 Y110.501 E0.7105
G1 X178.806 Y111.172 E0.06436
G1 X185.747 Y118.113 E0.7105
G1 X185.163 Y118.784 E0.06436
G1 X178.222 Y111.843 E0.7105
G1 X177.638 Y112.513 E0.06436
G1 X184.58 Y119.455 E0.7105
G1 X183.996 Y120.126 E0.06436
G1 X177.054 Y113.184 E0.7105
G1 X176.471 Y113.855 E0.06436
G1 X183.412 Y120.796 E0.7105
G1 X182.828 Y121.467 E0.06436
G1 X175.887 Y114.526 E0.7105
G1 X175.303 Y115.196 E0.06436
G1 X182.244 Y122.138 E0.7105
G1 X181.661 Y122.809 E0.06436
G1 X174.719 Y115.867 E0.7105
G1 X174.136 Y116.538 E0.06436
G1 X181.077 Y123.479 E0.7105
G1 X180.493 Y124.15 E0.06436
G1 X173.552 Y117.209 E0.7105
G1 X172.968 Y117.879 E0.06436
G1 X179.909 Y124.821 E0.7105
G1 X179.326 Y125.492 E0.06436
G1 X172.384 Y118.55 E0.7105
G1 X171.8 Y119.221 E0.06436
G1 X178.742 Y126.162 E0.7105
G1 X178.158 Y126.833 E0.06436
G1 X171.217 Y119.892 E0.7105
G1 X170.633 Y120.562 E0.06436
G1 X177.574 Y127.504 E0.7105
G1 X176.991 Y128.175 E0.06436
G1 X170.049 Y121.233 E0.7105
G1 X169.465 Y121.904 E0.06436
G1 X176.407 Y128.845 E0.7105
G1 X175.823 Y129.516 E0.06436
G1 X168.882 Y122.575 E0.7105
G1 X168.298 Y123.246 E0.06436
G1 X175.239 Y130.187 E0.7105
G1 X174.656 Y130.858 E0.06436
G1 X167.714 Y123.916 E0.7105
G1 X167.13 Y124.587 E0.06436
G1 X174.072 Y131.528 E0.7105
G1 X173.488 Y132.199 E0.06436
G1 X166.547 Y125.258 E0.7105
G1 X165.963 Y125.929 E0.06436
G1 X172.904 Y132.87 E0.7105
G1 X172.321 Y133.541 E0.06436
G1 X165.379 Y126.599 E0.7105
G1 X164.795 Y127.27 E0.06436
G1 X171.737 Y134.211 E0.7105
G1 X171.153 Y134.882 E0.06436
G1 X164.212 Y127.941 E0.7105
G1 X163.628 Y128.612 E0.06436
G1 X170.569 Y135.553 E0.7105
G1 X169.985 Y136.224 E0.06436
G1 X163.044 Y129.282 E0.7105
G1 X162.46 Y129.953 E0.06436
G1 X169.402 Y136.894 E0.7105
G1 X168.818 Y137.565 E0.06436
G1 X161.877 Y130.624 E0.7105
G1 X161.293 Y131.295 E0.06436
G1 X168.234 Y138.236 E0.7105
G1 X167.65 Y138.907 E0.06436
G1 X160.709 Y131.965 E0.7105
G1 X160.125 Y132.636 E0.06436
G1 X167.067 Y139.578 E0.7105
G1 X166.483 Y140.248 E0.06436
G1 X159.541 Y133.307 E0.7105
G1 X158.958 Y133.978 E0.06436
G1 X165.899 Y140.919 E0.7105
G1 X165.315 Y141.59 E0.06436
G1 X158.374 Y134.648 E0.7105
G1 X157.79 Y135.319 E0.06436
G1 X164.732 Y142.261 E0.7105
G1 X164.148 Y142.931 E0.06436
G1 X157.206 Y135.99 E0.7105
G1 X156.623 Y136.661 E0.06436
G1 X163.564 Y143.602 E0.7105
G1 X162.98 Y144.273 E0.06436
G1 X156.039 Y137.331 E0.7105
G1 X155.455 Y138.002 E0.06436
G1 X162.397 Y144.944 E0.7105
G1 X161.813 Y145.614 E0.06436
G1 X154.871 Y138.673 E0.7105
G1 X154.288 Y139.344 E0.06436
G1 X161.229 Y146.285 E0.7105
G1 X160.645 Y146.956 E0.06436
G1 X153.704 Y140.014 E0.7105
G1 X153.12 Y140.685 E0.06436
G1 X160.061 Y147.627 E0.7105
G1 X159.478 Y148.297 E0.06436
G1 X152.536 Y141.356 E0.7105
G1 X151.953 Y142.027 E0.06436
G1 X158.894 Y148.968 E0.7105
G1 X158.31 Y149.639 E0.06436
G1 X151.369 Y142.697 E0.7105
G1 X150.785 Y143.368 E0.06436
G1 X157.726 Y150.31 E0.7105
G1 X157.143 Y150.98 E0.06436
G1 X150.201 Y144.039 E0.7105
G1 X149.618 Y144.71 E0.06436
G1 X156.559 Y151.651 E0.7105
G1 X155.975 Y152.322 E0.06436
G1 X149.034 Y145.38 E0.7105
G1 X148.45 Y146.051 E0.06436
G1 X155.391 Y152.993 E0.7105
G1 X154.808 Y153.663 E0.06436
G1 X147.866 Y146.722 E0.7105
G1 X147.282 Y147.393 E0.06436
G1 X154.224 Y154.334 E0.7105
G1 X153.64 Y155.005 E0.06436
G1 X146.699 Y148.064 E0.7105
G1 X146.115 Y148.734 E0.06436
G1 X153.056 Y155.676 E0.7105
G1 X152.473 Y156.346 E0.06436
G1 X145.531 Y149.405 E0.7105
G1 X144.947 Y150.076 E0.06436
G1 X151.889 Y157.017 E0.7105
G1 X151.305 Y157.688 E0.06436
G1 X144.364 Y150.747 E0.7105
G1 X143.78 Y151.417 E0.06436
G1 X150.721 Y158.359 E0.7105
G1 X150.138 Y159.029 E0.06436
G1 X143.196 Y152.088 E0.7105
G1 X142.612 Y152.759 E0.06436
G1 X149.554 Y159.7 E0.7105
G1 X148.97 Y160.371 E0.06436
G1 X142.029 Y153.43 E0.7105
G1 X141.445 Y154.1 E0.06436
G1 X148.386 Y161.042 E0.7105
G1 X147.802 Y161.712 E0.06436
G1 X140.861 Y154.771 E0.7105
G1 X140.277 Y155.442 E0.06436
G1 X147.219 Y162.383 E0.7105
G1 X146.635 Y163.054 E0.06436
G1 X139.694 Y156.113 E0.7105
G1 X139.11 Y156.783 E0.06436
G1 X146.051 Y163.725 E0.7105
G1 X145.467 Y164.396 E0.06436
G1 X138.526 Y157.454 E0.7105
G1 X137.942 Y158.125 E0.06436
G1 X144.884 Y165.066 E0.7105
G1 X144.3 Y165.737 E0.06436
G1 X137.359 Y158.796 E0.7105
G1 X136.775 Y159.466 E0.06436
G1 X143.716 Y166.408 E0.7105
G1 X143.132 Y167.079 E0.06436
G1 X136.191 Y160.137 E0.7105
G1 X135.607 Y160.808 E0.06436
G1 X142.549 Y167.749 E0.7105
G1 X141.965 Y168.42 E0.06436
G1 X135.023 Y161.479 E0.7105
G1 X134.44 Y162.149 E0.06436
G1 X141.381 Y169.091 E0.7105
G1 X140.797 Y169.762 E0.06436
G1 X133.856 Y162.82 E0.7105
G1 X133.272 Y163.491 E0.06436
G1 X140.214 Y170.432 E0.7105
G1 X139.63 Y171.103 E0.06436
G1 X132.688 Y164.162 E0.7105
G1 X132.105 Y164.832 E0.06436
G1 X139.046 Y171.774 E0.7105
G1 X138.462 Y172.445 E0.06436
G1 X131.521 Y165.503 E0.7105
G1 X130.937 Y166.174 E0.06436
G1 X137.879 Y173.115 E0.7105
G1 X137.295 Y173.786 E0.06436
G1 X130.353 Y166.845 E0.7105
G1 X129.77 Y167.515 E0.06436
G1 X136.711 Y174.457 E0.7105
G1 X136.127 Y175.128 E0.06436
G1 X129.186 Y168.186 E0.7105
G1 X128.602 Y168.857 E0.06436
G1 X135.543 Y175.798 E0.7105
G1 X134.96 Y176.469 E0.06436
G1 X128.018 Y169.528 E0.7105
G1 X127.435 Y170.198 E0.06436
G1 X134.376 Y177.14 E0.7105
G1 X133.792 Y177.811 E0.06436
G1 X126.851 Y170.869 E0.7105
G1 X126.267 Y171.54 E0.06436
G1 X133.208 Y178.481 E0.7105
G1 X132.625 Y179.152 E0.06436
G1 X125.683 Y172.211 E0.7105
G1 X125.099 Y172.882 E0.06436
G1 X132.041 Y179.823 E0.7105
G1 X131.457 Y180.494 E0.06436
G1 X124.516 Y173.552 E0.7105
G1 X123.932 Y174.223 E0.06436
G1 X130.873 Y181.164 E0.7105
G1 X130.29 Y181.835 E0.06436
G1 X123.348 Y174.894 E0.7105
G1 X122.764 Y175.565 E0.06436
G1 X129.706 Y182.506 E0.7105
G1 X129.122 Y183.177 E0.06436
G1 X122.181 Y176.235 E0.7105
G1 X121.597 Y176.906 E0.06436
G1 X128.538 Y183.847 E0.7105
G1 X127.955 Y184.518 E0.06436
G1 X121.013 Y177.577 E0.7105
G1 X120.429 Y178.248 E0.06436
G1 X127.371 Y185.189 E0.7105
G1 X126.787 Y185.86 E0.06436
G1 X119.846 Y178.918 E0.7105
