; generated by SuperSlicer 2.4 on 2023-03-07 at 11:59:54 UTC


;
;

;
;
; 

; external perimeters extrusion width = 0.43mm
; perimeters extrusion width = 0.45mm
; infill extrusion width = 0.45mm
; solid infill extrusion width = 0.45mm
; top infill extrusion width = 0.45mm
; first layer extrusion width = 0.56mm

; object:{"name":"Voron_Design_Cube_v7","id":"Voron_Design_Cube_v7 id:0 copy 0","object_center":[150.000000,148.500000,0.000000],"boundingbox_center":[150.000000,148.500000,10.000000],"boundingbox_size":[20.000000,20.000000,20.000000]}
; plater:{"center":[150.000000,148.500000,0.000000],"boundingbox_center":[150.000000,148.500000,10.000000],"boundingbox_size":[20.000000,20.000000,20.000000]}

;TYPE:Custom
M104 S0 ; Stops SuperSlicer from sending temp waits separately


; Pre-Processed for Cancel-Object support by preprocess_cancellation v0.2.0
; 1 known objects
EXCLUDE_OBJECT_DEFINE NAME=Voron_Design_Cube_v7_id_0_copy_0 CENTER=150.067,148.539 POLYGON=[[140.216,138.716],[140.216,158.5],[160.0,158.5],[160.0,138.716]]

M140 S0

print_start EXTRUDER=245 BED=105 CHAMBER=0
M107
G21 ; set units to millimeters
G90 ; use absolute coordinates
M83 ; use relative distances for extrusion
; Filament gcode
; Macro syntax: https://help.prusa3d.com/article/macros_1775

; Set pressure advance per-filament
;SET_PRESSURE_ADVANCE ADVANCE=0.0x

; Set pressure advance per-filament for different nozzle sizes
;SET_PRESSURE_ADVANCE ADVANCE=0.0x
;

;_TOOLCHANGE 0
M107
;LAYER_CHANGE
;Z:0.2375
;HEIGHT:0.2375
TIMELAPSE_TAKE_FRAME
;BEFORE_LAYER_CHANGE
;0.2375


G1 E-2 F2400
G1 Z0.2 F8400
G1 Z0.2375
;AFTER_LAYER_CHANGE
;0.2375
G92 E0
G1 Z0.4375
G1 X137.273 Y137.273
G1 Z0.2375
G1 E2 F2400
;TYPE:Skirt
;WIDTH:0.52
G1 F538.6233
G1 X135.541 Y139.006 E0.10485
G1 X134.869 Y139.932 E0.04894
G1 X134.475 Y141.58 E0.07252
G1 X134.475 Y155.42 E0.59228
G1 X134.654 Y156.55 E0.04894
G1 X135.541 Y157.994 E0.07252
G1 X140.506 Y162.959 E0.30048
G1 X141.432 Y163.631 E0.04894
G1 X143.08 Y164.025 E0.07252
G1 X156.92 Y164.025 E0.59228
G1 X158.05 Y163.846 E0.04894
G1 X159.494 Y162.959 E0.07252
G1 X164.459 Y157.994 E0.30048
G1 X165.131 Y157.068 E0.04894
G1 X165.525 Y155.42 E0.07252
G1 X165.525 Y141.58 E0.59228
G1 X165.346 Y140.45 E0.04894
G1 X164.459 Y139.006 E0.07252
G1 X159.494 Y134.041 E0.30048
G1 X158.568 Y133.369 E0.04894
G1 X156.92 Y132.975 E0.07252
G1 X143.08 Y132.975 E0.59228
G1 X141.95 Y133.154 E0.04894
G1 X140.506 Y134.041 E0.07252
G1 X137.316 Y137.231 E0.19306
G1 X137.647 Y137.562 F8400
G1 F538.6233
G1 X135.872 Y139.337 E0.10742
G1 X135.337 Y140.049 E0.03812
G1 X134.943 Y141.58 E0.06762
G1 X134.943 Y155.42 E0.59228
G1 X135.068 Y156.302 E0.03812
G1 X135.872 Y157.663 E0.06762
G1 X140.837 Y162.628 E0.30048
G1 X141.549 Y163.163 E0.03812
G1 X143.08 Y163.557 E0.06762
G1 X156.92 Y163.557 E0.59228
G1 X157.802 Y163.432 E0.03812
G1 X159.163 Y162.628 E0.06762
G1 X164.128 Y157.663 E0.30048
G1 X164.663 Y156.951 E0.03812
G1 X165.057 Y155.42 E0.06762
G1 X165.057 Y141.58 E0.59228
G1 X164.932 Y140.698 E0.03812
G1 X164.128 Y139.337 E0.06762
G1 X159.163 Y134.372 E0.30048
G1 X158.451 Y133.837 E0.03812
G1 X156.92 Y133.443 E0.06762
G1 X143.08 Y133.443 E0.59228
G1 X142.198 Y133.568 E0.03812
G1 X140.837 Y134.372 E0.06762
G1 X137.69 Y137.52 E0.19049
G1 X138.021 Y137.851 F8400
G1 F538.6233
G1 X136.203 Y139.669 E0.10999
G1 X135.412 Y141.58 E0.08852
G1 X135.412 Y155.42 E0.59228
G1 X136.203 Y157.331 E0.08852
G1 X141.169 Y162.297 E0.30048
G1 X143.08 Y163.088 E0.08852
G1 X156.92 Y163.088 E0.59228
G1 X158.831 Y162.297 E0.08852
G1 X163.797 Y157.331 E0.30048
G1 X164.588 Y155.42 E0.08852
G1 X164.588 Y141.58 E0.59228
G1 X163.797 Y139.669 E0.08852
G1 X158.831 Y134.703 E0.30048
G1 X156.92 Y133.912 E0.08852
G1 X143.08 Y133.912 E0.59228
G1 X141.169 Y134.703 E0.08852
G1 X138.063 Y137.809 E0.18793
G1 X138.395 Y138.14 F8400
G1 F538.6233
G1 X136.535 Y140 E0.11255
G1 X135.88 Y141.58 E0.07318
G1 X135.88 Y155.42 E0.59228
G1 X136.535 Y157 E0.07318
G1 X141.5 Y161.965 E0.30048
G1 X143.08 Y162.62 E0.07318
G1 X156.92 Y162.62 E0.59228
G1 X158.5 Y161.965 E0.07318
G1 X163.465 Y157 E0.30048
G1 X164.12 Y155.42 E0.07318
G1 X164.12 Y141.58 E0.59228
G1 X163.465 Y140 E0.07318
G1 X158.5 Y135.035 E0.30048
G1 X156.92 Y134.38 E0.07318
G1 X143.08 Y134.38 E0.59228
G1 X141.5 Y135.035 E0.07318
G1 X138.437 Y138.098 E0.18536
G1 E-2 F2400
G1 Z0.4375 F8400
G1 X140.532 Y140.193
G1 Z0.2375
G1 E2 F2400
;WIDTH:0.56
;HEIGHT:0.24
G1 F491.64639
G1 X143.098 Y137.627 E0.17012
G1 X143.306 Y137.488 E0.0117
G1 X143.585 Y137.378 E0.01411
G1 X143.782 Y137.343 E0.00937
G1 X156.267 Y137.348 E0.58531
G1 X156.462 Y137.392 E0.00937
G1 X156.694 Y137.488 E0.01178
G1 X156.902 Y137.627 E0.0117
G1 X160.873 Y141.598 E0.26329
G1 X161.012 Y141.806 E0.0117
G1 X161.122 Y142.085 E0.01411
G1 X161.157 Y142.282 E0.00937
G1 X161.157 Y154.718 E0.58298
G1 X161.108 Y154.962 E0.0117
G1 X160.988 Y155.239 E0.01411
G1 X160.873 Y155.402 E0.00937
G1 X156.902 Y159.373 E0.26329
G1 X156.694 Y159.512 E0.0117
G1 X156.415 Y159.622 E0.01411
G1 X156.218 Y159.657 E0.00937
G1 X143.782 Y159.657 E0.58298
G1 X143.538 Y159.608 E0.0117
G1 X143.261 Y159.488 E0.01411
G1 X143.098 Y159.373 E0.00937
G1 X139.127 Y155.402 E0.26329
G1 X138.988 Y155.194 E0.0117
G1 X138.878 Y154.915 E0.01411
G1 X138.843 Y154.718 E0.00937
G1 X138.843 Y142.282 E0.58298
G1 X138.892 Y142.038 E0.0117
G1 X139.012 Y141.761 E0.01411
G1 X139.127 Y141.598 E0.00937
G1 X140.49 Y140.235 E0.09036
G1 X140.849 Y140.595 F8400
G1 F491.64639
G1 X143.44 Y138.004 E0.17176
G1 X143.523 Y137.948 E0.0047
G1 X143.709 Y137.871 E0.00944
G1 X143.807 Y137.852 E0.0047
G1 X156.193 Y137.852 E0.58064
G1 X156.291 Y137.871 E0.0047
G1 X156.477 Y137.948 E0.00944
G1 X156.56 Y138.004 E0.0047
G1 X160.496 Y141.94 E0.26095
G1 X160.552 Y142.023 E0.0047
G1 X160.629 Y142.209 E0.00944
G1 X160.648 Y142.307 E0.0047
G1 X160.648 Y154.693 E0.58064
G1 X160.629 Y154.791 E0.0047
G1 X160.552 Y154.977 E0.00944
G1 X160.496 Y155.06 E0.0047
G1 X156.56 Y158.996 E0.26095
G1 X156.477 Y159.052 E0.0047
G1 X156.291 Y159.129 E0.00944
G1 X156.193 Y159.148 E0.0047
G1 X143.807 Y159.148 E0.58064
G1 X143.709 Y159.129 E0.0047
G1 X143.523 Y159.052 E0.00944
G1 X143.44 Y158.996 E0.0047
G1 X139.504 Y155.06 E0.26095
G1 X139.448 Y154.977 E0.0047
G1 X139.371 Y154.791 E0.00944
G1 X139.352 Y154.693 E0.0047
G1 X139.352 Y142.307 E0.58064
G1 X139.371 Y142.209 E0.0047
G1 X139.448 Y142.023 E0.00944
G1 X139.504 Y141.94 E0.0047
G1 X140.807 Y140.637 E0.08638
G1 X141.166 Y140.997 F8400
G1 F491.64639
G1 X143.764 Y138.399 E0.17223
G1 X143.858 Y138.36 E0.00474
G1 X156.142 Y138.36 E0.57594
G1 X156.236 Y138.399 E0.00474
G1 X156.593 Y138.756 E0.02365
G1 X160.101 Y142.264 E0.23261
G1 X160.14 Y142.358 E0.00474
G1 X160.14 Y154.642 E0.57594
G1 X160.101 Y154.736 E0.00474
G1 X156.236 Y158.601 E0.25626
G1 X156.142 Y158.64 E0.00474
G1 X143.858 Y158.64 E0.57594
G1 X143.764 Y158.601 E0.00474
G1 X139.899 Y154.736 E0.25626
G1 X139.86 Y154.642 E0.00474
G1 X139.86 Y142.358 E0.57594
G1 X139.899 Y142.264 E0.00474
G1 X141.124 Y141.039 E0.08121
M104 S245 ; set temperature
G1 E-2 F2400
G1 Z0.4375 F8400
; printing object Voron_Design_Cube_v7 id:0 copy 0
EXCLUDE_OBJECT_START NAME=Voron_Design_Cube_v7_id_0_copy_0
G1 X155.976 Y138.895
G1 Z0.2375
G1 E2 F2400
;TYPE:External perimeter
;HEIGHT:0.2375
G1 F496.29796
G1 X156.215 Y139.133 E0.01569
G1 X159.605 Y142.524 E0.22269
G1 X159.605 Y154.476 E0.55507
G1 X155.976 Y158.105 E0.23838
G1 X144.024 Y158.105 E0.55507
G1 X140.395 Y154.476 E0.23838
G1 X140.395 Y142.524 E0.55507
G1 X144.024 Y138.895 E0.23838
G1 X155.916 Y138.895 E0.55229
;WIPE_START
G1 X155.976 Y139.295 F8400
;WIPE_END
G1 X155.855 Y139.493
;TYPE:Internal perimeter
G1 F496.29796
G1 X159.096 Y142.735 E0.2129
G1 X159.096 Y154.265 E0.53549
G1 X155.765 Y157.596 E0.2188
G1 X144.235 Y157.596 E0.53549
G1 X140.904 Y154.265 E0.2188
G1 X140.904 Y142.735 E0.53549
G1 X144.235 Y139.404 E0.2188
G1 X155.765 Y139.404 E0.53549
G1 X155.812 Y139.451 E0.00311
G1 E-2 F2400
G1 Z0.4375 F8400
G1 X158.587 Y142.946
G1 Z0.2375
G1 E2 F2400
G1 F496.29796
G1 X158.587 Y154.054 E0.5159
G1 X155.554 Y157.087 E0.19921
G1 X144.446 Y157.087 E0.5159
G1 X141.413 Y154.054 E0.19921
G1 X141.413 Y142.946 E0.5159
G1 X144.446 Y139.913 E0.19921
G1 X155.554 Y139.913 E0.5159
G1 X158.545 Y142.903 E0.19643
G1 X158.078 Y143.157 F8400
G1 F496.29796
G1 X158.078 Y153.843 E0.49632
G1 X155.343 Y156.578 E0.17963
G1 X144.657 Y156.578 E0.49632
G1 X141.922 Y153.843 E0.17963
G1 X141.922 Y143.157 E0.49632
G1 X144.657 Y140.422 E0.17963
G1 X155.343 Y140.422 E0.49632
G1 X158.036 Y143.114 E0.17684
G1 E-2 F2400
G1 Z0.4375 F8400
G1 X142.775 Y150.609
G1 Z0.2375
G1 E2 F2400
G1 F496.29796
G1 X142.957 Y151.176 E0.02769
G1 X143.272 Y151.891 E0.03629
G1 X143.647 Y152.547 E0.03509
G1 X143.921 Y152.947 E0.02252
G1 X144.369 Y153.505 E0.03321
G1 X144.916 Y154.06 E0.03618
G1 X145.519 Y154.557 E0.03629
G1 X146.171 Y154.988 E0.03628
G1 X146.84 Y155.338 E0.03507
G1 X147.287 Y155.526 E0.02254
G1 X147.887 Y155.728 E0.0294
G1 X147.831 Y156.069 E0.01608
G1 X144.867 Y156.069 E0.13765
G1 X142.431 Y153.633 E0.16004
G1 X142.431 Y150.663 E0.13792
G1 X142.716 Y150.618 E0.01339
G1 E-2 F2400
G1 Z0.4375 F8400
G1 X157.569 Y150.665
G1 Z0.2375
G1 E2 F2400
G1 F496.29796
G1 X157.569 Y153.633 E0.13782
G1 X155.133 Y156.069 E0.16004
G1 X152.163 Y156.069 E0.13794
G1 X152.111 Y155.722 E0.01629
G1 X152.549 Y155.588 E0.02129
G1 X153 Y155.409 E0.02256
G1 X153.643 Y155.094 E0.03325
G1 X154.304 Y154.683 E0.03615
G1 X154.922 Y154.204 E0.03629
G1 X155.486 Y153.664 E0.03629
G1 X155.991 Y153.068 E0.03629
G1 X156.432 Y152.422 E0.03629
G1 X156.804 Y151.735 E0.03628
G1 X157.102 Y151.013 E0.03629
G1 X157.221 Y150.614 E0.01932
G1 X157.51 Y150.656 E0.01358
G1 E-2 F2400
G1 Z0.4375 F8400
G1 X157.569 Y146.335
G1 Z0.2375
G1 E2 F2400
G1 F496.29796
G1 X157.221 Y146.386 E0.01637
G1 X157.103 Y145.99 E0.01917
G1 X156.831 Y145.327 E0.03328
G1 X156.613 Y144.893 E0.02257
G1 X156.22 Y144.249 E0.03502
G1 X155.746 Y143.628 E0.03628
G1 X155.211 Y143.059 E0.03628
G1 X154.619 Y142.548 E0.03629
G1 X153.978 Y142.102 E0.03629
G1 X153.297 Y141.726 E0.03615
G1 X152.638 Y141.445 E0.03325
G1 X152.126 Y141.272 E0.02507
G1 X152.183 Y140.931 E0.01605
G1 X155.133 Y140.931 E0.137
G1 X157.569 Y143.367 E0.16004
G1 X157.569 Y146.275 E0.13503
G1 E-2 F2400
G1 Z0.4375 F8400
G1 X147.873 Y141.282
G1 Z0.2375
G1 E2 F2400
G1 F496.29796
G1 X147.589 Y141.362 E0.0137
G1 X146.863 Y141.65 E0.03629
G1 X146.171 Y142.012 E0.03629
G1 X145.519 Y142.443 E0.03629
G1 X144.918 Y142.939 E0.03619
G1 X144.415 Y143.447 E0.03321
G1 X144.101 Y143.816 E0.02252
G1 X143.66 Y144.43 E0.03509
G1 X143.272 Y145.109 E0.03629
G1 X142.957 Y145.824 E0.03629
G1 X142.775 Y146.391 E0.02769
G1 X142.431 Y146.337 E0.01618
G1 X142.431 Y143.367 E0.13792
G1 X144.867 Y140.931 E0.16004
G1 X147.825 Y140.931 E0.13735
G1 X147.865 Y141.223 E0.0137
G1 E-2 F2400
G1 Z0.4375 F8400
G1 X149.921 Y143.006
G1 Z0.2375
G1 E2 F2400
;TYPE:External perimeter
G1 F496.29796
G1 X149.636 Y143.024 E0.01323
G1 X149.352 Y143.043 E0.01323
G1 X148.79 Y143.14 E0.02647
G1 X148.242 Y143.294 E0.02647
G1 X147.712 Y143.504 E0.02647
G1 X147.207 Y143.768 E0.02647
G1 X146.732 Y144.082 E0.02647
G1 X146.292 Y144.445 E0.02645
G1 X145.916 Y144.825 E0.02484
G1 X145.706 Y145.072 E0.01507
G1 X145.376 Y145.532 E0.02628
G1 X145.093 Y146.026 E0.02647
G1 X144.863 Y146.548 E0.02647
G1 X144.689 Y147.09 E0.02647
G1 X144.571 Y147.648 E0.02647
G1 X144.512 Y148.215 E0.02647
G1 X144.512 Y148.785 E0.02647
G1 X144.571 Y149.352 E0.02647
G1 X144.689 Y149.909 E0.02647
G1 X144.863 Y150.452 E0.02647
G1 X145.093 Y150.974 E0.02647
G1 X145.374 Y151.465 E0.02628
G1 X145.557 Y151.733 E0.01507
G1 X145.892 Y152.15 E0.02483
G1 X146.292 Y152.555 E0.02645
G1 X146.732 Y152.918 E0.02647
G1 X147.207 Y153.232 E0.02647
G1 X147.708 Y153.494 E0.02628
G1 X148.007 Y153.62 E0.01508
G1 X148.515 Y153.79 E0.02484
G1 X149.07 Y153.916 E0.02645
G1 X149.636 Y153.983 E0.02647
G1 X150.206 Y153.991 E0.02647
G1 X150.773 Y153.94 E0.02647
G1 X151.333 Y153.831 E0.02647
G1 X151.874 Y153.665 E0.02627
G1 X152.176 Y153.545 E0.01509
G1 X152.656 Y153.31 E0.02484
G1 X153.14 Y153.01 E0.02644
G1 X153.59 Y152.66 E0.02647
G1 X154.001 Y152.266 E0.02647
G1 X154.37 Y151.831 E0.02647
G1 X154.691 Y151.361 E0.02647
G1 X154.962 Y150.86 E0.02647
G1 X155.18 Y150.333 E0.02647
G1 X155.342 Y149.787 E0.02647
G1 X155.447 Y149.226 E0.02647
G1 X155.492 Y148.663 E0.02626
G1 X155.492 Y148.337 E0.01511
G1 X155.447 Y147.774 E0.02626
G1 X155.342 Y147.213 E0.02647
G1 X155.18 Y146.667 E0.02644
G1 X154.977 Y146.173 E0.02484
G1 X154.831 Y145.882 E0.01509
G1 X154.537 Y145.4 E0.02627
G1 X154.191 Y144.946 E0.02647
G1 X153.801 Y144.531 E0.02647
G1 X153.369 Y144.159 E0.02647
G1 X152.901 Y143.833 E0.02647
G1 X152.403 Y143.558 E0.02645
G1 X151.911 Y143.348 E0.02484
G1 X151.603 Y143.244 E0.01508
G1 X151.055 Y143.107 E0.02627
G1 X150.49 Y143.027 E0.02647
G1 X149.981 Y143.008 E0.02368
;WIPE_START
G1 X149.71 Y142.666 F8400
;WIPE_END
G1 X149.913 Y142.496
;TYPE:Internal perimeter
G1 F496.29796
G1 X149.603 Y142.516 E0.01446
G1 X149.292 Y142.537 E0.01446
G1 X148.678 Y142.642 E0.02892
G1 X148.079 Y142.811 E0.02892
G1 X147.5 Y143.04 E0.02892
G1 X146.948 Y143.329 E0.02892
G1 X146.429 Y143.673 E0.02892
G1 X145.948 Y144.068 E0.02889
G1 X145.541 Y144.48 E0.02693
G1 X145.304 Y144.758 E0.01693
G1 X144.947 Y145.256 E0.02848
G1 X144.638 Y145.797 E0.02892
G1 X144.387 Y146.367 E0.02892
G1 X144.196 Y146.96 E0.02892
G1 X144.068 Y147.569 E0.02892
G1 X144.003 Y148.189 E0.02892
G1 X144.003 Y148.811 E0.02893
G1 X144.068 Y149.431 E0.02892
G1 X144.196 Y150.04 E0.02892
G1 X144.387 Y150.633 E0.02892
G1 X144.638 Y151.203 E0.02892
G1 X144.942 Y151.736 E0.02848
G1 X145.148 Y152.036 E0.01694
G1 X145.511 Y152.488 E0.02693
G1 X145.948 Y152.931 E0.02888
G1 X146.429 Y153.327 E0.02893
G1 X146.948 Y153.671 E0.02892
G1 X147.491 Y153.955 E0.02847
G1 X147.827 Y154.097 E0.01695
G1 X148.377 Y154.281 E0.02694
G1 X148.984 Y154.418 E0.02888
G1 X149.602 Y154.492 E0.02892
G1 X150.225 Y154.501 E0.02893
G1 X150.845 Y154.445 E0.02892
G1 X151.456 Y154.325 E0.02892
G1 X152.043 Y154.146 E0.02847
G1 X152.382 Y154.011 E0.01695
G1 X152.903 Y153.756 E0.02694
G1 X153.431 Y153.428 E0.02887
G1 X153.923 Y153.046 E0.02892
G1 X154.372 Y152.616 E0.02892
G1 X154.775 Y152.14 E0.02893
G1 X155.127 Y151.626 E0.02892
G1 X155.423 Y151.079 E0.02892
G1 X155.661 Y150.503 E0.02892
G1 X155.838 Y149.906 E0.02892
G1 X155.952 Y149.294 E0.02892
G1 X156.001 Y148.683 E0.02844
G1 X156.001 Y148.317 E0.01702
G1 X155.952 Y147.706 E0.02844
G1 X155.838 Y147.094 E0.02892
G1 X155.661 Y146.498 E0.02887
G1 X155.441 Y145.961 E0.02695
G1 X155.277 Y145.635 E0.01696
G1 X154.958 Y145.112 E0.02846
G1 X154.58 Y144.617 E0.02892
G1 X154.153 Y144.163 E0.02892
G1 X153.682 Y143.756 E0.02892
G1 X153.171 Y143.401 E0.02892
G1 X152.626 Y143.1 E0.02887
G1 X152.093 Y142.873 E0.02694
G1 X151.747 Y142.756 E0.01695
G1 X151.152 Y142.607 E0.02847
G1 X150.536 Y142.519 E0.02892
G1 X149.973 Y142.498 E0.02614
G1 X149.906 Y141.986 F8400
G1 F496.29796
G1 X149.569 Y142.009 E0.01569
G1 X149.232 Y142.031 E0.01569
G1 X148.566 Y142.145 E0.03138
G1 X147.916 Y142.328 E0.03138
G1 X147.288 Y142.577 E0.03138
G1 X146.689 Y142.89 E0.03138
G1 X146.125 Y143.263 E0.03138
G1 X145.605 Y143.692 E0.03132
G1 X145.165 Y144.136 E0.02902
G1 X144.903 Y144.444 E0.0188
G1 X144.518 Y144.981 E0.03069
G1 X144.183 Y145.568 E0.03138
G1 X143.91 Y146.186 E0.03138
G1 X143.703 Y146.829 E0.03138
G1 X143.564 Y147.49 E0.03138
G1 X143.494 Y148.162 E0.03137
G1 X143.494 Y148.838 E0.03138
G1 X143.564 Y149.51 E0.03137
G1 X143.703 Y150.171 E0.03138
G1 X143.91 Y150.814 E0.03138
G1 X144.183 Y151.432 E0.03138
G1 X144.51 Y152.006 E0.03068
G1 X144.739 Y152.34 E0.0188
G1 X145.13 Y152.827 E0.02902
G1 X145.604 Y153.308 E0.03132
G1 X146.125 Y153.737 E0.03138
G1 X146.689 Y154.11 E0.03137
G1 X147.274 Y154.416 E0.03067
G1 X147.647 Y154.573 E0.01881
G1 X148.24 Y154.772 E0.02903
G1 X148.898 Y154.921 E0.03131
G1 X149.568 Y155 E0.03138
G1 X150.244 Y155.01 E0.03138
G1 X150.917 Y154.95 E0.03137
G1 X151.58 Y154.82 E0.03138
G1 X152.211 Y154.627 E0.03066
G1 X152.588 Y154.477 E0.01882
G1 X153.15 Y154.202 E0.02904
