; generated by SuperSlicer 2.4 on 2023-01-18 at 18:11:15 UTC


;
;

;
;
; 

; external perimeters extrusion width = 0.63mm
; perimeters extrusion width = 0.68mm
; infill extrusion width = 0.68mm
; solid infill extrusion width = 0.68mm
; top infill extrusion width = 0.63mm
; first layer extrusion width = 0.93mm

; object:{"name":"light_bar_400","id":"light_bar_400.stl id:0 copy 0","object_center":[152.209947,149.189597,0.000000],"boundingbox_center":[152.209947,149.189597,11.000000],"boundingbox_size":[145.488134,197.942379,22.000000]}
; plater:{"center":[152.209947,149.189597,0.000000],"boundingbox_center":[152.209947,149.189597,11.000000],"boundingbox_size":[145.488134,197.942379,22.000000]}

;TYPE:Custom
M104 S0 ; Stops SuperSlicer from sending temp waits separately

M140 S0

print_start EXTRUDER=242 BED=100 CHAMBER=0
M107
G21 ; set units to millimeters
G90 ; use absolute coordinates
M83 ; use relative distances for extrusion
; Filament gcode
;_TOOLCHANGE 0
M107
;LAYER_CHANGE
;Z:0.2
;HEIGHT:0.2
TIMELAPSE_TAKE_FRAME
;BEFORE_LAYER_CHANGE
;0.2


G1 E-0.8 F3000
G1 Z0.2 F8400
G1 Z0.2
;AFTER_LAYER_CHANGE
;0.2
G92 E0
G1 Z0.4
G1 X75.782 Y61.055
G1 Z0.2
G1 E0.8 F1800
;TYPE:Skirt
;WIDTH:0.78
G1 X75.377 Y62.284 E0.0793
G1 X75.753 Y63.522 E0.0793
G1 X204.689 Y251.32 E13.9615
G1 X205.201 Y251.845 E0.04494
G1 X206.43 Y252.25 E0.0793
G1 X207.668 Y251.874 E0.0793
G1 X228.113 Y237.837 E1.51995
G1 X228.638 Y237.324 E0.04494
G1 X229.043 Y236.096 E0.0793
G1 X228.667 Y234.858 E0.0793
G1 X99.731 Y47.059 E13.9615
G1 X99.219 Y46.534 E0.04494
G1 X97.99 Y46.129 E0.0793
G1 X96.752 Y46.505 E0.0793
G1 X76.307 Y60.542 E1.51995
G1 X75.846 Y60.992 E0.03943
G1 X76.545 Y61.433 F8400
G1 F1800
G1 X76.131 Y62.089 E0.04752
G1 X76.361 Y63.104 E0.06383
G1 X205.297 Y250.903 E13.9615
G1 X206.235 Y251.496 E0.06803
G1 X207.251 Y251.266 E0.06383
G1 X227.696 Y237.229 E1.51995
G1 X228.289 Y236.291 E0.06803
G1 X228.059 Y235.275 E0.06383
G1 X99.123 Y47.476 E13.9615
G1 X98.185 Y46.884 E0.06803
G1 X97.169 Y47.113 E0.06383
G1 X76.724 Y61.15 E1.51995
G1 X76.593 Y61.357 E0.015
G1 X77.141 Y61.758 F8400
G1 F1800
G1 X76.968 Y62.687 E0.05795
G1 X205.904 Y250.486 E13.9615
G1 X206.834 Y250.658 E0.05795
G1 X227.279 Y236.622 E1.51995
G1 X227.452 Y235.692 E0.05795
G1 X98.516 Y47.893 E13.9615
G1 X97.586 Y47.721 E0.05795
G1 X77.215 Y61.707 E1.51444
G1 X79.202 Y62.435 F8400
;WIDTH:0.93
G1 F1800
G1 X97.477 Y49.888 E1.63509
G1 X97.839 Y49.955 E0.0271
G1 X98.452 Y50.848 E0.07994
G1 X225.285 Y235.583 E16.52863
G1 X225.217 Y235.945 E0.0271
G1 X206.943 Y248.491 E1.63509
G1 X206.581 Y248.424 E0.0271
G1 X79.135 Y62.796 E16.60857
G1 X79.186 Y62.523 E0.02046
M104 S242 ; set temperature
G1 E-0.8 F3000
G1 Z0.4 F8400
; printing object light_bar_400.stl id:0 copy 0
G1 X101.116 Y58.403
G1 Z0.2
G1 E0.8 F1800
;TYPE:Solid infill
;WIDTH:0.918234
G1 F2400
G1 X96.356 Y53.643 E0.49025
G1 X95.612 Y54.153 E0.06571
G1 X102.388 Y60.929 E0.69785
G1 X105.136 Y64.931 E0.35358
G1 X94.868 Y54.664 E1.05748
G1 X94.125 Y55.175 E0.06571
G1 X107.884 Y68.934 E1.41712
G1 X110.632 Y72.936 E0.35358
G1 X93.381 Y55.685 E1.77675
G1 X92.637 Y56.196 E0.06571
G1 X113.38 Y76.939 E2.13639
G1 X116.128 Y80.941 E0.35358
G1 X91.893 Y56.707 E2.49603
G1 X91.149 Y57.217 E0.06571
G1 X118.876 Y84.944 E2.85566
G1 X121.624 Y88.946 E0.35358
G1 X90.405 Y57.728 E3.2153
G1 X89.662 Y58.239 E0.06571
G1 X124.372 Y92.949 E3.57493
G1 X127.12 Y96.951 E0.35358
G1 X88.918 Y58.75 E3.93457
G1 X88.174 Y59.26 E0.06571
G1 X129.868 Y100.954 E4.2942
G1 X132.616 Y104.956 E0.35358
G1 X87.43 Y59.771 E4.65384
G1 X86.686 Y60.282 E0.06571
G1 X135.364 Y108.959 E5.01347
G1 X138.112 Y112.961 E0.35358
G1 X85.942 Y60.792 E5.37311
G1 X85.199 Y61.303 E0.06571
G1 X140.86 Y116.964 E5.73274
G1 X143.608 Y120.966 E0.35358
G1 X84.455 Y61.814 E6.09238
G1 X83.711 Y62.324 E0.06571
G1 X146.355 Y124.969 E6.45201
G1 X149.103 Y128.971 E0.35358
G1 X82.967 Y62.835 E6.81165
G1 X82.41 Y63.218 E0.04922
G1 X83.099 Y64.222 E0.08871
G1 X151.851 Y132.974 E7.08106
G1 X154.599 Y136.976 E0.35358
G1 X85.847 Y68.224 E7.08106
G1 X88.595 Y72.227 E0.35358
G1 X157.347 Y140.979 E7.08106
G1 X160.095 Y144.981 E0.35358
G1 X91.343 Y76.229 E7.08106
G1 X94.091 Y80.232 E0.35358
G1 X162.843 Y148.984 E7.08106
G1 X165.591 Y152.986 E0.35358
G1 X96.839 Y84.234 E7.08106
G1 X99.587 Y88.237 E0.35358
G1 X168.339 Y156.989 E7.08106
G1 X171.087 Y160.991 E0.35358
G1 X102.335 Y92.239 E7.08106
G1 X105.083 Y96.242 E0.35358
G1 X173.835 Y164.994 E7.08106
G1 X176.583 Y168.996 E0.35358
G1 X107.831 Y100.244 E7.08106
G1 X110.579 Y104.247 E0.35358
G1 X179.331 Y172.999 E7.08106
G1 X182.079 Y177.001 E0.35358
G1 X113.327 Y108.249 E7.08106
G1 X116.075 Y112.252 E0.35358
G1 X184.827 Y181.004 E7.08106
G1 X187.575 Y185.006 E0.35358
G1 X118.823 Y116.254 E7.08106
G1 X121.571 Y120.257 E0.35358
G1 X190.323 Y189.009 E7.08106
G1 X193.071 Y193.011 E0.35358
G1 X124.319 Y124.259 E7.08106
G1 X127.067 Y128.262 E0.35358
G1 X195.819 Y197.014 E7.08106
G1 X198.567 Y201.016 E0.35358
G1 X129.815 Y132.264 E7.08106
G1 X132.563 Y136.267 E0.35358
G1 X201.315 Y205.019 E7.08106
G1 X204.063 Y209.021 E0.35358
G1 X135.311 Y140.269 E7.08106
G1 X138.059 Y144.272 E0.35358
G1 X206.811 Y213.024 E7.08106
G1 X209.559 Y217.026 E0.35358
G1 X140.807 Y148.274 E7.08106
G1 X143.555 Y152.277 E0.35358
G1 X212.307 Y221.029 E7.08105
G1 X215.055 Y225.031 E0.35358
G1 X146.303 Y156.279 E7.08105
G1 X149.051 Y160.282 E0.35358
G1 X217.803 Y229.034 E7.08105
G1 X220.551 Y233.036 E0.35358
G1 X151.799 Y164.284 E7.08105
G1 X154.547 Y168.287 E0.35358
G1 X221.661 Y235.401 E6.91237
G1 X220.917 Y235.912 E0.06571
G1 X157.295 Y172.289 E6.55274
G1 X160.043 Y176.292 E0.35358
G1 X220.173 Y236.422 E6.1931
G1 X219.43 Y236.933 E0.06571
G1 X162.791 Y180.294 E5.83347
G1 X165.539 Y184.297 E0.35358
G1 X218.686 Y237.444 E5.47383
G1 X217.942 Y237.955 E0.06571
G1 X168.287 Y188.299 E5.1142
G1 X171.035 Y192.302 E0.35358
G1 X217.198 Y238.465 E4.75456
G1 X216.454 Y238.976 E0.06571
G1 X173.783 Y196.304 E4.39492
G1 X176.531 Y200.307 E0.35358
G1 X215.71 Y239.487 E4.03529
G1 X214.967 Y239.997 E0.06571
G1 X179.279 Y204.309 E3.67565
G1 X182.027 Y208.312 E0.35358
G1 X214.223 Y240.508 E3.31602
G1 X213.479 Y241.019 E0.06571
G1 X184.775 Y212.314 E2.95638
G1 X187.523 Y216.317 E0.35358
G1 X212.735 Y241.529 E2.59675
G1 X211.991 Y242.04 E0.06571
G1 X190.271 Y220.319 E2.23711
G1 X193.018 Y224.322 E0.35358
G1 X211.247 Y242.551 E1.87748
G1 X210.504 Y243.061 E0.06571
G1 X195.766 Y228.324 E1.51784
G1 X198.514 Y232.327 E0.35358
G1 X209.76 Y243.572 E1.1582
G1 X209.016 Y244.083 E0.06571
G1 X201.262 Y236.329 E0.79857
G1 X204.01 Y240.332 E0.35358
G1 X208.272 Y244.593 E0.43893
G1 X207.528 Y245.104 E0.06571
G1 X205.282 Y242.858 E0.23134
G1 X206.963 Y247.375 F8400
;TYPE:External perimeter
;WIDTH:0.93
G1 F2145
G1 X80.251 Y62.817 E16.51287
G1 X97.457 Y51.004 E1.53939
G1 X97.703 Y51.363 E0.03209
G1 X224.168 Y235.563 E16.48078
G1 X207.037 Y247.324 E1.53275
;WIPE_START
G1 X206.916 Y246.777 F8400
;WIPE_END
G1 X207.192 Y246.142
;TYPE:Internal perimeter
G1 F2880
G1 X81.485 Y63.046 E16.382
G1 X97.227 Y52.237 E1.40853
G1 X222.935 Y235.333 E16.382
G1 X207.267 Y246.091 E1.40189
;LAYER_CHANGE
;Z:0.4
;HEIGHT:0.2
TIMELAPSE_TAKE_FRAME
;BEFORE_LAYER_CHANGE
;0.4


G1 E-0.8 F3000
; stop printing object light_bar_400.stl id:0 copy 0
G1 Z0.4 F8400
;AFTER_LAYER_CHANGE
;0.4
G92 E0
M104 S240 ; set temperature
M140 S100 ; set bed temperature
G1 Z0.6
G1 X209.259 Y248.993
G1 Z0.4
G1 E0.8 F1800
;TYPE:Skirt
;WIDTH:0.78
G1 X227.279 Y236.622 E1.33963
G1 X227.452 Y235.692 E0.05795
G1 X98.516 Y47.893 E13.9615
G1 X97.586 Y47.721 E0.05795
G1 X77.141 Y61.758 E1.51995
G1 X76.968 Y62.687 E0.05795
G1 X205.904 Y250.486 E13.9615
G1 X206.834 Y250.658 E0.05795
G1 X209.185 Y249.044 E0.1748
G1 E-0.8 F3000
G1 Z0.6 F8400
; printing object light_bar_400.stl id:0 copy 0
G1 X219.275 Y238.241
G1 Z0.4
G1 E0.8 F1800
;TYPE:Solid infill
;WIDTH:0.671452
G1 F2400
G1 X222.667 Y234.849 E0.25078
G1 X222.303 Y234.319 E0.03361
G1 X217.475 Y239.147 E0.35697
G1 X214.623 Y241.105 E0.18086
G1 X221.939 Y233.789 E0.54093
G1 X221.575 Y233.259 E0.03361
G1 X211.771 Y243.063 E0.72488
G1 X208.919 Y245.021 E0.18086
G1 X221.212 Y232.729 E0.90884
G1 X220.848 Y232.199 E0.03361
G1 X207.037 Y246.01 E1.02113
G1 X206.673 Y245.48 E0.03361
G1 X220.484 Y231.669 E1.02113
G1 X220.12 Y231.139 E0.03361
G1 X206.309 Y244.95 E1.02113
G1 X205.945 Y244.42 E0.03361
G1 X219.756 Y230.609 E1.02113
G1 X219.392 Y230.079 E0.03361
G1 X205.581 Y243.89 E1.02113
G1 X205.217 Y243.36 E0.03361
G1 X219.028 Y229.549 E1.02113
G1 X218.664 Y229.019 E0.03361
G1 X204.854 Y242.83 E1.02113
G1 X204.49 Y242.3 E0.03361
G1 X218.3 Y228.489 E1.02113
G1 X217.937 Y227.959 E0.03361
G1 X204.126 Y241.77 E1.02113
G1 X203.762 Y241.24 E0.03361
G1 X217.573 Y227.429 E1.02113
G1 X217.209 Y226.899 E0.03361
G1 X203.398 Y240.71 E1.02113
G1 X203.034 Y240.18 E0.03361
G1 X216.845 Y226.369 E1.02113
G1 X216.481 Y225.839 E0.03361
G1 X202.67 Y239.65 E1.02113
G1 X202.306 Y239.12 E0.03361
G1 X216.117 Y225.309 E1.02113
G1 X215.753 Y224.779 E0.03361
G1 X201.942 Y238.59 E1.02113
G1 X201.579 Y238.059 E0.03361
G1 X215.389 Y224.249 E1.02113
G1 X215.025 Y223.719 E0.03361
G1 X201.215 Y237.529 E1.02113
G1 X200.851 Y236.999 E0.03361
G1 X214.662 Y223.189 E1.02113
G1 X214.298 Y222.659 E0.03361
G1 X200.487 Y236.469 E1.02113
G1 X200.123 Y235.939 E0.03361
G1 X213.934 Y222.129 E1.02113
G1 X213.57 Y221.599 E0.03361
G1 X199.759 Y235.409 E1.02113
G1 X199.395 Y234.879 E0.03361
G1 X213.206 Y221.069 E1.02113
G1 X212.842 Y220.539 E0.03361
G1 X199.031 Y234.349 E1.02113
G1 X198.667 Y233.819 E0.03361
G1 X212.478 Y220.009 E1.02113
G1 X212.114 Y219.479 E0.03361
G1 X198.304 Y233.289 E1.02113
G1 X197.94 Y232.759 E0.03361
G1 X211.751 Y218.949 E1.02113
G1 X211.387 Y218.419 E0.03361
G1 X197.576 Y232.229 E1.02113
G1 X197.212 Y231.699 E0.03361
G1 X211.023 Y217.889 E1.02113
G1 X210.659 Y217.359 E0.03361
G1 X196.848 Y231.169 E1.02113
G1 X196.484 Y230.639 E0.03361
G1 X210.295 Y216.829 E1.02113
G1 X209.931 Y216.299 E0.03361
G1 X196.12 Y230.109 E1.02113
G1 X195.756 Y229.579 E0.03361
G1 X209.567 Y215.769 E1.02113
G1 X209.203 Y215.239 E0.03361
G1 X195.392 Y229.049 E1.02113
G1 X195.029 Y228.519 E0.03361
G1 X208.839 Y214.708 E1.02113
G1 X208.476 Y214.178 E0.03361
G1 X194.665 Y227.989 E1.02113
G1 X194.301 Y227.459 E0.03361
G1 X208.112 Y213.648 E1.02113
G1 X207.748 Y213.118 E0.03361
G1 X193.937 Y226.929 E1.02113
G1 X193.573 Y226.399 E0.03361
G1 X207.384 Y212.588 E1.02113
G1 X207.02 Y212.058 E0.03361
G1 X193.209 Y225.869 E1.02113
G1 X192.845 Y225.339 E0.03361
G1 X206.656 Y211.528 E1.02113
G1 X206.292 Y210.998 E0.03361
G1 X192.481 Y224.809 E1.02113
G1 X192.117 Y224.279 E0.03361
G1 X205.928 Y210.468 E1.02113
G1 X205.564 Y209.938 E0.03361
G1 X191.754 Y223.749 E1.02113
G1 X191.39 Y223.219 E0.03361
G1 X205.201 Y209.408 E1.02113
G1 X204.837 Y208.878 E0.03361
G1 X191.026 Y222.689 E1.02113
G1 X190.662 Y222.159 E0.03361
G1 X204.473 Y208.348 E1.02113
G1 X204.109 Y207.818 E0.03361
G1 X190.298 Y221.629 E1.02113
G1 X189.934 Y221.099 E0.03361
G1 X203.745 Y207.288 E1.02113
G1 X203.381 Y206.758 E0.03361
G1 X189.57 Y220.569 E1.02113
G1 X189.206 Y220.039 E0.03361
G1 X203.017 Y206.228 E1.02113
G1 X202.653 Y205.698 E0.03361
G1 X188.843 Y219.509 E1.02113
G1 X188.479 Y218.979 E0.03361
G1 X202.289 Y205.168 E1.02113
G1 X201.926 Y204.638 E0.03361
G1 X188.115 Y218.449 E1.02113
G1 X187.751 Y217.919 E0.03361
G1 X201.562 Y204.108 E1.02113
G1 X201.198 Y203.578 E0.03361
G1 X187.387 Y217.389 E1.02113
G1 X187.023 Y216.859 E0.03361
G1 X200.834 Y203.048 E1.02113
G1 X200.47 Y202.518 E0.03361
G1 X186.659 Y216.329 E1.02113
G1 X186.295 Y215.799 E0.03361
G1 X200.106 Y201.988 E1.02113
G1 X199.742 Y201.458 E0.03361
G1 X185.931 Y215.269 E1.02113
G1 X185.568 Y214.739 E0.03361
G1 X199.378 Y200.928 E1.02113
G1 X199.015 Y200.398 E0.03361
G1 X185.204 Y214.209 E1.02113
G1 X184.84 Y213.679 E0.03361
G1 X198.651 Y199.868 E1.02113
G1 X198.287 Y199.338 E0.03361
G1 X184.476 Y213.149 E1.02113
G1 X184.112 Y212.619 E0.03361
G1 X197.923 Y198.808 E1.02113
G1 X197.559 Y198.278 E0.03361
G1 X183.748 Y212.089 E1.02113
G1 X183.384 Y211.559 E0.03361
G1 X197.195 Y197.748 E1.02113
G1 X196.831 Y197.218 E0.03361
G1 X183.02 Y211.029 E1.02113
G1 X182.656 Y210.499 E0.03361
G1 X196.467 Y196.688 E1.02113
G1 X196.103 Y196.158 E0.03361
G1 X182.293 Y209.969 E1.02113
G1 X181.929 Y209.439 E0.03361
G1 X195.74 Y195.628 E1.02113
G1 X195.376 Y195.098 E0.03361
G1 X181.565 Y208.909 E1.02113
G1 X181.201 Y208.379 E0.03361
G1 X195.012 Y194.568 E1.02113
G1 X194.648 Y194.038 E0.03361
G1 X180.837 Y207.849 E1.02113
G1 X180.473 Y207.319 E0.03361
G1 X194.284 Y193.508 E1.02113
G1 X193.92 Y192.978 E0.03361
G1 X180.109 Y206.789 E1.02113
G1 X179.745 Y206.259 E0.03361
G1 X193.556 Y192.448 E1.02113
G1 X193.192 Y191.918 E0.03361
G1 X179.381 Y205.729 E1.02113
G1 X179.018 Y205.199 E0.03361
G1 X192.828 Y191.388 E1.02113
G1 X192.465 Y190.858 E0.03361
G1 X178.654 Y204.669 E1.02113
G1 X178.29 Y204.139 E0.03361
G1 X192.101 Y190.328 E1.02113
G1 X191.737 Y189.798 E0.03361
G1 X177.926 Y203.609 E1.02113
G1 X177.562 Y203.079 E0.03361
G1 X191.373 Y189.268 E1.02113
G1 X191.009 Y188.738 E0.03361
G1 X177.198 Y202.549 E1.02113
G1 X176.834 Y202.019 E0.03361
G1 X190.645 Y188.208 E1.02113
G1 X190.281 Y187.678 E0.03361
G1 X176.47 Y201.489 E1.02113
G1 X176.107 Y200.959 E0.03361
G1 X189.917 Y187.148 E1.02113
G1 X189.553 Y186.618 E0.03361
G1 X175.743 Y200.429 E1.02113
G1 X175.379 Y199.899 E0.03361
G1 X189.19 Y186.088 E1.02113
G1 X188.826 Y185.558 E0.03361
G1 X175.015 Y199.369 E1.02113
G1 X174.651 Y198.839 E0.03361
G1 X188.462 Y185.028 E1.02113
G1 X188.098 Y184.498 E0.03361
G1 X174.287 Y198.309 E1.02113
G1 X173.923 Y197.779 E0.03361
G1 X187.734 Y183.968 E1.02113
G1 X187.37 Y183.438 E0.03361
G1 X173.559 Y197.249 E1.02113
G1 X173.195 Y196.719 E0.03361
G1 X187.006 Y182.908 E1.02113
G1 X186.642 Y182.378 E0.03361
G1 X172.832 Y196.189 E1.02113
G1 X172.468 Y195.659 E0.03361
G1 X186.279 Y181.848 E1.02113
G1 X185.915 Y181.318 E0.03361
G1 X172.104 Y195.129 E1.02113
G1 X171.74 Y194.599 E0.03361
G1 X185.551 Y180.788 E1.02113
G1 X185.187 Y180.258 E0.03361
G1 X171.376 Y194.069 E1.02113
G1 X171.012 Y193.539 E0.03361
G1 X184.823 Y179.728 E1.02113
G1 X184.459 Y179.198 E0.03361
G1 X170.648 Y193.009 E1.02113
G1 X170.284 Y192.479 E0.03361
G1 X184.095 Y178.668 E1.02113
G1 X183.731 Y178.138 E0.03361
G1 X169.92 Y191.949 E1.02113
G1 X169.557 Y191.419 E0.03361
G1 X183.367 Y177.608 E1.02113
G1 X183.004 Y177.078 E0.03361
G1 X169.193 Y190.889 E1.02113
G1 X168.829 Y190.359 E0.03361
G1 X182.64 Y176.548 E1.02113
G1 X182.276 Y176.018 E0.03361
G1 X168.465 Y189.829 E1.02113
G1 X168.101 Y189.299 E0.03361
G1 X181.912 Y175.488 E1.02113
G1 X181.548 Y174.958 E0.03361
G1 X167.737 Y188.769 E1.02113
G1 X167.373 Y188.239 E0.03361
G1 X181.184 Y174.428 E1.02113
G1 X180.82 Y173.898 E0.03361
G1 X167.009 Y187.709 E1.02113
G1 X166.645 Y187.179 E0.03361
G1 X180.456 Y173.368 E1.02113
G1 X180.092 Y172.838 E0.03361
G1 X166.282 Y186.649 E1.02113
G1 X165.918 Y186.119 E0.03361
G1 X179.729 Y172.308 E1.02113
G1 X179.365 Y171.778 E0.03361
G1 X165.554 Y185.589 E1.02113
G1 X165.19 Y185.059 E0.03361
G1 X179.001 Y171.248 E1.02113
G1 X178.637 Y170.718 E0.03361
G1 X164.826 Y184.529 E1.02113
G1 X164.462 Y183.999 E0.03361
G1 X178.273 Y170.188 E1.02113
G1 X177.909 Y169.658 E0.03361
G1 X164.098 Y183.469 E1.02113
G1 X163.734 Y182.939 E0.03361
G1 X177.545 Y169.128 E1.02113
G1 X177.181 Y168.598 E0.03361
G1 X163.371 Y182.409 E1.02113
G1 X163.007 Y181.879 E0.03361
G1 X176.817 Y168.068 E1.02113
G1 X176.454 Y167.538 E0.03361
G1 X162.643 Y181.349 E1.02113
G1 X162.279 Y180.819 E0.03361
G1 X176.09 Y167.008 E1.02113
G1 X175.726 Y166.478 E0.03361
G1 X161.915 Y180.289 E1.02113
G1 X161.551 Y179.759 E0.03361
G1 X175.362 Y165.948 E1.02113
G1 X174.998 Y165.418 E0.03361
G1 X161.187 Y179.229 E1.02113
G1 X160.823 Y178.699 E0.03361
G1 X174.634 Y164.888 E1.02113
G1 X174.27 Y164.358 E0.03361
G1 X160.459 Y178.169 E1.02113
G1 X160.096 Y177.639 E0.03361
G1 X173.906 Y163.828 E1.02113
G1 X173.543 Y163.298 E0.03361
G1 X159.732 Y177.108 E1.02113
G1 X159.368 Y176.578 E0.03361
G1 X173.179 Y162.768 E1.02113
