; generated by SuperSlicer 2.5.59 on 2023-04-18 at 20:07:36 UTC


;
;

;
;
; 

; external perimeters extrusion width = 0.42mm
; perimeters extrusion width = 0.45mm
; infill extrusion width = 0.45mm
; solid infill extrusion width = 0.45mm
; top infill extrusion width = 0.42mm
; first layer extrusion width = 0.56mm

; object:{"name":"Voron_Design_Cube_v7","id":"Voron_Design_Cube_v7 id:0 copy 0","object_center":[150.000000,148.500000,0.000000],"boundingbox_center":[150.000000,148.500000,15.000000],"boundingbox_size":[30.000000,30.000000,30.000000]}
EXCLUDE_OBJECT_DEFINE NAME=Voron_Design_Cube_v7_id_0_copy_0 CENTER=150.000000,148.500000 POLYGON=[[135.000000,133.500000],[165.000000,133.500000],[165.000000,163.500000],[135.000000,163.500000],[135.000000,133.500000]]
; plater:{"center":[150.000000,148.500000,0.000000],"boundingbox_center":[150.000000,148.500000,15.000000],"boundingbox_size":[30.000000,30.000000,30.000000]}

;TYPE:Custom
SET_PRINT_STATS_INFO TOTAL_LAYER=137

M104 S0 ; Stops SuperSlicer from sending temp waits separately

M109 S0

M140 S0

print_start EXTRUDER=255 BED=105 CHAMBER=0
M107
G21 ; set units to millimeters
G90 ; use absolute coordinates
M82 ; use absolute distances for extrusion
G92 E0
; Filament gcode
; Macro syntax: https://help.prusa3d.com/article/macros_1775

; Set pressure advance per-filament
;SET_PRESSURE_ADVANCE ADVANCE=0.0x

; Set pressure advance per-filament for different nozzle sizes
;SET_PRESSURE_ADVANCE ADVANCE=0.0x
;

;_TOOLCHANGE 0
M107
;LAYER_CHANGE
;Z:0.21875
;HEIGHT:0.21875
TIMELAPSE_TAKE_FRAME
;BEFORE_LAYER_CHANGE
;0.21875


G1 Z0.21875 F12000
SET_PRINT_STATS_INFO CURRENT_LAYER=1
;AFTER_LAYER_CHANGE
;0.21875
G1 E-0.7 F2520
G1 Z0.41875 F12000
M204 S3000
G1 X133.649 Y133.649
G1 Z0.21875
G1 E0 F2340
;TYPE:Skirt
;WIDTH:0.52
G1 F3600
G1 X130.941 Y136.356 E0.15223
G1 X130.402 Y137.073 E0.18787
G1 X130.009 Y138.606 E0.25079
G1 X130.009 Y158.394 E1.03739
G1 X130.135 Y159.281 E1.07303
G1 X130.941 Y160.644 E1.13595
G1 X137.856 Y167.559 E1.52475
G1 X138.573 Y168.098 E1.56038
G1 X140.106 Y168.491 E1.6233
G1 X159.894 Y168.491 E2.4099
G1 X160.781 Y168.365 E2.44554
G1 X162.144 Y167.559 E2.50846
G1 X169.059 Y160.644 E2.89726
G1 X169.598 Y159.927 E2.93289
G1 X169.991 Y158.394 E2.99582
G1 X169.991 Y138.606 E3.78241
G1 X169.865 Y137.719 E3.81805
G1 X169.059 Y136.356 E3.88097
G1 X162.144 Y129.441 E4.26977
G1 X161.427 Y128.902 E4.3054
G1 X159.894 Y128.509 E4.36833
G1 X140.106 Y128.509 E5.15492
G1 X139.219 Y128.635 E5.19056
G1 X137.856 Y129.441 E5.25348
G1 X133.691 Y133.606 E5.48766
G1 X134.025 Y133.94 F12000
G1 F3600
G1 X131.275 Y136.691 E5.64228
G1 X130.481 Y138.606 E5.72471
G1 X130.481 Y158.394 E6.5113
G1 X131.275 Y160.309 E6.59373
G1 X138.191 Y167.225 E6.98252
G1 X140.106 Y168.019 E7.06495
G1 X159.894 Y168.019 E7.85155
G1 X161.809 Y167.225 E7.93398
G1 X168.725 Y160.309 E8.32277
G1 X169.519 Y158.394 E8.4052
G1 X169.519 Y138.606 E9.19179
G1 X168.725 Y136.691 E9.27422
G1 X161.809 Y129.775 E9.66302
G1 X159.894 Y128.981 E9.74545
G1 X140.106 Y128.981 E10.53204
G1 X138.191 Y129.775 E10.61447
G1 X134.068 Y133.898 E10.84626
G1 X134.402 Y134.232 F12000
G1 F3600
G1 X131.609 Y137.025 E11.00326
G1 X130.954 Y138.606 E11.07131
G1 X130.954 Y158.394 E11.8579
G1 X131.609 Y159.975 E11.92595
G1 X138.525 Y166.891 E12.31474
G1 X140.106 Y167.546 E12.38279
G1 X159.894 Y167.546 E13.16938
G1 X161.475 Y166.891 E13.23742
G1 X168.391 Y159.975 E13.62622
G1 X169.046 Y158.394 E13.69426
G1 X169.046 Y138.606 E14.48086
G1 X168.391 Y137.025 E14.5489
G1 X161.475 Y130.109 E14.9377
G1 X159.894 Y129.454 E15.00574
G1 X140.106 Y129.454 E15.79234
G1 X138.525 Y130.109 E15.86038
G1 X134.444 Y134.19 E16.08979
G92 E0
G1 E-0.7 F2520
M204 S7000
G1 Z0.41875 F12000
; acceleration to travel
M204 S8000
G1 X135.964 Y135.709
; decel to extrusion
M204 S3000
G1 X136.534 Y136.279
; end travel
G1 Z0.21875
G1 E0 F2340
;WIDTH:0.56
;HEIGHT:0.22
G1 F3600
G1 X140.118 Y132.695 E0.21968
G1 X140.327 Y132.555 E0.23059
G1 X140.609 Y132.443 E0.24375
G1 X140.808 Y132.409 E0.25248
G1 X159.242 Y132.414 E1.05137
G1 X159.439 Y132.458 E1.0601
G1 X159.673 Y132.555 E1.07109
G1 X159.882 Y132.695 E1.08199
G1 X165.805 Y138.618 E1.44503
G1 X165.945 Y138.827 E1.45594
G1 X166.057 Y139.109 E1.46909
G1 X166.091 Y139.308 E1.47783
G1 X166.091 Y157.692 E2.27454
G1 X166.042 Y157.939 E2.28545
G1 X165.922 Y158.217 E2.2986
G1 X165.805 Y158.382 E2.30734
G1 X159.882 Y164.305 E2.67038
G1 X159.673 Y164.445 E2.68128
G1 X159.391 Y164.557 E2.69444
G1 X159.192 Y164.591 E2.70318
G1 X140.808 Y164.591 E3.49989
G1 X140.561 Y164.542 E3.51079
G1 X140.283 Y164.422 E3.52395
G1 X140.118 Y164.305 E3.53269
G1 X134.195 Y158.382 E3.89572
G1 X134.055 Y158.173 E3.90663
G1 X133.943 Y157.891 E3.91979
G1 X133.909 Y157.692 E3.92852
G1 X133.909 Y139.308 E4.72523
G1 X133.958 Y139.061 E4.73614
G1 X134.078 Y138.783 E4.7493
G1 X134.195 Y138.618 E4.75803
G1 X136.491 Y136.321 E4.89879
G1 X136.854 Y136.684 F12000
G1 F3600
G1 X140.463 Y133.075 E5.11998
G1 X140.547 Y133.019 E5.12436
G1 X140.734 Y132.941 E5.13316
G1 X140.833 Y132.921 E5.13753
G1 X159.167 Y132.921 E5.93206
G1 X159.266 Y132.941 E5.93644
G1 X159.453 Y133.019 E5.94524
G1 X159.537 Y133.075 E5.94961
G1 X165.425 Y138.963 E6.31047
G1 X165.481 Y139.047 E6.31484
G1 X165.559 Y139.234 E6.32364
G1 X165.579 Y139.333 E6.32802
G1 X165.579 Y157.667 E7.12255
G1 X165.559 Y157.766 E7.12692
G1 X165.481 Y157.953 E7.13572
G1 X165.425 Y158.037 E7.1401
G1 X159.537 Y163.925 E7.50095
G1 X159.453 Y163.981 E7.50533
G1 X159.266 Y164.059 E7.51413
G1 X159.167 Y164.079 E7.51851
G1 X140.833 Y164.079 E8.31303
G1 X140.734 Y164.059 E8.31741
G1 X140.547 Y163.981 E8.32621
G1 X140.463 Y163.925 E8.33059
G1 X134.575 Y158.037 E8.69144
G1 X134.519 Y157.953 E8.69582
G1 X134.441 Y157.766 E8.70461
G1 X134.421 Y157.667 E8.70899
G1 X134.421 Y139.333 E9.50352
G1 X134.441 Y139.234 E9.5079
G1 X134.519 Y139.047 E9.5167
G1 X134.575 Y138.963 E9.52107
G1 X136.811 Y136.726 E9.65813
G1 X137.174 Y137.089 F12000
G1 F3600
G1 X140.79 Y133.473 E9.87974
G1 X140.884 Y133.434 E9.88416
G1 X159.116 Y133.434 E10.67431
G1 X159.21 Y133.473 E10.67873
G1 X159.559 Y133.821 E10.70006
G1 X165.027 Y139.29 E11.0352
G1 X165.066 Y139.384 E11.03962
G1 X165.066 Y157.616 E11.82977
G1 X165.027 Y157.71 E11.83419
G1 X159.21 Y163.527 E12.19067
G1 X159.116 Y163.566 E12.19509
G1 X140.884 Y163.566 E12.98524
G1 X140.79 Y163.527 E12.98966
G1 X134.973 Y157.71 E13.34614
G1 X134.934 Y157.616 E13.35056
G1 X134.934 Y139.384 E14.14071
G1 X134.973 Y139.29 E14.14513
G1 X137.131 Y137.131 E14.2774
M104 S255 ; set temperature
G92 E0
G1 E-0.7 F2520
M204 S7000
G1 Z0.41875 F12000
; printing object Voron_Design_Cube_v7 id:0 copy 0
EXCLUDE_OBJECT_START NAME=Voron_Design_Cube_v7_id_0_copy_0
; acceleration to travel
M204 S8000
G1 X135.813 Y153.266
; decel to extrusion
M204 S2000
G1 X135.471 Y157.449
; end travel
G1 Z0.21875
G1 E0 F2340
;TYPE:External perimeter
;HEIGHT:0.21875
G1 F4200
G1 X135.471 Y139.551 E0.77167
G1 X141.051 Y133.971 E1.11191
G1 X158.949 Y133.971 E1.88358
G1 X159.064 Y134.086 E1.8906
G1 X164.529 Y139.551 E2.22382
G1 X164.529 Y157.449 E2.99549
G1 X158.949 Y163.029 E3.33573
G1 X141.051 Y163.029 E4.1074
G1 X135.513 Y157.492 E4.44505
;WIPE_START
M204 S7000
G1 X135.753 Y157.166 F12000
;WIPE_END
M204 S3000
G1 X135.984 Y157.237
;TYPE:Internal perimeter
G1 F4200
G1 X135.984 Y139.763 E5.1984
G1 X141.263 Y134.484 E5.52031
G1 X158.737 Y134.484 E6.27366
G1 X164.016 Y139.763 E6.59557
G1 X164.016 Y157.237 E7.34892
G1 X158.737 Y162.516 E7.67083
G1 X141.263 Y162.516 E8.42418
G1 X136.026 Y157.279 E8.7435
G1 X136.497 Y157.024 F12000
G1 F4200
G1 X136.497 Y139.976 E9.47853
G1 X141.476 Y134.997 E9.78212
G1 X158.524 Y134.997 E10.51714
G1 X163.503 Y139.976 E10.82073
G1 X163.503 Y157.024 E11.55575
G1 X158.524 Y162.003 E11.85934
G1 X141.476 Y162.003 E12.59436
G1 X136.539 Y157.067 E12.89536
G92 E0
G1 E-0.7 F2520
M204 S7000
G1 Z0.41875 F12000
; acceleration to travel
M204 S8000
G1 X152.829 Y153.637
; decel to extrusion
M204 S2000
G1 X156.902 Y152.779
; end travel
G1 Z0.21875
G1 E0 F2340
;TYPE:External perimeter
G1 F4200
G1 X157.307 Y152.044 E0.03621
G1 X157.634 Y151.27 E0.07242
G1 X157.879 Y150.467 E0.10862
G1 X158.04 Y149.642 E0.14483
G1 X158.114 Y148.809 E0.18092
G1 X158.114 Y148.191 E0.20754
G1 X158.04 Y147.358 E0.24363
G1 X157.879 Y146.533 E0.27984
G1 X157.634 Y145.732 E0.31596
G1 X157.388 Y145.131 E0.34396
G1 X157.112 Y144.581 E0.37048
G1 X156.671 Y143.87 E0.40658
G1 X156.157 Y143.205 E0.44279
G1 X155.578 Y142.598 E0.47899
G1 X154.938 Y142.053 E0.5152
G1 X154.246 Y141.578 E0.55141
G1 X153.51 Y141.177 E0.58753
G1 X152.913 Y140.921 E0.61553
G1 X152.332 Y140.721 E0.64204
G1 X151.518 Y140.522 E0.67815
G1 X150.686 Y140.408 E0.71436
G1 X149.847 Y140.38 E0.75056
G1 X149.456 Y140.408 E0.76746
G1 X149.009 Y140.44 E0.78677
G1 X148.182 Y140.585 E0.82298
G1 X147.374 Y140.815 E0.85919
G1 X146.595 Y141.127 E0.8954
G1 X145.851 Y141.519 E0.93161
G1 X145.153 Y141.984 E0.96782
G1 X144.507 Y142.519 E1.00396
G1 X144.048 Y142.978 E1.03195
G1 X143.646 Y143.443 E1.05844
G1 X143.159 Y144.124 E1.09456
G1 X142.743 Y144.854 E1.13077
G1 X142.406 Y145.623 E1.16698
G1 X142.149 Y146.423 E1.20319
G1 X141.976 Y147.245 E1.2394
G1 X141.89 Y148.08 E1.27561
G1 X141.89 Y148.92 E1.31182
G1 X141.976 Y149.755 E1.34803
G1 X142.149 Y150.577 E1.38424
G1 X142.405 Y151.375 E1.42036
G1 X142.646 Y151.94 E1.44685
G1 X142.942 Y152.518 E1.47483
G1 X143.394 Y153.224 E1.51098
G1 X143.917 Y153.881 E1.54718
G1 X144.506 Y154.48 E1.58339
G1 X145.153 Y155.016 E1.6196
G1 X145.851 Y155.481 E1.65581
G1 X146.593 Y155.872 E1.69193
G1 X147.161 Y156.107 E1.71843
G1 X147.777 Y156.311 E1.74642
G1 X148.594 Y156.498 E1.78255
G1 X149.427 Y156.601 E1.81876
G1 X150.267 Y156.617 E1.85497
G1 X151.104 Y156.546 E1.89118
G1 X151.929 Y156.389 E1.92738
G1 X152.731 Y156.148 E1.96349
G1 X153.301 Y155.918 E1.99
G1 X153.884 Y155.632 E2.018
G1 X154.598 Y155.194 E2.05412
G1 X155.265 Y154.683 E2.09033
G1 X155.875 Y154.106 E2.12654
G1 X156.423 Y153.469 E2.16275
G1 X156.868 Y152.829 E2.19637
;WIPE_START
M204 S7000
G1 X157.302 Y152.785 F12000
;WIPE_END
M204 S3000
G1 X157.35 Y153.028
;TYPE:Internal perimeter
G1 F4200
G1 X157.769 Y152.268 E2.23381
G1 X158.117 Y151.445 E2.2723
G1 X158.377 Y150.591 E2.3108
G1 X158.548 Y149.715 E2.3493
G1 X158.628 Y148.832 E2.38753
G1 X158.628 Y148.168 E2.41613
G1 X158.548 Y147.285 E2.45435
G1 X158.377 Y146.409 E2.49285
G1 X158.118 Y145.56 E2.53113
G1 X157.856 Y144.918 E2.561
G1 X157.561 Y144.331 E2.58936
G1 X157.093 Y143.577 E2.6276
G1 X156.547 Y142.87 E2.6661
G1 X155.931 Y142.224 E2.7046
G1 X155.251 Y141.645 E2.7431
G1 X154.515 Y141.14 E2.7816
G1 X153.734 Y140.715 E2.8199
G1 X153.098 Y140.442 E2.84975
G1 X152.477 Y140.228 E2.87809
G1 X151.614 Y140.018 E2.91635
G1 X150.73 Y139.896 E2.95485
G1 X149.837 Y139.867 E2.99335
G1 X149.42 Y139.896 E3.01139
G1 X148.947 Y139.93 E3.03185
G1 X148.067 Y140.084 E3.07035
G1 X147.208 Y140.329 E3.10885
G1 X146.379 Y140.661 E3.14735
G1 X145.589 Y141.077 E3.18585
G1 X144.846 Y141.572 E3.22435
G1 X144.161 Y142.139 E3.26268
G1 X143.672 Y142.628 E3.2925
G1 X143.243 Y143.125 E3.32081
G1 X142.726 Y143.847 E3.3591
G1 X142.284 Y144.623 E3.3976
G1 X141.925 Y145.441 E3.4361
G1 X141.652 Y146.291 E3.4746
G1 X141.469 Y147.165 E3.51311
G1 X141.377 Y148.053 E3.5516
G1 X141.377 Y148.947 E3.59011
G1 X141.469 Y149.835 E3.62861
G1 X141.652 Y150.709 E3.66711
G1 X141.924 Y151.555 E3.70541
G1 X142.182 Y152.158 E3.73371
G1 X142.497 Y152.773 E3.76352
G1 X142.976 Y153.523 E3.80186
G1 X143.533 Y154.221 E3.84036
G1 X144.158 Y154.859 E3.87886
G1 X144.846 Y155.428 E3.91736
G1 X145.589 Y155.923 E3.95586
G1 X146.375 Y156.337 E3.99414
G1 X146.982 Y156.588 E4.02246
G1 X147.638 Y156.805 E4.05229
G1 X148.505 Y157.004 E4.09061
G1 X149.391 Y157.113 E4.12911
G1 X150.284 Y157.13 E4.16762
G1 X151.174 Y157.055 E4.20611
G1 X152.051 Y156.888 E4.24461
G1 X152.901 Y156.632 E4.28287
G1 X153.511 Y156.387 E4.31122
G1 X154.132 Y156.081 E4.34107
G1 X154.889 Y155.617 E4.37936
G1 X155.598 Y155.074 E4.41787
G1 X156.247 Y154.461 E4.45636
G1 X156.829 Y153.784 E4.49486
G1 X157.318 Y153.079 E4.53184
G1 X157.799 Y153.277 F12000
G1 F4200
G1 X158.231 Y152.492 E4.5705
G1 X158.6 Y151.62 E4.61129
G1 X158.876 Y150.716 E4.65208
G1 X159.057 Y149.787 E4.69287
G1 X159.141 Y148.855 E4.73323
G1 X159.141 Y148.145 E4.76381
G1 X159.057 Y147.213 E4.80416
G1 X158.876 Y146.284 E4.84496
G1 X158.602 Y145.387 E4.8854
G1 X158.323 Y144.706 E4.91714
G1 X158.009 Y144.08 E4.94734
G1 X157.515 Y143.284 E4.98772
G1 X156.936 Y142.535 E5.02851
G1 X156.283 Y141.851 E5.0693
G1 X155.563 Y141.238 E5.11009
G1 X154.783 Y140.702 E5.15088
G1 X153.959 Y140.253 E5.19136
G1 X153.283 Y139.963 E5.22306
G1 X152.621 Y139.736 E5.25323
G1 X151.711 Y139.513 E5.29365
G1 X150.773 Y139.384 E5.33444
G1 X149.828 Y139.353 E5.37523
G1 X149.384 Y139.385 E5.39442
G1 X148.884 Y139.42 E5.41602
G1 X147.952 Y139.584 E5.45681
G1 X147.042 Y139.843 E5.4976
G1 X146.164 Y140.195 E5.53839
G1 X145.327 Y140.635 E5.57918
G1 X144.539 Y141.16 E5.61997
G1 X143.815 Y141.759 E5.6605
G1 X143.296 Y142.279 E5.69216
G1 X142.839 Y142.807 E5.72228
G1 X142.293 Y143.57 E5.76274
G1 X141.825 Y144.393 E5.80353
G1 X141.445 Y145.259 E5.84433
G1 X141.156 Y146.16 E5.88512
G1 X140.961 Y147.086 E5.92591
G1 X140.864 Y148.027 E5.9667
G1 X140.864 Y148.973 E6.00749
G1 X140.961 Y149.914 E6.04828
G1 X141.156 Y150.84 E6.08907
G1 X141.442 Y151.734 E6.12955
G1 X141.717 Y152.376 E6.15966
G1 X142.052 Y153.029 E6.1913
G1 X142.558 Y153.822 E6.23184
G1 X143.148 Y154.562 E6.27263
G1 X143.81 Y155.237 E6.31342
G1 X144.539 Y155.84 E6.35422
G1 X145.327 Y156.365 E6.39501
G1 X146.157 Y156.802 E6.43545
G1 X146.803 Y157.069 E6.46559
G1 X147.5 Y157.3 E6.49727
G1 X148.416 Y157.51 E6.53777
G1 X149.355 Y157.626 E6.57857
G1 X150.301 Y157.644 E6.61936
G1 X151.244 Y157.563 E6.66015
G1 X152.173 Y157.387 E6.70093
G1 X153.071 Y157.117 E6.74135
G1 X153.72 Y156.856 E6.77152
G1 X154.38 Y156.531 E6.80323
G1 X155.18 Y156.04 E6.8437
G1 X155.931 Y155.465 E6.8845
G1 X156.619 Y154.815 E6.92529
G1 X157.236 Y154.098 E6.96608
G1 X157.769 Y153.329 E7.0064
G92 E0
G1 E-0.7 F2520
M204 S7000
G1 Z0.41875 F12000
; acceleration to travel
M204 S8000
G1 X151.595 Y159.526
; decel to extrusion
M204 S3000
G1 X149.28 Y161.849
; end travel
G1 Z0.21875
G1 E0 F2340
;TYPE:Solid infill
G1 F4200
G1 X136.871 Y149.441 E0.75657
G1 X136.871 Y150.166 E0.78786
G1 X148.334 Y161.629 E1.48674
G1 X147.608 Y161.629 E1.51802
G1 X136.871 Y150.892 E2.17267
G1 X136.871 Y151.618 E2.20395
G1 X146.882 Y161.629 E2.81435
G1 X146.157 Y161.629 E2.84563
G1 X136.871 Y152.343 E3.4118
G1 X136.871 Y153.069 E3.44308
G1 X145.431 Y161.629 E3.965
G1 X144.706 Y161.629 E3.99629
G1 X136.871 Y153.794 E4.47397
G1 X136.871 Y154.52 E4.50525
G1 X143.98 Y161.629 E4.9387
G1 X143.255 Y161.629 E4.96998
G1 X136.871 Y155.245 E5.35918
G1 X136.871 Y155.971 E5.39047
G1 X142.529 Y161.629 E5.73543
G1 X141.803 Y161.629 E5.76671
G1 X136.651 Y156.476 E6.08089
G92 E0
G1 E-0.7 F2520
M204 S7000
G1 Z0.41875 F12000
; acceleration to travel
M204 S8000
G1 X145.943 Y140.967
; decel to extrusion
M204 S3000
G1 X149.427 Y135.151
; end travel
G1 Z0.21875
G1 E0 F2340
G1 F4200
G1 X154.275 Y139.999 E0.29561
G1 X154.122 Y139.916 E0.30311
G1 X153.418 Y139.613 E0.33617
G1 X153.031 Y139.481 E0.35378
G1 X148.922 Y135.371 E0.60434
G1 X148.197 Y135.371 E0.63562
G1 X152.031 Y139.206 E0.86942
G1 X151.781 Y139.145 E0.88053
G1 X151.159 Y139.059 E0.90759
G1 X147.471 Y135.371 E1.13245
G1 X146.745 Y135.371 E1.16373
G1 X150.37 Y138.996 E1.38476
G1 X149.821 Y138.978 E1.40848
G1 X149.64 Y138.991 E1.41631
G1 X146.02 Y135.371 E1.63701
G1 X145.294 Y135.371 E1.66829
G1 X148.962 Y139.039 E1.89192
G1 X148.334 Y139.136 E1.91933
G1 X144.569 Y135.371 E2.14889
G1 X143.843 Y135.371 E2.18017
G1 X147.73 Y139.258 E2.41714
G1 X147.165 Y139.419 E2.44245
G1 X143.118 Y135.371 E2.68923
G1 X142.392 Y135.371 E2.72051
G1 X146.627 Y139.606 E2.9787
G1 X146.108 Y139.813 E3.00276
G1 X141.666 Y135.371 E3.27361
G1 X141.631 Y135.371 E3.27514
G1 X141.286 Y135.716 E3.29618
G1 X145.625 Y140.055 E3.56073
G1 X145.149 Y140.305 E3.58389
G1 X140.923 Y136.079 E3.84157
G1 X140.56 Y136.442 E3.86369
