; generated by SuperSlicer 2.5.59 on 2023-04-13 at 08:34:15 UTC


;
;

;
;
; 

; external perimeters extrusion width = 0.42mm
; perimeters extrusion width = 0.45mm
; infill extrusion width = 0.45mm
; solid infill extrusion width = 0.45mm
; top infill extrusion width = 0.42mm
; first layer extrusion width = 0.56mm

; object:{"name":"Voron_Design_Cube_v7","id":"Voron_Design_Cube_v7 id:0 copy 0","object_center":[150.000000,150.000000,0.000000],"boundingbox_center":[150.000000,150.000000,10.000000],"boundingbox_size":[20.000000,20.000000,20.000000]}
EXCLUDE_OBJECT_DEFINE NAME=Voron_Design_Cube_v7_id_0_copy_0 CENTER=150.000000,150.000000 POLYGON=[[140.000000,140.000000],[160.000000,140.000000],[160.000000,160.000000],[140.000000,160.000000],[140.000000,140.000000]]
; plater:{"center":[150.000000,150.000000,0.000000],"boundingbox_center":[150.000000,150.000000,10.000000],"boundingbox_size":[20.000000,20.000000,20.000000]}

M73 P0 R18
;TYPE:Custom
; custom gcode: start_gcode
SET_PRINT_STATS_INFO TOTAL_LAYER=91

M104 S0 ; Stops SuperSlicer from sending temp waits separately

M109 S0

M140 S0

print_start EXTRUDER=255 BED=105 CHAMBER=0
; custom gcode end: start_gcode
M107
G21 ; set units to millimeters
G90 ; use absolute coordinates
M83 ; use relative distances for extrusion
; custom gcode: start_filament_gcode
; Filament gcode
; Macro syntax: https://help.prusa3d.com/article/macros_1775

; Set pressure advance per-filament
;SET_PRESSURE_ADVANCE ADVANCE=0.0x

; Set pressure advance per-filament for different nozzle sizes
;SET_PRESSURE_ADVANCE ADVANCE=0.0x
;

; custom gcode end: start_filament_gcode
;_TOOLCHANGE 0
;LAYER_CHANGE
;Z:0.22
;HEIGHT:0.22
; custom gcode: before_layer_gcode
TIMELAPSE_TAKE_FRAME
;BEFORE_LAYER_CHANGE
;0.22
; custom gcode end: before_layer_gcode

G1 Z0.22 F12000
; custom gcode: layer_gcode
SET_PRINT_STATS_INFO CURRENT_LAYER=1
;AFTER_LAYER_CHANGE
;0.22
; custom gcode end: layer_gcode

G92 E0
M73 P1 R17
G1 E-0.7 F3000
G1 Z0.42 F12000
M204 S3000
G1 X138.017 Y138.017
G1 Z0.22
G1 E0.7 F2700
;TYPE:Skirt
;WIDTH:0.52
G1 F3600
G1 X135.539 Y140.495 E0.14004
G1 X134.863 Y141.428 E0.04602
G1 X134.469 Y143.08 E0.06785
G1 X134.469 Y156.92 E0.55303
G1 X134.65 Y158.058 E0.04602
G1 X135.539 Y159.505 E0.06785
G1 X140.495 Y164.461 E0.28007
G1 X141.428 Y165.137 E0.04602
G1 X143.08 Y165.531 E0.06785
G1 X156.92 Y165.531 E0.55303
M73 P2 R17
G1 X158.058 Y165.35 E0.04602
G1 X159.505 Y164.461 E0.06785
G1 X164.461 Y159.505 E0.28007
G1 X165.137 Y158.572 E0.04602
G1 X165.531 Y156.92 E0.06785
G1 X165.531 Y143.08 E0.55303
G1 X165.35 Y141.942 E0.04602
G1 X164.461 Y140.495 E0.06785
G1 X159.505 Y135.539 E0.28007
G1 X158.572 Y134.863 E0.04602
G1 X156.92 Y134.469 E0.06785
G1 X143.08 Y134.469 E0.55303
G1 X141.942 Y134.65 E0.04602
G1 X140.495 Y135.539 E0.06785
G1 X138.017 Y138.017 E0.14004
G1 X138.352 Y138.352 F12000
G1 F3600
G1 X135.873 Y140.83 E0.14004
G1 X135.335 Y141.547 E0.03582
G1 X134.941 Y143.08 E0.06325
G1 X134.941 Y156.92 E0.55303
G1 X135.068 Y157.808 E0.03582
G1 X135.873 Y159.17 E0.06325
G1 X140.83 Y164.127 E0.28007
G1 X141.547 Y164.665 E0.03582
G1 X143.08 Y165.059 E0.06325
G1 X156.92 Y165.059 E0.55303
G1 X157.808 Y164.932 E0.03582
G1 X159.17 Y164.127 E0.06325
G1 X164.127 Y159.17 E0.28007
G1 X164.665 Y158.453 E0.03582
G1 X165.059 Y156.92 E0.06325
G1 X165.059 Y143.08 E0.55303
G1 X164.932 Y142.192 E0.03582
G1 X164.127 Y140.83 E0.06325
G1 X159.17 Y135.873 E0.28007
G1 X158.453 Y135.335 E0.03582
G1 X156.92 Y134.941 E0.06325
G1 X143.08 Y134.941 E0.55303
G1 X142.192 Y135.068 E0.03582
G1 X140.83 Y135.873 E0.06325
G1 X138.352 Y138.352 E0.14004
G1 X138.686 Y138.686 F12000
G1 F3600
G1 X136.208 Y141.164 E0.14004
G1 X135.414 Y143.08 E0.08285
G1 X135.414 Y156.92 E0.55303
G1 X136.208 Y158.836 E0.08285
G1 X141.164 Y163.792 E0.28007
G1 X143.08 Y164.586 E0.08285
G1 X156.92 Y164.586 E0.55303
G1 X158.836 Y163.792 E0.08285
G1 X163.792 Y158.836 E0.28007
G1 X164.586 Y156.92 E0.08285
G1 X164.586 Y143.08 E0.55303
G1 X163.792 Y141.164 E0.08285
G1 X158.836 Y136.208 E0.28007
G1 X156.92 Y135.414 E0.08285
G1 X143.08 Y135.414 E0.55303
G1 X141.164 Y136.208 E0.08285
G1 X138.686 Y138.686 E0.14004
G1 X139.02 Y139.02 F12000
G1 F3600
G1 X136.542 Y141.498 E0.14004
G1 X135.887 Y143.08 E0.06839
G1 X135.887 Y156.92 E0.55303
G1 X136.542 Y158.502 E0.06839
G1 X141.498 Y163.458 E0.28007
G1 X143.08 Y164.113 E0.06839
G1 X156.92 Y164.113 E0.55303
G1 X158.502 Y163.458 E0.06839
G1 X163.458 Y158.502 E0.28007
G1 X164.113 Y156.92 E0.06839
G1 X164.113 Y143.08 E0.55303
G1 X163.458 Y141.498 E0.06839
G1 X158.502 Y136.542 E0.28007
G1 X156.92 Y135.887 E0.06839
G1 X143.08 Y135.887 E0.55303
G1 X141.498 Y136.542 E0.06839
G1 X139.02 Y139.02 E0.14004
G1 E-0.7 F3000
M204 S7000
G1 Z0.42 F12000
; acceleration to travel
M204 S8000
G1 X140.539 Y140.539
; decel to extrusion
M204 S3000
G1 X141.109 Y141.109
; end travel
G1 Z0.22
G1 E0.7 F2700
;WIDTH:0.56
G1 F3600
G1 X143.091 Y139.127 E0.12147
G1 X143.3 Y138.987 E0.01091
G1 X143.583 Y138.876 E0.01316
G1 X143.781 Y138.841 E0.00874
G1 X156.269 Y138.846 E0.54117
G1 X156.465 Y138.89 E0.00874
G1 X156.7 Y138.987 E0.01098
G1 X156.909 Y139.127 E0.01091
G1 X160.873 Y143.091 E0.24295
G1 X161.013 Y143.3 E0.01091
G1 X161.124 Y143.583 E0.01316
G1 X161.159 Y143.781 E0.00874
G1 X161.159 Y156.219 E0.539
G1 X161.11 Y156.465 E0.01091
G1 X160.989 Y156.744 E0.01316
G1 X160.873 Y156.909 E0.00874
G1 X156.909 Y160.873 E0.24294
G1 X156.7 Y161.013 E0.01091
G1 X156.417 Y161.124 E0.01316
G1 X156.219 Y161.159 E0.00874
G1 X143.781 Y161.159 E0.539
G1 X143.535 Y161.11 E0.01091
G1 X143.256 Y160.989 E0.01316
G1 X143.091 Y160.873 E0.00874
G1 X139.127 Y156.909 E0.24295
G1 X138.987 Y156.7 E0.01091
G1 X138.876 Y156.417 E0.01316
G1 X138.841 Y156.219 E0.00874
G1 X138.841 Y143.781 E0.539
G1 X138.89 Y143.535 E0.01091
G1 X139.011 Y143.256 E0.01316
G1 X139.127 Y143.091 E0.00874
G1 X141.109 Y141.109 E0.12147
G1 X141.472 Y141.472 F12000
G1 F3600
G1 X143.436 Y139.508 E0.12038
G1 X143.52 Y139.452 E0.00438
G1 X143.708 Y139.374 E0.0088
G1 X143.807 Y139.354 E0.00438
G1 X156.193 Y139.354 E0.53682
G1 X156.292 Y139.374 E0.00438
G1 X156.48 Y139.452 E0.0088
G1 X156.564 Y139.508 E0.00438
G1 X160.492 Y143.436 E0.24076
G1 X160.548 Y143.52 E0.00438
G1 X160.626 Y143.708 E0.0088
G1 X160.646 Y143.807 E0.00438
G1 X160.646 Y156.193 E0.53682
G1 X160.626 Y156.292 E0.00438
G1 X160.548 Y156.48 E0.0088
G1 X160.492 Y156.564 E0.00438
G1 X156.564 Y160.492 E0.24076
G1 X156.48 Y160.548 E0.00438
G1 X156.292 Y160.626 E0.0088
G1 X156.193 Y160.646 E0.00438
G1 X143.807 Y160.646 E0.53682
G1 X143.708 Y160.626 E0.00438
G1 X143.52 Y160.548 E0.0088
G1 X143.436 Y160.492 E0.00438
G1 X139.508 Y156.564 E0.24076
G1 X139.452 Y156.48 E0.00438
G1 X139.374 Y156.292 E0.0088
G1 X139.354 Y156.193 E0.00438
G1 X139.354 Y143.807 E0.53682
G1 X139.374 Y143.708 E0.00438
G1 X139.452 Y143.52 E0.0088
G1 X139.508 Y143.436 E0.00438
G1 X141.472 Y141.472 E0.12038
G1 X141.834 Y141.834 F12000
G1 F3600
G1 X143.763 Y139.906 E0.11819
G1 X143.857 Y139.867 E0.00442
G1 X156.143 Y139.867 E0.53244
G1 X156.237 Y139.906 E0.00442
G1 X156.593 Y140.262 E0.02183
G1 X160.094 Y143.763 E0.21455
G1 X160.133 Y143.857 E0.00442
G1 X160.133 Y156.143 E0.53244
G1 X160.094 Y156.237 E0.00442
G1 X156.237 Y160.094 E0.23638
G1 X156.143 Y160.133 E0.00442
G1 X143.857 Y160.133 E0.53244
M73 P3 R17
G1 X143.763 Y160.094 E0.00442
G1 X139.906 Y156.237 E0.23638
G1 X139.867 Y156.143 E0.00442
G1 X139.867 Y143.857 E0.53244
G1 X139.906 Y143.763 E0.00442
G1 X141.834 Y141.834 E0.11819
M104 S255 ; set temperature
G1 E-0.7 F3000
M204 S7000
G1 Z0.42 F12000
; printing object Voron_Design_Cube_v7 id:0 copy 0
EXCLUDE_OBJECT_START NAME=Voron_Design_Cube_v7_id_0_copy_0
; acceleration to travel
M204 S8000
G1 X153.064 Y140.698
; decel to extrusion
M204 S2000
G1 X155.976 Y140.403
; end travel
G1 Z0.22
G1 E0.7 F2700
;TYPE:External perimeter
G1 F4200
G1 X156.214 Y140.641 E0.01459
G1 X159.597 Y144.024 E0.20732
G1 X159.597 Y155.976 E0.51797
G1 X155.976 Y159.597 E0.22191
G1 X144.024 Y159.597 E0.51797
G1 X140.403 Y155.976 E0.22191
G1 X140.403 Y144.024 E0.51797
G1 X144.024 Y140.403 E0.22191
G1 X155.976 Y140.403 E0.51797
;WIPE_START
M204 S7000
G1 X155.976 Y140.803 F12000
;WIPE_END
M204 S3000
G1 X155.764 Y140.916
;TYPE:Internal perimeter
G1 F4200
G1 X159.084 Y144.236 E0.2035
G1 X159.084 Y155.764 E0.49956
G1 X155.764 Y159.084 E0.2035
G1 X144.236 Y159.084 E0.49956
G1 X140.916 Y155.764 E0.2035
G1 X140.916 Y144.236 E0.49956
G1 X144.236 Y140.916 E0.2035
G1 X155.764 Y140.916 E0.49956
G1 X155.551 Y141.429 F12000
G1 F4200
G1 X158.571 Y144.449 E0.18509
G1 X158.571 Y155.551 E0.48115
G1 X155.551 Y158.571 E0.18509
G1 X144.449 Y158.571 E0.48115
G1 X141.429 Y155.551 E0.18509
G1 X141.429 Y144.449 E0.48115
G1 X144.449 Y141.429 E0.18509
G1 X155.551 Y141.429 E0.48115
G1 E-0.7 F3000
M204 S7000
G1 Z0.42 F12000
; acceleration to travel
M204 S8000
G1 X147.099 Y150.099
; decel to extrusion
M204 S2000
G1 X144.986 Y152.267
; end travel
G1 Z0.22
G1 E0.7 F2700
;TYPE:External perimeter
G1 F4200
G1 X145.22 Y152.728 E0.02241
G1 X145.528 Y153.208 E0.0247
G1 X145.884 Y153.654 E0.02472
G1 X146.284 Y154.06 E0.02472
G1 X146.724 Y154.423 E0.02473
G1 X147.2 Y154.738 E0.02472
G1 X147.702 Y155.001 E0.02456
G1 X148.018 Y155.134 E0.01486
G1 X148.509 Y155.298 E0.02242
G1 X149.064 Y155.424 E0.0247
G1 X149.631 Y155.491 E0.02472
G1 X150.201 Y155.5 E0.02473
G1 X150.77 Y155.45 E0.02472
G1 X151.33 Y155.341 E0.02472
G1 X151.872 Y155.176 E0.02456
G1 X152.19 Y155.048 E0.01487
G1 X152.655 Y154.821 E0.02242
G1 X153.139 Y154.521 E0.02469
G1 X153.59 Y154.171 E0.02472
G1 X154.003 Y153.777 E0.02472
G1 X154.372 Y153.343 E0.02473
G1 X154.695 Y152.872 E0.02472
G1 X154.967 Y152.371 E0.02472
G1 X155.186 Y151.844 E0.02472
G1 X155.349 Y151.297 E0.02472
G1 X155.454 Y150.736 E0.02473
G1 X155.501 Y150.172 E0.02455
G1 X155.501 Y149.828 E0.01491
G1 X155.454 Y149.264 E0.02455
G1 X155.349 Y148.703 E0.02473
G1 X155.186 Y148.157 E0.02469
G1 X154.989 Y147.678 E0.02243
G1 X154.835 Y147.372 E0.01487
G1 X154.54 Y146.888 E0.02455
G1 X154.193 Y146.435 E0.02472
G1 X153.802 Y146.02 E0.02472
G1 X153.369 Y145.648 E0.02472
G1 X152.901 Y145.323 E0.02472
G1 X152.402 Y145.048 E0.02469
G1 X151.926 Y144.845 E0.02242
G1 X151.601 Y144.734 E0.01486
G1 X151.051 Y144.598 E0.02456
G1 X150.486 Y144.518 E0.02472
G1 X149.916 Y144.497 E0.02472
G1 X149.631 Y144.516 E0.01236
G1 X149.347 Y144.535 E0.01236
G1 X148.785 Y144.632 E0.02472
G1 X148.235 Y144.787 E0.02473
G1 X147.705 Y144.997 E0.02472
G1 X147.2 Y145.262 E0.02473
G1 X146.724 Y145.577 E0.02472
G1 X146.284 Y145.94 E0.0247
G1 X145.921 Y146.307 E0.02241
G1 X145.698 Y146.568 E0.01486
G1 X145.367 Y147.028 E0.02457
G1 X145.085 Y147.524 E0.02472
G1 X144.855 Y148.046 E0.02473
G1 X144.68 Y148.589 E0.02472
G1 X144.563 Y149.147 E0.02472
G1 X144.504 Y149.715 E0.02472
G1 X144.504 Y150.285 E0.02473
G1 X144.563 Y150.853 E0.02472
G1 X144.68 Y151.411 E0.02472
G1 X144.854 Y151.951 E0.02457
G1 X144.986 Y152.267 E0.01485
;WIPE_START
M204 S7000
G1 X144.759 Y152.597 F12000
;WIPE_END
M204 S3000
G1 X144.528 Y152.498
;TYPE:Internal perimeter
G1 F4200
G1 X144.774 Y152.983 E0.02357
G1 X145.11 Y153.507 E0.02698
G1 X145.5 Y153.994 E0.02703
G1 X145.937 Y154.439 E0.02703
G1 X146.419 Y154.836 E0.02703
G1 X146.938 Y155.18 E0.02703
G1 X147.483 Y155.465 E0.02666
G1 X147.837 Y155.614 E0.01663
G1 X148.37 Y155.792 E0.02436
G1 X148.977 Y155.93 E0.02696
G1 X149.596 Y156.004 E0.02703
G1 X150.22 Y156.013 E0.02703
G1 X150.841 Y155.958 E0.02703
G1 X151.454 Y155.839 E0.02703
G1 X152.042 Y155.66 E0.02664
G1 X152.398 Y155.518 E0.01664
G1 X152.903 Y155.27 E0.02437
G1 X153.432 Y154.942 E0.02695
G1 X153.925 Y154.561 E0.02703
G1 X154.376 Y154.13 E0.02703
G1 X154.78 Y153.655 E0.02703
G1 X155.133 Y153.14 E0.02703
G1 X155.43 Y152.592 E0.02703
G1 X155.669 Y152.016 E0.02703
G1 X155.848 Y151.418 E0.02703
G1 X155.963 Y150.805 E0.02703
G1 X156.013 Y150.193 E0.02661
G1 X156.013 Y149.807 E0.01674
G1 X155.963 Y149.195 E0.02661
G1 X155.848 Y148.582 E0.02703
G1 X155.67 Y147.986 E0.02695
G1 X155.456 Y147.465 E0.02439
G1 X155.284 Y147.122 E0.01665
G1 X154.963 Y146.598 E0.02663
G1 X154.584 Y146.103 E0.02703
G1 X154.156 Y145.649 E0.02703
G1 X153.684 Y145.242 E0.02703
G1 X153.171 Y144.886 E0.02703
G1 X152.626 Y144.586 E0.02696
G1 X152.109 Y144.366 E0.02438
G1 X151.746 Y144.242 E0.01663
G1 X151.149 Y144.093 E0.02664
G1 X150.531 Y144.006 E0.02703
G1 X149.908 Y143.983 E0.02703
G1 X149.597 Y144.004 E0.01352
G1 X149.286 Y144.025 E0.01352
G1 X148.671 Y144.131 E0.02703
G1 X148.071 Y144.3 E0.02703
G1 X147.491 Y144.531 E0.02703
G1 X146.938 Y144.82 E0.02703
G1 X146.419 Y145.164 E0.02703
G1 X145.938 Y145.56 E0.02697
G1 X145.543 Y145.959 E0.02435
G1 X145.294 Y146.251 E0.01662
G1 X144.935 Y146.751 E0.02667
G1 X144.626 Y147.293 E0.02703
G1 X144.375 Y147.864 E0.02703
G1 X144.184 Y148.457 E0.02703
G1 X144.055 Y149.068 E0.02703
G1 X143.991 Y149.688 E0.02703
G1 X143.991 Y150.312 E0.02703
G1 X144.055 Y150.932 E0.02703
G1 X144.184 Y151.543 E0.02703
G1 X144.372 Y152.128 E0.02667
G1 X144.528 Y152.498 E0.01738
G1 X144.07 Y152.729 F12000
G1 F4200
G1 X144.329 Y153.238 E0.02474
G1 X144.693 Y153.806 E0.02925
G1 X145.116 Y154.335 E0.02934
G1 X145.591 Y154.818 E0.02934
G1 X146.113 Y155.248 E0.02934
G1 X146.677 Y155.622 E0.02933
G1 X147.265 Y155.93 E0.02875
G1 X147.656 Y156.094 E0.01839
G1 X148.232 Y156.287 E0.02631
G1 X148.89 Y156.436 E0.02923
G1 X149.562 Y156.516 E0.02934
G1 X150.239 Y156.526 E0.02934
G1 X150.913 Y156.467 E0.02933
G1 X151.578 Y156.337 E0.02934
G1 X152.212 Y156.144 E0.02873
G1 X152.606 Y155.987 E0.01841
G1 X153.152 Y155.72 E0.02632
G1 X153.725 Y155.364 E0.02922
G1 X154.26 Y154.95 E0.02934
G1 X154.75 Y154.482 E0.02934
G1 X155.188 Y153.966 E0.02934
G1 X155.571 Y153.408 E0.02934
G1 X155.894 Y152.813 E0.02933
G1 X156.153 Y152.188 E0.02934
G1 X156.347 Y151.539 E0.02934
G1 X156.472 Y150.874 E0.02934
G1 X156.526 Y150.214 E0.02868
G1 X156.526 Y149.786 E0.01857
G1 X156.472 Y149.126 E0.02868
G1 X156.347 Y148.461 E0.02934
G1 X156.154 Y147.815 E0.02921
G1 X155.923 Y147.252 E0.02635
G1 X155.732 Y146.873 E0.01842
G1 X155.387 Y146.308 E0.0287
G1 X154.976 Y145.77 E0.02933
G1 X154.511 Y145.278 E0.02933
G1 X153.998 Y144.836 E0.02934
G1 X153.442 Y144.45 E0.02934
G1 X152.851 Y144.125 E0.02922
G1 X152.292 Y143.886 E0.02633
G1 X151.89 Y143.75 E0.01841
G1 X151.247 Y143.589 E0.02873
G1 X150.577 Y143.495 E0.02934
G1 X149.9 Y143.47 E0.02934
G1 X149.563 Y143.493 E0.01467
G1 X149.225 Y143.515 E0.01467
G1 X148.558 Y143.63 E0.02934
G1 X147.906 Y143.814 E0.02934
G1 X147.277 Y144.064 E0.02934
G1 X146.677 Y144.378 E0.02934
G1 X146.113 Y144.752 E0.02934
G1 X145.592 Y145.181 E0.02924
G1 X145.165 Y145.612 E0.02629
G1 X144.89 Y145.934 E0.01838
G1 X144.503 Y146.474 E0.02876
G1 X144.168 Y147.062 E0.02934
G1 X143.895 Y147.681 E0.02934
G1 X143.687 Y148.326 E0.02934
G1 X143.548 Y148.988 E0.02934
G1 X143.478 Y149.661 E0.02934
G1 X143.478 Y150.339 E0.02934
G1 X143.548 Y151.012 E0.02934
G1 X143.687 Y151.674 E0.02934
G1 X143.891 Y152.306 E0.02877
G1 X144.054 Y152.697 E0.01838
G1 X144.07 Y152.729 E0.00154
G1 E-0.7 F3000
M204 S7000
G1 Z0.42 F12000
; acceleration to travel
M204 S8000
G1 X142.261 Y154.262
; decel to extrusion
M204 S3000
G1 X141.583 Y154.836
; end travel
G1 Z0.22
G1 E0.7 F2700
;TYPE:Solid infill
G1 F4200
G1 X144.943 Y158.197 E0.20595
G1 X145.668 Y158.197 E0.03143
G1 X141.803 Y154.332 E0.23688
G1 X141.803 Y153.607 E0.03143
G1 X146.393 Y158.197 E0.28133
G1 X147.119 Y158.197 E0.03143
G1 X141.803 Y152.881 E0.32577
G1 X141.803 Y152.156 E0.03143
G1 X148.064 Y158.417 E0.38373
G1 E-0.7 F3000
M204 S7000
G1 Z0.42 F12000
; acceleration to travel
M204 S8000
G1 X150.061 Y146.174
; decel to extrusion
M204 S3000
G1 X150.81 Y141.583
; end travel
G1 Z0.22
G1 E0.7 F2700
G1 F4200
G1 X153.015 Y143.788 E0.13513
G1 X152.418 Y143.533 E0.02813
G1 X151.883 Y143.381 E0.02409
G1 X150.305 Y141.803 E0.09669
G1 X149.58 Y141.803 E0.03143
G1 X150.946 Y143.169 E0.0837
G1 X150.604 Y143.121 E0.01497
G1 X150.171 Y143.12 E0.01873
G1 X148.855 Y141.803 E0.08068
G1 X148.13 Y141.803 E0.03143
G1 X149.456 Y143.13 E0.08129
G1 X148.818 Y143.217 E0.0279
G1 X147.404 Y141.803 E0.08665
