; generated by SuperSlicer 2.5.59 on 2023-04-20 at 21:27:18 UTC


;
;

;
;
; 

; external perimeters extrusion width = 0.44mm
; perimeters extrusion width = 0.46mm
; infill extrusion width = 0.46mm
; solid infill extrusion width = 0.46mm
; top infill extrusion width = 0.44mm
; support material extrusion width = 0.46mm

; object:{"name":"square_tower","id":"square_tower.stl id:0 copy 0","object_center":[150.000000,148.500000,0.000000],"boundingbox_center":[150.000000,148.500000,25.000000],"boundingbox_size":[66.000000,65.945206,50.000000]}
EXCLUDE_OBJECT_DEFINE NAME=square_tower_stl_id_0_copy_0 CENTER=150.000000,148.500000 POLYGON=[[117.000000,120.500008],[117.109264,119.460448],[117.432264,118.466328],[117.954928,117.561080],[118.654352,116.784288],[119.500000,116.169880],[120.454912,115.744720],[121.477360,115.527400],[178.522592,115.527400],[179.545104,115.744720],[180.500000,116.169880],[181.345696,116.784288],[182.045104,117.561080],[182.567696,118.466328],[182.890704,119.460448],[183.000000,120.500008],[183.000000,176.500000],[182.890704,177.539616],[182.567696,178.533712],[182.045104,179.438912],[181.345696,180.215696],[180.500000,180.830112],[179.545104,181.255312],[178.522592,181.472592],[121.477360,181.472592],[120.454912,181.255312],[119.500000,180.830112],[118.654352,180.215696],[117.954928,179.438912],[117.432264,178.533712],[117.109264,177.539616],[117.000000,176.500000],[117.000000,120.500008]]
; plater:{"center":[150.000000,148.500000,0.000000],"boundingbox_center":[150.000000,148.500000,25.000000],"boundingbox_size":[66.000000,65.945206,50.000000]}

;TYPE:Custom
SET_PRINT_STATS_INFO TOTAL_LAYER=167

M104 S0 ; Stops SuperSlicer from sending temp waits separately

M109 S0

M140 S0

print_start EXTRUDER=252 BED=105 CHAMBER=0
M107
G21 ; set units to millimeters
G90 ; use absolute coordinates
M82 ; use absolute distances for extrusion
G92 E0
; Filament gcode
;_TOOLCHANGE 0
M107
;LAYER_CHANGE
;Z:0.3
;HEIGHT:0.3
TIMELAPSE_TAKE_FRAME
;BEFORE_LAYER_CHANGE
;0.3


G1 Z0.3 F12000
SET_PRINT_STATS_INFO CURRENT_LAYER=1
;AFTER_LAYER_CHANGE
;0.3
G1 E-0.7 F2520
G1 Z0.6 F12000
G1 X116.794 Y114.224
G1 Z0.3
G1 E0 F2340
;TYPE:Skirt
;WIDTH:0.54
G1 F3600
G1 X115.603 Y115.444 E0.10112
G1 X114.692 Y116.884 E0.20224
G1 X114.422 Y117.488 E0.24149
G1 X113.962 Y119.13 E0.34262
G1 X113.835 Y120.5 E0.42425
G1 X113.835 Y176.5 E3.74628
G1 X114.099 Y178.518 E3.86699
G1 X114.692 Y180.116 E3.96811
G1 X115.603 Y181.556 E4.06923
G1 X116.794 Y182.776 E4.17035
G1 X118.213 Y183.721 E4.27147
G1 X119.168 Y184.146 E4.33348
G1 X119.797 Y184.351 E4.37274
G1 X121.477 Y184.637 E4.47386
G1 X178.523 Y184.637 E7.85789
G1 X180.203 Y184.351 E7.95901
G1 X181.787 Y183.721 E8.06014
G1 X183.206 Y182.776 E8.16126
G1 X184.397 Y181.556 E8.26239
G1 X184.786 Y181.021 E8.30163
G1 X185.577 Y179.512 E8.40275
G1 X186.038 Y177.87 E8.50387
G1 X186.165 Y176.5 E8.58551
G1 X186.147 Y120.169 E11.92717
G1 X185.9 Y118.483 E12.02829
G1 X185.308 Y116.884 E12.1294
G1 X184.786 Y115.979 E12.19141
G1 X183.698 Y114.667 E12.29254
G1 X183.206 Y114.224 E12.33179
G1 X181.787 Y113.279 E12.43291
G1 X180.203 Y112.649 E12.53404
G1 X179.181 Y112.432 E12.59605
G1 X178.523 Y112.363 E12.63529
G1 X121.477 Y112.363 E16.01933
G1 X119.797 Y112.649 E16.12045
G1 X118.213 Y113.279 E16.22157
G1 X116.844 Y114.191 E16.31914
G1 X117.109 Y114.585 F12000
G1 F3600
G1 X117.074 Y114.609 E16.32166
G1 X115.957 Y115.762 E16.4169
G1 X115.103 Y117.122 E16.51214
G1 X114.875 Y117.635 E16.54549
G1 X114.435 Y119.179 E16.64073
G1 X114.311 Y120.5 E16.71941
G1 X114.311 Y176.5 E20.04144
G1 X114.552 Y178.371 E20.15332
G1 X115.104 Y179.878 E20.24856
G1 X115.957 Y181.238 E20.34379
G1 X117.074 Y182.391 E20.43903
G1 X118.406 Y183.287 E20.53426
G1 X119.361 Y183.712 E20.59627
G1 X119.896 Y183.886 E20.62963
G1 X121.477 Y184.162 E20.72486
G1 X178.523 Y184.162 E24.10889
G1 X180.104 Y183.886 E24.20413
G1 X181.594 Y183.287 E24.29938
G1 X182.926 Y182.391 E24.39461
G1 X184.043 Y181.238 E24.48985
G1 X184.374 Y180.783 E24.5232
G1 X185.125 Y179.365 E24.61843
G1 X185.565 Y177.821 E24.71367
G1 X185.689 Y176.5 E24.79236
G1 X185.674 Y120.219 E28.13107
G1 X185.448 Y118.63 E28.2263
G1 X184.897 Y117.122 E28.32153
G1 X184.374 Y116.217 E28.38354
G1 X183.344 Y114.985 E28.47878
G1 X182.926 Y114.609 E28.51213
G1 X181.594 Y113.713 E28.60737
G1 X180.104 Y113.114 E28.70261
G1 X179.082 Y112.897 E28.76462
G1 X178.523 Y112.838 E28.79797
G1 X121.477 Y112.838 E32.182
G1 X119.896 Y113.114 E32.27724
G1 X118.406 Y113.713 E32.37247
G1 X117.159 Y114.552 E32.46163
G1 X117.465 Y114.972 F12000
G1 F3600
G1 X117.009 Y115.303 E32.49501
G1 X116.038 Y116.454 E32.58436
G1 X115.327 Y117.782 E32.67372
G1 X114.908 Y119.229 E32.76307
G1 X114.787 Y120.5 E32.83881
G1 X114.787 Y176.5 E36.16083
G1 X114.908 Y177.771 E36.23657
G1 X115.327 Y179.218 E36.32592
G1 X116.038 Y180.546 E36.41528
G1 X117.009 Y181.697 E36.50463
G1 X118.199 Y182.621 E36.59398
G1 X119.555 Y183.277 E36.68333
G1 X121.477 Y183.686 E36.79995
G1 X178.523 Y183.686 E40.18398
G1 X180.445 Y183.277 E40.30059
G1 X181.801 Y182.621 E40.38994
G1 X182.991 Y181.697 E40.4793
G1 X183.962 Y180.546 E40.56865
G1 X184.673 Y179.218 E40.658
G1 X185.092 Y177.771 E40.74735
G1 X185.213 Y176.5 E40.82309
G1 X185.201 Y120.269 E44.15885
G1 X184.996 Y118.776 E44.2482
G1 X184.485 Y117.36 E44.33755
G1 X183.962 Y116.454 E44.39955
G1 X182.991 Y115.303 E44.48891
G1 X181.4 Y114.148 E44.60552
G1 X180.005 Y113.58 E44.69488
G1 X178.983 Y113.362 E44.75689
G1 X121.477 Y113.314 E48.16822
G1 X119.995 Y113.58 E48.25757
G1 X118.6 Y114.148 E48.34693
G1 X117.513 Y114.937 E48.4266
G1 X117.787 Y115.314 F12000
G1 F3600
G1 X117.363 Y115.621 E48.45767
G1 X116.45 Y116.692 E48.54114
G1 X115.78 Y117.929 E48.62461
G1 X115.381 Y119.279 E48.70809
G1 X115.262 Y120.5 E48.78087
G1 X115.262 Y176.5 E52.1029
G1 X115.381 Y177.721 E52.17569
G1 X115.78 Y179.071 E52.25916
G1 X116.45 Y180.308 E52.34263
G1 X117.363 Y181.379 E52.4261
G1 X118.479 Y182.236 E52.50957
G1 X119.748 Y182.843 E52.59304
G1 X121.477 Y183.21 E52.69792
G1 X178.523 Y183.21 E56.08195
G1 X180.252 Y182.843 E56.18683
G1 X181.521 Y182.236 E56.2703
G1 X182.637 Y181.378 E56.35378
G1 X183.55 Y180.308 E56.43725
G1 X184.22 Y179.071 E56.52072
G1 X184.619 Y177.721 E56.60418
G1 X184.738 Y176.5 E56.67698
G1 X184.728 Y120.318 E60.00978
G1 X184.543 Y118.923 E60.09325
G1 X184.073 Y117.597 E60.17672
G1 X183.55 Y116.692 E60.23873
G1 X182.637 Y115.621 E60.3222
G1 X181.207 Y114.582 E60.42708
G1 X179.906 Y114.045 E60.51055
G1 X178.884 Y113.828 E60.57256
G1 X121.477 Y113.79 E63.97803
G1 X120.094 Y114.045 E64.0615
G1 X118.793 Y114.582 E64.14497
G1 X117.835 Y115.278 E64.21521
M104 S252 ; set temperature
G92 E0
G1 E-0.7 F2520
G1 Z0.6 F12000
; printing object square_tower.stl id:0 copy 0
EXCLUDE_OBJECT_START NAME=square_tower_stl_id_0_copy_0
G1 X120.22 Y124.91
G1 Z0.3
G1 E0 F2340
;TYPE:External perimeter
;WIDTH:0.44
G1 F3600
G1 X119.611 Y124.639 E0.03125
G1 X118.802 Y124.051 E0.07806
G1 X118.134 Y123.309 E0.12486
G1 X117.634 Y122.444 E0.17166
G1 X117.326 Y121.494 E0.21847
G1 X117.221 Y120.5 E0.26527
G1 X117.326 Y119.506 E0.31208
G1 X117.634 Y118.556 E0.35888
G1 X118.134 Y117.691 E0.40569
G1 X118.802 Y116.949 E0.45249
G1 X119.611 Y116.361 E0.49929
G1 X120.523 Y115.955 E0.5461
G1 X121.5 Y115.747 E0.5929
G1 X122.5 Y115.747 E0.63971
G1 X123.477 Y115.955 E0.68651
G1 X124.389 Y116.361 E0.73332
G1 X125.198 Y116.949 E0.78012
G1 X125.866 Y117.691 E0.82689
G1 X126.451 Y118.72 E0.88236
G1 X173.549 Y118.72 E3.0889
G1 X174.134 Y117.691 E3.14438
G1 X174.802 Y116.949 E3.19115
G1 X175.611 Y116.361 E3.23795
G1 X176.523 Y115.955 E3.28476
G1 X177.501 Y115.747 E3.33156
G1 X178.499 Y115.747 E3.37836
G1 X179.477 Y115.955 E3.42517
G1 X180.389 Y116.361 E3.47197
G1 X181.198 Y116.949 E3.51878
G1 X181.866 Y117.691 E3.56558
G1 X182.366 Y118.556 E3.61239
G1 X182.674 Y119.506 E3.65919
G1 X182.779 Y120.5 E3.70599
G1 X182.674 Y121.494 E3.7528
G1 X182.366 Y122.444 E3.7996
G1 X181.866 Y123.309 E3.84641
G1 X181.198 Y124.051 E3.89321
G1 X180.389 Y124.639 E3.94002
G1 X179.78 Y124.91 E3.97127
G1 X179.78 Y172.09 E6.18163
G1 X180.389 Y172.361 E6.21288
G1 X181.198 Y172.949 E6.25969
G1 X181.866 Y173.691 E6.30649
G1 X182.366 Y174.556 E6.35329
G1 X182.674 Y175.506 E6.4001
G1 X182.779 Y176.5 E6.4469
G1 X182.674 Y177.494 E6.49371
G1 X182.366 Y178.444 E6.54051
G1 X181.866 Y179.309 E6.58732
G1 X181.198 Y180.051 E6.63412
G1 X180.389 Y180.639 E6.68093
G1 X179.477 Y181.045 E6.72773
G1 X178.499 Y181.253 E6.77454
G1 X177.501 Y181.253 E6.82134
G1 X176.523 Y181.045 E6.86814
G1 X175.611 Y180.639 E6.91495
G1 X174.802 Y180.051 E6.96175
G1 X174.134 Y179.309 E7.00852
G1 X173.549 Y178.28 E7.06399
G1 X126.451 Y178.28 E9.27053
G1 X125.866 Y179.309 E9.32601
G1 X125.198 Y180.051 E9.37278
G1 X124.389 Y180.639 E9.41958
G1 X123.477 Y181.045 E9.46639
G1 X122.5 Y181.253 E9.51319
G1 X121.5 Y181.253 E9.55999
G1 X120.523 Y181.045 E9.6068
G1 X119.611 Y180.639 E9.6536
G1 X118.802 Y180.051 E9.70041
G1 X118.134 Y179.309 E9.74721
G1 X117.634 Y178.444 E9.79401
G1 X117.326 Y177.494 E9.84082
G1 X117.221 Y176.5 E9.88762
G1 X117.326 Y175.506 E9.93443
G1 X117.634 Y174.556 E9.98123
G1 X118.134 Y173.691 E10.02804
G1 X118.802 Y172.949 E10.07484
G1 X119.611 Y172.361 E10.12164
G1 X120.22 Y172.09 E10.1529
G1 X120.22 Y124.97 E12.36045
;WIPE_START
G1 X120.33 Y124.525 F12000
;WIPE_END
G1 X120.606 Y124.717
;TYPE:Internal perimeter
;WIDTH:0.46
G1 F3600
G1 X120.606 Y124.659 E12.36329
G1 X119.804 Y124.303 E12.40656
G1 X119.062 Y123.763 E12.45186
G1 X118.448 Y123.081 E12.49715
G1 X117.989 Y122.286 E12.54245
G1 X117.705 Y121.413 E12.58775
G1 X117.609 Y120.5 E12.63304
G1 X117.705 Y119.587 E12.67834
G1 X117.989 Y118.714 E12.72364
G1 X118.448 Y117.919 E12.76893
G1 X119.062 Y117.237 E12.81423
G1 X119.804 Y116.697 E12.85953
G1 X120.643 Y116.324 E12.90482
G1 X121.541 Y116.133 E12.95012
G1 X122.459 Y116.133 E12.99542
G1 X123.357 Y116.324 E13.04071
G1 X124.196 Y116.697 E13.08601
G1 X124.938 Y117.237 E13.13131
G1 X125.551 Y117.917 E13.1765
G1 X126.226 Y119.106 E13.24393
G1 X173.774 Y119.106 E15.59011
G1 X174.449 Y117.917 E15.65754
G1 X175.062 Y117.237 E15.70274
G1 X175.804 Y116.697 E15.74803
G1 X176.643 Y116.324 E15.79333
G1 X177.541 Y116.133 E15.83863
G1 X178.459 Y116.133 E15.88392
G1 X179.357 Y116.324 E15.92922
G1 X180.196 Y116.697 E15.97452
G1 X180.938 Y117.237 E16.01982
G1 X181.552 Y117.919 E16.06511
G1 X182.011 Y118.714 E16.11041
G1 X182.295 Y119.587 E16.1557
G1 X182.391 Y120.5 E16.201
G1 X182.295 Y121.413 E16.2463
G1 X182.011 Y122.286 E16.29159
G1 X181.552 Y123.081 E16.33689
G1 X180.938 Y123.763 E16.38218
G1 X180.196 Y124.303 E16.42748
G1 X179.394 Y124.659 E16.47076
G1 X179.394 Y172.341 E18.82353
G1 X180.196 Y172.697 E18.8668
G1 X180.938 Y173.237 E18.9121
G1 X181.552 Y173.919 E18.95739
G1 X182.011 Y174.714 E19.00269
G1 X182.295 Y175.587 E19.04798
G1 X182.391 Y176.5 E19.09328
G1 X182.295 Y177.413 E19.13858
G1 X182.011 Y178.286 E19.18387
G1 X181.552 Y179.081 E19.22917
G1 X180.938 Y179.763 E19.27446
G1 X180.196 Y180.303 E19.31976
G1 X179.357 Y180.676 E19.36506
G1 X178.459 Y180.867 E19.41036
G1 X177.541 Y180.867 E19.45565
G1 X176.643 Y180.676 E19.50095
G1 X175.804 Y180.303 E19.54625
G1 X175.062 Y179.763 E19.59155
G1 X174.449 Y179.083 E19.63674
G1 X173.774 Y177.894 E19.70417
G1 X126.226 Y177.894 E22.05034
G1 X125.551 Y179.083 E22.11778
G1 X124.938 Y179.763 E22.16297
G1 X124.196 Y180.303 E22.20827
G1 X123.357 Y180.676 E22.25357
G1 X122.459 Y180.867 E22.29886
G1 X121.541 Y180.867 E22.34416
G1 X120.643 Y180.676 E22.38945
G1 X119.804 Y180.303 E22.43475
G1 X119.062 Y179.763 E22.48005
G1 X118.448 Y179.081 E22.52535
G1 X117.989 Y178.286 E22.57064
G1 X117.705 Y177.413 E22.61594
G1 X117.609 Y176.5 E22.66123
G1 X117.705 Y175.587 E22.70653
G1 X117.989 Y174.714 E22.75183
G1 X118.448 Y173.919 E22.79712
G1 X119.062 Y173.237 E22.84242
G1 X119.804 Y172.697 E22.88772
G1 X120.606 Y172.341 E22.93099
G1 X120.606 Y124.777 E25.27796
G1 X121.001 Y124.519 F12000
G1 F3600
G1 X121.001 Y124.403 E25.28371
G1 X120.003 Y123.958 E25.33761
G1 X119.328 Y123.468 E25.3788
G1 X118.769 Y122.847 E25.42
G1 X118.352 Y122.124 E25.46119
G1 X118.094 Y121.33 E25.50238
G1 X118.007 Y120.5 E25.54357
G1 X118.094 Y119.67 E25.58477
G1 X118.352 Y118.876 E25.62596
G1 X118.769 Y118.153 E25.66715
G1 X119.328 Y117.532 E25.70835
G1 X120.003 Y117.042 E25.74954
G1 X120.766 Y116.702 E25.79073
G1 X121.583 Y116.529 E25.83193
G1 X122.417 Y116.529 E25.87312
G1 X123.234 Y116.702 E25.91431
G1 X123.997 Y117.042 E25.9555
G1 X124.672 Y117.532 E25.9967
G1 X125.228 Y118.15 E26.03772
G1 X125.996 Y119.501 E26.1144
G1 X174.004 Y119.501 E28.48329
G1 X174.772 Y118.15 E28.55996
G1 X175.328 Y117.532 E28.60099
G1 X176.003 Y117.042 E28.64218
G1 X176.766 Y116.702 E28.68337
G1 X177.583 Y116.529 E28.72457
G1 X178.417 Y116.529 E28.76576
G1 X179.234 Y116.702 E28.80695
G1 X179.997 Y117.042 E28.84815
G1 X180.672 Y117.532 E28.88934
G1 X181.231 Y118.153 E28.93053
G1 X181.648 Y118.876 E28.97172
G1 X181.906 Y119.67 E29.01292
G1 X181.993 Y120.5 E29.05411
G1 X181.906 Y121.33 E29.0953
G1 X181.648 Y122.124 E29.1365
G1 X181.231 Y122.847 E29.17769
G1 X180.672 Y123.468 E29.21888
G1 X179.997 Y123.958 E29.26007
G1 X178.999 Y124.403 E29.31397
G1 X178.999 Y172.598 E31.6921
G1 X179.997 Y173.042 E31.746
G1 X180.672 Y173.532 E31.78719
G1 X181.231 Y174.153 E31.82838
G1 X181.648 Y174.876 E31.86957
G1 X181.906 Y175.67 E31.91077
G1 X181.993 Y176.5 E31.95196
G1 X181.906 Y177.33 E31.99316
G1 X181.648 Y178.124 E32.03435
G1 X181.231 Y178.847 E32.07554
G1 X180.672 Y179.468 E32.11673
G1 X179.997 Y179.958 E32.15793
G1 X179.234 Y180.298 E32.19912
G1 X178.417 Y180.471 E32.24031
G1 X177.583 Y180.471 E32.2815
G1 X176.766 Y180.298 E32.3227
G1 X176.003 Y179.958 E32.36389
G1 X175.328 Y179.468 E32.40509
G1 X174.772 Y178.85 E32.44611
G1 X174.004 Y177.499 E32.52278
G1 X125.996 Y177.499 E34.89167
G1 X125.228 Y178.85 E34.96835
G1 X124.672 Y179.468 E35.00937
G1 X123.997 Y179.958 E35.05057
G1 X123.234 Y180.298 E35.09176
G1 X122.417 Y180.471 E35.13295
G1 X121.583 Y180.471 E35.17414
G1 X120.766 Y180.298 E35.21534
G1 X120.003 Y179.958 E35.25653
G1 X119.328 Y179.468 E35.29772
G1 X118.769 Y178.847 E35.33892
G1 X118.352 Y178.124 E35.38011
G1 X118.094 Y177.33 E35.4213
G1 X118.007 Y176.5 E35.46249
G1 X118.094 Y175.67 E35.50369
G1 X118.352 Y174.876 E35.54488
G1 X118.769 Y174.153 E35.58607
G1 X119.328 Y173.532 E35.62727
G1 X120.003 Y173.042 E35.66846
G1 X121.001 Y172.598 E35.72236
G1 X121.001 Y124.579 E38.09177
G1 X121.397 Y124.321 F12000
G1 F3600
G1 X121.397 Y124.146 E38.10044
G1 X120.202 Y123.614 E38.16496
G1 X119.594 Y123.172 E38.20205
G1 X119.091 Y122.613 E38.23914
G1 X118.715 Y121.962 E38.27623
G1 X118.483 Y121.248 E38.31332
G1 X118.405 Y120.5 E38.35041
G1 X118.483 Y119.752 E38.3875
G1 X118.715 Y119.038 E38.42459
G1 X119.091 Y118.387 E38.46167
G1 X119.594 Y117.828 E38.49876
G1 X120.202 Y117.386 E38.53585
G1 X120.889 Y117.081 E38.57294
G1 X121.624 Y116.924 E38.61003
G1 X122.376 Y116.924 E38.64712
G1 X123.111 Y117.081 E38.68421
G1 X123.798 Y117.386 E38.7213
G1 X124.406 Y117.828 E38.75839
G1 X124.906 Y118.383 E38.79524
G1 X125.766 Y119.897 E38.88116
G1 X174.234 Y119.897 E41.27277
G1 X175.094 Y118.383 E41.35869
G1 X175.594 Y117.828 E41.39554
G1 X176.202 Y117.386 E41.43263
G1 X176.889 Y117.081 E41.46972
G1 X177.624 Y116.924 E41.50681
G1 X178.376 Y116.924 E41.54389
G1 X179.111 Y117.081 E41.58099
G1 X179.798 Y117.386 E41.61808
G1 X180.406 Y117.828 E41.65517
G1 X180.909 Y118.387 E41.69225
G1 X181.285 Y119.038 E41.72934
G1 X181.517 Y119.752 E41.76643
G1 X181.595 Y120.5 E41.80352
G1 X181.517 Y121.248 E41.84061
G1 X181.285 Y121.962 E41.8777
G1 X180.909 Y122.613 E41.91479
G1 X180.406 Y123.172 E41.95188
G1 X179.798 Y123.614 E41.98897
G1 X178.603 Y124.146 E42.05349
G1 X178.603 Y172.854 E44.45697
G1 X179.798 Y173.386 E44.5215
G1 X180.406 Y173.828 E44.55859
G1 X180.909 Y174.387 E44.59568
G1 X181.285 Y175.038 E44.63276
G1 X181.517 Y175.752 E44.66985
G1 X181.595 Y176.5 E44.70694
G1 X181.517 Y177.248 E44.74403
G1 X181.285 Y177.962 E44.78112
G1 X180.909 Y178.613 E44.81821
G1 X180.406 Y179.172 E44.8553
G1 X179.798 Y179.614 E44.89239
G1 X179.111 Y179.919 E44.92948
