; generated by SuperSlicer 2.4 on 2023-01-18 at 11:49:39 UTC


;
;

;
;
; 

; external perimeters extrusion width = 0.63mm
; perimeters extrusion width = 0.68mm
; infill extrusion width = 0.68mm
; solid infill extrusion width = 0.68mm
; top infill extrusion width = 0.63mm
; first layer extrusion width = 0.93mm

; object:{"name":"FrontCover","id":"FrontCover id:0 copy 0","object_center":[150.000000,148.500000,0.000000],"boundingbox_center":[150.000000,148.500000,8.200000],"boundingbox_size":[175.000000,110.000000,16.400000]}
; plater:{"center":[150.000000,148.500000,0.000000],"boundingbox_center":[150.000000,148.500000,8.200000],"boundingbox_size":[175.000000,110.000000,16.400000]}

;TYPE:Custom
M104 S0 ; Stops SuperSlicer from sending temp waits separately

M140 S0

print_start EXTRUDER=240 BED=72 CHAMBER=0
M107
G21 ; set units to millimeters
G90 ; use absolute coordinates
M83 ; use relative distances for extrusion
; Filament gcode
;_TOOLCHANGE 0
M107
;LAYER_CHANGE
;Z:0.2
;HEIGHT:0.2
TIMELAPSE_TAKE_FRAME
;BEFORE_LAYER_CHANGE
;0.2


G1 E-0.8 F3000
G1 Z0.2 F8400
G1 Z0.2
;AFTER_LAYER_CHANGE
;0.2
G92 E0
G1 Z0.4
G1 X65.335 Y90.585
G1 Z0.2
G1 E0.8 F1800
;TYPE:Skirt
;WIDTH:0.78
G1 X59.585 Y96.335 E0.49838
G1 X58.957 Y97.85 E0.10051
G1 X58.957 Y199.15 E6.20852
G1 X59.585 Y200.665 E0.10051
G1 X65.335 Y206.415 E0.49838
G1 X66.85 Y207.043 E0.10051
G1 X233.15 Y207.043 E10.19226
G1 X234.665 Y206.415 E0.10051
G1 X240.415 Y200.665 E0.49838
G1 X241.043 Y199.15 E0.10051
G1 X241.043 Y97.85 E6.20852
G1 X240.415 Y96.335 E0.10051
G1 X234.665 Y90.585 E0.49838
G1 X233.15 Y89.957 E0.10051
G1 X66.85 Y89.957 E10.19226
G1 X65.418 Y90.55 E0.09499
G1 X65.856 Y91.106 F8400
G1 F1800
G1 X60.106 Y96.856 E0.49838
G1 X59.694 Y97.85 E0.06593
G1 X59.694 Y199.15 E6.20852
G1 X60.106 Y200.144 E0.06593
G1 X65.856 Y205.894 E0.49838
G1 X66.85 Y206.306 E0.06593
G1 X233.15 Y206.306 E10.19226
G1 X234.144 Y205.894 E0.06593
G1 X239.894 Y200.144 E0.49838
G1 X240.306 Y199.15 E0.06593
G1 X240.306 Y97.85 E6.20852
G1 X239.894 Y96.856 E0.06593
G1 X234.144 Y91.106 E0.49838
G1 X233.15 Y90.694 E0.06593
G1 X66.85 Y90.694 E10.19226
G1 X65.939 Y91.072 E0.06042
G1 X66.377 Y91.627 F8400
G1 F1800
G1 X60.627 Y97.377 E0.49838
G1 X60.431 Y97.85 E0.03136
G1 X60.431 Y199.15 E6.20852
G1 X60.627 Y199.623 E0.03136
G1 X66.377 Y205.373 E0.49838
G1 X66.85 Y205.569 E0.03136
G1 X233.15 Y205.569 E10.19226
G1 X233.623 Y205.373 E0.03136
G1 X239.373 Y199.623 E0.49838
G1 X239.569 Y199.15 E0.03136
G1 X239.569 Y97.85 E6.20852
G1 X239.373 Y97.377 E0.03136
G1 X233.623 Y91.627 E0.49838
G1 X233.15 Y91.431 E0.03136
G1 X66.85 Y91.431 E10.19226
G1 X66.46 Y91.593 E0.02584
G1 X68.095 Y93.228 F8400
;WIDTH:0.93
G1 F1800
G1 X68.166 Y93.156 E0.00742
G1 X231.834 Y93.156 E12.07227
G1 X232.094 Y93.416 E0.0271
G1 X232.094 Y96.237 E0.20802
G1 X232.127 Y96.665 E0.03173
G1 X232.225 Y97.071 E0.03073
G1 X232.384 Y97.456 E0.03073
G1 X232.602 Y97.811 E0.03074
G1 X232.872 Y98.128 E0.03073
G1 X233.189 Y98.398 E0.03073
G1 X233.544 Y98.616 E0.03073
G1 X233.929 Y98.775 E0.03074
G1 X234.335 Y98.873 E0.03073
G1 X234.763 Y98.906 E0.03173
G1 X237.584 Y98.906 E0.20802
G1 X237.844 Y99.166 E0.0271
G1 X237.844 Y197.834 E7.27781
G1 X237.584 Y198.094 E0.0271
G1 X234.763 Y198.094 E0.20802
G1 X234.335 Y198.127 E0.03173
G1 X233.929 Y198.225 E0.03073
G1 X233.544 Y198.384 E0.03074
G1 X233.189 Y198.602 E0.03073
G1 X232.872 Y198.872 E0.03073
G1 X232.602 Y199.189 E0.03073
G1 X232.384 Y199.544 E0.03074
G1 X232.225 Y199.929 E0.03073
G1 X232.127 Y200.335 E0.03073
G1 X232.094 Y200.764 E0.03174
G1 X232.094 Y203.584 E0.20802
G1 X231.834 Y203.844 E0.0271
G1 X68.166 Y203.844 E12.07227
G1 X67.906 Y203.584 E0.0271
G1 X67.906 Y200.764 E0.20802
G1 X67.873 Y200.335 E0.03173
G1 X67.775 Y199.929 E0.03073
G1 X67.616 Y199.544 E0.03073
G1 X67.398 Y199.189 E0.03074
G1 X67.128 Y198.872 E0.03073
G1 X66.811 Y198.602 E0.03073
G1 X66.456 Y198.384 E0.03074
G1 X66.071 Y198.225 E0.03073
G1 X65.665 Y198.127 E0.03073
G1 X65.237 Y198.094 E0.03173
G1 X62.416 Y198.094 E0.20802
G1 X62.156 Y197.834 E0.0271
G1 X62.156 Y99.166 E7.27781
G1 X62.416 Y98.906 E0.0271
G1 X65.237 Y98.906 E0.20802
G1 X65.665 Y98.873 E0.03173
G1 X66.071 Y98.775 E0.03074
G1 X66.456 Y98.616 E0.03073
G1 X66.811 Y98.398 E0.03074
G1 X67.128 Y98.128 E0.03073
G1 X67.398 Y97.811 E0.03073
G1 X67.616 Y97.456 E0.03074
G1 X67.775 Y97.071 E0.03073
G1 X67.873 Y96.665 E0.03073
G1 X67.906 Y96.236 E0.03173
G1 X67.906 Y93.416 E0.20802
G1 X68.032 Y93.291 E0.01305
M104 S240 ; set temperature
G1 E-0.8 F3000
G1 Z0.4 F8400
; printing object FrontCover id:0 copy 0
G1 X69.016 Y99.119
G1 Z0.2
G1 E0.8 F1800
;TYPE:Solid infill
;WIDTH:0.885812
G1 F2400
G1 X69.48 Y99.583 E0.04611
G1 X70.735 Y99.583 E0.08814
G1 X69.782 Y98.63 E0.09462
G1 X69.815 Y98.576 E0.00445
G1 X70.123 Y97.833 E0.05649
G1 X70.146 Y97.739 E0.00681
G1 X71.989 Y99.583 E0.18316
G1 X73.244 Y99.583 E0.08814
G1 X70.34 Y96.679 E0.28849
G1 X70.367 Y96.333 E0.02437
G1 X70.367 Y95.617 E0.05029
G1 X70.533 Y95.617 E0.01163
G1 X74.498 Y99.583 E0.39398
G1 X75.753 Y99.583 E0.08814
G1 X71.787 Y95.617 E0.39398
G1 X73.042 Y95.617 E0.08814
G1 X77.007 Y99.583 E0.39398
G1 X78.262 Y99.583 E0.08814
G1 X74.297 Y95.617 E0.39398
G1 X75.551 Y95.617 E0.08814
G1 X79.516 Y99.583 E0.39398
G1 X80.771 Y99.583 E0.08814
G1 X76.806 Y95.617 E0.39398
G1 X78.06 Y95.617 E0.08814
G1 X82.025 Y99.583 E0.39398
G1 X83.28 Y99.583 E0.08814
G1 X79.315 Y95.617 E0.39398
G1 X80.569 Y95.617 E0.08814
G1 X84.534 Y99.583 E0.39398
G1 X85.789 Y99.583 E0.08814
G1 X81.824 Y95.617 E0.39398
G1 X83.078 Y95.617 E0.08814
G1 X87.043 Y99.583 E0.39398
G1 X88.298 Y99.583 E0.08814
G1 X84.333 Y95.617 E0.39398
G1 X85.587 Y95.617 E0.08814
G1 X89.552 Y99.583 E0.39398
G1 X90.807 Y99.583 E0.08814
G1 X86.842 Y95.617 E0.39398
G1 X88.096 Y95.617 E0.08814
G1 X92.062 Y99.583 E0.39398
G1 X93.316 Y99.583 E0.08814
G1 X89.351 Y95.617 E0.39398
G1 X90.605 Y95.617 E0.08814
G1 X94.571 Y99.583 E0.39398
G1 X95.825 Y99.583 E0.08814
G1 X91.86 Y95.617 E0.39398
G1 X93.114 Y95.617 E0.08814
G1 X97.08 Y99.583 E0.39398
G1 X98.334 Y99.583 E0.08814
G1 X94.369 Y95.617 E0.39398
G1 X95.623 Y95.617 E0.08814
G1 X99.589 Y99.583 E0.39398
G1 X100.843 Y99.583 E0.08814
G1 X96.878 Y95.617 E0.39398
G1 X98.132 Y95.617 E0.08814
G1 X102.098 Y99.583 E0.39398
G1 X103.352 Y99.583 E0.08814
G1 X99.387 Y95.617 E0.39398
G1 X100.641 Y95.617 E0.08814
G1 X104.607 Y99.583 E0.39398
G1 X105.861 Y99.583 E0.08814
G1 X101.896 Y95.617 E0.39398
G1 X103.15 Y95.617 E0.08814
G1 X107.116 Y99.583 E0.39398
G1 X108.37 Y99.583 E0.08814
G1 X104.405 Y95.617 E0.39398
G1 X105.66 Y95.617 E0.08814
G1 X109.625 Y99.583 E0.39398
G1 X110.879 Y99.583 E0.08814
G1 X106.914 Y95.617 E0.39398
G1 X108.169 Y95.617 E0.08814
G1 X112.134 Y99.583 E0.39398
G1 X113.388 Y99.583 E0.08814
G1 X109.423 Y95.617 E0.39398
G1 X110.678 Y95.617 E0.08814
G1 X114.643 Y99.583 E0.39398
G1 X115.897 Y99.583 E0.08814
G1 X111.932 Y95.617 E0.39398
G1 X113.187 Y95.617 E0.08814
G1 X117.152 Y99.583 E0.39398
G1 X118.406 Y99.583 E0.08814
G1 X114.441 Y95.617 E0.39398
G1 X115.696 Y95.617 E0.08814
G1 X119.661 Y99.583 E0.39398
G1 X120.915 Y99.583 E0.08814
G1 X116.95 Y95.617 E0.39398
G1 X118.205 Y95.617 E0.08814
G1 X122.17 Y99.583 E0.39398
G1 X123.424 Y99.583 E0.08814
G1 X119.459 Y95.617 E0.39398
G1 X120.714 Y95.617 E0.08814
G1 X124.679 Y99.583 E0.39398
G1 X125.934 Y99.583 E0.08814
G1 X121.968 Y95.617 E0.39398
G1 X123.223 Y95.617 E0.08814
G1 X127.188 Y99.583 E0.39398
G1 X128.443 Y99.583 E0.08814
G1 X124.477 Y95.617 E0.39398
G1 X125.732 Y95.617 E0.08814
G1 X129.697 Y99.583 E0.39398
G1 X130.952 Y99.583 E0.08814
G1 X126.986 Y95.617 E0.39398
G1 X128.241 Y95.617 E0.08814
G1 X132.206 Y99.583 E0.39398
G1 X133.461 Y99.583 E0.08814
G1 X129.495 Y95.617 E0.39398
G1 X130.75 Y95.617 E0.08814
G1 X134.715 Y99.583 E0.39398
G1 X135.97 Y99.583 E0.08814
G1 X132.004 Y95.617 E0.39398
G1 X133.259 Y95.617 E0.08814
G1 X137.224 Y99.583 E0.39398
G1 X138.479 Y99.583 E0.08814
G1 X134.513 Y95.617 E0.39398
G1 X135.768 Y95.617 E0.08814
G1 X139.733 Y99.583 E0.39398
G1 X140.988 Y99.583 E0.08814
G1 X137.022 Y95.617 E0.39398
G1 X138.277 Y95.617 E0.08814
G1 X142.242 Y99.583 E0.39398
G1 X143.497 Y99.583 E0.08814
G1 X139.532 Y95.617 E0.39398
G1 X140.786 Y95.617 E0.08814
G1 X144.751 Y99.583 E0.39398
G1 X146.006 Y99.583 E0.08814
G1 X142.041 Y95.617 E0.39398
G1 X143.295 Y95.617 E0.08814
G1 X147.26 Y99.583 E0.39398
G1 X148.515 Y99.583 E0.08814
G1 X144.55 Y95.617 E0.39398
G1 X145.804 Y95.617 E0.08814
G1 X149.769 Y99.583 E0.39398
G1 X151.024 Y99.583 E0.08814
G1 X147.059 Y95.617 E0.39398
G1 X148.313 Y95.617 E0.08814
G1 X152.278 Y99.583 E0.39398
G1 X153.533 Y99.583 E0.08814
G1 X149.568 Y95.617 E0.39398
G1 X150.822 Y95.617 E0.08814
G1 X154.787 Y99.583 E0.39398
G1 X156.042 Y99.583 E0.08814
G1 X152.077 Y95.617 E0.39398
G1 X153.331 Y95.617 E0.08814
G1 X157.296 Y99.583 E0.39398
G1 X158.551 Y99.583 E0.08814
G1 X154.586 Y95.617 E0.39398
G1 X155.84 Y95.617 E0.08814
G1 X159.806 Y99.583 E0.39398
G1 X161.06 Y99.583 E0.08814
G1 X157.095 Y95.617 E0.39398
G1 X158.349 Y95.617 E0.08814
G1 X162.315 Y99.583 E0.39398
G1 X163.569 Y99.583 E0.08814
G1 X159.604 Y95.617 E0.39398
G1 X160.858 Y95.617 E0.08814
G1 X164.824 Y99.583 E0.39398
G1 X166.078 Y99.583 E0.08814
G1 X162.113 Y95.617 E0.39398
G1 X163.367 Y95.617 E0.08814
G1 X167.333 Y99.583 E0.39398
G1 X168.587 Y99.583 E0.08814
G1 X164.622 Y95.617 E0.39398
G1 X165.876 Y95.617 E0.08814
G1 X169.842 Y99.583 E0.39398
G1 X171.096 Y99.583 E0.08814
G1 X167.131 Y95.617 E0.39398
G1 X168.385 Y95.617 E0.08814
G1 X172.351 Y99.583 E0.39398
G1 X173.605 Y99.583 E0.08814
G1 X169.64 Y95.617 E0.39398
G1 X170.894 Y95.617 E0.08814
G1 X174.86 Y99.583 E0.39398
G1 X176.114 Y99.583 E0.08814
G1 X172.149 Y95.617 E0.39398
G1 X173.404 Y95.617 E0.08814
G1 X177.369 Y99.583 E0.39398
G1 X178.623 Y99.583 E0.08814
G1 X174.658 Y95.617 E0.39398
G1 X175.913 Y95.617 E0.08814
G1 X179.878 Y99.583 E0.39398
G1 X181.132 Y99.583 E0.08814
G1 X177.167 Y95.617 E0.39398
G1 X178.422 Y95.617 E0.08814
G1 X182.387 Y99.583 E0.39398
G1 X183.641 Y99.583 E0.08814
G1 X179.676 Y95.617 E0.39398
G1 X180.931 Y95.617 E0.08814
G1 X184.896 Y99.583 E0.39398
G1 X186.15 Y99.583 E0.08814
G1 X182.185 Y95.617 E0.39398
G1 X183.44 Y95.617 E0.08814
G1 X187.405 Y99.583 E0.39398
G1 X188.659 Y99.583 E0.08814
G1 X184.694 Y95.617 E0.39398
G1 X185.949 Y95.617 E0.08814
G1 X189.914 Y99.583 E0.39398
G1 X191.169 Y99.583 E0.08814
G1 X187.203 Y95.617 E0.39398
G1 X188.458 Y95.617 E0.08814
G1 X192.423 Y99.583 E0.39398
G1 X193.678 Y99.583 E0.08814
G1 X189.712 Y95.617 E0.39398
G1 X190.967 Y95.617 E0.08814
G1 X194.932 Y99.583 E0.39398
G1 X196.187 Y99.583 E0.08814
G1 X192.221 Y95.617 E0.39398
G1 X193.476 Y95.617 E0.08814
G1 X197.441 Y99.583 E0.39398
G1 X198.696 Y99.583 E0.08814
G1 X194.73 Y95.617 E0.39398
G1 X195.985 Y95.617 E0.08814
G1 X199.95 Y99.583 E0.39398
G1 X201.205 Y99.583 E0.08814
G1 X197.239 Y95.617 E0.39398
G1 X198.494 Y95.617 E0.08814
G1 X202.459 Y99.583 E0.39398
G1 X203.714 Y99.583 E0.08814
G1 X199.748 Y95.617 E0.39398
G1 X201.003 Y95.617 E0.08814
G1 X204.968 Y99.583 E0.39398
G1 X206.223 Y99.583 E0.08814
G1 X202.257 Y95.617 E0.39398
G1 X203.512 Y95.617 E0.08814
G1 X207.477 Y99.583 E0.39398
G1 X208.732 Y99.583 E0.08814
G1 X204.767 Y95.617 E0.39398
G1 X206.021 Y95.617 E0.08814
G1 X209.986 Y99.583 E0.39398
G1 X211.241 Y99.583 E0.08814
G1 X207.276 Y95.617 E0.39398
G1 X208.53 Y95.617 E0.08814
G1 X212.495 Y99.583 E0.39398
G1 X213.75 Y99.583 E0.08814
G1 X209.785 Y95.617 E0.39398
G1 X211.039 Y95.617 E0.08814
G1 X215.004 Y99.583 E0.39398
G1 X216.259 Y99.583 E0.08814
G1 X212.294 Y95.617 E0.39398
G1 X213.548 Y95.617 E0.08814
G1 X217.513 Y99.583 E0.39398
G1 X218.768 Y99.583 E0.08814
G1 X214.803 Y95.617 E0.39398
G1 X216.057 Y95.617 E0.08814
G1 X220.022 Y99.583 E0.39398
G1 X221.277 Y99.583 E0.08814
G1 X217.312 Y95.617 E0.39398
G1 X218.566 Y95.617 E0.08814
G1 X222.531 Y99.583 E0.39398
G1 X223.786 Y99.583 E0.08814
G1 X219.821 Y95.617 E0.39398
G1 X221.075 Y95.617 E0.08814
G1 X225.041 Y99.583 E0.39398
G1 X226.295 Y99.583 E0.08814
G1 X222.33 Y95.617 E0.39398
G1 X223.584 Y95.617 E0.08814
G1 X227.55 Y99.583 E0.39398
G1 X228.804 Y99.583 E0.08814
G1 X224.839 Y95.617 E0.39398
G1 X226.093 Y95.617 E0.08814
G1 X230.44 Y99.964 E0.43188
G1 X230.096 Y97.111 F8400
G1 F2400
G1 X228.602 Y95.617 E0.14837
G1 X227.348 Y95.617 E0.08814
G1 X235.383 Y103.652 E0.79831
G1 X235.383 Y104.907 E0.08814
G1 X231.417 Y100.941 E0.39398
G1 X231.417 Y102.196 E0.08814
G1 X235.383 Y106.161 E0.39398
G1 X235.383 Y107.416 E0.08814
G1 X231.417 Y103.45 E0.39398
G1 X231.417 Y104.705 E0.08814
G1 X235.383 Y108.67 E0.39398
G1 X235.383 Y109.925 E0.08814
G1 X231.417 Y105.959 E0.39398
G1 X231.417 Y107.214 E0.08814
G1 X235.383 Y111.179 E0.39398
G1 X235.383 Y112.434 E0.08814
G1 X231.417 Y108.469 E0.39398
G1 X231.417 Y109.723 E0.08814
G1 X235.383 Y113.688 E0.39398
G1 X235.383 Y114.943 E0.08814
G1 X231.417 Y110.978 E0.39398
G1 X231.417 Y112.232 E0.08814
G1 X235.383 Y116.197 E0.39398
G1 X235.383 Y117.452 E0.08814
G1 X231.417 Y113.487 E0.39398
G1 X231.417 Y114.741 E0.08814
G1 X235.383 Y118.706 E0.39398
G1 X235.383 Y119.961 E0.08814
G1 X231.417 Y115.996 E0.39398
G1 X231.417 Y117.25 E0.08814
G1 X235.383 Y121.215 E0.39398
G1 X235.383 Y122.47 E0.08814
G1 X231.417 Y118.505 E0.39398
G1 X231.417 Y119.759 E0.08814
G1 X235.383 Y123.724 E0.39398
G1 X235.383 Y124.979 E0.08814
G1 X231.417 Y121.014 E0.39398
G1 X231.417 Y122.268 E0.08814
G1 X235.383 Y126.233 E0.39398
G1 X235.383 Y127.488 E0.08814
G1 X231.417 Y123.523 E0.39398
G1 X231.417 Y124.777 E0.08814
G1 X235.383 Y128.743 E0.39398
G1 X235.383 Y129.997 E0.08814
G1 X231.417 Y126.032 E0.39398
G1 X231.417 Y127.286 E0.08814
G1 X235.383 Y131.252 E0.39398
G1 X235.383 Y132.506 E0.08814
G1 X231.417 Y128.541 E0.39398
G1 X231.417 Y129.795 E0.08814
G1 X235.383 Y133.761 E0.39398
G1 X235.383 Y135.015 E0.08814
G1 X231.417 Y131.05 E0.39398
G1 X231.417 Y132.304 E0.08814
G1 X235.383 Y136.27 E0.39398
G1 X235.383 Y137.524 E0.08814
G1 X231.417 Y133.559 E0.39398
G1 X231.417 Y134.813 E0.08814
G1 X235.383 Y138.779 E0.39398
G1 X235.383 Y140.033 E0.08814
G1 X231.417 Y136.068 E0.39398
G1 X231.417 Y137.322 E0.08814
G1 X235.383 Y141.288 E0.39398
G1 X235.383 Y142.542 E0.08814
G1 X231.417 Y138.577 E0.39398
G1 X231.417 Y139.831 E0.08814
G1 X235.383 Y143.797 E0.39398
G1 X235.383 Y145.051 E0.08814
G1 X231.417 Y141.086 E0.39398
G1 X231.417 Y142.341 E0.08814
G1 X235.383 Y146.306 E0.39398
G1 X235.383 Y147.56 E0.08814
G1 X231.417 Y143.595 E0.39398
G1 X231.417 Y144.85 E0.08814
G1 X235.383 Y148.815 E0.39398
G1 X235.383 Y150.069 E0.08814
G1 X231.417 Y146.104 E0.39398
G1 X231.417 Y147.359 E0.08814
G1 X235.383 Y151.324 E0.39398
G1 X235.383 Y152.578 E0.08814
G1 X231.417 Y148.613 E0.39398
G1 X231.417 Y149.868 E0.08814
G1 X235.383 Y153.833 E0.39398
G1 X235.383 Y155.087 E0.08814
G1 X231.417 Y151.122 E0.39398
G1 X231.417 Y152.377 E0.08814
G1 X235.383 Y156.342 E0.39398
G1 X235.383 Y157.596 E0.08814
G1 X231.417 Y153.631 E0.39398
G1 X231.417 Y154.886 E0.08814
G1 X235.383 Y158.851 E0.39398
G1 X235.383 Y160.106 E0.08814
G1 X231.417 Y156.14 E0.39398
G1 X231.417 Y157.395 E0.08814
G1 X235.383 Y161.36 E0.39398
G1 X235.383 Y162.615 E0.08814
G1 X231.417 Y158.649 E0.39398
G1 X231.417 Y159.904 E0.08814
G1 X235.383 Y163.869 E0.39398
G1 X235.383 Y165.124 E0.08814
G1 X231.417 Y161.158 E0.39398
G1 X231.417 Y162.413 E0.08814
G1 X235.383 Y166.378 E0.39398
G1 X235.383 Y167.633 E0.08814
G1 X231.417 Y163.667 E0.39398
G1 X231.417 Y164.922 E0.08814
G1 X235.383 Y168.887 E0.39398
G1 X235.383 Y170.142 E0.08814
G1 X231.417 Y166.176 E0.39398
G1 X231.417 Y167.431 E0.08814
G1 X235.383 Y171.396 E0.39398
G1 X235.383 Y172.651 E0.08814
G1 X231.417 Y168.685 E0.39398
G1 X231.417 Y169.94 E0.08814
G1 X235.383 Y173.905 E0.39398
G1 X235.383 Y175.16 E0.08814
G1 X231.417 Y171.194 E0.39398
G1 X231.417 Y172.449 E0.08814
G1 X235.383 Y176.414 E0.39398
G1 X235.383 Y177.669 E0.08814
G1 X231.417 Y173.704 E0.39398
G1 X231.417 Y174.958 E0.08814
G1 X235.383 Y178.923 E0.39398
G1 X235.383 Y180.178 E0.08814
G1 X231.417 Y176.213 E0.39398
G1 X231.417 Y177.467 E0.08814
G1 X235.383 Y181.432 E0.39398
G1 X235.383 Y182.687 E0.08814
G1 X231.417 Y178.722 E0.39398
