; generated by SuperSlicer 2.4 on 2023-03-08 at 06:31:35 UTC


;
;

;
;
; 

; external perimeters extrusion width = 0.45mm
; perimeters extrusion width = 0.45mm
; infill extrusion width = 0.45mm
; solid infill extrusion width = 0.45mm
; top infill extrusion width = 0.45mm
; first layer extrusion width = 0.60mm

; object:{"name":"z_tensioner_bracket_b_x2","id":"z_tensioner_bracket_b_x2.stl id:0 copy 0","object_center":[150.000000,137.000000,0.000000],"boundingbox_center":[150.000000,137.000000,13.000008],"boundingbox_size":[52.699799,20.000000,26.000015]}
; object:{"name":"z_tensioner_bracket_b_x2","id":"z_tensioner_bracket_b_x2.stl id:0 copy 1","object_center":[150.000000,163.000000,0.000000],"boundingbox_center":[150.000000,163.000000,13.000008],"boundingbox_size":[52.699799,20.000000,26.000015]}
; plater:{"center":[150.000000,150.000000,0.000000],"boundingbox_center":[150.000000,150.000000,13.000008],"boundingbox_size":[52.699799,46.000000,26.000015]}

;TYPE:Custom
M104 S0 ; Stops SuperSlicer from sending temp waits separately


; Pre-Processed for Cancel-Object support by preprocess_cancellation v0.2.0
; 2 known objects
EXCLUDE_OBJECT_DEFINE NAME=z_tensioner_bracket_b_x2_stl_id_0_copy_0 CENTER=149.300,136.398 POLYGON=[[123.874,127.224],[123.874,146.776],[176.126,146.776],[176.126,127.224]]
EXCLUDE_OBJECT_DEFINE NAME=z_tensioner_bracket_b_x2_stl_id_0_copy_1 CENTER=149.296,162.392 POLYGON=[[123.874,153.224],[123.874,172.776],[176.126,172.776],[176.126,153.224]]

M109 S0

M140 S0

print_start EXTRUDER=245 BED=105 CHAMBER=0
G21 ; set units to millimeters
G90 ; use absolute coordinates
M83 ; use relative distances for extrusion
; Filament gcode
;_TOOLCHANGE 0
M107
;LAYER_CHANGE
;Z:0.21875
;HEIGHT:0.21875
TIMELAPSE_TAKE_FRAME
;BEFORE_LAYER_CHANGE
;0.21875

G1 Z0.21875 F8400
;AFTER_LAYER_CHANGE
;0.21875
G92 E0
G1 E-0.6 F2400
G1 Z0.51875 F8400
G1 X122.732 Y126.362
G1 Z0.21875
G1 E0.6 F2400
;TYPE:Skirt
;WIDTH:0.54
G1 F1800
G1 X122.04 Y127.288 E0.05184
G1 X121.677 Y128.039 E0.0374
G1 X121.452 Y128.744 E0.03319
G1 X121.313 Y129.704 E0.0435
G1 X121.302 Y170.051 E1.8092
G1 X121.468 Y171.316 E0.05719
G1 X121.804 Y172.262 E0.04505
G1 X122.492 Y173.36 E0.05812
G1 X123.012 Y173.918 E0.03419
G1 X123.742 Y174.486 E0.04147
G1 X124.89 Y175.05 E0.05736
G1 X125.749 Y175.269 E0.03974
G1 X126.614 Y175.349 E0.03894
G1 X168.401 Y175.349 E1.87382
G1 X169.215 Y175.276 E0.03665
G1 X170.696 Y174.805 E0.06966
G1 X171.793 Y174.092 E0.05865
G1 X178.276 Y167.551 E0.41298
G1 X178.963 Y166.488 E0.0568
G1 X179.239 Y165.579 E0.04259
G1 X179.298 Y164.962 E0.02776
G1 X179.298 Y135.016 E1.34284
G1 X179.185 Y134.157 E0.03886
G1 X178.937 Y133.449 E0.03363
G1 X178.307 Y132.48 E0.05183
G1 X171.732 Y125.86 E0.41839
G1 X171.095 Y125.41 E0.03496
G1 X170.214 Y124.99 E0.04376
G1 X169.533 Y124.784 E0.03189
G1 X168.469 Y124.655 E0.0481
G1 X126.599 Y124.651 E1.87749
G1 X125.335 Y124.817 E0.05718
G1 X124.388 Y125.154 E0.04504
G1 X123.29 Y125.842 E0.05812
G1 X122.776 Y126.321 E0.0315
G1 X123.094 Y126.698 F8400
G1 F1800
G1 X123.08 Y126.71 E0.00082
G1 X122.456 Y127.552 E0.04699
G1 X122.127 Y128.241 E0.03425
G1 X121.926 Y128.879 E0.02997
G1 X121.806 Y129.705 E0.03742
G1 X121.794 Y170.051 E1.80919
G1 X121.937 Y171.166 E0.0504
G1 X122.241 Y172.035 E0.04127
G1 X122.89 Y173.07 E0.05481
G1 X123.36 Y173.57 E0.03077
G1 X123.99 Y174.06 E0.03576
G1 X125.072 Y174.592 E0.05409
G1 X125.854 Y174.787 E0.03616
G1 X126.614 Y174.856 E0.03419
G1 X168.401 Y174.856 E1.87382
G1 X169.165 Y174.786 E0.03438
G1 X170.453 Y174.376 E0.06064
G1 X171.487 Y173.706 E0.05524
G1 X177.925 Y167.205 E0.41025
G1 X178.502 Y166.314 E0.04758
G1 X178.75 Y165.517 E0.03743
G1 X178.806 Y164.962 E0.02502
G1 X178.806 Y135.016 E1.34284
G1 X178.699 Y134.239 E0.03515
G1 X178.506 Y133.687 E0.02623
G1 X177.956 Y132.826 E0.04582
G1 X171.402 Y126.226 E0.41709
G1 X170.824 Y125.822 E0.03161
G1 X170.017 Y125.442 E0.04
G1 X169.408 Y125.26 E0.02849
G1 X168.469 Y125.147 E0.04244
G1 X126.599 Y125.144 E1.87749
G1 X125.484 Y125.287 E0.05039
G1 X124.615 Y125.591 E0.04126
G1 X124.003 Y125.932 E0.03145
G1 X123.14 Y126.66 E0.05062
G1 E-0.6 F2400
G1 Z0.51875 F8400
G1 X126.177 Y153.662
G1 Z0.21875
G1 E0.6 F2400
;WIDTH:0.6
;HEIGHT:0.22
G1 F1800
G1 X126.643 Y153.614 E0.02367
G1 X168.42 Y153.617 E2.11229
G1 X168.821 Y153.661 E0.0204
G1 X168.841 Y153.665 E0.00101
G1 X169.07 Y153.725 E0.012
G1 X169.091 Y153.732 E0.00108
G1 X169.508 Y153.914 E0.02301
G1 X169.528 Y153.926 E0.00119
G1 X169.78 Y154.091 E0.01523
G1 X169.797 Y154.104 E0.00106
G1 X170.087 Y154.366 E0.01979
G1 X170.102 Y154.382 E0.00107
G1 X170.292 Y154.615 E0.01519
G1 X170.304 Y154.632 E0.0011
G1 X170.501 Y154.971 E0.01979
G1 X170.51 Y154.989 E0.00104
G1 X170.621 Y155.268 E0.01519
G1 X170.627 Y155.29 E0.00114
G1 X170.711 Y155.672 E0.01979
G1 X170.714 Y155.692 E0.001
G1 X170.736 Y155.995 E0.01537
G1 X170.736 Y160.115 E0.2083
G1 X175.492 Y160.124 E0.24049
G1 X175.538 Y160.132 E0.00234
G1 X175.8 Y160.224 E0.01403
G1 X175.831 Y160.239 E0.00177
G1 X175.956 Y160.323 E0.00758
G1 X175.977 Y160.34 E0.00137
G1 X176.114 Y160.477 E0.00984
G1 X176.138 Y160.508 E0.00196
G1 X176.273 Y160.753 E0.01414
G1 X176.288 Y160.797 E0.00236
G1 X176.334 Y161.065 E0.01375
G1 X176.336 Y161.088 E0.00118
G1 X176.336 Y164.909 E0.19315
G1 X176.312 Y165.111 E0.01028
G1 X176.304 Y165.142 E0.00164
G1 X176.224 Y165.354 E0.01145
G1 X176.21 Y165.382 E0.00161
G1 X176.127 Y165.506 E0.0075
G1 X176.11 Y165.527 E0.00138
G1 X175.973 Y165.664 E0.00984
G1 X175.941 Y165.688 E0.00196
G1 X175.697 Y165.823 E0.01414
G1 X175.653 Y165.838 E0.00236
G1 X175.385 Y165.884 E0.01375
G1 X175.362 Y165.886 E0.00118
G1 X170.736 Y165.886 E0.23389
G1 X170.736 Y170.007 E0.20838
G1 X170.689 Y170.469 E0.02349
G1 X170.685 Y170.49 E0.00108
G1 X170.625 Y170.718 E0.01191
G1 X170.51 Y171.011 E0.01589
G1 X170.501 Y171.029 E0.00104
G1 X170.305 Y171.367 E0.01974
G1 X170.294 Y171.383 E0.00099
G1 X170.138 Y171.579 E0.01267
G1 X169.929 Y171.788 E0.01493
G1 X169.732 Y171.944 E0.01272
G1 X169.714 Y171.956 E0.00108
G1 X169.316 Y172.181 E0.02313
G1 X169.29 Y172.193 E0.00144
G1 X168.851 Y172.333 E0.02331
G1 X168.823 Y172.338 E0.00144
G1 X168.357 Y172.386 E0.02367
G1 X126.645 Y172.386 E2.10899
G1 X126.342 Y172.364 E0.01537
G1 X126.322 Y172.361 E0.001
G1 X125.94 Y172.277 E0.01979
G1 X125.919 Y172.271 E0.00114
G1 X125.639 Y172.16 E0.01519
G1 X125.621 Y172.151 E0.00104
G1 X125.283 Y171.955 E0.01974
G1 X125.267 Y171.944 E0.00099
G1 X125.071 Y171.788 E0.01267
G1 X124.86 Y171.577 E0.01506
G1 X124.846 Y171.561 E0.00109
G1 X124.616 Y171.245 E0.01979
G1 X124.605 Y171.227 E0.00105
G1 X124.466 Y170.96 E0.01523
G1 X124.457 Y170.938 E0.0012
G1 X124.317 Y170.501 E0.02319
G1 X124.312 Y170.473 E0.00144
G1 X124.265 Y170.021 E0.02296
G1 X124.275 Y155.773 E0.72041
G1 X124.277 Y155.752 E0.00107
G1 X124.317 Y155.502 E0.01277
G1 X124.398 Y155.216 E0.01505
G1 X124.405 Y155.197 E0.00102
G1 X124.565 Y154.841 E0.01973
G1 X124.575 Y154.824 E0.001
G1 X124.7 Y154.627 E0.01181
G1 X124.852 Y154.433 E0.01244
G1 X125.073 Y154.21 E0.01588
G1 X125.089 Y154.196 E0.00109
G1 X125.406 Y153.966 E0.01979
G1 X125.423 Y153.955 E0.00105
G1 X125.69 Y153.816 E0.01523
G1 X125.712 Y153.807 E0.0012
G1 X126.119 Y153.677 E0.0216
G1 E-0.6 F2400
G1 Z0.51875 F8400
G1 X126.635 Y146.385
G1 Z0.21875
G1 E0.6 F2400
G1 F1800
G1 X126.342 Y146.364 E0.01486
G1 X126.322 Y146.361 E0.001
G1 X125.94 Y146.277 E0.01979
G1 X125.919 Y146.271 E0.00114
G1 X125.639 Y146.16 E0.01519
G1 X125.621 Y146.151 E0.00104
G1 X125.283 Y145.955 E0.01974
G1 X125.267 Y145.944 E0.00099
G1 X125.071 Y145.788 E0.01267
G1 X124.86 Y145.577 E0.01506
G1 X124.846 Y145.561 E0.00109
G1 X124.616 Y145.245 E0.01979
G1 X124.605 Y145.227 E0.00105
G1 X124.466 Y144.96 E0.01523
G1 X124.457 Y144.938 E0.0012
G1 X124.317 Y144.501 E0.02319
G1 X124.312 Y144.473 E0.00144
G1 X124.264 Y144.007 E0.02368
G1 X124.275 Y129.773 E0.71969
G1 X124.277 Y129.752 E0.00107
G1 X124.317 Y129.502 E0.01277
G1 X124.398 Y129.216 E0.01505
G1 X124.405 Y129.197 E0.00102
G1 X124.565 Y128.841 E0.01973
G1 X124.575 Y128.824 E0.001
G1 X124.708 Y128.615 E0.01253
G1 X124.862 Y128.421 E0.01254
G1 X125.073 Y128.21 E0.01506
G1 X125.089 Y128.196 E0.00109
G1 X125.406 Y127.966 E0.01979
G1 X125.423 Y127.955 E0.00105
G1 X125.69 Y127.816 E0.01523
G1 X125.712 Y127.807 E0.0012
G1 X126.149 Y127.667 E0.02319
G1 X126.177 Y127.662 E0.00144
G1 X126.643 Y127.614 E0.02367
G1 X168.42 Y127.617 E2.11229
G1 X168.821 Y127.661 E0.0204
G1 X168.841 Y127.665 E0.00101
G1 X169.07 Y127.725 E0.012
G1 X169.091 Y127.732 E0.00108
G1 X169.508 Y127.914 E0.02301
G1 X169.528 Y127.926 E0.00119
G1 X169.78 Y128.091 E0.01523
G1 X169.797 Y128.104 E0.00106
G1 X170.087 Y128.366 E0.01979
G1 X170.102 Y128.382 E0.00107
G1 X170.292 Y128.615 E0.01519
G1 X170.304 Y128.632 E0.0011
G1 X170.501 Y128.971 E0.01979
G1 X170.51 Y128.989 E0.00104
G1 X170.621 Y129.268 E0.01519
G1 X170.627 Y129.29 E0.00114
G1 X170.711 Y129.672 E0.01979
G1 X170.714 Y129.692 E0.001
G1 X170.736 Y129.995 E0.01537
G1 X170.736 Y134.115 E0.2083
G1 X175.492 Y134.124 E0.24049
G1 X175.538 Y134.132 E0.00234
G1 X175.8 Y134.224 E0.01403
G1 X175.831 Y134.239 E0.00177
G1 X175.956 Y134.323 E0.00758
G1 X175.977 Y134.34 E0.00137
G1 X176.114 Y134.477 E0.00984
G1 X176.138 Y134.508 E0.00196
G1 X176.273 Y134.753 E0.01414
G1 X176.288 Y134.797 E0.00236
G1 X176.334 Y135.065 E0.01375
G1 X176.336 Y135.088 E0.00118
G1 X176.336 Y138.909 E0.19315
G1 X176.312 Y139.111 E0.01028
G1 X176.304 Y139.142 E0.00164
G1 X176.224 Y139.354 E0.01145
G1 X176.21 Y139.382 E0.00161
G1 X176.127 Y139.506 E0.0075
G1 X176.11 Y139.527 E0.00138
G1 X175.973 Y139.664 E0.00984
G1 X175.941 Y139.688 E0.00196
G1 X175.697 Y139.823 E0.01414
G1 X175.653 Y139.838 E0.00236
G1 X175.385 Y139.884 E0.01375
G1 X175.362 Y139.886 E0.00118
G1 X170.736 Y139.886 E0.23389
G1 X170.736 Y144.007 E0.20838
G1 X170.689 Y144.469 E0.02349
G1 X170.685 Y144.49 E0.00108
G1 X170.625 Y144.718 E0.01191
G1 X170.51 Y145.011 E0.01589
G1 X170.501 Y145.029 E0.00104
G1 X170.305 Y145.367 E0.01974
G1 X170.294 Y145.383 E0.00099
G1 X170.138 Y145.579 E0.01267
G1 X169.929 Y145.788 E0.01493
G1 X169.732 Y145.944 E0.01272
G1 X169.714 Y145.956 E0.00108
G1 X169.316 Y146.181 E0.02313
G1 X169.29 Y146.193 E0.00144
G1 X168.851 Y146.333 E0.02331
G1 X168.823 Y146.338 E0.00144
G1 X168.357 Y146.386 E0.02367
G1 X126.695 Y146.386 E2.10647
M104 S245 ; set temperature
G1 E-0.6 F2400
G1 Z0.51875 F8400
; printing object z_tensioner_bracket_b_x2.stl id:0 copy 0
EXCLUDE_OBJECT_START NAME=z_tensioner_bracket_b_x2_stl_id_0_copy_0
G1 X170.159 Y139.309
G1 Z0.21875
G1 E0.6 F2400
;TYPE:External perimeter
;HEIGHT:0.21875
G1 F1800
G1 X170.159 Y143.985 E0.23515
G1 X170.119 Y144.377 E0.01982
G1 X169.986 Y144.768 E0.02077
G1 X169.822 Y145.05 E0.01643
G1 X169.712 Y145.19 E0.00894
G1 X169.402 Y145.471 E0.02108
G1 X169.072 Y145.657 E0.01904
G1 X168.719 Y145.77 E0.01865
G1 X168.334 Y145.809 E0.01943
G1 X126.661 Y145.809 E2.09609
G1 X126.415 Y145.791 E0.0124
G1 X126.098 Y145.722 E0.01631
G1 X125.882 Y145.636 E0.01168
G1 X125.6 Y145.472 E0.01643
G1 X125.292 Y145.194 E0.02088
G1 X125.101 Y144.932 E0.01632
G1 X124.995 Y144.727 E0.0116
G1 X124.88 Y144.369 E0.01891
G1 X124.841 Y143.985 E0.01942
G1 X124.852 Y129.807 E0.71311
G1 X124.944 Y129.404 E0.02078
G1 X125.078 Y129.106 E0.01644
G1 X125.174 Y128.954 E0.00904
G1 X125.456 Y128.642 E0.02117
G1 X125.719 Y128.451 E0.01631
G1 X125.923 Y128.344 E0.0116
G1 X126.281 Y128.23 E0.01891
G1 X126.666 Y128.191 E0.01943
G1 X168.368 Y128.194 E2.09755
G1 X168.725 Y128.231 E0.01806
G1 X168.891 Y128.274 E0.00863
G1 X169.243 Y128.428 E0.01931
G1 X169.436 Y128.555 E0.0116
G1 X169.676 Y128.772 E0.01632
G1 X169.823 Y128.952 E0.01168
G1 X169.986 Y129.232 E0.01632
G1 X170.072 Y129.448 E0.01168
G1 X170.141 Y129.765 E0.01631
G1 X170.159 Y130.011 E0.0124
G1 X170.159 Y134.69 E0.23535
G1 X175.417 Y134.701 E0.26446
G1 X175.557 Y134.749 E0.00745
G1 X175.663 Y134.841 E0.00705
G1 X175.732 Y134.967 E0.00722
G1 X175.759 Y135.125 E0.00808
G1 X175.759 Y138.881 E0.18892
G1 X175.746 Y138.988 E0.0054
G1 X175.702 Y139.104 E0.00625
G1 X175.609 Y139.213 E0.00722
G1 X175.483 Y139.282 E0.00722
G1 X175.325 Y139.309 E0.00808
G1 X170.219 Y139.309 E0.25679
;WIPE_START
G1 X169.759 Y139.309 F8400
;WIPE_END
G1 E-0.6 F2400
G1 Z0.51875 F8400
G1 X145.398 Y134.019
G1 Z0.21875
G1 E0.6 F2400
G1 F1800
G1 X145.436 Y133.842 E0.00909
G1 X145.379 Y133.59 E0.01299
G1 X145.26 Y133.404 E0.01113
G1 X144.852 Y132.982 E0.02955
G1 X144.024 Y132.229 E0.05628
G1 X143.134 Y131.551 E0.05628
G1 X142.661 Y131.236 E0.02855
G1 X141.694 Y130.681 E0.05611
G1 X141.184 Y130.431 E0.02855
G1 X140.15 Y130.004 E0.05628
G1 X139.079 Y129.668 E0.05644
G1 X137.984 Y129.426 E0.05644
G1 X136.874 Y129.28 E0.05628
G1 X136.308 Y129.242 E0.02855
G1 X135.189 Y129.241 E0.05628
G1 X134.376 Y129.311 E0.04103
G1 X134.051 Y129.339 E0.01641
G1 X133.837 Y129.407 E0.0113
G1 X133.632 Y129.564 E0.01299
G1 X133.474 Y129.865 E0.01711
G1 X133.462 Y130.123 E0.01299
G1 X133.54 Y130.369 E0.01299
G1 X133.778 Y130.631 E0.0178
G1 X134.109 Y130.736 E0.01742
G1 X135.299 Y130.639 E0.06008
G1 X135.82 Y130.63 E0.02622
G1 X136.341 Y130.646 E0.0262
G1 X137.388 Y130.749 E0.0529
G1 X138.417 Y130.945 E0.05273
G1 X139.428 Y131.236 E0.0529
G1 X139.915 Y131.412 E0.02603
G1 X140.877 Y131.837 E0.0529
G1 X141.796 Y132.347 E0.0529
G1 X142.231 Y132.629 E0.02603
G1 X143.075 Y133.261 E0.05307
G1 X143.467 Y133.599 E0.02603
G1 X144.239 Y134.361 E0.05456
G1 X144.418 Y134.497 E0.01131
G1 X144.75 Y134.57 E0.0171
G1 X145.002 Y134.513 E0.01299
G1 X145.208 Y134.38 E0.01231
G1 X145.364 Y134.175 E0.01299
G1 X145.385 Y134.078 E0.00499
;WIPE_START
G1 X145.779 Y133.897 F8400
;WIPE_END
G1 E-0.6 F2400
G1 Z0.51875 F8400
G1 X149.561 Y133.829
G1 Z0.21875
G1 E0.6 F2400
G1 F1800
G1 X149.636 Y134.175 E0.0178
G1 X149.792 Y134.38 E0.01299
G1 X149.998 Y134.513 E0.01231
G1 X150.25 Y134.57 E0.01299
G1 X150.582 Y134.497 E0.0171
G1 X150.761 Y134.361 E0.01131
G1 X151.533 Y133.599 E0.05456
G1 X151.925 Y133.261 E0.02603
G1 X152.769 Y132.629 E0.05307
G1 X153.204 Y132.347 E0.02603
G1 X154.123 Y131.837 E0.0529
G1 X155.085 Y131.412 E0.0529
G1 X155.575 Y131.234 E0.0262
G1 X156.072 Y131.079 E0.0262
G1 X157.095 Y130.835 E0.0529
G1 X158.133 Y130.686 E0.05273
G1 X159.183 Y130.63 E0.0529
G1 X159.7 Y130.639 E0.02603
G1 X160.781 Y130.729 E0.05456
G1 X161.006 Y130.719 E0.01131
G1 X161.32 Y130.555 E0.0178
G1 X161.509 Y130.256 E0.0178
G1 X161.543 Y130 E0.01299
G1 X161.489 Y129.761 E0.01231
G1 X161.35 Y129.544 E0.01299
G1 X161.062 Y129.361 E0.01718
G1 X160.373 Y129.278 E0.0349
G1 X159.808 Y129.241 E0.02848
G1 X158.692 Y129.242 E0.05611
G1 X158.126 Y129.28 E0.02855
G1 X157.016 Y129.426 E0.05628
G1 X155.921 Y129.668 E0.05644
G1 X154.85 Y130.004 E0.05644
G1 X153.816 Y130.431 E0.05628
G1 X153.306 Y130.681 E0.02855
G1 X152.339 Y131.236 E0.05611
G1 X151.866 Y131.551 E0.02855
G1 X150.979 Y132.227 E0.05611
G1 X150.145 Y132.985 E0.0567
G1 X149.669 Y133.49 E0.0349
G1 X149.579 Y133.772 E0.01486
;WIPE_START
G1 X149.222 Y134.042 F8400
;WIPE_END
G1 X148.989 Y133.801
;TYPE:Internal perimeter
G1 F1800
G1 X149.121 Y134.412 E0.03142
G1 X149.411 Y134.793 E0.02406
G1 X149.781 Y135.031 E0.02212
G1 X150.248 Y135.136 E0.02407
G1 X150.819 Y135.012 E0.02943
G1 X151.124 Y134.78 E0.01927
G1 X151.908 Y134.006 E0.05541
G1 X152.272 Y133.693 E0.02413
G1 X153.086 Y133.083 E0.05117
G1 X153.489 Y132.822 E0.02413
G1 X154.37 Y132.333 E0.05069
G1 X155.291 Y131.926 E0.05069
G1 X155.752 Y131.759 E0.02462
G1 X156.219 Y131.613 E0.02462
G1 X157.199 Y131.379 E0.05069
G1 X158.187 Y131.237 E0.0502
G1 X159.193 Y131.184 E0.05069
G1 X159.673 Y131.191 E0.02413
G1 X160.771 Y131.283 E0.05541
G1 X161.154 Y131.266 E0.01927
G1 X161.707 Y130.977 E0.03142
G1 X162.042 Y130.449 E0.03142
G1 X162.104 Y129.975 E0.02407
G1 X162.008 Y129.546 E0.02212
G1 X161.75 Y129.143 E0.02407
G1 X161.628 Y129.065 E0.00726
G1 X161.721 Y128.746 E0.01671
G1 X168.339 Y128.747 E0.33289
G1 X168.626 Y128.776 E0.01448
G1 X168.709 Y128.798 E0.00434
G1 X168.978 Y128.916 E0.01478
G1 X169.096 Y128.993 E0.00711
G1 X169.275 Y129.154 E0.01206
G1 X169.367 Y129.267 E0.00735
G1 X169.487 Y129.475 E0.01206
