; generated by SuperSlicer 2.5.59 on 2023-06-11 at 16:53:43 UTC


;
;

;
;
; 

; external perimeters extrusion width = 0.43mm
; perimeters extrusion width = 0.45mm
; infill extrusion width = 0.45mm
; solid infill extrusion width = 0.45mm
; top infill extrusion width = 0.42mm
; support material extrusion width = 0.42mm
; first layer extrusion width = 0.57mm

; object:{"name":"Voron_Design_Cube_v7","id":"Voron_Design_Cube_v7 id:0 copy 0","object_center":[150.000000,148.500000,0.000000],"boundingbox_center":[150.000000,148.500000,15.000000],"boundingbox_size":[30.000000,30.000000,30.000000]}
EXCLUDE_OBJECT_DEFINE NAME=Voron_Design_Cube_v7_id_0_copy_0 CENTER=150.000000,148.500000 POLYGON=[[135.000000,133.500000],[165.000000,133.500000],[165.000000,163.500000],[135.000000,163.500000],[135.000000,133.500000]]
; plater:{"center":[150.000000,148.500000,0.000000],"boundingbox_center":[150.000000,148.500000,15.000000],"boundingbox_size":[30.000000,30.000000,30.000000]}

;TYPE:Custom
SET_PRINT_STATS_INFO TOTAL_LAYER=150

M104 S0 ; Stops SuperSlicer from sending temp waits separately

M109 S0

M140 S0

print_start EXTRUDER=255 BED=105 CHAMBER=0
M107
G21 ; set units to millimeters
G90 ; use absolute coordinates
M82 ; use absolute distances for extrusion
G92 E0
; Filament gcode
;_TOOLCHANGE 0
M107
;LAYER_CHANGE
;Z:0.2
;HEIGHT:0.2
TIMELAPSE_TAKE_FRAME
;BEFORE_LAYER_CHANGE
;0.2


G1 Z0.2 F12000
SET_PRINT_STATS_INFO CURRENT_LAYER=1
;AFTER_LAYER_CHANGE
;0.2
G1 E-0.7 F3000
G1 Z0.5 F12000
M204 S1500
G1 X134.644 Y134.644
G1 Z0.2
G1 E0 F2700
;TYPE:Skirt
;WIDTH:0.52
G1 X132.196 Y137.091 E0.13732
G1 X131.407 Y138.995 E0.21907
G1 X131.407 Y158.005 E0.97315
G1 X132.196 Y159.909 E1.05491
G1 X138.591 Y166.304 E1.4137
G1 X140.495 Y167.093 E1.49545
G1 X159.505 Y167.093 E2.24953
G1 X161.409 Y166.304 E2.33129
G1 X167.804 Y159.909 E2.69008
G1 X168.593 Y158.005 E2.77183
G1 X168.593 Y138.995 E3.52591
G1 X167.804 Y137.091 E3.60767
G1 X161.409 Y130.696 E3.96645
G1 X159.505 Y129.907 E4.04821
G1 X140.495 Y129.907 E4.80229
G1 X138.591 Y130.696 E4.88404
G1 X134.686 Y134.601 E5.10313
G92 E0
G1 E-0.7 F3000
M204 S6000
G1 Z0.5 F12000
M204 S1500
G1 X135.023 Y134.939
G1 Z0.2
G1 E0 F2700
G1 X132.533 Y137.429 E0.1397
G1 X131.884 Y138.995 E0.20697
G1 X131.884 Y158.005 E0.96105
G1 X132.533 Y159.571 E1.02832
G1 X138.929 Y165.967 E1.38711
G1 X140.495 Y166.616 E1.45438
G1 X159.505 Y166.616 E2.20846
G1 X161.071 Y165.967 E2.27573
G1 X167.467 Y159.571 E2.63452
G1 X168.116 Y158.005 E2.70179
G1 X168.116 Y138.995 E3.45587
G1 X167.467 Y137.429 E3.52314
G1 X161.071 Y131.033 E3.88193
G1 X159.505 Y130.384 E3.9492
G1 X140.495 Y130.384 E4.70328
G1 X138.929 Y131.033 E4.77055
G1 X135.066 Y134.896 E4.98726
G92 E0
G1 E-0.7 F3000
M204 S6000
G1 Z0.5 F12000
M204 S1500
G1 X135.403 Y135.234
G1 Z0.2
G1 E0 F2700
G1 X132.871 Y137.766 E0.14208
G1 X132.361 Y138.995 E0.19486
G1 X132.361 Y158.005 E0.94895
G1 X132.871 Y159.234 E1.00173
G1 X139.266 Y165.629 E1.36052
G1 X140.495 Y166.139 E1.4133
G1 X159.505 Y166.139 E2.16738
G1 X160.734 Y165.629 E2.22017
G1 X167.129 Y159.234 E2.57896
G1 X167.639 Y158.005 E2.63174
G1 X167.639 Y138.995 E3.38582
G1 X167.129 Y137.766 E3.43861
G1 X160.734 Y131.371 E3.7974
G1 X159.505 Y130.861 E3.85018
G1 X140.495 Y130.861 E4.60426
G1 X139.266 Y131.371 E4.65705
G1 X135.446 Y135.191 E4.87138
M104 S255 ; set temperature
G92 E0
G1 E-0.7 F3000
M204 S6000
G1 Z0.5 F12000
; printing object Voron_Design_Cube_v7 id:0 copy 0
EXCLUDE_OBJECT_START NAME=Voron_Design_Cube_v7_id_0_copy_0
; acceleration to travel
M204 S6500
G1 X135.393 Y138.928
; decel to extrusion
M204 S1000
G1 X135.384 Y139.527
; end travel
G1 Z0.2
G1 E0 F2700
;TYPE:External perimeter
;WIDTH:0.568
G1 F3600
G1 X141.027 Y133.884 E0.34845
G1 X158.973 Y133.884 E1.13196
G1 X164.616 Y139.527 E1.4804
G1 X164.616 Y157.473 E2.26391
G1 X158.973 Y163.116 E2.61235
G1 X141.027 Y163.116 E3.39586
G1 X135.384 Y157.473 E3.74431
G1 X135.384 Y139.587 E4.5252
;WIPE_START
M204 S6000
G1 X135.784 Y139.527 F12000
;WIPE_END
M204 S1500
G1 X135.909 Y139.745
;TYPE:Internal perimeter
G1 F3600
G1 X141.245 Y134.409 E4.85465
G1 X158.755 Y134.409 E5.61917
G1 X164.091 Y139.745 E5.94862
G1 X164.091 Y157.255 E6.71314
G1 X158.755 Y162.591 E7.04259
G1 X141.245 Y162.591 E7.80711
G1 X135.909 Y157.255 E8.13656
G1 X135.909 Y139.805 E8.89846
G1 X136.434 Y139.962 F12000
G1 F3600
G1 X141.462 Y134.934 E9.20892
G1 X158.538 Y134.934 E9.95445
G1 X163.566 Y139.962 E10.26491
G1 X163.566 Y157.038 E11.01044
G1 X158.538 Y162.066 E11.3209
G1 X141.462 Y162.066 E12.06642
G1 X136.434 Y157.038 E12.37689
G1 X136.434 Y140.022 E13.11979
G1 X136.959 Y140.18 F12000
G1 F3600
G1 X141.68 Y135.459 E13.41126
G1 X158.32 Y135.459 E14.13779
G1 X163.041 Y140.18 E14.42926
G1 X163.041 Y156.82 E15.1558
G1 X158.32 Y161.541 E15.44727
G1 X141.68 Y161.541 E16.1738
G1 X136.959 Y156.82 E16.46527
G1 X136.959 Y140.24 E17.18918
; acceleration to travel
M204 S6500
G1 X141.749 Y144.933 F12000
; decel to extrusion
M204 S1000
G1 X142.486 Y145.655
; end travel
;TYPE:External perimeter
G1 F3600
G1 X142.233 Y146.446 E17.22545
G1 X142.062 Y147.259 E17.26171
G1 X141.976 Y148.085 E17.29797
G1 X141.976 Y148.915 E17.33424
G1 X142.062 Y149.741 E17.3705
G1 X142.233 Y150.554 E17.40676
G1 X142.486 Y151.344 E17.44297
G1 X142.732 Y151.919 E17.4703
G1 X143.017 Y152.473 E17.49748
G1 X143.464 Y153.172 E17.53369
G1 X143.981 Y153.822 E17.56995
G1 X144.562 Y154.415 E17.60621
G1 X145.202 Y154.944 E17.64248
G1 X145.893 Y155.405 E17.67874
G1 X146.627 Y155.792 E17.71494
G1 X147.205 Y156.031 E17.74228
G1 X147.797 Y156.226 E17.76946
G1 X148.604 Y156.412 E17.80566
G1 X149.429 Y156.514 E17.84193
G1 X150.259 Y156.53 E17.87819
G1 X151.087 Y156.46 E17.91445
G1 X151.903 Y156.306 E17.95071
G1 X152.697 Y156.068 E17.98691
G1 X153.278 Y155.834 E18.01425
G1 X153.837 Y155.559 E18.04145
G1 X154.544 Y155.126 E18.07763
G1 X155.203 Y154.621 E18.1139
G1 X155.807 Y154.051 E18.15016
G1 X156.35 Y153.422 E18.18642
G1 X156.824 Y152.74 E18.22268
G1 X157.225 Y152.013 E18.25894
G1 X157.549 Y151.248 E18.29521
G1 X157.792 Y150.454 E18.33146
G1 X157.953 Y149.639 E18.36773
G1 X158.027 Y148.814 E18.40391
G1 X158.027 Y148.186 E18.43134
G1 X157.953 Y147.361 E18.46752
G1 X157.792 Y146.546 E18.50379
G1 X157.55 Y145.753 E18.53997
G1 X157.314 Y145.177 E18.56717
G1 X157.033 Y144.617 E18.59452
G1 X156.595 Y143.913 E18.63071
G1 X156.087 Y143.256 E18.66697
G1 X155.513 Y142.656 E18.70323
G1 X154.88 Y142.118 E18.73949
G1 X154.195 Y141.648 E18.77575
G1 X153.467 Y141.252 E18.81195
G1 X152.894 Y141.007 E18.83914
G1 X152.302 Y140.803 E18.86648
G1 X151.497 Y140.606 E18.90268
G1 X150.674 Y140.494 E18.93894
G1 X149.844 Y140.467 E18.9752
G1 X149.676 Y140.479 E18.98253
G1 X149.015 Y140.526 E19.01146
G1 X148.197 Y140.671 E19.04773
G1 X147.399 Y140.899 E19.08399
G1 X146.628 Y141.208 E19.12025
G1 X145.893 Y141.595 E19.15652
G1 X145.202 Y142.056 E19.19278
G1 X144.563 Y142.585 E19.22898
G1 X144.123 Y143.025 E19.25617
G1 X143.713 Y143.498 E19.2835
G1 X143.231 Y144.172 E19.3197
G1 X142.82 Y144.894 E19.35596
G1 X142.51 Y145.6 E19.38961
;WIPE_START
M204 S6000
G1 X142.093 Y145.726 F12000
;WIPE_END
M204 S1500
G1 X141.987 Y145.493
;TYPE:Internal perimeter
G1 F3600
G1 X141.724 Y146.311 E19.42714
G1 X141.543 Y147.177 E19.46578
G1 X141.451 Y148.058 E19.50442
G1 X141.451 Y148.942 E19.54306
G1 X141.543 Y149.823 E19.58169
G1 X141.724 Y150.689 E19.62033
G1 X141.993 Y151.528 E19.6588
G1 X142.257 Y152.143 E19.68802
G1 X142.561 Y152.735 E19.71708
G1 X143.036 Y153.478 E19.75556
G1 X143.587 Y154.17 E19.79419
G1 X144.207 Y154.802 E19.83283
G1 X144.888 Y155.366 E19.87146
G1 X145.624 Y155.857 E19.9101
G1 X146.403 Y156.268 E19.94856
G1 X147.022 Y156.523 E19.97779
G1 X147.655 Y156.732 E20.00688
G1 X148.513 Y156.93 E20.04533
G1 X149.391 Y157.038 E20.08396
G1 X150.276 Y157.056 E20.1226
G1 X151.158 Y156.981 E20.16123
G1 X152.027 Y156.816 E20.19987
G1 X152.871 Y156.564 E20.23831
G1 X153.492 Y156.313 E20.26757
G1 X154.09 Y156.019 E20.29667
G1 X154.841 Y155.56 E20.3351
G1 X155.544 Y155.022 E20.37373
G1 X156.188 Y154.415 E20.41237
G1 X156.765 Y153.744 E20.451
G1 X157.27 Y153.018 E20.48964
G1 X157.698 Y152.243 E20.52827
G1 X158.043 Y151.428 E20.56691
G1 X158.302 Y150.582 E20.60554
G1 X158.473 Y149.714 E20.64417
G1 X158.553 Y148.838 E20.68258
G1 X158.553 Y148.162 E20.7121
G1 X158.473 Y147.286 E20.7505
G1 X158.302 Y146.418 E20.78913
G1 X158.045 Y145.576 E20.82755
G1 X157.792 Y144.959 E20.85667
G1 X157.492 Y144.36 E20.88594
G1 X157.027 Y143.612 E20.92436
G1 X156.485 Y142.913 E20.963
G1 X155.874 Y142.273 E21.00163
G1 X155.199 Y141.7 E21.04026
G1 X154.47 Y141.2 E21.0789
G1 X153.696 Y140.779 E21.11733
G1 X153.084 Y140.516 E21.14643
G1 X152.45 Y140.298 E21.17569
G1 X151.595 Y140.09 E21.21413
G1 X150.718 Y139.97 E21.25276
G1 X149.834 Y139.942 E21.2914
G1 X149.639 Y139.955 E21.29991
G1 X148.951 Y140.005 E21.33003
G1 X148.079 Y140.158 E21.36867
G1 X147.228 Y140.401 E21.40731
G1 X146.407 Y140.73 E21.44594
G1 X145.624 Y141.143 E21.48458
G1 X144.888 Y141.634 E21.52321
G1 X144.21 Y142.196 E21.56168
G1 X143.739 Y142.667 E21.59075
G1 X143.3 Y143.172 E21.61997
G1 X142.788 Y143.889 E21.65844
G1 X142.35 Y144.658 E21.69708
G1 X142.009 Y145.437 E21.73419
G1 X141.523 Y145.236 F12000
G1 F3600
G1 X141.503 Y145.282 E21.73639
G1 X141.216 Y146.177 E21.7774
G1 X141.023 Y147.096 E21.81841
G1 X140.926 Y148.03 E21.85942
G1 X140.926 Y148.97 E21.90043
G1 X141.023 Y149.904 E21.94144
G1 X141.216 Y150.823 E21.98245
G1 X141.501 Y151.712 E22.0232
G1 X141.781 Y152.367 E22.0543
G1 X142.105 Y152.997 E22.08525
G1 X142.608 Y153.783 E22.12599
G1 X143.193 Y154.518 E22.16699
G1 X143.851 Y155.189 E22.208
G1 X144.574 Y155.788 E22.24901
G1 X145.355 Y156.309 E22.29002
G1 X146.18 Y156.744 E22.33073
G1 X146.84 Y157.016 E22.36187
G1 X147.513 Y157.239 E22.39285
G1 X148.422 Y157.448 E22.43355
G1 X149.354 Y157.563 E22.47456
G1 X150.293 Y157.581 E22.51557
G1 X151.229 Y157.502 E22.55658
G1 X152.152 Y157.327 E22.59759
G1 X153.044 Y157.06 E22.63827
G1 X153.707 Y156.793 E22.66944
G1 X154.344 Y156.48 E22.70045
G1 X155.138 Y155.993 E22.74112
G1 X155.884 Y155.423 E22.78213
G1 X156.568 Y154.778 E22.82314
G1 X157.181 Y154.066 E22.86415
G1 X157.717 Y153.295 E22.90515
G1 X158.171 Y152.473 E22.94616
G1 X158.537 Y151.608 E22.98717
G1 X158.812 Y150.71 E23.02818
G1 X158.993 Y149.789 E23.06918
G1 X159.078 Y148.862 E23.10981
G1 X159.078 Y148.138 E23.14141
G1 X158.993 Y147.211 E23.18204
G1 X158.812 Y146.29 E23.22304
G1 X158.54 Y145.4 E23.26369
G1 X158.27 Y144.742 E23.29473
G1 X157.95 Y144.103 E23.32593
G1 X157.459 Y143.312 E23.36657
G1 X156.883 Y142.57 E23.40758
G1 X156.234 Y141.891 E23.44859
G1 X155.519 Y141.283 E23.4896
G1 X154.744 Y140.751 E23.53061
G1 X153.926 Y140.307 E23.57128
G1 X153.273 Y140.026 E23.60229
G1 X152.598 Y139.794 E23.63345
G1 X151.693 Y139.573 E23.67414
G1 X150.762 Y139.446 E23.71515
G1 X149.823 Y139.416 E23.75616
G1 X149.602 Y139.432 E23.76585
G1 X148.886 Y139.483 E23.79717
G1 X147.961 Y139.646 E23.83817
G1 X147.058 Y139.904 E23.87918
G1 X146.186 Y140.253 E23.92019
G1 X145.355 Y140.691 E23.9612
G1 X144.574 Y141.212 E24.00221
G1 X143.856 Y141.807 E24.04294
G1 X143.354 Y142.309 E24.0739
G1 X142.887 Y142.847 E24.10501
G1 X142.345 Y143.606 E24.14574
G1 X141.88 Y144.422 E24.18675
G1 X141.547 Y145.181 E24.22294
G1 X141.042 Y145.027 F12000
G1 F3600
G1 X141.011 Y145.096 E24.22624
G1 X140.708 Y146.042 E24.26963
G1 X140.504 Y147.015 E24.31301
G1 X140.401 Y148.003 E24.35639
G1 X140.401 Y148.997 E24.39977
G1 X140.504 Y149.985 E24.44316
G1 X140.708 Y150.958 E24.48654
G1 X141.009 Y151.896 E24.52955
G1 X141.306 Y152.59 E24.56254
G1 X141.65 Y153.259 E24.59537
G1 X142.18 Y154.089 E24.63838
G1 X142.799 Y154.866 E24.68176
G1 X143.495 Y155.576 E24.72514
G1 X144.26 Y156.21 E24.76852
G1 X145.087 Y156.761 E24.81191
G1 X145.957 Y157.22 E24.85487
G1 X146.657 Y157.508 E24.88791
G1 X147.372 Y157.745 E24.92078
G1 X148.331 Y157.965 E24.96374
G1 X149.317 Y158.087 E25.00713
G1 X150.31 Y158.107 E25.05051
G1 X151.3 Y158.023 E25.09389
G1 X152.276 Y157.838 E25.13727
G1 X153.218 Y157.556 E25.1802
G1 X153.921 Y157.273 E25.21328
G1 X154.597 Y156.94 E25.24619
G1 X155.436 Y156.427 E25.2891
G1 X156.225 Y155.823 E25.33249
G1 X156.948 Y155.141 E25.37587
G1 X157.596 Y154.388 E25.41925
G1 X158.164 Y153.573 E25.46263
G1 X158.644 Y152.703 E25.50601
G1 X159.031 Y151.788 E25.54939
G1 X159.322 Y150.838 E25.59277
G1 X159.514 Y149.863 E25.63615
G1 X159.603 Y148.886 E25.67901
G1 X159.603 Y148.114 E25.71268
G1 X159.514 Y147.137 E25.75554
G1 X159.322 Y146.162 E25.79892
G1 X159.035 Y145.223 E25.84179
G1 X158.749 Y144.524 E25.87475
G1 X158.409 Y143.846 E25.90787
G1 X157.89 Y143.012 E25.95075
G1 X157.282 Y142.227 E25.99413
G1 X156.595 Y141.508 E26.03751
G1 X155.838 Y140.865 E26.08089
G1 X155.019 Y140.303 E26.12428
G1 X154.155 Y139.834 E26.16719
G1 X153.462 Y139.536 E26.20011
G1 X152.746 Y139.29 E26.23318
G1 X151.791 Y139.057 E26.27611
G1 X150.806 Y138.922 E26.3195
G1 X149.813 Y138.89 E26.36288
G1 X149.564 Y138.908 E26.37376
G1 X148.822 Y138.961 E26.40626
G1 X147.844 Y139.133 E26.44964
G1 X146.888 Y139.406 E26.49302
G1 X145.966 Y139.776 E26.5364
G1 X145.087 Y140.239 E26.57979
G1 X144.26 Y140.79 E26.62317
G1 X143.502 Y141.418 E26.66616
G1 X142.97 Y141.951 E26.69901
G1 X142.474 Y142.522 E26.73201
G1 X141.902 Y143.323 E26.77501
G1 X141.411 Y144.186 E26.81839
G1 X141.066 Y144.972 E26.85585
; acceleration to travel
M204 S6500
G1 X137.857 Y154.255 F12000
; decel to extrusion
M204 S1500
G1 X137.117 Y156.397
; end travel
;TYPE:Solid infill
G1 F3600
G1 X141.877 Y161.157 E27.1498
G1 X142.62 Y161.157 E27.18222
G1 X137.343 Y155.88 E27.50808
G1 X137.343 Y155.137 E27.5405
G1 X143.363 Y161.157 E27.91221
G1 X144.105 Y161.157 E27.94463
G1 X137.343 Y154.395 E28.36219
G1 X137.343 Y153.652 E28.39461
G1 X144.848 Y161.157 E28.85802
G1 X145.59 Y161.157 E28.89044
G1 X137.343 Y152.91 E29.3997
G1 X137.343 Y152.167 E29.43212
G1 X146.333 Y161.157 E29.98723
G1 X147.075 Y161.157 E30.01965
G1 X137.343 Y151.425 E30.62061
G1 X137.343 Y150.682 E30.65304
G1 X147.818 Y161.157 E31.29985
G1 X148.561 Y161.157 E31.33227
G1 X137.343 Y149.939 E32.02493
G1 X137.343 Y149.197 E32.05735
G1 X141.022 Y152.876 E32.28455
G1 X140.649 Y152.03 E32.32494
G1 X140.522 Y151.634 E32.3431
G1 X137.343 Y148.454 E32.53942
G1 X137.343 Y147.712 E32.57184
G1 X140.244 Y150.613 E32.75099
G1 X140.125 Y150.044 E32.77635
G1 X140.091 Y149.717 E32.79072
G1 X137.343 Y146.969 E32.96039
G1 X137.343 Y146.227 E32.99282
G1 X140.018 Y148.902 E33.158
G1 X140.018 Y148.159 E33.19042
G1 X137.343 Y145.484 E33.35561
G1 X137.343 Y144.741 E33.38803
G1 X140.071 Y147.47 E33.55651
G1 X140.155 Y146.811 E33.58551
G1 X137.343 Y143.999 E33.75916
G1 X137.343 Y143.256 E33.79158
G1 X140.284 Y146.197 E33.97318
G1 X140.337 Y145.944 E33.98447
G1 X140.443 Y145.614 E33.99962
G1 X137.343 Y142.514 E34.19104
G1 X137.343 Y141.771 E34.22346
G1 X140.623 Y145.052 E34.42601
G1 X140.842 Y144.528 E34.45079
G1 X137.343 Y141.029 E34.66686
G1 X137.343 Y140.339 E34.69699
G1 X137.369 Y140.312 E34.69861
G1 X141.069 Y144.012 E34.92707
G1 X141.338 Y143.539 E34.95084
G1 X137.74 Y139.941 E35.17299
G1 X138.111 Y139.57 E35.19592
G1 X141.611 Y143.07 E35.41203
G1 X141.921 Y142.637 E35.43527
G1 X138.483 Y139.198 E35.64758
G1 X138.854 Y138.827 E35.6705
G1 X142.237 Y142.21 E35.87939
G1 X142.582 Y141.813 E35.90238
G1 X139.225 Y138.456 E36.10964
G1 X139.597 Y138.085 E36.13256
G1 X142.945 Y141.433 E36.33932
G1 X143.323 Y141.069 E36.36225
G1 X139.968 Y137.713 E36.56943
G1 X140.339 Y137.342 E36.59236
G1 X143.729 Y140.732 E36.80169
G1 X144.146 Y140.406 E36.82479
G1 X140.71 Y136.971 E37.0369
G1 X141.082 Y136.599 E37.05983
G1 X144.591 Y140.109 E37.27652
G1 X145.05 Y139.825 E37.30008
G1 X141.453 Y136.228 E37.52218
G1 X141.824 Y135.857 E37.5451
G1 X145.536 Y139.569 E37.77431
G1 X145.805 Y139.428 E37.78755
G1 X146.042 Y139.332 E37.79873
G1 X142.553 Y135.843 E38.01421
G1 X143.295 Y135.843 E38.04663
G1 X146.572 Y139.12 E38.24898
G1 X146.764 Y139.043 E38.25799
G1 X147.133 Y138.938 E38.27475
G1 X144.038 Y135.843 E38.46586
G1 X144.78 Y135.843 E38.49828
G1 X147.711 Y138.773 E38.67921
G1 X148.337 Y138.657 E38.70704
G1 X145.523 Y135.843 E38.88083
