; generated by SuperSlicer 2.4 on 2023-01-18 at 10:02:22 UTC


;
;

;
;
; 

; external perimeters extrusion width = 0.63mm
; perimeters extrusion width = 0.68mm
; infill extrusion width = 0.68mm
; solid infill extrusion width = 0.68mm
; top infill extrusion width = 0.63mm
; first layer extrusion width = 0.93mm

; object:{"name":"Voron_Design_Cube_v7","id":"Voron_Design_Cube_v7 id:0 copy 0","object_center":[150.000000,148.500000,0.000000],"boundingbox_center":[150.000000,148.500000,15.000000],"boundingbox_size":[40.000000,40.000000,40.000000]}
; plater:{"center":[150.000000,148.500000,0.000000],"boundingbox_center":[150.000000,148.500000,15.000000],"boundingbox_size":[40.000000,40.000000,40.000000]}

;TYPE:Custom
M104 S0 ; Stops SuperSlicer from sending temp waits separately

M140 S0

print_start EXTRUDER=215 BED=65 CHAMBER=15
G21 ; set units to millimeters
G90 ; use absolute coordinates
M83 ; use relative distances for extrusion
;_TOOLCHANGE 0
M107
;LAYER_CHANGE
;Z:0.2
;HEIGHT:0.2
TIMELAPSE_TAKE_FRAME
;BEFORE_LAYER_CHANGE
;0.2


G1 Z0.2 F8400
;AFTER_LAYER_CHANGE
;0.2
G92 E0
G1 E-0.8 F3000
G1 Z0.6 F8400
G1 X128.195 Y128.195
G1 Z0.2
G1 E0.8 F1800
;TYPE:Skirt
;WIDTH:0.78
G1 X127.085 Y129.305 E0.09621
G1 X126.457 Y130.82 E0.10051
G1 X126.457 Y166.18 E2.16715
G1 X127.085 Y167.695 E0.10051
G1 X130.805 Y171.415 E0.32244
G1 X132.318 Y172.043 E0.10042
G1 X167.704 Y172.043 E2.16871
G1 X169.195 Y171.415 E0.09915
G1 X172.915 Y167.695 E0.32244
G1 X173.543 Y166.18 E0.10051
G1 X173.543 Y130.82 E2.16715
G1 X172.915 Y129.305 E0.10051
G1 X169.195 Y125.585 E0.32244
G1 X167.68 Y124.957 E0.10051
G1 X132.32 Y124.957 E2.16715
G1 X130.805 Y125.585 E0.10051
G1 X128.259 Y128.131 E0.22071
G1 X128.78 Y128.652 F8400
G1 F1800
G1 X127.606 Y129.826 E0.10173
G1 X127.194 Y130.82 E0.06593
G1 X127.194 Y166.18 E2.16715
G1 X127.606 Y167.174 E0.06593
G1 X131.326 Y170.894 E0.32244
G1 X132.319 Y171.306 E0.06587
G1 X167.696 Y171.306 E2.16817
G1 X168.674 Y170.894 E0.06504
G1 X172.394 Y167.174 E0.32244
G1 X172.806 Y166.18 E0.06594
G1 X172.806 Y130.82 E2.16715
G1 X172.394 Y129.826 E0.06593
G1 X168.674 Y126.106 E0.32244
G1 X167.68 Y125.694 E0.06593
G1 X132.32 Y125.694 E2.16715
G1 X131.326 Y126.106 E0.06593
G1 X128.843 Y128.589 E0.21519
G1 X129.365 Y129.11 F8400
G1 F1800
G1 X128.127 Y130.347 E0.10725
G1 X127.931 Y130.82 E0.03136
G1 X127.931 Y166.18 E2.16715
G1 X128.127 Y166.653 E0.03136
G1 X131.847 Y170.373 E0.32244
G1 X132.32 Y170.569 E0.03133
G1 X167.687 Y170.568 E2.16763
G1 X168.153 Y170.373 E0.03094
G1 X171.873 Y166.653 E0.32244
G1 X172.069 Y166.18 E0.03136
G1 X172.069 Y130.82 E2.16715
G1 X171.873 Y130.347 E0.03136
G1 X168.153 Y126.627 E0.32244
G1 X167.68 Y126.431 E0.03136
G1 X132.32 Y126.431 E2.16715
G1 X131.847 Y126.627 E0.03136
G1 X129.428 Y129.046 E0.20968
G1 X130.648 Y130.266 F8400
;WIDTH:0.93
G1 F1800
G1 X132.69 Y128.224 E0.21303
G1 X132.853 Y128.156 E0.01302
G1 X167.147 Y128.156 E2.52953
G1 X167.31 Y128.224 E0.01302
G1 X167.665 Y128.579 E0.03706
G1 X170.276 Y131.19 E0.27235
G1 X170.344 Y131.353 E0.01302
G1 X170.344 Y134.206 E0.21046
G1 X170.084 Y134.466 E0.0271
G1 X167.677 Y134.466 E0.17753
G1 X167.677 Y134.79 E0.02385
G1 X170.084 Y134.79 E0.17753
G1 X170.344 Y135.049 E0.0271
G1 X170.344 Y165.647 E2.2569
G1 X170.276 Y165.81 E0.01302
G1 X167.31 Y168.776 E0.30942
G1 X167.147 Y168.844 E0.01302
G1 X165.44 Y168.844 E0.12587
G1 X165.18 Y168.584 E0.0271
G1 X165.18 Y166.183 E0.1771
G1 X165.155 Y166.183 E0.00182
G1 X164.807 Y166.207 E0.02574
G1 X164.807 Y167.628 E0.10476
G1 X164.805 Y167.661 E0.00244
G1 X164.738 Y168.102 E0.03295
G1 X164.707 Y168.607 E0.03731
G1 X164.451 Y168.848 E0.02591
G1 X163.19 Y168.848 E0.09297
G1 X162.934 Y168.607 E0.02591
G1 X162.903 Y168.102 E0.03731
G1 X162.836 Y167.661 E0.03295
G1 X162.834 Y167.628 E0.00244
G1 X162.834 Y166.21 E0.10456
G1 X162.444 Y166.182 E0.02884
G1 X162.397 Y166.182 E0.00347
G1 X162.397 Y168.584 E0.17718
G1 X162.137 Y168.844 E0.0271
G1 X132.853 Y168.844 E2.15999
G1 X132.69 Y168.776 E0.01302
G1 X129.724 Y165.81 E0.30942
G1 X129.656 Y165.647 E0.01302
G1 X129.656 Y131.353 E2.52953
G1 X129.724 Y131.19 E0.01302
G1 X130.584 Y130.33 E0.08975
M104 S215 ; set temperature
G1 E-0.8 F3000
G1 Z0.6 F8400
; printing object Voron_Design_Cube_v7 id:0 copy 0
G1 X145.744 Y130.236
G1 Z0.2
G1 E0.8 F1800
;TYPE:Solid infill
;WIDTH:0.908799
G1 F2400
G1 X153.769 Y138.261 E0.81808
G1 X153.606 Y138.194 E0.01273
G1 X152.43 Y137.855 E0.08826
G1 X152.043 Y137.789 E0.0283
G1 X144.871 Y130.617 E0.73105
G1 X143.616 Y130.617 E0.09043
G1 X150.597 Y137.598 E0.7116
G1 X149.388 Y137.598 E0.08718
G1 X149.347 Y137.603 E0.00293
G1 X142.362 Y130.617 E0.71206
G1 X141.107 Y130.617 E0.09043
G1 X148.22 Y137.73 E0.72501
G1 X148.171 Y137.735 E0.00354
G1 X147.194 Y137.958 E0.07225
G1 X139.853 Y130.617 E0.74831
G1 X138.598 Y130.617 E0.09043
G1 X146.239 Y138.258 E0.77884
G1 X145.352 Y138.625 E0.06921
G1 X137.344 Y130.617 E0.8163
G1 X136.089 Y130.617 E0.09043
G1 X144.536 Y139.064 E0.861
G1 X144.199 Y139.25 E0.02774
G1 X143.761 Y139.543 E0.03802
G1 X134.835 Y130.617 E0.90985
G1 X133.777 Y130.617 E0.07624
G1 X133.679 Y130.716 E0.01003
G1 X143.056 Y140.093 E0.95592
G1 X142.724 Y140.358 E0.03063
G1 X142.395 Y140.687 E0.03351
G1 X133.051 Y131.343 E0.95249
G1 X132.424 Y131.97 E0.06394
G1 X141.776 Y141.322 E0.95333
G1 X141.458 Y141.7 E0.03559
G1 X141.226 Y142.027 E0.02888
G1 X132.117 Y132.918 E0.92849
G1 X132.117 Y134.173 E0.09043
G1 X140.712 Y142.767 E0.87613
G1 X140.266 Y143.575 E0.06654
G1 X132.117 Y135.427 E0.83061
G1 X132.117 Y136.682 E0.09043
G1 X139.88 Y144.444 E0.79129
G1 X139.694 Y144.894 E0.03508
G1 X139.555 Y145.374 E0.03603
G1 X132.117 Y137.936 E0.7582
G1 X132.117 Y139.191 E0.09043
G1 X139.303 Y146.376 E0.73246
G1 X139.151 Y147.268 E0.06522
G1 X139.135 Y147.463 E0.01406
G1 X132.117 Y140.445 E0.71533
G1 X132.117 Y141.7 E0.09043
G1 X139.098 Y148.68 E0.7116
G1 X139.098 Y149.112 E0.03113
G1 X139.203 Y150.039 E0.06725
G1 X132.117 Y142.954 E0.72225
G1 X132.117 Y144.209 E0.09043
G1 X139.549 Y151.64 E0.75753
G1 X139.909 Y152.67 E0.07862
G1 X140.167 Y153.246 E0.04549
G1 X140.497 Y153.842 E0.04915
G1 X132.117 Y145.463 E0.85415
G1 X132.117 Y146.718 E0.09043
G1 X151.782 Y166.383 E2.00456
G1 X153.037 Y166.383 E0.09043
G1 X144.658 Y158.003 E0.85415
G1 X145.263 Y158.338 E0.04982
G1 X146.394 Y158.806 E0.08825
G1 X146.845 Y158.936 E0.03385
G1 X154.291 Y166.383 E0.75906
G1 X155.546 Y166.383 E0.09043
G1 X148.46 Y159.296 E0.72235
G1 X148.777 Y159.35 E0.02325
G1 X149.827 Y159.409 E0.07577
G1 X156.8 Y166.383 E0.71083
G1 X158.055 Y166.383 E0.09043
G1 X151.027 Y159.355 E0.71637
G1 X151.829 Y159.265 E0.05815
G1 X152.124 Y159.197 E0.02182
G1 X159.309 Y166.383 E0.73244
G1 X159.936 Y166.383 E0.04516
G1 X159.936 Y165.755 E0.04526
G1 X153.135 Y158.953 E0.69332
G1 X154.064 Y158.628 E0.07097
G1 X159.936 Y164.5 E0.59861
G1 X159.936 Y163.696 E0.05797
G1 X160.391 Y163.701 E0.03277
G1 X154.925 Y158.234 E0.55722
G1 X155.732 Y157.788 E0.06654
G1 X161.658 Y163.713 E0.60403
G1 X162.54 Y163.722 E0.06356
G1 X162.949 Y163.75 E0.02958
G1 X156.481 Y157.282 E0.65934
G1 X156.503 Y157.267 E0.00191
G1 X157.176 Y156.723 E0.06241
G1 X164.258 Y163.804 E0.72189
G1 X164.54 Y163.756 E0.02064
G1 X165.431 Y163.722 E0.06422
G1 X157.813 Y156.104 E0.77655
G1 X158.135 Y155.783 E0.03282
G1 X158.414 Y155.452 E0.03123
G1 X166.64 Y163.677 E0.83849
G1 X167.64 Y163.64 E0.07214
G1 X167.64 Y164.678 E0.0748
G1 X167.784 Y164.821 E0.01466
G1 X167.883 Y164.723 E0.01003
G1 X167.883 Y163.665 E0.07624
G1 X158.947 Y154.73 E0.91085
G1 X159.245 Y154.309 E0.03715
G1 X159.436 Y153.964 E0.02842
G1 X167.883 Y162.411 E0.861
G1 X167.883 Y161.156 E0.09043
G1 X159.875 Y153.148 E0.8163
G1 X160.242 Y152.261 E0.06921
G1 X167.883 Y159.902 E0.77884
G1 X167.883 Y158.647 E0.09043
G1 X160.538 Y151.302 E0.7487
G1 X160.645 Y150.929 E0.02797
G1 X160.758 Y150.268 E0.04839
G1 X167.883 Y157.393 E0.72629
G1 X167.883 Y156.138 E0.09043
G1 X160.883 Y149.139 E0.7135
G1 X160.918 Y148.509 E0.04543
G1 X160.901 Y147.902 E0.04377
G1 X167.883 Y154.884 E0.71164
G1 X167.883 Y153.629 E0.09043
G1 X160.717 Y146.464 E0.7304
G1 X160.492 Y145.477 E0.07293
G1 X160.227 Y144.719 E0.05793
G1 X167.883 Y152.375 E0.7804
G1 X167.883 Y151.12 E0.09043
G1 X147.38 Y130.617 E2.08995
G1 X148.635 Y130.617 E0.09043
G1 X167.883 Y149.865 E1.96207
G1 X167.883 Y148.611 E0.09043
G1 X149.889 Y130.617 E1.83419
G1 X151.144 Y130.617 E0.09043
G1 X167.883 Y147.356 E1.70631
G1 X167.883 Y146.102 E0.09043
G1 X152.398 Y130.617 E1.57843
G1 X153.653 Y130.617 E0.09043
G1 X167.883 Y144.847 E1.45055
G1 X167.883 Y143.593 E0.09043
G1 X154.907 Y130.617 E1.32267
G1 X156.162 Y130.617 E0.09043
G1 X167.883 Y142.338 E1.19479
G1 X167.883 Y141.084 E0.09043
G1 X157.416 Y130.617 E1.06691
G1 X158.671 Y130.617 E0.09043
G1 X167.883 Y139.829 E0.93903
G1 X167.883 Y138.575 E0.09043
G1 X166.558 Y137.25 E0.13499
G1 X167.813 Y137.25 E0.09043
G1 X168.264 Y137.702 E0.046
G1 X165.597 Y136.29 F8400
G1 F2400
G1 X159.925 Y130.617 E0.5782
G1 X161.18 Y130.617 E0.09043
G1 X165.216 Y134.654 E0.41144
G1 X165.216 Y133.399 E0.09043
G1 X162.434 Y130.617 E0.28356
G1 X163.689 Y130.617 E0.09043
G1 X165.216 Y132.145 E0.15568
G1 X165.216 Y132.005 E0.01004
G1 X166.331 Y132.005 E0.08039
G1 X164.943 Y130.617 E0.14148
G1 X166.198 Y130.617 E0.09043
G1 X167.967 Y132.387 E0.18037
G1 X150.909 Y166.764 F8400
G1 F2400
G1 X132.117 Y147.972 E1.91556
G1 X132.117 Y149.227 E0.09043
G1 X149.273 Y166.383 E1.7488
G1 X148.019 Y166.383 E0.09043
G1 X132.117 Y150.481 E1.62092
G1 X132.117 Y151.736 E0.09043
G1 X146.764 Y166.383 E1.49304
G1 X145.51 Y166.383 E0.09043
G1 X132.117 Y152.99 E1.36516
G1 X132.117 Y154.245 E0.09043
G1 X144.255 Y166.383 E1.23728
G1 X143.001 Y166.383 E0.09043
G1 X132.117 Y155.499 E1.1094
G1 X132.117 Y156.754 E0.09043
G1 X141.746 Y166.383 E0.98152
G1 X140.492 Y166.383 E0.09043
G1 X132.117 Y158.008 E0.85364
G1 X132.117 Y159.263 E0.09043
G1 X139.237 Y166.383 E0.72576
G1 X137.983 Y166.383 E0.09043
G1 X132.117 Y160.517 E0.59788
G1 X132.117 Y161.772 E0.09043
G1 X136.728 Y166.383 E0.47
G1 X135.474 Y166.383 E0.09043
G1 X132.117 Y163.026 E0.34211
G1 X132.117 Y164.281 E0.09043
G1 X134.6 Y166.764 E0.25312
G1 X143.402 Y156.342 F8400
;TYPE:Internal perimeter
;WIDTH:0.93
G1 F2880
G1 X143.608 Y156.516 E0.01988
G1 X144.067 Y156.862 E0.04242
G1 X144.545 Y157.181 E0.04242
G1 X145.041 Y157.473 E0.04243
G1 X145.552 Y157.737 E0.04242
G1 X146.077 Y157.972 E0.04242
G1 X146.614 Y158.177 E0.04241
G1 X147.162 Y158.352 E0.04243
G1 X147.719 Y158.496 E0.04243
G1 X148.283 Y158.608 E0.0424
G1 X148.852 Y158.688 E0.04242
G1 X149.425 Y158.736 E0.04241
G1 X150 Y158.753 E0.04242
G1 X150.575 Y158.736 E0.04242
G1 X151.148 Y158.688 E0.04242
G1 X151.717 Y158.608 E0.04241
G1 X152.281 Y158.496 E0.0424
G1 X152.838 Y158.352 E0.04244
G1 X153.386 Y158.177 E0.04243
G1 X153.923 Y157.972 E0.04241
G1 X154.448 Y157.738 E0.04239
G1 X154.956 Y157.475 E0.04218
G1 X155.46 Y157.178 E0.04318
G1 X156.104 Y156.733 E0.05772
G1 X156.825 Y156.151 E0.06831
G1 X157.25 Y155.75 E0.04313
G1 X157.645 Y155.332 E0.04242
G1 X158.016 Y154.892 E0.04242
G1 X158.362 Y154.433 E0.04242
G1 X158.681 Y153.955 E0.04242
G1 X158.973 Y153.459 E0.04243
G1 X159.237 Y152.948 E0.04242
G1 X159.472 Y152.423 E0.04242
G1 X159.677 Y151.886 E0.04241
G1 X159.852 Y151.338 E0.04242
G1 X159.996 Y150.781 E0.04244
G1 X160.108 Y150.217 E0.0424
G1 X160.188 Y149.648 E0.04241
G1 X160.236 Y149.075 E0.04242
G1 X160.253 Y148.5 E0.04242
G1 X160.236 Y147.925 E0.04242
G1 X160.188 Y147.352 E0.04242
G1 X160.108 Y146.783 E0.04241
G1 X159.996 Y146.219 E0.0424
G1 X159.852 Y145.662 E0.04243
G1 X159.677 Y145.114 E0.04243
G1 X159.472 Y144.577 E0.04241
G1 X159.237 Y144.052 E0.04242
G1 X158.973 Y143.541 E0.04242
G1 X158.681 Y143.045 E0.04243
G1 X158.362 Y142.567 E0.04242
G1 X158.016 Y142.108 E0.04242
G1 X157.645 Y141.668 E0.04243
G1 X157.25 Y141.25 E0.04242
G1 X156.832 Y140.855 E0.04242
G1 X156.392 Y140.484 E0.04242
G1 X155.933 Y140.138 E0.04242
G1 X155.455 Y139.819 E0.04242
G1 X154.959 Y139.527 E0.04242
G1 X154.448 Y139.263 E0.04241
G1 X153.924 Y139.028 E0.04242
G1 X153.386 Y138.823 E0.04243
G1 X152.838 Y138.648 E0.04242
G1 X152.281 Y138.504 E0.04242
G1 X151.717 Y138.392 E0.04242
G1 X151.148 Y138.312 E0.04242
G1 X150.575 Y138.263 E0.04241
G1 X150 Y138.247 E0.04242
G1 X149.425 Y138.263 E0.04242
G1 X148.852 Y138.312 E0.04242
G1 X148.283 Y138.392 E0.04241
G1 X147.719 Y138.504 E0.04242
G1 X147.162 Y138.648 E0.04242
G1 X146.614 Y138.823 E0.04242
G1 X146.077 Y139.028 E0.04242
G1 X145.552 Y139.262 E0.04239
G1 X145.044 Y139.525 E0.04218
G1 X144.545 Y139.819 E0.04268
G1 X144.067 Y140.138 E0.04243
G1 X143.608 Y140.484 E0.04242
G1 X143.168 Y140.855 E0.04242
G1 X142.75 Y141.25 E0.04242
G1 X142.355 Y141.668 E0.04242
G1 X141.984 Y142.108 E0.04242
G1 X141.638 Y142.567 E0.04242
G1 X141.319 Y143.045 E0.04242
G1 X141.027 Y143.541 E0.04243
G1 X140.763 Y144.052 E0.04241
G1 X140.528 Y144.576 E0.04242
G1 X140.323 Y145.114 E0.04243
G1 X140.148 Y145.662 E0.04242
G1 X140.004 Y146.219 E0.04242
G1 X139.892 Y146.783 E0.04242
G1 X139.812 Y147.352 E0.04241
G1 X139.763 Y147.925 E0.04242
G1 X139.747 Y148.5 E0.04242
G1 X139.763 Y149.075 E0.04242
G1 X139.812 Y149.648 E0.04242
G1 X139.892 Y150.217 E0.04241
G1 X140.004 Y150.781 E0.04242
G1 X140.148 Y151.338 E0.04242
G1 X140.323 Y151.886 E0.04242
G1 X140.528 Y152.424 E0.04243
G1 X140.763 Y152.948 E0.04242
G1 X141.027 Y153.459 E0.04242
G1 X141.319 Y153.955 E0.04242
G1 X141.638 Y154.433 E0.04242
G1 X141.984 Y154.892 E0.04242
G1 X142.355 Y155.332 E0.04242
G1 X142.75 Y155.75 E0.04242
G1 X143.168 Y156.145 E0.04242
G1 X143.333 Y156.284 E0.0159
G1 X143.974 Y155.664 F8400
;TYPE:External perimeter
G1 F2145
G1 X144.161 Y155.822 E0.01805
G1 X144.581 Y156.138 E0.03875
G1 X145.017 Y156.43 E0.03875
G1 X145.47 Y156.697 E0.03875
G1 X145.937 Y156.938 E0.03875
G1 X146.416 Y157.152 E0.03875
G1 X146.907 Y157.34 E0.03875
G1 X147.407 Y157.499 E0.03875
G1 X147.916 Y157.63 E0.03875
G1 X148.431 Y157.733 E0.03874
G1 X148.952 Y157.806 E0.03875
G1 X149.475 Y157.85 E0.03874
G1 X150 Y157.865 E0.03875
G1 X150.525 Y157.85 E0.03875
G1 X151.049 Y157.806 E0.03875
G1 X151.569 Y157.733 E0.03874
G1 X152.084 Y157.63 E0.03874
G1 X152.593 Y157.499 E0.03875
G1 X153.093 Y157.34 E0.03875
G1 X153.584 Y157.152 E0.03875
G1 X154.063 Y156.938 E0.03872
G1 X154.527 Y156.698 E0.03852
G1 X154.983 Y156.43 E0.03901
G1 X155.573 Y156.022 E0.05291
G1 X156.24 Y155.483 E0.0633
G1 X156.622 Y155.122 E0.03875
G1 X156.983 Y154.74 E0.03875
G1 X157.322 Y154.339 E0.03875
G1 X157.638 Y153.919 E0.03875
G1 X157.93 Y153.483 E0.03875
G1 X158.197 Y153.03 E0.03875
G1 X158.438 Y152.563 E0.03875
G1 X158.652 Y152.084 E0.03875
G1 X158.84 Y151.593 E0.03875
G1 X158.999 Y151.093 E0.03875
G1 X159.13 Y150.584 E0.03875
G1 X159.233 Y150.069 E0.03874
G1 X159.306 Y149.549 E0.03874
G1 X159.35 Y149.025 E0.03875
G1 X159.365 Y148.5 E0.03875
G1 X159.35 Y147.975 E0.03875
G1 X159.306 Y147.451 E0.03875
G1 X159.233 Y146.931 E0.03874
G1 X159.13 Y146.416 E0.03874
G1 X158.999 Y145.907 E0.03875
G1 X158.84 Y145.407 E0.03875
G1 X158.652 Y144.916 E0.03875
G1 X158.438 Y144.437 E0.03875
G1 X158.197 Y143.97 E0.03875
G1 X157.93 Y143.517 E0.03875
G1 X157.638 Y143.081 E0.03875
G1 X157.322 Y142.661 E0.03875
G1 X156.983 Y142.26 E0.03875
G1 X156.622 Y141.878 E0.03874
G1 X156.24 Y141.517 E0.03875
G1 X155.839 Y141.178 E0.03875
G1 X155.419 Y140.862 E0.03875
G1 X154.983 Y140.57 E0.03875
G1 X154.53 Y140.303 E0.03875
G1 X154.063 Y140.062 E0.03875
G1 X153.584 Y139.848 E0.03874
G1 X153.093 Y139.66 E0.03875
G1 X152.593 Y139.501 E0.03874
G1 X152.084 Y139.37 E0.03875
G1 X151.569 Y139.267 E0.03875
G1 X151.048 Y139.194 E0.03875
G1 X150.525 Y139.15 E0.03874
G1 X150 Y139.135 E0.03875
G1 X149.475 Y139.15 E0.03875
G1 X148.951 Y139.194 E0.03875
G1 X148.431 Y139.267 E0.03874
G1 X147.916 Y139.37 E0.03875
G1 X147.407 Y139.501 E0.03875
G1 X146.907 Y139.66 E0.03875
G1 X146.416 Y139.848 E0.03875
G1 X145.937 Y140.062 E0.03872
G1 X145.473 Y140.302 E0.03852
G1 X145.017 Y140.57 E0.039
G1 X144.581 Y140.862 E0.03875
G1 X144.161 Y141.178 E0.03875
G1 X143.76 Y141.517 E0.03875
G1 X143.378 Y141.878 E0.03875
G1 X143.017 Y142.26 E0.03875
G1 X142.678 Y142.661 E0.03875
