; generated by SuperSlicer 2.4 on 2023-02-01 at 00:29:04 UTC


;
;

;
;
; 

; external perimeters extrusion width = 0.42mm
; perimeters extrusion width = 0.45mm
; infill extrusion width = 0.45mm
; solid infill extrusion width = 0.45mm
; top infill extrusion width = 0.42mm
; support material extrusion width = 0.36mm
; first layer extrusion width = 0.62mm

; object:{"name":"chain_anchor_3holes2holes","id":"chain_anchor_3holes2holes.stl id:0 copy 0","object_center":[150.000000,148.500000,0.000000],"boundingbox_center":[150.000000,148.500000,18.999001],"boundingbox_size":[20.692001,36.726004,37.998001]}
; plater:{"center":[150.000000,148.500000,0.000000],"boundingbox_center":[150.000000,148.500000,18.999001],"boundingbox_size":[20.692001,36.726004,37.998001]}

;TYPE:Custom
M104 S0 ; Stops SuperSlicer from sending temp waits separately


; Pre-Processed for Cancel-Object support by preprocess_cancellation v0.2.0
; 1 known objects
EXCLUDE_OBJECT_DEFINE NAME=chain_anchor_3holes2holes_stl_id_0_copy_0 CENTER=145.195,148.347 POLYGON=[[139.864,130.447],[139.864,166.653],[160.136,166.653],[160.136,130.447]]

M140 S0

print_start EXTRUDER=250 BED=108 CHAMBER=0
M107
G21 ; set units to millimeters
G90 ; use absolute coordinates
M83 ; use relative distances for extrusion
; Filament gcode
;_TOOLCHANGE 0
M107
;LAYER_CHANGE
;Z:0.2
;HEIGHT:0.2
TIMELAPSE_TAKE_FRAME
;BEFORE_LAYER_CHANGE
;0.2


G1 E-0.4 F2400
G1 Z0.3 F9000
;AFTER_LAYER_CHANGE
;0.2
G92 E0
G1 Z0.5
G1 X142.787 Y139.297
G1 Z0.2
G1 E0.4 F2280
;TYPE:Skirt
;WIDTH:0.52
G1 F1950
G1 X138.809 Y144.34 E0.2548
G1 X138.305 Y145.794 E0.06102
G1 X138.305 Y167.863 E0.87549
G1 X138.489 Y168.775 E0.03689
G1 X139.354 Y169.819 E0.05377
G1 X140.652 Y170.21 E0.05377
G1 X160.771 Y170.21 E0.79812
G1 X162.073 Y169.816 E0.05396
G1 X163.548 Y168.833 E0.07032
G1 X164.201 Y168.178 E0.0367
G1 X164.593 Y166.88 E0.05377
G1 X164.593 Y160.712 E0.24468
G1 X164.238 Y159.471 E0.05121
G1 X150.457 Y137.353 E1.03379
G1 X149.903 Y136.74 E0.03277
G1 X148.638 Y136.254 E0.05377
G1 X147.315 Y136.548 E0.05377
G1 X143.479 Y138.704 E0.17453
G1 X142.832 Y139.258 E0.03378
G1 X143.161 Y139.592 F9000
G1 F1950
G1 X139.184 Y144.636 E0.2548
G1 X138.782 Y145.794 E0.04861
G1 X138.782 Y167.863 E0.87549
G1 X139.51 Y169.344 E0.06544
G1 X140.652 Y169.733 E0.04786
G1 X160.771 Y169.733 E0.79812
G1 X161.808 Y169.419 E0.04299
G1 X163.283 Y168.436 E0.07032
G1 X164.116 Y166.88 E0.07
G1 X164.116 Y160.712 E0.24468
G1 X163.833 Y159.723 E0.0408
G1 X150.052 Y137.605 E1.03379
G1 X148.735 Y136.744 E0.06242
G1 X147.548 Y136.964 E0.04786
G1 X143.713 Y139.12 E0.17453
G1 X143.207 Y139.553 E0.02643
G1 X143.536 Y139.888 F9000
G1 F1950
G1 X139.558 Y144.931 E0.2548
G1 X139.259 Y145.794 E0.03621
G1 X139.259 Y167.863 E0.87549
G1 X139.69 Y168.87 E0.04345
G1 X140.652 Y169.256 E0.04111
G1 X160.771 Y169.256 E0.79812
G1 X161.544 Y169.022 E0.03202
G1 X163.019 Y168.039 E0.07032
G1 X163.639 Y166.88 E0.05214
G1 X163.639 Y160.712 E0.24468
G1 X163.428 Y159.975 E0.03039
G1 X149.647 Y137.858 E1.03379
G1 X148.81 Y137.245 E0.04115
G1 X147.782 Y137.38 E0.04111
G1 X143.947 Y139.536 E0.17453
G1 X143.582 Y139.849 E0.01908
G1 X143.911 Y140.183 F9000
G1 F1950
G1 X139.933 Y145.227 E0.2548
G1 X139.736 Y145.794 E0.02381
G1 X139.736 Y167.863 E0.87549
G1 X139.91 Y168.401 E0.02241
G1 X140.652 Y168.779 E0.03301
G1 X160.771 Y168.779 E0.79812
G1 X161.279 Y168.625 E0.02105
G1 X162.754 Y167.642 E0.07032
G1 X163.162 Y166.88 E0.03428
G1 X163.162 Y160.712 E0.24468
G1 X163.023 Y160.228 E0.01998
G1 X149.242 Y138.11 E1.03379
G1 X148.847 Y137.762 E0.02085
G1 X148.016 Y137.796 E0.03301
G1 X144.181 Y139.952 E0.17453
G1 X143.956 Y140.144 E0.01173
G1 X144.285 Y140.478 F9000
G1 F1950
G1 X140.308 Y145.522 E0.2548
G1 X140.213 Y145.794 E0.0114
G1 X140.213 Y167.863 E0.87549
G1 X140.652 Y168.302 E0.0246
G1 X160.771 Y168.302 E0.79812
G1 X161.014 Y168.228 E0.01008
G1 X162.489 Y167.245 E0.07032
G1 X162.685 Y166.88 E0.01642
G1 X162.685 Y160.712 E0.24468
G1 X162.618 Y160.48 E0.00957
G1 X148.837 Y138.362 E1.03379
G1 X148.25 Y138.212 E0.02404
G1 X144.337 Y140.449 E0.17878
G1 X145.264 Y141.095 F9000
;WIDTH:0.62
G1 F1950
G1 X145.313 Y141.025 E0.00409
G1 X145.526 Y140.836 E0.01368
G1 X145.986 Y140.605 E0.02472
G1 X146.543 Y140.273 E0.03109
G1 X146.68 Y140.232 E0.00688
G1 X147.114 Y140.213 E0.02084
G1 X147.254 Y140.242 E0.00688
G1 X147.925 Y140.566 E0.03576
G1 X148.035 Y140.658 E0.00688
G1 X148.29 Y141.01 E0.02088
G1 X148.344 Y141.145 E0.00694
G1 X148.486 Y142.259 E0.05388
G1 X148.489 Y147.754 E0.2637
G1 X148.471 Y148.318 E0.02707
G1 X148.414 Y148.831 E0.02477
G1 X148.389 Y149.723 E0.04282
G1 X148.389 Y156.468 E0.32362
G1 X152.243 Y160.32 E0.26148
G1 X160.259 Y160.32 E0.38463
G1 X160.73 Y160.436 E0.02327
G1 X161.255 Y160.722 E0.02869
G1 X161.477 Y160.945 E0.01511
G1 X161.683 Y161.286 E0.0191
G1 X161.714 Y161.358 E0.00378
G1 X161.789 Y161.664 E0.01511
G1 X161.789 Y166.042 E0.21008
G1 X161.703 Y166.386 E0.017
G1 X161.493 Y166.76 E0.02057
G1 X161.295 Y166.964 E0.01363
G1 X160.87 Y167.244 E0.0244
G1 X160.696 Y167.32 E0.00916
G1 X160.316 Y167.406 E0.01866
G1 X142.261 Y167.406 E0.86639
G1 X142.149 Y167.384 E0.00545
G1 X141.832 Y167.252 E0.01647
G1 X141.738 Y167.189 E0.00545
G1 X141.326 Y166.777 E0.02794
G1 X141.263 Y166.683 E0.00545
G1 X141.131 Y166.366 E0.01647
G1 X141.109 Y166.254 E0.00545
G1 X141.109 Y148.152 E0.86865
G1 X141.142 Y148.016 E0.00668
G1 X141.338 Y147.642 E0.02025
G1 X141.429 Y147.537 E0.00668
G1 X142.022 Y147.123 E0.03469
G1 X142.152 Y147.073 E0.00668
G1 X142.57 Y147.019 E0.02025
G1 X142.709 Y147.034 E0.00668
G1 X143.28 Y147.243 E0.02917
G1 X143.526 Y147.291 E0.01204
G1 X143.761 Y147.293 E0.01127
G1 X143.992 Y147.253 E0.01126
G1 X144.203 Y147.174 E0.01082
G1 X144.353 Y147.082 E0.00844
G1 X144.469 Y146.962 E0.00802
G1 X144.626 Y146.719 E0.01385
G1 X144.78 Y146.429 E0.01575
G1 X144.85 Y146.138 E0.01437
G1 X144.863 Y145.806 E0.01595
G1 X144.864 Y142.452 E0.16094
G1 X144.968 Y141.648 E0.03892
G1 X145.067 Y141.378 E0.01378
G1 X145.23 Y141.144 E0.01368
G1 X145.694 Y141.482 F9000
G1 F1950
G1 X145.758 Y141.394 E0.00526
G1 X145.868 Y141.302 E0.00686
G1 X146.26 Y141.114 E0.02085
G1 X146.777 Y140.805 E0.0289
G1 X147.068 Y140.792 E0.01397
G1 X147.61 Y141.054 E0.02888
G1 X147.78 Y141.29 E0.01397
G1 X147.912 Y142.314 E0.04952
G1 X147.912 Y147.75 E0.26084
G1 X147.895 Y148.288 E0.02586
G1 X147.838 Y148.791 E0.02426
G1 X147.812 Y149.715 E0.04438
G1 X147.812 Y156.707 E0.33549
G1 X152.004 Y160.897 E0.28442
G1 X160.224 Y160.897 E0.39443
G1 X160.493 Y160.963 E0.01331
G1 X160.888 Y161.17 E0.02139
G1 X161.004 Y161.278 E0.00759
G1 X161.169 Y161.551 E0.01532
G1 X161.212 Y161.703 E0.00759
G1 X161.212 Y166.007 E0.20649
G1 X161.177 Y166.145 E0.00684
G1 X161.041 Y166.398 E0.01378
G1 X160.946 Y166.504 E0.00684
G1 X160.605 Y166.731 E0.01965
G1 X160.528 Y166.767 E0.00408
G1 X160.281 Y166.829 E0.01223
G1 X142.317 Y166.829 E0.86196
G1 X142.105 Y166.741 E0.01102
G1 X141.774 Y166.41 E0.02249
G1 X141.686 Y166.198 E0.01102
G1 X141.686 Y148.221 E0.86258
G1 X141.817 Y147.971 E0.01357
G1 X142.295 Y147.636 E0.028
G1 X142.576 Y147.6 E0.01357
G1 X143.124 Y147.801 E0.02802
G1 X143.468 Y147.868 E0.0168
G1 X143.809 Y147.871 E0.01636
G1 X144.144 Y147.812 E0.01634
G1 X144.458 Y147.695 E0.01609
G1 X144.717 Y147.535 E0.01459
G1 X144.923 Y147.323 E0.01419
G1 X145.124 Y147.012 E0.01779
G1 X145.308 Y146.665 E0.01883
G1 X145.349 Y146.553 E0.00572
G1 X145.425 Y146.213 E0.01673
G1 X145.44 Y145.818 E0.01897
G1 X145.441 Y142.471 E0.16058
G1 X145.535 Y141.759 E0.03445
G1 X145.589 Y141.627 E0.00686
G1 X145.659 Y141.531 E0.0057
G1 X146.125 Y141.87 F9000
G1 F1950
G1 X146.183 Y141.791 E0.00471
G1 X146.533 Y141.623 E0.01867
G1 X146.948 Y141.375 E0.02316
G1 X147.228 Y141.511 E0.01491
G1 X147.333 Y142.304 E0.03842
G1 X147.335 Y142.323 E0.00092
G1 X147.335 Y147.743 E0.26005
G1 X147.319 Y148.252 E0.02445
G1 X147.262 Y148.75 E0.02401
G1 X147.235 Y149.707 E0.04596
G1 X147.235 Y156.946 E0.34735
G1 X151.765 Y161.474 E0.30736
G1 X160.189 Y161.474 E0.40423
G1 X160.257 Y161.491 E0.00335
G1 X160.551 Y161.645 E0.01592
G1 X160.635 Y161.782 E0.00773
G1 X160.635 Y165.935 E0.19928
G1 X160.566 Y166.063 E0.00694
G1 X160.32 Y166.227 E0.01419
G1 X160.238 Y166.252 E0.0041
G1 X142.432 Y166.252 E0.85442
G1 X142.263 Y166.083 E0.01147
G1 X142.263 Y148.363 E0.85028
G1 X142.51 Y148.19 E0.01443
G1 X142.968 Y148.358 E0.02343
G1 X143.41 Y148.445 E0.02157
G1 X143.856 Y148.448 E0.02144
G1 X144.296 Y148.371 E0.02142
G1 X144.713 Y148.215 E0.02135
G1 X145.081 Y147.989 E0.02074
G1 X145.376 Y147.684 E0.02036
G1 X145.623 Y147.304 E0.02173
G1 X145.836 Y146.901 E0.02192
G1 X145.904 Y146.716 E0.00945
G1 X145.999 Y146.287 E0.02106
G1 X146.017 Y145.829 E0.022
G1 X146.017 Y142.501 E0.15972
G1 X146.019 Y142.481 E0.00094
G1 X146.095 Y141.921 E0.02711
M104 S250 ; set temperature
G1 E-0.4 F2400
G1 Z0.5 F9000
; printing object chain_anchor_3holes2holes.stl id:0 copy 0
EXCLUDE_OBJECT_START NAME=chain_anchor_3holes2holes_stl_id_0_copy_0
G1 X145.757 Y150.431
G1 Z0.2
G1 E0.4 F2280
;TYPE:Solid infill
;WIDTH:0.608305
G1 F2100
G1 X145.202 Y149.875 E0.037
G1 X144.751 Y150.044 E0.02265
G1 X144.583 Y150.073 E0.00802
G1 X145.509 Y150.999 E0.06165
G1 X145.509 Y151.815 E0.03842
G1 X143.989 Y150.295 E0.1012
G1 X143.989 Y151.111 E0.03842
G1 X145.509 Y152.631 E0.1012
G1 X145.509 Y153.447 E0.03842
G1 X143.989 Y151.927 E0.10119
G1 X143.989 Y152.743 E0.03842
G1 X145.509 Y154.263 E0.10119
G1 X145.509 Y155.079 E0.03842
G1 X143.989 Y153.559 E0.10119
G1 X143.989 Y154.376 E0.03842
G1 X145.509 Y155.895 E0.10119
G1 X145.509 Y156.711 E0.03842
G1 X143.989 Y155.192 E0.10119
G1 X143.989 Y156.008 E0.03842
G1 X152.507 Y164.526 E0.56715
G1 X151.691 Y164.526 E0.03842
G1 X143.989 Y156.824 E0.51281
G1 X143.989 Y157.64 E0.03842
G1 X150.875 Y164.526 E0.45848
G1 X150.059 Y164.526 E0.03842
G1 X143.989 Y158.456 E0.40414
G1 X143.989 Y159.272 E0.03842
G1 X149.243 Y164.526 E0.3498
G1 X148.427 Y164.526 E0.03842
G1 X143.989 Y160.088 E0.29547
G1 X143.989 Y160.904 E0.03842
G1 X147.611 Y164.526 E0.24113
G1 X146.795 Y164.526 E0.03842
G1 X143.989 Y161.72 E0.18679
G1 X143.989 Y162.537 E0.03842
G1 X145.978 Y164.526 E0.13246
G1 X145.162 Y164.526 E0.03842
G1 X143.989 Y163.353 E0.07812
G1 X143.989 Y164.169 E0.03842
G1 X144.594 Y164.774 E0.04031
G1 E-0.4 F2400
G1 Z0.5 F9000
G1 X151.749 Y162.952
G1 Z0.2
G1 E0.4 F2280
G1 F2100
G1 X153.323 Y164.526 E0.10481
G1 X154.14 Y164.526 E0.03842
G1 X152.814 Y163.2 E0.08829
G1 X153.63 Y163.2 E0.03842
G1 X154.956 Y164.526 E0.08829
G1 X155.772 Y164.526 E0.03842
G1 X154.446 Y163.2 E0.08829
G1 X155.262 Y163.2 E0.03842
G1 X156.588 Y164.526 E0.08829
G1 X157.404 Y164.526 E0.03842
G1 X156.078 Y163.2 E0.08829
G1 X156.894 Y163.2 E0.03842
G1 X158.22 Y164.526 E0.08829
G1 X158.909 Y164.526 E0.03242
G1 X158.909 Y164.399 E0.006
G1 X157.71 Y163.2 E0.0798
G1 X158.526 Y163.2 E0.03842
G1 X159.157 Y163.831 E0.04199
G1 X159.936 Y162.173 F9000
;TYPE:External perimeter
;WIDTH:0.62
G1 F2340
G1 X159.936 Y165.553 E0.16221
G1 X142.962 Y165.553 E0.8145
G1 X142.962 Y149.069 E0.79099
G1 X143.339 Y149.143 E0.01844
G1 X143.914 Y149.147 E0.0276
G1 X144.48 Y149.048 E0.02756
G1 X145.022 Y148.846 E0.02773
G1 X145.52 Y148.539 E0.02808
G1 X145.926 Y148.12 E0.028
G1 X146.226 Y147.658 E0.02641
G1 X146.476 Y147.186 E0.02565
G1 X146.541 Y147.008 E0.00907
G1 X146.574 Y147.014 E0.0016
;TYPE:Thin wall
;WIDTH:0.037839
G1 X146.593 Y146.906
;WIDTH:0.340552
G1 X146.614 Y146.768 E0.00351
;WIDTH:0.541093
G1 X146.645 Y146.556 E0.00894
G1 X146.654 Y146.477 E0.0033
;WIDTH:0.509143
G1 X146.666 Y146.349 E0.00505
G1 X146.671 Y146.098 E0.0098
G1 X146.676 Y145.837 E0.01022
G1 X146.676 Y142.536 E0.12916
G1 X146.682 Y142.446 E0.00351
;WIDTH:0.464096
G1 X146.688 Y142.357 E0.00317
G1 X146.688 Y142.243 E0.00402
G1 X146.701 Y142.095 E0.00526
;WIDTH:0.236353
G1 X146.714 Y141.956 E0.0023
;WIDTH:0.026261
G1 X146.701 Y142.095 E0.00026
;WIDTH:0.051566
G1 X146.688 Y142.243 E0.00058
G1 X146.688 Y142.357 E0.00045
G1 X146.682 Y142.446 E0.00035
;WIDTH:0.056571
G1 X146.676 Y142.536 E0.00039
G1 X146.676 Y145.837 E0.01435
G1 X146.671 Y146.098 E0.00114
G1 X146.666 Y146.349 E0.00109
G1 X146.654 Y146.477 E0.00056
;WIDTH:0.060121
G1 X146.645 Y146.556 E0.00037
G1 X146.614 Y146.768 E0.00099
;WIDTH:0.037839
G1 X146.593 Y146.906 E0.00039
;WIDTH:0.378391
G1 X146.574 Y147.014
;TYPE:External perimeter
;WIDTH:0.62
G1 X146.636 Y147.025 E0.00303
G1 X146.621 Y148.207 E0.05672
G1 X146.565 Y148.699 E0.02373
G1 X146.536 Y149.698 E0.04798
G1 X146.536 Y157.235 E0.36167
G1 X151.476 Y162.173 E0.33513
G1 X159.876 Y162.173 E0.40308
;WIPE_START
G1 X159.736 Y162.519 F9000
;WIPE_END
G1 X159.359 Y162.75
;TYPE:Internal perimeter
G1 F2880
G1 X159.359 Y164.976 E0.10682
G1 X143.539 Y164.976 E0.75911
G1 X143.539 Y149.721 E0.73199
G1 X143.962 Y149.725 E0.02031
G1 X144.632 Y149.607 E0.03264
G1 X145.276 Y149.367 E0.033
G1 X145.981 Y148.932 E0.0397
G1 X145.959 Y149.69 E0.03637
G1 X145.959 Y157.474 E0.37353
G1 X151.237 Y162.75 E0.35807
G1 X159.299 Y162.75 E0.38686
;LAYER_CHANGE
;Z:0.4
;HEIGHT:0.2
TIMELAPSE_TAKE_FRAME
;BEFORE_LAYER_CHANGE
;0.4


G1 E-0.4 F2400
; stop printing object chain_anchor_3holes2holes.stl id:0 copy 0
EXCLUDE_OBJECT_END NAME=chain_anchor_3holes2holes_stl_id_0_copy_0
G1 Z0.4 F9000
;AFTER_LAYER_CHANGE
;0.4
G92 E0
M140 S108 ; set bed temperature
G1 X163.639 Y162.75
G1 E0.4 F2280
;TYPE:Skirt
;WIDTH:0.52
G1 F1950
G1 X163.639 Y160.712 E0.08084
G1 X163.428 Y159.975 E0.03039
G1 X149.647 Y137.858 E1.03379
G1 X148.81 Y137.245 E0.04115
G1 X147.782 Y137.38 E0.04111
G1 X143.947 Y139.536 E0.17453
G1 X143.536 Y139.888 E0.02146
G1 X139.558 Y144.931 E0.2548
G1 X139.259 Y145.794 E0.03621
G1 X139.259 Y167.863 E0.87549
G1 X139.69 Y168.87 E0.04345
G1 X140.652 Y169.256 E0.04111
G1 X160.771 Y169.256 E0.79812
G1 X161.544 Y169.022 E0.03202
G1 X163.019 Y168.039 E0.07032
G1 X163.639 Y166.88 E0.05214
G1 X163.639 Y162.81 E0.16145
G1 X163.162 Y162.81 F9000
G1 F1950
G1 X163.162 Y160.712 E0.08322
G1 X163.023 Y160.228 E0.01998
G1 X149.242 Y138.11 E1.03379
G1 X148.847 Y137.762 E0.02085
G1 X148.016 Y137.796 E0.03301
G1 X144.181 Y139.952 E0.17453
G1 X143.911 Y140.183 E0.01411
G1 X139.933 Y145.227 E0.2548
G1 X139.736 Y145.794 E0.02381
G1 X139.736 Y167.863 E0.87549
G1 X139.91 Y168.401 E0.02241
G1 X140.652 Y168.779 E0.03301
G1 X160.771 Y168.779 E0.79812
G1 X161.279 Y168.625 E0.02105
G1 X162.754 Y167.642 E0.07032
G1 X163.162 Y166.88 E0.03428
G1 X163.162 Y162.87 E0.15907
G1 X162.685 Y162.87 F9000
G1 F1950
G1 X162.685 Y160.712 E0.0856
G1 X162.618 Y160.48 E0.00957
G1 X148.837 Y138.362 E1.03379
G1 X148.25 Y138.212 E0.02404
G1 X144.285 Y140.478 E0.18116
G1 X140.308 Y145.522 E0.2548
G1 X140.213 Y145.794 E0.0114
G1 X140.213 Y167.863 E0.87549
G1 X140.652 Y168.302 E0.0246
G1 X160.771 Y168.302 E0.79812
G1 X161.014 Y168.228 E0.01008
G1 X162.489 Y167.245 E0.07032
G1 X162.685 Y166.88 E0.01642
G1 X162.685 Y162.93 E0.15669
G1 E-0.4 F2400
; printing object chain_anchor_3holes2holes.stl id:0 copy 0
EXCLUDE_OBJECT_START NAME=chain_anchor_3holes2holes_stl_id_0_copy_0
G1 X159.735 Y164.809 F9000
G1 X159.735 Y164.809
G1 X159.71 Y165.553
G1 X158.779 Y165.553
G1 X158.779 Y165.419
G1 E0.4 F2280
;TYPE:Solid infill
;WIDTH:0.455902
G1 F2100
G1 X159.426 Y164.771 E0.03142
G1 X159.426 Y164.195 E0.01974
G1 X158.378 Y165.244 E0.05085
G1 X157.802 Y165.244 E0.01974
G1 X159.426 Y163.62 E0.07877
G1 X159.426 Y163.044 E0.01974
G1 X157.227 Y165.244 E0.10669
G1 X156.651 Y165.244 E0.01974
G1 X159.413 Y162.482 E0.13395
G1 X158.837 Y162.482 E0.01974
G1 X156.075 Y165.244 E0.13395
G1 X155.499 Y165.244 E0.01974
G1 X158.261 Y162.482 E0.13395
G1 X157.686 Y162.482 E0.01974
G1 X154.924 Y165.244 E0.13395
G1 X154.348 Y165.244 E0.01974
G1 X157.11 Y162.482 E0.13395
G1 X156.534 Y162.482 E0.01974
G1 X153.772 Y165.244 E0.13395
G1 X153.197 Y165.244 E0.01974
G1 X155.959 Y162.482 E0.13395
G1 X155.383 Y162.482 E0.01974
G1 X152.621 Y165.244 E0.13395
G1 X152.045 Y165.244 E0.01974
G1 X154.807 Y162.482 E0.13395
G1 X154.232 Y162.482 E0.01974
G1 X151.47 Y165.244 E0.13395
G1 X150.894 Y165.244 E0.01974
G1 X153.656 Y162.482 E0.13395
G1 X153.08 Y162.482 E0.01974
G1 X150.318 Y165.244 E0.13395
