; generated by SuperSlicer 2.5.59 on 2023-04-17 at 21:08:30 UTC


;
;

;
;
; 

; external perimeters extrusion width = 0.46mm
; perimeters extrusion width = 0.46mm
; infill extrusion width = 0.46mm
; solid infill extrusion width = 0.46mm
; top infill extrusion width = 0.46mm
; support material extrusion width = 0.46mm
; first layer extrusion width = 0.58mm

; object:{"name":"Delta 725 T2 Blade Dust Deflector with Shelf (1)","id":"Delta 725 T2 Blade Dust Deflector with Shelf (1).stl id:0 copy 0","object_center":[150.000000,148.500000,0.000000],"boundingbox_center":[150.000000,148.500000,39.687500],"boundingbox_size":[67.524071,72.698120,79.375000]}
EXCLUDE_OBJECT_DEFINE NAME=Delta_725_T2_Blade_Dust_Deflector_with_Shelf_1_stl_id_0_copy_0 CENTER=150.000000,148.500000 POLYGON=[[116.237960,112.150944],[183.762032,112.150944],[183.762032,124.854752],[178.803952,173.982336],[166.146336,181.084624],[159.437392,184.849056],[116.237960,184.849056],[116.237960,112.150944]]
; plater:{"center":[150.000000,148.500000,0.000000],"boundingbox_center":[150.000000,148.500000,39.687500],"boundingbox_size":[67.524071,72.698120,79.375000]}

;TYPE:Custom
SET_PRINT_STATS_INFO TOTAL_LAYER=363

M104 S0 ; Stops SuperSlicer from sending temp waits separately

M109 S0

M140 S0

print_start EXTRUDER=245 BED=80 CHAMBER=0
M107
G21 ; set units to millimeters
G90 ; use absolute coordinates
M82 ; use absolute distances for extrusion
G92 E0
; Filament gcode
;_TOOLCHANGE 0
M107
;LAYER_CHANGE
;Z:0.21875
;HEIGHT:0.21875
TIMELAPSE_TAKE_FRAME
;BEFORE_LAYER_CHANGE
;0.21875


G1 Z0.21875 F12000
SET_PRINT_STATS_INFO CURRENT_LAYER=1
;AFTER_LAYER_CHANGE
;0.21875
G1 E-0.7 F2520
G1 Z0.41875 F12000
M204 S2000
G1 X109.899 Y106.74
G1 Z0.21875
G1 E0 F2340
;TYPE:Skirt
;WIDTH:0.54
G1 F3600
G1 X109.506 Y108.151 E0.06568
G1 X109.506 Y188.849 E3.68429
G1 X109.821 Y190.123 E3.74315
G1 X110.827 Y191.188 E3.80883
G1 X112.238 Y191.581 E3.87451
G1 X160.483 Y191.581 E6.03788
G1 X161.82 Y191.232 E6.09984
G1 X184.141 Y178.707 E7.24754
G1 X185.143 Y177.736 E7.31013
G1 X185.536 Y176.325 E7.37582
G1 X185.536 Y108.151 E10.43281
G1 X185.221 Y106.877 E10.49167
G1 X184.215 Y105.812 E10.55735
G1 X182.804 Y105.419 E10.62303
G1 X112.238 Y105.419 E13.7873
G1 X110.964 Y105.734 E13.84616
G1 X109.942 Y106.699 E13.90915
G1 X110.39 Y106.887 F12000
G1 F3600
G1 X109.999 Y108.151 E13.9685
G1 X109.999 Y188.849 E17.5871
G1 X110.151 Y189.661 E17.62413
G1 X110.974 Y190.697 E17.68347
G1 X112.238 Y191.088 E17.74281
G1 X160.483 Y191.088 E19.90618
G1 X161.579 Y190.802 E19.95696
G1 X183.9 Y178.277 E21.10467
G1 X184.652 Y177.589 E21.1504
G1 X185.043 Y176.325 E21.20974
G1 X185.043 Y108.151 E24.26673
G1 X184.891 Y107.339 E24.30376
G1 X184.068 Y106.303 E24.3631
G1 X182.804 Y105.912 E24.42244
G1 X112.238 Y105.912 E27.58671
G1 X111.426 Y106.064 E27.62374
G1 X110.437 Y106.849 E27.68039
G1 X110.88 Y107.053 F12000
G1 F3600
G1 X110.492 Y108.151 E27.73263
G1 X110.492 Y188.849 E31.35123
G1 X111.14 Y190.207 E31.4187
G1 X112.238 Y190.595 E31.47094
G1 X160.483 Y190.595 E33.63431
G1 X161.338 Y190.372 E33.67392
G1 X183.659 Y177.848 E34.82162
G1 X184.162 Y177.423 E34.85115
G1 X184.55 Y176.325 E34.90339
G1 X184.55 Y108.151 E37.96038
G1 X183.902 Y106.793 E38.02785
G1 X182.804 Y106.405 E38.08009
G1 X112.238 Y106.405 E41.24436
G1 X110.934 Y107.027 E41.30914
G92 E0
G1 E-0.7 F2520
M204 S6000
G1 Z0.41875 F12000
; acceleration to travel
M204 S7000
G1 X114.852 Y165.095
; decel to extrusion
M204 S2000
G1 X115.972 Y181.686
; end travel
G1 Z0.21875
G1 E0 F2340
;WIDTH:0.58
;HEIGHT:0.22
G1 F3600
G1 X115.972 Y185.115 E0.16714
G1 X119.401 Y185.115 E0.33428
G1 X119.327 Y185.677 E0.36188
G1 X119.008 Y186.448 E0.40257
G1 X118.5 Y187.111 E0.44326
G1 X117.837 Y187.619 E0.48395
G1 X117.066 Y187.939 E0.52464
G1 X116.238 Y188.048 E0.56533
G1 X115.41 Y187.939 E0.60602
G1 X114.639 Y187.619 E0.64671
G1 X113.976 Y187.111 E0.6874
G1 X113.468 Y186.448 E0.72809
G1 X113.148 Y185.677 E0.76878
G1 X113.039 Y184.849 E0.80947
G1 X113.148 Y184.021 E0.85016
G1 X113.468 Y183.25 E0.89085
G1 X113.976 Y182.587 E0.93154
G1 X114.639 Y182.079 E0.97223
G1 X115.41 Y181.76 E1.01292
G1 X115.691 Y181.723 E1.02672
G1 X115.912 Y181.693 E1.03759
G1 X115.945 Y182.485 F12000
G1 F3600
G1 X114.53 Y182.485 E1.10654
G1 X114.159 Y182.77 E1.12935
G1 X113.968 Y183.018 E1.14458
G1 X115.716 Y183.018 E1.22973
G1 X115.716 Y183.55 E1.25569
G1 X113.62 Y183.55 E1.35781
G1 X113.4 Y184.083 E1.38592
G1 X115.716 Y184.083 E1.49879
G1 X115.716 Y184.616 E1.52475
G1 X113.328 Y184.616 E1.64111
G1 X113.297 Y184.849 E1.65257
G1 X113.337 Y185.149 E1.6673
G1 X115.716 Y185.149 E1.78323
G1 X115.716 Y185.371 E1.79407
G1 X119.11 Y185.371 E1.95946
G1 X119.078 Y185.61 E1.97121
G1 X119.049 Y185.682 E1.97498
G1 X113.427 Y185.682 E2.24893
G1 X113.648 Y186.214 E2.27703
G1 X118.828 Y186.214 E2.52947
G1 X118.785 Y186.319 E2.53501
G1 X118.456 Y186.747 E2.56128
G1 X114.02 Y186.747 E2.77749
G1 X114.159 Y186.928 E2.78862
G1 X114.617 Y187.28 E2.81677
G1 X118.235 Y187.28 E2.99311
G92 E0
G1 E-0.7 F2520
M204 S6000
G1 Z0.41875 F12000
; acceleration to travel
M204 S7000
G1 X163.299 Y178.323
; decel to extrusion
M204 S2000
G1 X176.174 Y175.764
; end travel
G1 Z0.21875
G1 E0 F2340
G1 F3600
G1 X179.07 Y174.138 E0.16186
G1 X179.07 Y170.819 E0.32363
G1 X179.351 Y170.856 E0.33742
G1 X179.632 Y170.893 E0.35122
G1 X180.403 Y171.212 E0.39191
G1 X181.066 Y171.721 E0.4326
G1 X181.574 Y172.383 E0.47329
G1 X181.893 Y173.154 E0.51398
G1 X182.002 Y173.982 E0.55467
G1 X181.893 Y174.81 E0.59536
G1 X181.574 Y175.582 E0.63605
G1 X181.066 Y176.244 E0.67674
G1 X180.403 Y176.752 E0.71743
G1 X179.632 Y177.072 E0.75812
G1 X178.804 Y177.181 E0.79881
G1 X177.976 Y177.072 E0.8395
G1 X177.205 Y176.752 E0.88019
G1 X176.542 Y176.244 E0.92088
G1 X176.461 Y176.138 E0.92739
G1 X176.21 Y175.811 E0.94746
G92 E0
G1 E-0.7 F2520
M204 S6000
G1 Z0.41875 F12000
; acceleration to travel
M204 S7000
G1 X179.781 Y176.279
; decel to extrusion
M204 S2000
G1 X180.801 Y176.413
; end travel
G1 Z0.21875
G1 E0 F2340
G1 F3600
G1 X177.183 Y176.413 E0.17634
G1 X176.725 Y176.062 E0.20448
G1 X176.664 Y175.982 E0.20935
G1 X176.586 Y175.88 E0.21561
G1 X181.022 Y175.88 E0.43182
G1 X181.351 Y175.453 E0.4581
G1 X181.394 Y175.348 E0.46364
G1 X177.438 Y175.348 E0.65643
G1 X178.387 Y174.815 E0.70949
G1 X181.615 Y174.815 E0.86677
G1 X181.644 Y174.743 E0.87054
G1 X181.705 Y174.282 E0.89322
G1 X179.326 Y174.282 E1.00915
G1 X179.326 Y173.749 E1.03511
G1 X181.714 Y173.749 E1.15147
G1 X181.642 Y173.216 E1.17767
G1 X179.326 Y173.216 E1.29054
G1 X179.326 Y172.684 E1.3165
G1 X181.422 Y172.684 E1.41862
G1 X181.351 Y172.512 E1.42768
G1 X181.073 Y172.151 E1.44986
G1 X179.326 Y172.151 E1.53501
G1 X179.326 Y171.618 E1.56098
G1 X180.888 Y171.618 E1.6371
G92 E0
G1 E-0.7 F2520
M204 S6000
G1 Z0.41875 F12000
; acceleration to travel
M204 S7000
G1 X179.474 Y127.826
; decel to extrusion
M204 S2000
G1 X179.07 Y115.314
; end travel
G1 Z0.21875
G1 E0 F2340
G1 F3600
G1 X179.07 Y111.885 E0.16714
G1 X175.641 Y111.885 E0.33428
G1 X175.714 Y111.323 E0.36188
G1 X176.034 Y110.552 E0.40257
G1 X176.542 Y109.889 E0.44326
G1 X177.205 Y109.381 E0.48395
G1 X177.976 Y109.061 E0.52464
G1 X178.804 Y108.952 E0.56533
G1 X179.632 Y109.061 E0.60602
G1 X180.403 Y109.381 E0.64671
G1 X181.066 Y109.889 E0.6874
G1 X181.574 Y110.552 E0.72809
G1 X181.893 Y111.323 E0.76878
G1 X182.002 Y112.151 E0.80947
G1 X181.893 Y112.979 E0.85016
G1 X181.574 Y113.75 E0.89085
G1 X181.066 Y114.413 E0.93154
G1 X180.403 Y114.921 E0.97223
G1 X179.632 Y115.24 E1.01292
G1 X179.351 Y115.277 E1.02672
G1 X179.13 Y115.307 E1.03759
G1 X179.097 Y114.547 F12000
G1 F3600
G1 X180.471 Y114.547 E1.10454
G1 X180.883 Y114.23 E1.12987
G1 X181.049 Y114.014 E1.14316
G1 X179.326 Y114.014 E1.22713
G1 X179.326 Y113.481 E1.25309
G1 X181.409 Y113.481 E1.35458
G1 X181.629 Y112.948 E1.38268
G1 X179.326 Y112.948 E1.49492
G1 X179.326 Y112.416 E1.52088
G1 X181.71 Y112.416 E1.63704
G1 X181.745 Y112.151 E1.65005
G1 X181.709 Y111.883 E1.66323
G1 X179.326 Y111.883 E1.77936
G1 X179.326 Y111.629 E1.79174
G1 X175.932 Y111.629 E1.95713
G1 X175.964 Y111.39 E1.96888
G1 X175.98 Y111.35 E1.97098
G1 X181.628 Y111.35 E2.2462
G1 X181.407 Y110.817 E2.2743
G1 X176.201 Y110.817 E2.52802
G1 X176.257 Y110.681 E2.53522
G1 X176.561 Y110.284 E2.55956
G1 X181.047 Y110.284 E2.77813
G1 X180.883 Y110.072 E2.7912
G1 X180.466 Y109.752 E2.81682
G1 X177.142 Y109.752 E2.97883
G1 X177.334 Y109.604 E2.99062
G1 X178.043 Y109.311 E3.02803
G1 X178.739 Y109.219 E3.06227
G1 X179.942 Y109.219 E3.12089
G92 E0
G1 E-0.7 F2520
M204 S6000
G1 Z0.41875 F12000
; acceleration to travel
M204 S7000
G1 X174.842 Y110.855
; decel to extrusion
M204 S2000
G1 X173.384 Y111.323
; end travel
G1 Z0.21875
G1 E0 F2340
G1 F3600
G1 X173.421 Y111.604 E0.0138
G1 X173.458 Y111.885 E0.0276
G1 X170.029 Y111.885 E0.19474
G1 X170.029 Y115.314 E0.36188
G1 X169.467 Y115.24 E0.38948
G1 X168.696 Y114.921 E0.43017
G1 X168.033 Y114.413 E0.47086
G1 X167.525 Y113.75 E0.51155
G1 X167.205 Y112.979 E0.55224
G1 X167.096 Y112.151 E0.59293
G1 X167.205 Y111.323 E0.63362
G1 X167.525 Y110.552 E0.67431
G1 X168.033 Y109.889 E0.715
G1 X168.696 Y109.381 E0.75569
G1 X169.467 Y109.061 E0.79638
G1 X170.295 Y108.952 E0.83707
G1 X171.123 Y109.061 E0.87776
G1 X171.894 Y109.381 E0.91845
G1 X172.557 Y109.889 E0.95914
G1 X173.065 Y110.552 E0.99983
G1 X173.362 Y111.268 E1.03759
G92 E0
G1 E-0.7 F2520
M204 S6000
G1 Z0.41875 F12000
; acceleration to travel
M204 S7000
G1 X171.862 Y109.674
; decel to extrusion
M204 S2000
G1 X171.433 Y109.219
; end travel
G1 Z0.21875
G1 E0 F2340
G1 F3600
G1 X170.23 Y109.219 E0.05862
G1 X169.534 Y109.311 E0.09286
G1 X168.825 Y109.604 E0.13026
G1 X168.633 Y109.752 E0.14206
G1 X171.957 Y109.752 E0.30407
G1 X172.374 Y110.072 E0.32968
G1 X172.538 Y110.284 E0.34276
G1 X168.052 Y110.284 E0.56133
G1 X167.748 Y110.681 E0.58566
G1 X167.692 Y110.817 E0.59287
G1 X172.898 Y110.817 E0.84658
G1 X173.119 Y111.35 E0.87468
G1 X167.471 Y111.35 E1.14991
G1 X167.455 Y111.39 E1.15201
G1 X167.39 Y111.883 E1.17624
G1 X169.773 Y111.883 E1.29237
G1 X169.773 Y112.416 E1.31834
G1 X167.389 Y112.416 E1.43449
G1 X167.455 Y112.912 E1.45889
G1 X167.47 Y112.948 E1.46081
G1 X169.773 Y112.948 E1.57305
G1 X169.773 Y113.481 E1.59901
G1 X167.69 Y113.481 E1.70049
G1 X167.748 Y113.621 E1.70788
G1 X168.05 Y114.014 E1.73201
G1 X169.773 Y114.014 E1.81598
G1 X169.773 Y114.547 E1.84194
G1 X168.252 Y114.547 E1.91606
G92 E0
G1 E-0.7 F2520
M204 S6000
G1 Z0.41875 F12000
; acceleration to travel
M204 S7000
G1 X136.902 Y112.683
; decel to extrusion
M204 S2000
G1 X127.945 Y112.151
; end travel
G1 Z0.21875
G1 E0 F2340
G1 F3600
G1 X127.836 Y112.979 E0.04069
G1 X127.517 Y113.75 E0.08138
G1 X127.009 Y114.413 E0.12207
G1 X126.346 Y114.921 E0.16276
G1 X125.575 Y115.24 E0.20345
G1 X125.294 Y115.277 E0.21725
G1 X125.013 Y115.314 E0.23105
G1 X125.013 Y111.885 E0.39819
G1 X121.584 Y111.885 E0.56533
G1 X121.657 Y111.323 E0.59293
G1 X121.977 Y110.552 E0.63362
G1 X122.485 Y109.889 E0.67431
G1 X123.148 Y109.381 E0.715
G1 X123.919 Y109.061 E0.75569
G1 X124.747 Y108.952 E0.79638
G1 X125.575 Y109.061 E0.83707
G1 X126.346 Y109.381 E0.87776
G1 X127.009 Y109.889 E0.91845
G1 X127.517 Y110.552 E0.95914
G1 X127.836 Y111.323 E0.99983
G1 X127.938 Y112.091 E1.03759
G92 E0
G1 E-0.7 F2520
M204 S6000
G1 Z0.41875 F12000
; acceleration to travel
M204 S7000
G1 X126.341 Y109.857
; decel to extrusion
M204 S2000
G1 X125.885 Y109.219
; end travel
G1 Z0.21875
G1 E0 F2340
G1 F3600
G1 X124.682 Y109.219 E0.05862
G1 X123.986 Y109.311 E0.09286
G1 X123.277 Y109.604 E0.13026
G1 X123.085 Y109.752 E0.14206
G1 X126.409 Y109.752 E0.30407
G1 X126.826 Y110.072 E0.32968
G1 X126.99 Y110.284 E0.34276
G1 X122.504 Y110.284 E0.56133
G1 X122.2 Y110.681 E0.58566
G1 X122.144 Y110.817 E0.59287
G1 X127.35 Y110.817 E0.84658
G1 X127.571 Y111.35 E0.87468
G1 X121.923 Y111.35 E1.14991
G1 X121.907 Y111.39 E1.15201
G1 X121.875 Y111.629 E1.16375
G1 X125.269 Y111.629 E1.32915
G1 X125.269 Y111.883 E1.34153
G1 X127.652 Y111.883 E1.45766
G1 X127.688 Y112.151 E1.47084
G1 X127.653 Y112.416 E1.48385
G1 X125.269 Y112.416 E1.6
G1 X125.269 Y112.948 E1.62597
G1 X127.572 Y112.948 E1.7382
G1 X127.352 Y113.481 E1.76631
G1 X125.269 Y113.481 E1.86779
G1 X125.269 Y114.014 E1.89375
G1 X126.992 Y114.014 E1.97772
G1 X126.826 Y114.23 E1.99101
G1 X126.414 Y114.547 E2.01635
G1 X125.04 Y114.547 E2.08329
G92 E0
G1 E-0.7 F2520
M204 S6000
G1 Z0.41875 F12000
; acceleration to travel
M204 S7000
G1 X120.654 Y112.476
; decel to extrusion
M204 S2000
G1 X119.401 Y111.885
; end travel
G1 Z0.21875
G1 E0 F2340
G1 F3600
G1 X115.972 Y111.885 E0.16714
G1 X115.972 Y115.314 E0.33428
G1 X115.41 Y115.24 E0.36188
G1 X114.639 Y114.921 E0.40257
G1 X113.976 Y114.413 E0.44326
G1 X113.468 Y113.75 E0.48395
G1 X113.148 Y112.979 E0.52464
G1 X113.039 Y112.151 E0.56533
G1 X113.148 Y111.323 E0.60602
G1 X113.468 Y110.552 E0.64671
G1 X113.976 Y109.889 E0.6874
G1 X114.639 Y109.381 E0.72809
G1 X115.41 Y109.061 E0.76878
G1 X116.238 Y108.952 E0.80947
G1 X117.066 Y109.061 E0.85016
G1 X117.837 Y109.381 E0.89085
G1 X118.5 Y109.889 E0.93154
G1 X119.008 Y110.552 E0.97223
G1 X119.327 Y111.323 E1.01292
G1 X119.364 Y111.604 E1.02672
G1 X119.394 Y111.825 E1.03759
G92 E0
G1 E-0.7 F2520
M204 S6000
G1 Z0.41875 F12000
; acceleration to travel
M204 S7000
G1 X117.825 Y109.798
; decel to extrusion
M204 S2000
G1 X117.376 Y109.219
; end travel
G1 Z0.21875
G1 E0 F2340
G1 F3600
G1 X116.173 Y109.219 E0.05862
G1 X115.477 Y109.311 E0.09286
G1 X114.768 Y109.604 E0.13026
G1 X114.576 Y109.752 E0.14206
G1 X117.9 Y109.752 E0.30407
G1 X118.317 Y110.072 E0.32968
G1 X118.481 Y110.284 E0.34276
G1 X113.995 Y110.284 E0.56133
G1 X113.691 Y110.681 E0.58566
G1 X113.635 Y110.817 E0.59287
G1 X118.841 Y110.817 E0.84658
G1 X119.062 Y111.35 E0.87468
G1 X113.414 Y111.35 E1.14991
G1 X113.398 Y111.39 E1.15201
G1 X113.333 Y111.883 E1.17624
G1 X115.716 Y111.883 E1.29237
G1 X115.716 Y112.416 E1.31834
G1 X113.332 Y112.416 E1.43449
G1 X113.398 Y112.912 E1.45889
G1 X113.413 Y112.948 E1.46081
G1 X115.716 Y112.948 E1.57305
G1 X115.716 Y113.481 E1.59901
G1 X113.633 Y113.481 E1.70049
G1 X113.691 Y113.621 E1.70788
G1 X113.993 Y114.014 E1.73201
G1 X115.716 Y114.014 E1.81598
G1 X115.716 Y114.547 E1.84194
G1 X114.195 Y114.547 E1.91606
M104 S245 ; set temperature
G92 E0
G1 E-0.7 F2520
M204 S6000
G1 Z0.41875 F12000
; printing object Delta 725 T2 Blade Dust Deflector with Shelf (1).stl id:0 copy 0
EXCLUDE_OBJECT_START NAME=Delta_725_T2_Blade_Dust_Deflector_with_Shelf_1_stl_id_0_copy_0
; acceleration to travel
M204 S7000
G1 X123.174 Y168.314
; decel to extrusion
M204 S1000
G1 X124.457 Y175.995
; end travel
G1 Z0.21875
G1 E0 F2340
;TYPE:External perimeter
;HEIGHT:0.21875
G1 F3600
G1 X158.421 Y175.995 E1.64653
G1 X170.585 Y169.17 E2.32273
G1 X170.585 Y112.441 E5.07289
G1 X178.514 Y112.441 E5.45728
G1 X178.514 Y173.813 E8.43252
G1 X159.362 Y184.559 E9.49719
G1 X141.427 Y184.559 E10.36666
G1 X141.427 Y180.241 E10.57599
G1 X120.539 Y180.241 E11.58859
G1 X120.539 Y184.559 E11.79792
G1 X116.528 Y184.559 E11.99239
G1 X116.528 Y112.441 E15.48862
G1 X124.457 Y112.441 E15.87301
G1 X124.457 Y175.935 E18.95115
;WIPE_START
M204 S6000
G1 X124.457 Y176.395 F12000
;WIPE_END
M204 S2000
G1 X123.924 Y175.995
;TYPE:Internal perimeter
G1 F3600
G1 X123.924 Y176.528 E18.97699
G1 X158.56 Y176.528 E20.65612
G1 X171.118 Y169.482 E21.35421
G1 X171.118 Y112.974 E24.09366
G1 X177.981 Y112.974 E24.42636
G1 X177.981 Y173.5 E27.36063
G1 X159.222 Y184.026 E28.40341
G1 X141.96 Y184.026 E29.24028
G1 X141.96 Y179.708 E29.44961
G1 X120.006 Y179.708 E30.5139
G1 X120.006 Y184.026 E30.72323
G1 X117.061 Y184.026 E30.86602
G1 X117.061 Y112.974 E34.31055
G1 X123.924 Y112.974 E34.64326
G1 X123.924 Y175.935 E37.69556
G1 X123.391 Y175.995 F12000
G1 F3600
G1 X123.391 Y177.061 E37.74724
G1 X158.699 Y177.061 E39.45897
G1 X171.651 Y169.794 E40.17894
G1 X171.651 Y113.507 E42.90768
G1 X177.448 Y113.507 E43.18871
G1 X177.448 Y173.188 E46.082
G1 X159.083 Y183.493 E47.10289
G1 X142.493 Y183.493 E47.90717
G1 X142.493 Y179.175 E48.1165
G1 X119.473 Y179.175 E49.23247
G1 X119.473 Y183.493 E49.4418
G1 X117.594 Y183.493 E49.5329
