; generated by SuperSlicer 2.4 on 2023-01-17 at 00:46:31 UTC


;
;

;
;
; 

; external perimeters extrusion width = 0.63mm
; perimeters extrusion width = 0.68mm
; infill extrusion width = 0.68mm
; solid infill extrusion width = 0.68mm
; top infill extrusion width = 0.63mm
; first layer extrusion width = 0.93mm

; external perimeters extrusion width = 0.63mm
; perimeters extrusion width = 0.68mm
; infill extrusion width = 0.68mm
; solid infill extrusion width = 0.68mm
; top infill extrusion width = 0.63mm
; first layer extrusion width = 0.93mm

; object:{"name":"Dock_mount_fixed_v2","id":"Dock_mount_fixed_v2.stl id:0 copy 0","object_center":[149.999999,134.871429,0.000000],"boundingbox_center":[149.999999,134.871429,18.127514],"boundingbox_size":[66.723450,52.256866,36.255028]}
; object:{"name":"Dock_sidemount_left_v2","id":"Dock_sidemount_left_v2.stl id:1 copy 0","object_center":[150.000000,179.128434,0.000000],"boundingbox_center":[150.000000,179.128434,5.749928],"boundingbox_size":[78.255005,24.257141,11.499855]}
; plater:{"center":[150.000000,150.000000,0.000000],"boundingbox_center":[150.000000,150.000000,18.127514],"boundingbox_size":[78.255005,82.514009,36.255028]}

;TYPE:Custom
M104 S0 ; Stops SuperSlicer from sending temp waits separately

M140 S0

print_start EXTRUDER=242 BED=100 CHAMBER=0
M107
G21 ; set units to millimeters
G90 ; use absolute coordinates
M83 ; use relative distances for extrusion
; Filament gcode
;_TOOLCHANGE 0
M107
;LAYER_CHANGE
;Z:0.2375
;HEIGHT:0.2375
TIMELAPSE_TAKE_FRAME
;BEFORE_LAYER_CHANGE
;0.2375


G1 E-0.8 F3000
G1 Z0.2 F8460
G1 Z0.2375
;AFTER_LAYER_CHANGE
;0.2375
G92 E0
G1 Z0.4375
G1 X122.649 Y147.022
G1 Z0.2375
G1 E0.8 F1800
;TYPE:Skirt
;WIDTH:0.78
G1 X114.741 Y153.619 E0.74135
G1 X114.081 Y154.803 E0.09757
G1 X109.882 Y166.451 E0.89126
G1 X109.717 Y167.4 E0.06938
G1 X109.717 Y190.857 E1.68855
G1 X109.959 Y191.996 E0.08385
G1 X110.9 Y193.143 E0.10677
G1 X111.404 Y193.499 E0.04442
G1 X113.02 Y194.013 E0.1221
G1 X188.771 Y194.013 E5.45298
G1 X190.751 Y193.193 E0.15426
G1 X191.063 Y192.88 E0.03181
G1 X191.883 Y190.901 E0.15425
G1 X191.875 Y184.401 E0.46788
G1 X186.11 Y108.531 E5.4773
G1 X185.777 Y107.404 E0.08455
G1 X184.748 Y106.336 E0.10677
G1 X183.318 Y105.943 E0.10677
G1 X172.906 Y105.943 E0.74954
G1 X171.114 Y106.591 E0.13714
G1 X122.718 Y146.964 E4.53687
G1 X123.175 Y147.512 F8460
G1 F1800
G1 X115.319 Y154.063 E0.73633
G1 X114.766 Y155.05 E0.08145
G1 X110.568 Y166.698 E0.89126
G1 X110.445 Y167.4 E0.05132
G1 X110.445 Y190.857 E1.68855
G1 X110.558 Y191.53 E0.04917
G1 X111.32 Y192.548 E0.09154
G1 X111.824 Y192.904 E0.04442
G1 X113.02 Y193.284 E0.09033
G1 X188.771 Y193.284 E5.45298
G1 X190.236 Y192.678 E0.11412
G1 X190.548 Y192.365 E0.03181
G1 X191.155 Y190.901 E0.11411
G1 X191.149 Y184.456 E0.4639
G1 X185.383 Y108.586 E5.4773
G1 X184.528 Y107.062 E0.12579
G1 X183.318 Y106.672 E0.09154
G1 X172.906 Y106.672 E0.74954
G1 X171.58 Y107.151 E0.10146
G1 X123.244 Y147.455 E4.53035
G1 X123.701 Y148.002 F8460
G1 F1800
G1 X115.897 Y154.506 E0.73128
G1 X115.451 Y155.297 E0.06534
G1 X111.174 Y167.4 E0.92405
G1 X111.174 Y190.857 E1.68855
G1 X111.741 Y191.953 E0.08886
G1 X112.245 Y192.309 E0.04442
G1 X113.02 Y192.556 E0.05856
G1 X188.771 Y192.556 E5.45298
G1 X189.721 Y192.163 E0.07398
G1 X190.033 Y191.85 E0.03181
G1 X190.426 Y190.901 E0.07398
G1 X190.423 Y184.512 E0.45993
G1 X184.657 Y108.641 E5.4773
G1 X184.259 Y107.785 E0.06794
G1 X183.318 Y107.4 E0.07321
G1 X172.906 Y107.4 E0.74954
G1 X172.046 Y107.711 E0.06577
G1 X123.77 Y147.945 E4.52385
G1 X124.226 Y148.493 F8460
G1 F1800
G1 X116.475 Y154.95 E0.72623
G1 X116.137 Y155.544 E0.04922
G1 X111.902 Y167.4 E0.90625
G1 X111.902 Y190.857 E1.68855
G1 X112.162 Y191.358 E0.04065
G1 X113.02 Y191.827 E0.07042
G1 X188.771 Y191.827 E5.45298
G1 X189.206 Y191.648 E0.03384
G1 X189.518 Y191.335 E0.03181
G1 X189.698 Y190.901 E0.03384
G1 X189.696 Y184.567 E0.45596
G1 X183.93 Y108.696 E5.4773
G1 X183.318 Y108.129 E0.06012
G1 X172.906 Y108.129 E0.74954
G1 X172.513 Y108.271 E0.03009
G1 X124.296 Y148.435 E4.51736
M104 S242 ; set temperature
G1 E-0.8 F3000
G1 Z0.4375 F8460
; printing object Dock_mount_fixed_v2.stl id:0 copy 0
G1 X124.296 Y157.402
G1 Z0.2375
G1 E0.8 F1800
;TYPE:Solid infill
;WIDTH:0.93
G1 F2400
G1 X158.908 Y157.402 E3.00425
G1 X160.292 Y157.342 E0.12019
G1 X161.71 Y157.155 E0.12421
G1 X163.108 Y156.845 E0.12422
G1 X164.472 Y156.415 E0.12421
G1 X165.795 Y155.867 E0.12422
G1 X167.064 Y155.206 E0.12421
G1 X168.271 Y154.437 E0.12421
G1 X169.406 Y153.566 E0.12421
G1 X170.461 Y152.599 E0.12421
G1 X171.428 Y151.544 E0.12421
G1 X172.299 Y150.409 E0.12421
G1 X173.068 Y149.202 E0.12421
G1 X173.729 Y147.933 E0.12421
G1 X174.277 Y146.61 E0.12421
G1 X174.707 Y145.246 E0.12421
G1 X175.017 Y143.848 E0.12421
G1 X175.204 Y142.43 E0.12421
G1 X175.264 Y141.046 E0.12019
G1 X175.264 Y110.864 E2.61972
G1 X180.959 Y110.864 E0.49434
G1 X180.955 Y145.857 E3.03732
G1 X180.905 Y146.958 E0.09559
G1 X180.762 Y148.001 E0.09139
G1 X180.525 Y149.027 E0.09139
G1 X180.195 Y150.027 E0.09138
G1 X179.776 Y150.993 E0.09146
G1 X179.272 Y151.916 E0.09126
G1 X178.685 Y152.791 E0.09141
G1 X178.024 Y153.605 E0.09105
G1 X177.073 Y154.56 E0.117
G1 X176.243 Y155.233 E0.09272
G1 X175.368 Y155.82 E0.09149
G1 X174.444 Y156.325 E0.09139
G1 X173.478 Y156.744 E0.09138
G1 X172.477 Y157.074 E0.09148
G1 X171.455 Y157.31 E0.09108
G1 X170.409 Y157.454 E0.0916
G1 X169.309 Y157.504 E0.09557
G1 X127.518 Y157.504 E3.62734
G1 X127.518 Y157.785 E0.02441
G1 X127.137 Y157.785 E0.03309
G1 X127.137 Y158.598 E0.07055
G1 X126.141 Y158.598 E0.08643
G1 X126.141 Y157.598 E0.0868
G1 X119.04 Y157.598 E0.61629
G1 X119.04 Y157.402 E0.01699
G1 X124.206 Y157.402 E0.44832
G1 X167.467 Y155.992 F8460
G1 F2400
G1 X168.775 Y155.158 E0.13463
G1 X169.972 Y154.24 E0.13087
G1 X171.083 Y153.222 E0.13088
G1 X172.102 Y152.11 E0.13088
G1 X173.02 Y150.914 E0.13087
G1 X173.83 Y149.642 E0.13088
G1 X174.526 Y148.304 E0.13088
G1 X175.104 Y146.911 E0.13087
G1 X175.557 Y145.473 E0.13087
G1 X175.883 Y144.001 E0.13087
G1 X176.08 Y142.506 E0.13088
G1 X176.143 Y141.065 E0.12519
G1 X176.143 Y111.743 E2.54509
G1 X180.08 Y111.743 E0.34174
G1 X180.076 Y145.837 E2.95929
G1 X180.029 Y146.878 E0.09039
G1 X179.897 Y147.842 E0.08445
G1 X179.677 Y148.79 E0.08445
G1 X179.373 Y149.714 E0.08444
G1 X178.986 Y150.607 E0.08452
G1 X178.52 Y151.46 E0.08432
G1 X177.978 Y152.268 E0.08447
G1 X177.37 Y153.016 E0.08368
G1 X176.483 Y153.907 E0.10909
G1 X175.72 Y154.525 E0.08524
G1 X174.911 Y155.068 E0.08454
G1 X174.058 Y155.535 E0.08445
G1 X173.165 Y155.921 E0.08444
G1 X172.24 Y156.226 E0.08455
G1 X171.295 Y156.445 E0.08414
G1 X170.329 Y156.577 E0.08466
G1 X169.289 Y156.625 E0.09037
G1 X167.652 Y156.625 E0.14211
G1 X167.492 Y156.078 E0.04942
G1 X170.378 Y155.061 F8460
G1 F2400
G1 X171.706 Y153.844 E0.15634
G1 X172.776 Y152.675 E0.13754
G1 X173.741 Y151.418 E0.13753
G1 X174.592 Y150.082 E0.13754
G1 X175.324 Y148.676 E0.13754
G1 X175.93 Y147.212 E0.13754
G1 X176.407 Y145.701 E0.13754
G1 X176.75 Y144.154 E0.13754
G1 X176.957 Y142.583 E0.13754
G1 X177.022 Y141.085 E0.13019
G1 X177.022 Y112.622 E2.47045
G1 X179.201 Y112.622 E0.18913
G1 X179.197 Y145.817 E2.88125
G1 X179.152 Y146.798 E0.08519
G1 X179.031 Y147.683 E0.07751
G1 X178.83 Y148.553 E0.07751
G1 X178.551 Y149.401 E0.0775
G1 X178.195 Y150.221 E0.07758
G1 X177.768 Y151.003 E0.07738
G1 X177.27 Y151.745 E0.07753
G1 X176.716 Y152.428 E0.07632
G1 X175.893 Y153.253 E0.10118
G1 X175.197 Y153.818 E0.07775
G1 X174.455 Y154.316 E0.0776
G1 X173.671 Y154.744 E0.07751
G1 X172.852 Y155.099 E0.0775
G1 X172.003 Y155.379 E0.07761
G1 X171.136 Y155.579 E0.0772
G1 X170.652 Y155.646 E0.0424
G1 X170.416 Y155.142 E0.04829
G1 X173.761 Y152.836 F8460
G1 F2400
G1 X174.462 Y151.923 E0.09986
G1 X175.354 Y150.522 E0.1442
G1 X176.121 Y149.048 E0.1442
G1 X176.757 Y147.513 E0.1442
G1 X177.257 Y145.929 E0.1442
G1 X177.535 Y144.674 E0.11153
G1 X178.318 Y144.76 E0.0684
G1 X178.318 Y145.797 E0.09003
G1 X178.276 Y146.718 E0.07999
G1 X178.166 Y147.523 E0.07057
G1 X177.982 Y148.316 E0.07057
G1 X177.728 Y149.088 E0.07056
G1 X177.404 Y149.834 E0.07064
G1 X177.015 Y150.547 E0.07044
G1 X176.562 Y151.222 E0.07059
G1 X176.062 Y151.839 E0.06895
G1 X175.303 Y152.6 E0.09327
G1 X174.675 Y153.11 E0.07026
G1 X174.272 Y153.38 E0.04207
G1 X173.823 Y152.901 E0.05698
G1 X167.127 Y156.394 F8460
;TYPE:Gap fill
;WIDTH:1.408723
G1 F2880
G1 X167.024 Y156.422 E0.01423
;WIDTH:1.334535
G1 X166.922 Y156.45 E0.01345
;WIDTH:1.260347
G1 X166.82 Y156.478 E0.01267
;WIDTH:1.18616
G1 X166.717 Y156.506 E0.01189
;WIDTH:1.111972
G1 X166.615 Y156.534 E0.01112
G1 X166.505 Y156.56 E0.01184
;WIDTH:1.040349
G1 X166.395 Y156.587 E0.01104
;WIDTH:0.968727
G1 X166.286 Y156.614 E0.01024
;WIDTH:0.897104
G1 X166.176 Y156.641 E0.00944
G1 X166.139 Y156.649 E0.00313
G1 X165.956 Y156.686 E0.01565
;WIDTH:0.797368
G1 X165.772 Y156.722 E0.0138
;WIDTH:0.713849
G1 X165.588 Y156.759 E0.01226
;WIDTH:0.630331
G1 X165.405 Y156.795 E0.01071
;WIDTH:0.546813
G1 X165.221 Y156.832 E0.00917
;WIDTH:0.463295
G1 X165.037 Y156.868 E0.00763
;WIDTH:0.379776
G1 X164.853 Y156.905 E0.00608
;WIDTH:0.296258
G1 X164.659 Y156.943 E0.0048
G1 X164.438 Y156.977 E0.00542
;WIDTH:0.156453
G1 X164.217 Y157.011 E0.00233
G1 X164.165 Y157.019 E0.00055
G1 X170.09 Y155.483 F8460
;WIDTH:1.360562
G1 F2880
G1 X170.025 Y155.512 E0.00927
G1 X169.947 Y155.545 E0.01092
;WIDTH:1.261101
G1 X169.869 Y155.577 E0.01009
;WIDTH:1.186813
G1 X169.791 Y155.61 E0.00947
;WIDTH:1.112525
G1 X169.713 Y155.642 E0.00886
;WIDTH:1.038237
G1 X169.635 Y155.675 E0.00824
G1 X169.544 Y155.708 E0.00946
;WIDTH:0.960674
G1 X169.453 Y155.741 E0.00871
;WIDTH:0.883111
G1 X169.362 Y155.775 E0.00797
;WIDTH:0.805548
G1 X169.271 Y155.808 E0.00723
G1 X169.222 Y155.823 E0.0038
G1 X169.09 Y155.862 E0.01028
;WIDTH:0.685935
G1 X168.957 Y155.901 E0.00865
;WIDTH:0.597688
G1 X168.825 Y155.939 E0.00745
;WIDTH:0.50944
G1 X168.692 Y155.978 E0.00625
;WIDTH:0.421193
G1 X168.56 Y156.017 E0.00504
;WIDTH:0.332946
G1 X168.427 Y156.055 E0.00384
;WIDTH:0.244699
G1 X168.295 Y156.094 E0.00264
;WIDTH:0.156452
G1 X168.162 Y156.132 E0.00144
G1 X168.112 Y156.147 E0.00055
G1 X173.698 Y153.411 F8460
;WIDTH:1.414528
G1 F2880
G1 X173.658 Y153.443 E0.00694
G1 X173.611 Y153.479 E0.00804
G1 X173.406 Y153.633 E0.03443
;WIDTH:1.205593
G1 X173.202 Y153.787 E0.02915
;WIDTH:1.299368
G1 X173.065 Y153.884 E0.02069
;WIDTH:1.214418
G1 X172.932 Y153.979 E0.01873
;WIDTH:1.129468
G1 X172.799 Y154.074 E0.01736
;WIDTH:1.044518
G1 X172.667 Y154.168 E0.01599
;WIDTH:0.959568
G1 X172.534 Y154.263 E0.01463
G1 X172.417 Y154.338 E0.01251
;WIDTH:0.81868
G1 X172.3 Y154.414 E0.01057
G1 X172.271 Y154.432 E0.00258
G1 X172.156 Y154.499 E0.01005
;WIDTH:0.728549
G1 X172.042 Y154.566 E0.00887
;WIDTH:0.654204
G1 X171.927 Y154.633 E0.0079
;WIDTH:0.579859
G1 X171.813 Y154.7 E0.00693
G1 X171.69 Y154.765 E0.00724
;WIDTH:0.495177
G1 X171.568 Y154.829 E0.00608
;WIDTH:0.410496
G1 X171.445 Y154.894 E0.00492
;WIDTH:0.325814
G1 X171.322 Y154.959 E0.00376
;WIDTH:0.241133
G1 X171.199 Y155.023 E0.0026
;WIDTH:0.156451
G1 X171.077 Y155.088 E0.00144
G1 X177.832 Y145.583 F8460
;WIDTH:0.156451
G1 F2880
G1 X177.826 Y145.636 E0.00055
G1 X177.818 Y145.711 E0.00079
G1 X177.809 Y145.786 E0.00079
G1 X177.791 Y145.924 E0.00146
;WIDTH:0.237472
G1 X177.771 Y146.071 E0.00272
G1 X177.719 Y146.367 E0.00553
;WIDTH:0.394951
G1 X177.667 Y146.662 E0.0102
G1 X177.584 Y147.032 E0.01286
;WIDTH:0.522809
G1 X177.501 Y147.401 E0.01764
G1 X177.409 Y147.739 E0.01631
G1 X177.402 Y147.76 E0.00102
G1 X177.345 Y147.94 E0.00883
;WIDTH:0.615495
G1 X177.287 Y148.121 E0.01057
G1 X177.157 Y148.471 E0.02081
;WIDTH:0.671124
G1 X177.027 Y148.821 E0.02286
G1 X176.915 Y149.086 E0.01763
G1 X176.802 Y149.351 E0.01763
G1 X176.791 Y149.375 E0.00163
G1 X176.76 Y149.44 E0.00439
G1 X176.73 Y149.505 E0.00439
G1 X176.555 Y149.833 E0.02277
G1 X176.38 Y150.161 E0.02277
G1 X176.189 Y150.483 E0.02293
;WIDTH:0.574641
G1 X175.998 Y150.805 E0.01936
G1 X175.949 Y150.878 E0.00454
G1 X175.761 Y151.139 E0.01662
;WIDTH:0.484316
G1 X175.573 Y151.399 E0.01375
G1 X175.414 Y151.598 E0.01089
;WIDTH:0.410955
G1 X175.255 Y151.797 E0.00905
;WIDTH:0.337593
G1 X175.096 Y151.995 E0.0072
;WIDTH:0.264232
G1 X174.936 Y152.194 E0.00536
G1 X174.9 Y152.235 E0.00116
G1 X174.765 Y152.374 E0.00407
;WIDTH:0.156451
G1 X174.63 Y152.512 E0.00202
G1 X177.951 Y144.278 F8460
;WIDTH:1.637058
G1 F2880
G1 X177.985 Y143.91 E0.05787
;WIDTH:1.52876
G1 X178.019 Y143.542 E0.05392
G1 X178.046 Y143.126 E0.06077
;WIDTH:1.419908
G1 X178.073 Y142.711 E0.0563
G1 X178.076 Y142.651 E0.00806
G1 X178.093 Y141.887 E0.10334
;WIDTH:1.348176
G1 X178.11 Y141.122 E0.09793
G1 X178.11 Y141.094 E0.00362
G1 X178.111 Y127.403 E1.75369
G1 X178.112 Y113.711 E1.75369
G1 X178.112 Y113.386 E0.04162
G1 X178.112 Y113.061 E0.04162
G1 X181.636 Y110.187 F8460
;TYPE:Internal perimeter
;WIDTH:0.93
G1 F2880
G1 X181.632 Y145.873 E3.09741
G1 X181.58 Y147.019 E0.09959
G1 X181.428 Y148.123 E0.09673
G1 X181.177 Y149.209 E0.09673
G1 X180.829 Y150.268 E0.09673
G1 X180.385 Y151.291 E0.09681
G1 X179.851 Y152.268 E0.09661
G1 X179.23 Y153.193 E0.09676
G1 X178.528 Y154.059 E0.09672
G1 X177.733 Y154.874 E0.09889
G1 X177.527 Y155.063 E0.02423
G1 X176.646 Y155.778 E0.09849
G1 X175.719 Y156.4 E0.09684
G1 X174.741 Y156.934 E0.09673
G1 X173.719 Y157.377 E0.09673
G1 X172.659 Y157.726 E0.09682
G1 X171.577 Y157.977 E0.09642
G1 X170.471 Y158.128 E0.09695
G1 X169.324 Y158.18 E0.09958
G1 X128.195 Y158.18 E3.56993
G1 X128.195 Y158.462 E0.02441
G1 X127.813 Y158.462 E0.03309
G1 X127.813 Y159.275 E0.07055
G1 X125.464 Y159.275 E0.20392
G1 X125.464 Y158.275 E0.0868
G1 X118.364 Y158.275 E0.61629
G1 X118.364 Y156.725 E0.13449
G1 X158.893 Y156.725 E3.51785
G1 X160.232 Y156.667 E0.11634
G1 X161.593 Y156.488 E0.11908
G1 X162.932 Y156.191 E0.11909
G1 X164.241 Y155.778 E0.11908
G1 X165.508 Y155.253 E0.11909
G1 X166.725 Y154.62 E0.11908
G1 X167.882 Y153.882 E0.11908
G1 X168.971 Y153.047 E0.11908
G1 X169.982 Y152.12 E0.11908
G1 X170.909 Y151.109 E0.11908
G1 X171.744 Y150.02 E0.11908
G1 X172.482 Y148.863 E0.11908
G1 X173.115 Y147.646 E0.11908
G1 X173.64 Y146.379 E0.11908
G1 X174.053 Y145.07 E0.11908
G1 X174.35 Y143.731 E0.11908
G1 X174.529 Y142.371 E0.11908
G1 X174.587 Y141.031 E0.11635
G1 X174.587 Y110.187 E2.67718
G1 X181.546 Y110.187 E0.60403
G1 X182.515 Y109.308 F8460
;TYPE:External perimeter
G1 F1980
G1 X182.511 Y145.893 E3.17544
G1 X182.456 Y147.099 E0.10479
G1 X182.294 Y148.282 E0.10367
G1 X182.025 Y149.446 E0.10367
G1 X181.651 Y150.581 E0.10367
G1 X181.176 Y151.677 E0.10375
G1 X180.604 Y152.724 E0.10355
G1 X179.938 Y153.716 E0.1037
G1 X179.185 Y154.644 E0.10366
G1 X178.345 Y155.506 E0.10451
G1 X178.101 Y155.729 E0.02867
G1 X177.169 Y156.486 E0.10425
G1 X176.176 Y157.152 E0.10378
G1 X175.128 Y157.724 E0.10367
G1 X174.032 Y158.2 E0.10367
G1 X172.897 Y158.573 E0.10376
G1 X171.736 Y158.842 E0.10336
G1 X170.55 Y159.005 E0.10389
G1 X169.344 Y159.06 E0.10479
G1 X129.074 Y159.059 E3.49536
G1 X129.074 Y159.341 E0.02441
G1 X128.692 Y159.341 E0.03309
G1 X128.692 Y160.154 E0.07055
G1 X124.585 Y160.154 E0.35651
G1 X124.585 Y159.154 E0.0868
G1 X117.485 Y159.154 E0.61629
G1 X117.485 Y156.037 E0.27052
G1 X117.494 Y155.961 E0.00661
G1 X117.533 Y155.895 E0.00669
G1 X117.6 Y155.856 E0.00669
G1 X117.675 Y155.846 E0.00662
G1 X158.874 Y155.846 E3.57592
G1 X160.156 Y155.79 E0.11135
G1 X161.44 Y155.621 E0.11242
G1 X162.704 Y155.341 E0.11242
G1 X163.94 Y154.951 E0.11242
G1 X165.136 Y154.456 E0.11242
G1 X166.285 Y153.858 E0.11242
G1 X167.378 Y153.162 E0.11242
G1 X168.405 Y152.373 E0.11242
G1 X169.36 Y151.498 E0.11242
G1 X170.235 Y150.543 E0.11242
G1 X171.024 Y149.516 E0.11242
G1 X171.72 Y148.423 E0.11242
G1 X172.318 Y147.274 E0.11242
G1 X172.813 Y146.078 E0.11242
G1 X173.203 Y144.843 E0.11242
G1 X173.483 Y143.578 E0.11242
G1 X173.652 Y142.294 E0.11242
G1 X173.708 Y141.012 E0.11135
G1 X173.708 Y109.308 E2.75182
G1 X182.425 Y109.308 E0.75663
;WIPE_START
G1 X182.215 Y109.828 F8460
;WIPE_END
G1 E-0.8 F3000
G1 Z0.4375 F8460
; stop printing object Dock_mount_fixed_v2.stl id:0 copy 0
