; generated by SuperSlicer 2.4 on 2023-01-17 at 01:03:21 UTC


;
;

;
;
; 

; external perimeters extrusion width = 0.63mm
; perimeters extrusion width = 0.68mm
; infill extrusion width = 0.68mm
; solid infill extrusion width = 0.68mm
; top infill extrusion width = 0.63mm
; first layer extrusion width = 0.93mm

; external perimeters extrusion width = 0.63mm
; perimeters extrusion width = 0.68mm
; infill extrusion width = 0.68mm
; solid infill extrusion width = 0.68mm
; top infill extrusion width = 0.63mm
; first layer extrusion width = 0.93mm

; object:{"name":"Dock_mount_fixed_v2","id":"Dock_mount_fixed_v2.stl id:0 copy 0","object_center":[162.891037,178.621532,0.000000],"boundingbox_center":[162.891037,178.621532,18.127514],"boundingbox_size":[46.419724,82.826372,36.255028]}
; object:{"name":"Dock_sidemount_left_v2","id":"Dock_sidemount_left_v2.stl id:1 copy 0","object_center":[132.449742,182.469775,0.000000],"boundingbox_center":[132.449742,182.469775,5.749928],"boundingbox_size":[26.222337,79.455839,11.499855]}
; plater:{"center":[152.719736,179.703020,0.000000],"boundingbox_center":[152.719736,179.703020,18.127514],"boundingbox_size":[66.762326,84.989348,36.255028]}

;TYPE:Custom
M104 S0 ; Stops SuperSlicer from sending temp waits separately

M140 S0

print_start EXTRUDER=242 BED=100 CHAMBER=0
M107
G21 ; set units to millimeters
G90 ; use absolute coordinates
M83 ; use relative distances for extrusion
; Filament gcode
;_TOOLCHANGE 0
M107
;LAYER_CHANGE
;Z:0.2375
;HEIGHT:0.2375
TIMELAPSE_TAKE_FRAME
;BEFORE_LAYER_CHANGE
;0.2375


G1 E-0.8 F3000
G1 Z0.2 F8460
G1 Z0.2375
;AFTER_LAYER_CHANGE
;0.2375
G92 E0
G1 Z0.4375
G1 X116.932 Y143.589
G1 Z0.2375
G1 E0.8 F1800
;TYPE:Skirt
;WIDTH:0.78
G1 X116.424 Y144.401 E0.06893
G1 X116.003 Y146.044 E0.1221
G1 X120.361 Y223.031 E5.55084
G1 X120.777 Y224.348 E0.09943
G1 X121.865 Y225.357 E0.10677
G1 X123.315 Y225.668 E0.10677
G1 X131.7 Y225.185 E0.60459
G1 X142.964 Y223.684 E0.81804
G1 X144.173 Y223.221 E0.09316
G1 X150.095 Y219.178 E0.51617
G1 X155.604 Y214.196 E0.53471
G1 X183.916 Y186.919 E2.83
G1 X185.311 Y185.462 E0.14527
G1 X186.807 Y183.46 E0.1799
G1 X187.595 Y182.088 E0.11387
G1 X188.348 Y180.413 E0.13217
G1 X189.167 Y177.637 E0.20836
G1 X189.42 Y176.041 E0.11636
G1 X189.527 Y174.028 E0.14507
G1 X189.448 Y172.448 E0.11386
G1 X189.183 Y170.659 E0.13024
G1 X188.789 Y169.09 E0.11643
G1 X187.726 Y166.394 E0.20862
G1 X186.831 Y164.799 E0.13164
G1 X185.004 Y162.397 E0.21725
G1 X159.357 Y134.241 E2.74165
G1 X158.127 Y133.456 E0.105
G1 X156.645 Y133.401 E0.10677
G1 X118.664 Y142.349 E2.80896
G1 X117.005 Y143.537 E0.14686
G1 X117.55 Y143.975 F8460
G1 F1800
G1 X117.042 Y144.787 E0.06893
G1 X116.73 Y146.003 E0.09033
G1 X121.089 Y222.99 E5.55084
G1 X121.233 Y223.64 E0.04792
G1 X122.043 Y224.62 E0.09154
G1 X123.274 Y224.941 E0.09154
G1 X131.447 Y224.478 E0.5893
G1 X142.868 Y222.962 E0.82936
G1 X143.762 Y222.619 E0.06892
G1 X149.684 Y218.577 E0.51617
G1 X155.113 Y213.657 E0.52739
G1 X183.41 Y186.395 E2.82854
G1 X185.454 Y184.137 E0.21922
G1 X186.96 Y181.73 E0.20442
G1 X187.59 Y180.351 E0.10912
G1 X188.145 Y178.74 E0.12263
G1 X188.571 Y176.853 E0.13925
G1 X188.754 Y175.315 E0.11155
G1 X188.721 Y172.49 E0.20335
G1 X188.474 Y170.825 E0.12115
G1 X188.1 Y169.326 E0.11124
G1 X187.061 Y166.691 E0.20385
G1 X186.23 Y165.211 E0.12224
G1 X184.465 Y162.887 E0.21003
G1 X158.818 Y134.731 E2.7416
G1 X158.08 Y134.213 E0.06496
G1 X156.812 Y134.11 E0.09154
G1 X118.831 Y143.058 E2.80896
G1 X117.623 Y143.923 E0.10696
G1 X118.167 Y144.362 F8460
G1 F1800
G1 X117.659 Y145.174 E0.06893
G1 X117.457 Y145.962 E0.05856
G1 X121.816 Y222.949 E5.55084
G1 X122.271 Y223.882 E0.07475
G1 X123.232 Y224.214 E0.07321
G1 X131.406 Y223.751 E0.5893
G1 X142.772 Y222.24 E0.82538
G1 X143.351 Y222.018 E0.04468
G1 X149.273 Y217.975 E0.51617
G1 X154.65 Y213.093 E0.52277
G1 X183.845 Y184.932 E2.91999
G1 X185.609 Y182.632 E0.20866
G1 X186.926 Y180.052 E0.20848
G1 X187.438 Y178.567 E0.11311
G1 X187.85 Y176.753 E0.1339
G1 X188.026 Y175.29 E0.10604
G1 X187.993 Y172.532 E0.19859
G1 X187.41 Y169.562 E0.21786
G1 X186.396 Y166.989 E0.19908
G1 X185.629 Y165.622 E0.11284
G1 X183.926 Y163.377 E0.20282
G1 X158.28 Y135.222 E2.74155
G1 X156.979 Y134.819 E0.098
G1 X118.998 Y143.767 E2.80896
G1 X118.24 Y144.309 E0.06706
G1 X118.785 Y144.748 F8460
G1 F1800
G1 X118.277 Y145.56 E0.06893
G1 X118.185 Y145.92 E0.02679
G1 X122.543 Y222.908 E5.55084
G1 X123.191 Y223.486 E0.06253
G1 X131.411 Y223.019 E0.59265
G1 X142.675 Y221.518 E0.81804
G1 X148.863 Y217.373 E0.53608
G1 X154.145 Y212.569 E0.51399
G1 X183.331 Y184.416 E2.91907
G1 X185.009 Y182.217 E0.19915
G1 X186.282 Y179.701 E0.20297
G1 X187.044 Y177.115 E0.19407
G1 X187.256 Y175.738 E0.10031
G1 X187.343 Y173.954 E0.12855
G1 X187.266 Y172.573 E0.09957
G1 X186.721 Y169.798 E0.2036
G1 X185.731 Y167.286 E0.19432
G1 X185.028 Y166.034 E0.10343
G1 X183.387 Y163.868 E0.19561
G1 X157.741 Y135.713 E2.74151
G1 X157.146 Y135.528 E0.04483
G1 X119.165 Y144.476 E2.80896
G1 X118.858 Y144.696 E0.02716
G1 X119.563 Y145.719 F8460
;WIDTH:0.93
;HEIGHT:0.24
G1 F1800
G1 X119.747 Y145.61 E0.01875
G1 X143.277 Y144.278 E2.06583
G1 X143.472 Y144.366 E0.01875
G1 X143.657 Y144.598 E0.02605
G1 X143.706 Y144.726 E0.01194
G1 X145.625 Y178.618 E2.97563
G1 X145.591 Y178.75 E0.01194
G1 X145.433 Y179.002 E0.02605
G1 X145.249 Y179.111 E0.01875
G1 X135.834 Y179.644 E0.8266
G1 X130.853 Y221.67 E3.70965
G1 X130.62 Y221.889 E0.02803
G1 X123.942 Y222.267 E0.58634
G1 X123.67 Y222.025 E0.0319
G1 X119.372 Y146.103 E6.66566
G1 X119.406 Y145.971 E0.01194
G1 X119.516 Y145.796 E0.01816
G1 E-0.8 F3000
G1 Z0.4375 F8460
G1 X149.576 Y144.258
G1 Z0.2375
G1 E0.8 F1800
G1 X149.593 Y143.895 E0.0319
G1 X157.06 Y137.092 E0.88544
G1 X157.424 Y137.109 E0.0319
G1 X158.147 Y137.903 E0.09419
G1 X182.506 Y164.645 E3.1708
G1 X183.314 Y165.617 E0.11082
G1 X183.326 Y165.633 E0.00175
G1 X184.038 Y166.668 E0.11013
G1 X184.049 Y166.685 E0.00175
G1 X184.664 Y167.781 E0.11017
G1 X184.673 Y167.799 E0.00175
G1 X185.187 Y168.946 E0.11016
G1 X185.194 Y168.964 E0.00175
G1 X185.601 Y170.154 E0.11024
G1 X185.607 Y170.173 E0.00175
G1 X185.904 Y171.393 E0.11003
G1 X185.908 Y171.413 E0.00175
G1 X186.093 Y172.656 E0.11018
G1 X186.095 Y172.676 E0.00175
G1 X186.167 Y173.93 E0.11014
G1 X186.167 Y173.95 E0.00175
G1 X186.125 Y175.204 E0.10996
G1 X186.091 Y175.585 E0.03352
G1 X185.902 Y176.837 E0.11097
G1 X185.898 Y176.856 E0.00175
G1 X185.598 Y178.078 E0.11027
G1 X185.592 Y178.097 E0.00175
G1 X185.183 Y179.285 E0.11015
G1 X185.175 Y179.303 E0.00175
G1 X184.66 Y180.449 E0.11015
G1 X184.651 Y180.467 E0.00175
G1 X184.033 Y181.562 E0.11016
G1 X184.022 Y181.579 E0.00175
G1 X183.308 Y182.613 E0.11017
G1 X183.296 Y182.629 E0.00175
G1 X182.491 Y183.593 E0.11013
G1 X182.477 Y183.608 E0.00175
G1 X181.582 Y184.501 E0.11082
G1 X152.471 Y211.024 E3.45209
G1 X152.487 Y211.042 E0.0021
G1 X152.47 Y211.405 E0.0319
G1 X152.379 Y211.489 E0.01087
G1 X152.753 Y211.899 E0.0487
G1 X152.736 Y212.263 E0.0319
G1 X148.743 Y215.901 E0.47347
G1 X148.38 Y215.884 E0.0319
G1 X147.88 Y215.335 E0.0651
G1 X142.821 Y219.943 E0.59984
G1 X142.458 Y219.926 E0.0319
G1 X139.893 Y217.111 E0.33384
G1 X139.875 Y217.089 E0.00252
G1 X139.754 Y216.915 E0.0185
G1 X139.728 Y216.864 E0.00505
G1 X139.654 Y216.658 E0.01919
G1 X139.641 Y216.602 E0.00505
G1 X139.623 Y216.384 E0.01919
G1 X139.625 Y216.327 E0.00505
G1 X139.664 Y216.111 E0.01919
G1 X139.682 Y216.056 E0.00505
G1 X139.775 Y215.858 E0.01919
G1 X139.806 Y215.81 E0.00504
G1 X139.942 Y215.648 E0.0185
G1 X139.962 Y215.628 E0.00252
G1 X170.435 Y187.864 E3.61356
G1 X171.302 Y187.001 E0.10726
G1 X172.087 Y186.072 E0.10661
G1 X172.787 Y185.077 E0.10661
G1 X173.398 Y184.026 E0.10661
G1 X173.915 Y182.925 E0.10661
G1 X174.335 Y181.783 E0.10661
G1 X174.653 Y180.609 E0.10661
G1 X174.867 Y179.412 E0.10661
G1 X174.977 Y178.201 E0.10661
G1 X174.98 Y176.985 E0.10661
G1 X174.878 Y175.773 E0.10661
G1 X174.67 Y174.574 E0.10661
G1 X174.359 Y173.399 E0.10661
G1 X173.946 Y172.254 E0.10661
G1 X173.435 Y171.151 E0.10661
G1 X172.83 Y170.096 E0.10661
G1 X172.135 Y169.097 E0.10661
G1 X171.351 Y168.158 E0.10726
G1 X149.637 Y144.325 E2.82618
M104 S242 ; set temperature
G1 E-0.8 F3000
G1 Z0.4375 F8460
; printing object Dock_mount_fixed_v2.stl id:0 copy 0
G1 X152.879 Y144.23
G1 Z0.2375
G1 E0.8 F1800
;TYPE:Solid infill
;HEIGHT:0.2375
G1 F2400
G1 X157.089 Y140.394 E0.49434
G1 X180.653 Y166.264 E3.03731
G1 X181.357 Y167.111 E0.09562
G1 X181.954 Y167.978 E0.09136
G1 X182.469 Y168.897 E0.0914
G1 X182.899 Y169.858 E0.09138
G1 X183.241 Y170.855 E0.09147
G1 X183.489 Y171.876 E0.09126
G1 X183.645 Y172.918 E0.09142
G1 X183.705 Y173.965 E0.09105
G1 X183.644 Y175.312 E0.117
G1 X183.485 Y176.368 E0.09272
G1 X183.233 Y177.392 E0.09149
G1 X182.89 Y178.387 E0.09139
G1 X182.458 Y179.347 E0.09138
G1 X181.941 Y180.264 E0.09138
G1 X181.342 Y181.13 E0.0914
G1 X180.668 Y181.938 E0.09136
G1 X179.888 Y182.716 E0.0956
G1 X148.996 Y210.862 E3.62733
G1 X149.185 Y211.07 E0.02441
G1 X148.903 Y211.327 E0.03309
G1 X149.451 Y211.928 E0.07055
G1 X148.715 Y212.598 E0.08643
G1 X148.041 Y211.859 E0.0868
G1 X142.793 Y216.641 E0.61629
G1 X142.667 Y216.504 E0.01616
G1 X172.131 Y189.646 E3.4604
G1 X173.113 Y188.67 E0.12017
G1 X174.036 Y187.576 E0.12421
G1 X174.86 Y186.406 E0.12421
G1 X175.579 Y185.169 E0.12421
G1 X176.188 Y183.874 E0.12422
G1 X176.681 Y182.53 E0.12421
G1 X177.055 Y181.149 E0.12421
G1 X177.308 Y179.741 E0.12421
G1 X177.437 Y178.315 E0.12422
G1 X177.441 Y176.884 E0.12421
G1 X177.32 Y175.458 E0.12421
G1 X177.076 Y174.048 E0.12421
G1 X176.709 Y172.665 E0.12421
G1 X176.224 Y171.319 E0.12421
G1 X175.622 Y170.02 E0.12421
G1 X174.91 Y168.779 E0.12421
G1 X174.093 Y167.604 E0.12421
G1 X173.206 Y166.541 E0.12019
G1 X152.939 Y144.296 E2.61191
G1 X154.12 Y144.288 F8460
G1 F2400
G1 X157.031 Y141.636 E0.34174
G1 X179.99 Y166.841 E2.95928
G1 X180.656 Y167.642 E0.09042
G1 X181.207 Y168.444 E0.08442
G1 X181.683 Y169.292 E0.08446
G1 X182.081 Y170.18 E0.08444
G1 X182.396 Y171.102 E0.08453
G1 X182.626 Y172.045 E0.08432
G1 X182.769 Y173.008 E0.08448
G1 X182.825 Y173.971 E0.08368
G1 X182.768 Y175.226 E0.10909
G1 X182.621 Y176.197 E0.08523
G1 X182.389 Y177.143 E0.08455
G1 X182.072 Y178.063 E0.08445
G1 X181.673 Y178.95 E0.08444
G1 X181.195 Y179.797 E0.08444
G1 X180.641 Y180.598 E0.08446
G1 X180.018 Y181.345 E0.08442
G1 X179.281 Y182.08 E0.09039
G1 X178.071 Y183.183 E0.14211
G1 X177.508 Y182.839 E0.05723
G1 X177.914 Y181.342 E0.13463
G1 X178.18 Y179.858 E0.13087
G1 X178.316 Y178.356 E0.13088
G1 X178.32 Y176.848 E0.13088
G1 X178.193 Y175.346 E0.13087
G1 X177.935 Y173.86 E0.13088
G1 X177.549 Y172.403 E0.13087
G1 X177.037 Y170.984 E0.13088
G1 X176.404 Y169.616 E0.13087
G1 X175.654 Y168.308 E0.13087
G1 X174.793 Y167.07 E0.13088
G1 X173.869 Y165.963 E0.12519
G1 X154.181 Y144.354 E2.53728
G1 X155.362 Y144.345 F8460
G1 F2400
G1 X156.973 Y142.878 E0.18914
G1 X179.327 Y167.418 E2.88124
G1 X179.954 Y168.174 E0.08522
G1 X180.46 Y168.909 E0.07748
G1 X180.897 Y169.688 E0.07752
G1 X181.262 Y170.503 E0.0775
G1 X181.551 Y171.348 E0.07758
G1 X181.762 Y172.215 E0.07738
G1 X181.894 Y173.098 E0.07754
G1 X181.944 Y173.976 E0.07632
G1 X181.892 Y175.14 E0.10118
G1 X181.758 Y176.026 E0.07774
G1 X181.545 Y176.894 E0.0776
G1 X181.254 Y177.739 E0.07751
G1 X180.888 Y178.553 E0.0775
G1 X180.449 Y179.33 E0.0775
G1 X179.941 Y180.065 E0.07752
G1 X179.63 Y180.438 E0.04218
G1 X179.032 Y180.191 E0.0561
G1 X179.195 Y178.397 E0.15635
G1 X179.199 Y176.812 E0.13754
G1 X179.065 Y175.233 E0.13754
G1 X178.795 Y173.672 E0.13754
G1 X178.389 Y172.14 E0.13754
G1 X177.851 Y170.65 E0.13754
G1 X177.186 Y169.212 E0.13754
G1 X176.397 Y167.837 E0.13753
G1 X175.492 Y166.537 E0.13754
G1 X174.531 Y165.385 E0.13019
G1 X155.423 Y144.412 E2.46264
G1 X177.328 Y167.693 F8460
G1 F2400
G1 X177.965 Y167.229 E0.0684
G1 X178.663 Y167.996 E0.09002
G1 X179.253 Y168.705 E0.08001
G1 X179.713 Y169.374 E0.07054
G1 X180.111 Y170.083 E0.07058
G1 X180.443 Y170.825 E0.07056
G1 X180.707 Y171.595 E0.07064
G1 X180.899 Y172.384 E0.07044
G1 X181.019 Y173.188 E0.0706
G1 X181.064 Y173.981 E0.06896
G1 X181.016 Y175.055 E0.09327
G1 X180.895 Y175.855 E0.07025
G1 X180.779 Y176.326 E0.04208
G1 X180.035 Y176.268 E0.06479
G1 X179.938 Y175.121 E0.09986
G1 X179.654 Y173.484 E0.1442
G1 X179.229 Y171.878 E0.1442
G1 X178.665 Y170.315 E0.1442
G1 X177.967 Y168.808 E0.1442
G1 X177.373 Y167.771 E0.10372
G1 X177.527 Y183.366 F8460
;TYPE:Gap fill
;WIDTH:1.408708
G1 F2880
G1 X177.471 Y183.456 E0.01423
;WIDTH:1.334524
G1 X177.414 Y183.545 E0.01345
;WIDTH:1.260339
G1 X177.357 Y183.635 E0.01267
;WIDTH:1.186155
G1 X177.3 Y183.724 E0.01189
;WIDTH:1.111971
G1 X177.243 Y183.814 E0.01112
G1 X177.18 Y183.908 E0.01184
;WIDTH:1.040347
G1 X177.117 Y184.001 E0.01104
;WIDTH:0.968723
G1 X177.054 Y184.095 E0.01024
;WIDTH:0.897099
G1 X176.991 Y184.189 E0.00944
G1 X176.969 Y184.22 E0.00313
G1 X176.858 Y184.37 E0.01565
;WIDTH:0.797362
G1 X176.747 Y184.521 E0.0138
;WIDTH:0.713844
G1 X176.636 Y184.672 E0.01226
;WIDTH:0.630326
G1 X176.525 Y184.823 E0.01071
;WIDTH:0.546808
G1 X176.413 Y184.973 E0.00917
;WIDTH:0.463291
G1 X176.302 Y185.124 E0.00763
;WIDTH:0.379773
G1 X176.191 Y185.275 E0.00608
;WIDTH:0.296255
G1 X176.073 Y185.434 E0.0048
G1 X175.933 Y185.608 E0.00542
;WIDTH:0.156452
G1 X175.792 Y185.782 E0.00233
G1 X175.759 Y185.823 E0.00055
G1 X179.105 Y180.697 F8460
;WIDTH:1.36065
G1 F2880
G1 X179.076 Y180.762 E0.00925
G1 X179.04 Y180.839 E0.01093
;WIDTH:1.261209
G1 X179.004 Y180.915 E0.0101
;WIDTH:1.186881
G1 X178.969 Y180.992 E0.00948
;WIDTH:1.112552
G1 X178.933 Y181.068 E0.00886
;WIDTH:1.038224
G1 X178.897 Y181.145 E0.00824
G1 X178.852 Y181.231 E0.00946
;WIDTH:0.960655
G1 X178.807 Y181.317 E0.00871
;WIDTH:0.883085
G1 X178.762 Y181.403 E0.00797
;WIDTH:0.805516
G1 X178.717 Y181.489 E0.00723
G1 X178.692 Y181.533 E0.00379
G1 X178.62 Y181.651 E0.01028
;WIDTH:0.685945
G1 X178.548 Y181.769 E0.00865
;WIDTH:0.597696
G1 X178.476 Y181.886 E0.00745
;WIDTH:0.509447
G1 X178.404 Y182.004 E0.00625
;WIDTH:0.421198
G1 X178.333 Y182.122 E0.00504
;WIDTH:0.332949
G1 X178.261 Y182.24 E0.00384
;WIDTH:0.2447
G1 X178.189 Y182.357 E0.00264
;WIDTH:0.156451
G1 X178.117 Y182.475 E0.00144
G1 X180.376 Y176.735 F8460
;WIDTH:1.414648
G1 F2880
G1 X180.367 Y176.786 E0.00694
G1 X180.357 Y176.845 E0.00804
G1 X180.31 Y177.096 E0.03443
;WIDTH:1.205633
G1 X180.262 Y177.347 E0.02916
;WIDTH:1.299367
G1 X180.227 Y177.512 E0.02069
;WIDTH:1.214414
G1 X180.192 Y177.671 E0.01873
;WIDTH:1.129462
G1 X180.158 Y177.83 E0.01736
;WIDTH:1.044509
G1 X180.124 Y177.99 E0.01599
;WIDTH:0.959557
G1 X180.089 Y178.149 E0.01463
G1 X180.053 Y178.284 E0.0125
;WIDTH:0.818693
G1 X180.018 Y178.419 E0.01056
G1 X180.008 Y178.451 E0.00258
G1 X179.969 Y178.578 E0.01003
;WIDTH:0.728754
G1 X179.93 Y178.704 E0.00885
;WIDTH:0.6546
G1 X179.89 Y178.83 E0.00788
;WIDTH:0.580447
G1 X179.851 Y178.956 E0.00692
G1 X179.804 Y179.087 E0.00726
;WIDTH:0.495648
G1 X179.757 Y179.218 E0.0061
;WIDTH:0.410849
G1 X179.709 Y179.348 E0.00494
;WIDTH:0.32605
G1 X179.662 Y179.479 E0.00377
;WIDTH:0.241251
G1 X179.615 Y179.609 E0.00261
;WIDTH:0.156452
G1 X179.567 Y179.74 E0.00145
G1 X179.55 Y179.79 E0.00055
G1 X178.191 Y168.208 F8460
;WIDTH:0.156451
G1 F2880
G1 X178.235 Y168.269 E0.00078
G1 X178.279 Y168.33 E0.00078
G1 X178.359 Y168.444 E0.00146
;WIDTH:0.237461
G1 X178.444 Y168.566 E0.00273
G1 X178.604 Y168.82 E0.00553
;WIDTH:0.395007
G1 X178.764 Y169.074 E0.01021
G1 X178.952 Y169.403 E0.01285
;WIDTH:0.522797
G1 X179.139 Y169.732 E0.01763
G1 X179.219 Y169.888 E0.00815
G1 X179.299 Y170.043 E0.00815
G1 X179.308 Y170.063 E0.00102
G1 X179.387 Y170.236 E0.00884
;WIDTH:0.615493
G1 X179.466 Y170.408 E0.01057
G1 X179.605 Y170.754 E0.02081
;WIDTH:0.671124
G1 X179.745 Y171.1 E0.02286
G1 X179.936 Y171.644 E0.03526
G1 X179.944 Y171.669 E0.00163
G1 X179.965 Y171.737 E0.00439
G1 X179.986 Y171.806 E0.00439
G1 X180.078 Y172.166 E0.02277
G1 X180.169 Y172.527 E0.02277
G1 X180.245 Y172.893 E0.02293
;WIDTH:0.57464
G1 X180.32 Y173.26 E0.01936
G1 X180.334 Y173.347 E0.00454
G1 X180.371 Y173.666 E0.01662
;WIDTH:0.484311
G1 X180.407 Y173.985 E0.01375
G1 X180.423 Y174.239 E0.01089
