; generated by SuperSlicer 2.4 on 2023-01-18 at 23:01:33 UTC


;
;

;
;
; 

; external perimeters extrusion width = 0.42mm
; perimeters extrusion width = 0.45mm
; infill extrusion width = 0.45mm
; solid infill extrusion width = 0.45mm
; top infill extrusion width = 0.42mm
; first layer extrusion width = 0.62mm

; external perimeters extrusion width = 0.42mm
; perimeters extrusion width = 0.45mm
; infill extrusion width = 0.45mm
; solid infill extrusion width = 0.45mm
; top infill extrusion width = 0.42mm
; first layer extrusion width = 0.62mm

; external perimeters extrusion width = 0.42mm
; perimeters extrusion width = 0.45mm
; infill extrusion width = 0.45mm
; solid infill extrusion width = 0.45mm
; top infill extrusion width = 0.42mm
; first layer extrusion width = 0.62mm

; object:{"name":"Dock_sidemount_fixed_v2","id":"Dock_sidemount_fixed_v2.stl id:0 copy 0","object_center":[150.000001,178.757073,0.000000],"boundingbox_center":[150.000001,178.757073,18.127507],"boundingbox_size":[67.723412,27.999817,36.255014]}
; object:{"name":"Dock_sidemount_left_v2","id":"Dock_sidemount_left_v2.stl id:1 copy 0","object_center":[150.000000,146.628733,0.000000],"boundingbox_center":[150.000000,146.628733,5.749928],"boundingbox_size":[78.255005,24.257141,11.499855]}
; object:{"name":"Dock_sidemount_right_v2","id":"Dock_sidemount_right_v2.stl id:2 copy 0","object_center":[150.000001,116.371591,0.000000],"boundingbox_center":[150.000001,116.371591,5.749928],"boundingbox_size":[78.254990,24.257141,11.499855]}
; plater:{"center":[150.000000,148.500001,0.000000],"boundingbox_center":[150.000000,148.500001,18.127507],"boundingbox_size":[78.255005,88.513961,36.255014]}

;TYPE:Custom
M104 S0 ; Stops SuperSlicer from sending temp waits separately

M140 S0

print_start EXTRUDER=248 BED=105 CHAMBER=0
G21 ; set units to millimeters
G90 ; use absolute coordinates
M83 ; use relative distances for extrusion
; Filament gcode
;_TOOLCHANGE 0
M107
;LAYER_CHANGE
;Z:0.2
;HEIGHT:0.2
TIMELAPSE_TAKE_FRAME
;BEFORE_LAYER_CHANGE
;0.2


G1 E-0.8 F3000
G1 Z0.3 F9000
;AFTER_LAYER_CHANGE
;0.2
G92 E0
G1 Z0.5
G1 X108.666 Y119.645
G1 Z0.2
G1 E0.8 F1800
;TYPE:Skirt
;WIDTH:0.52
G1 F1950
G1 X108.28 Y120.648 E0.04262
G1 X108.282 Y129.681 E0.35835
G1 X109.904 Y159.351 E1.17873
G1 X113.9 Y181.169 E0.8799
G1 X114.346 Y182.847 E0.0689
G1 X115.336 Y185.255 E0.10329
G1 X116.692 Y187.478 E0.10329
G1 X118.378 Y189.462 E0.10329
G1 X119.727 Y190.677 E0.072
G1 X121.876 Y192.146 E0.10328
G1 X124.229 Y193.262 E0.10329
G1 X126.727 Y193.995 E0.10329
G1 X129.309 Y194.329 E0.10328
G1 X169.824 Y195.349 E1.60771
G1 X177.861 Y195.35 E0.31884
G1 X185.174 Y194.335 E0.29286
G1 X185.9 Y194.021 E0.03139
G1 X186.44 Y193.092 E0.04262
G1 X191.72 Y159.857 E1.33494
G1 X191.719 Y150.736 E0.36183
G1 X190.159 Y103.869 E1.86023
G1 X189.529 Y102.7 E0.05268
G1 X188.432 Y101.924 E0.05327
G1 X187.57 Y101.65 E0.03587
G1 X152.869 Y101.65 E1.37658
G1 X152.307 Y101.76 E0.0227
G1 X109.211 Y119.265 E1.84525
G1 X108.716 Y119.611 E0.02397
G1 X109.224 Y119.953 F9000
G1 F1950
G1 X108.757 Y120.648 E0.0332
G1 X108.757 Y129.6 E0.35514
G1 X110.373 Y159.265 E1.17852
G1 X114.369 Y181.082 E0.87986
G1 X114.803 Y182.712 E0.06692
G1 X115.767 Y185.05 E0.10032
G1 X117.085 Y187.208 E0.10032
G1 X118.724 Y189.134 E0.10032
G1 X120.017 Y190.298 E0.06903
G1 X122.103 Y191.727 E0.10031
G1 X124.388 Y192.812 E0.10032
G1 X126.814 Y193.526 E0.10032
G1 X129.321 Y193.852 E0.10032
G1 X169.836 Y194.872 E1.60769
G1 X177.861 Y194.873 E0.31837
G1 X185.107 Y193.863 E0.29022
G1 X185.969 Y193.017 E0.04789
G1 X191.243 Y159.857 E1.33196
G1 X191.243 Y150.752 E0.3612
G1 X189.682 Y103.885 E1.86023
G1 X189.253 Y103.089 E0.03584
G1 X188.157 Y102.314 E0.05327
G1 X187.57 Y102.127 E0.02441
G1 X152.869 Y102.127 E1.37658
G1 X152.487 Y102.202 E0.01545
G1 X109.39 Y119.707 E1.84525
G1 X109.258 Y119.904 E0.00942
G1 X109.57 Y120.149 F9000
G1 F1950
G1 X109.234 Y120.648 E0.02386
G1 X109.235 Y129.629 E0.35629
G1 X110.843 Y159.179 E1.17394
G1 X114.838 Y180.995 E0.87982
G1 X115.261 Y182.576 E0.06493
G1 X116.198 Y184.844 E0.09735
G1 X117.478 Y186.938 E0.09735
G1 X118.526 Y188.232 E0.06605
G1 X120.307 Y189.92 E0.09735
G1 X122.331 Y191.308 E0.09734
G1 X124.547 Y192.362 E0.09735
G1 X126.901 Y193.057 E0.09735
G1 X129.334 Y193.375 E0.09735
G1 X169.848 Y194.395 E1.60767
G1 X177.861 Y194.396 E0.31789
G1 X185.041 Y193.39 E0.28758
G1 X185.497 Y192.942 E0.02539
G1 X190.766 Y159.857 E1.32898
G1 X190.766 Y150.768 E0.36057
G1 X189.205 Y103.9 E1.86023
G1 X188.978 Y103.479 E0.01901
G1 X187.881 Y102.703 E0.05327
G1 X187.57 Y102.605 E0.01294
G1 X152.666 Y102.644 E1.38462
G1 X109.625 Y120.126 E1.84287
G1 E-0.8 F3000
G1 Z0.5 F9000
G1 X116.304 Y164.292
G1 Z0.2
G1 E0.8 F1800
;WIDTH:0.62
G1 F1950
G1 X127.472 Y164.292 E0.53591
G1 X127.685 Y164.379 E0.01102
G1 X128.016 Y164.711 E0.02249
G1 X128.104 Y164.923 E0.01102
G1 X128.104 Y172.747 E0.37544
G1 X128.122 Y173.448 E0.03365
G1 X128.161 Y173.959 E0.02457
G1 X128.263 Y174.827 E0.04194
G1 X128.386 Y175.504 E0.03303
G1 X128.501 Y176.002 E0.02455
G1 X128.736 Y176.844 E0.04192
G1 X128.961 Y177.495 E0.03306
G1 X129.15 Y177.97 E0.02454
G1 X129.511 Y178.765 E0.0419
G1 X129.833 Y179.375 E0.0331
G1 X130.092 Y179.816 E0.02452
G1 X130.57 Y180.546 E0.04187
G1 X130.982 Y181.1 E0.03314
G1 X131.305 Y181.496 E0.0245
G1 X131.891 Y182.145 E0.04197
G1 X132.252 Y182.506 E0.0245
G1 X132.764 Y182.974 E0.03329
G1 X133.297 Y183.414 E0.03317
G1 X133.85 Y183.825 E0.03303
G1 X134.58 Y184.303 E0.04188
G1 X135.02 Y184.562 E0.02452
G1 X135.63 Y184.884 E0.0331
G1 X136.425 Y185.245 E0.0419
G1 X136.9 Y185.434 E0.02453
G1 X137.551 Y185.659 E0.03306
G1 X138.393 Y185.894 E0.04192
G1 X138.891 Y186.009 E0.02455
G1 X139.568 Y186.132 E0.03303
G1 X140.437 Y186.235 E0.04195
G1 X140.947 Y186.273 E0.02456
G1 X141.648 Y186.291 E0.03366
G1 X183.066 Y186.306 E1.98744
G1 X183.214 Y186.337 E0.00725
G1 X183.55 Y186.464 E0.01722
G1 X183.679 Y186.543 E0.00725
G1 X183.909 Y186.736 E0.01442
G1 X184.011 Y186.848 E0.00725
G1 X184.129 Y187.02 E0.01003
G1 X184.179 Y187.122 E0.00544
G1 X184.295 Y187.452 E0.0168
G1 X184.317 Y187.601 E0.0072
G1 X184.328 Y191.589 E0.19139
G1 X184.24 Y191.802 E0.01104
G1 X183.909 Y192.134 E0.02253
G1 X183.696 Y192.223 E0.01104
G1 X177.227 Y192.223 E0.31042
G1 X177.227 Y192.591 E0.01769
G1 X177.139 Y192.803 E0.01102
G1 X176.808 Y193.135 E0.02249
G1 X176.596 Y193.223 E0.01102
G1 X171.127 Y193.223 E0.26241
G1 X170.915 Y193.135 E0.01102
G1 X170.584 Y192.803 E0.02249
G1 X170.496 Y192.591 E0.01102
G1 X170.496 Y192.223 E0.01769
G1 X130.136 Y192.223 E1.93664
G1 X129.374 Y192.202 E0.03658
G1 X128.634 Y192.144 E0.03562
G1 X127.883 Y192.046 E0.03634
G1 X127.138 Y191.908 E0.03634
G1 X126.402 Y191.732 E0.03634
G1 X125.675 Y191.517 E0.03634
G1 X124.961 Y191.264 E0.03634
G1 X124.261 Y190.975 E0.03634
G1 X123.585 Y190.653 E0.03598
G1 X122.912 Y190.288 E0.0367
G1 X122.266 Y189.893 E0.03634
G1 X121.642 Y189.464 E0.03634
G1 X121.047 Y189.008 E0.03597
G1 X120.448 Y188.497 E0.03779
G1 X119.904 Y187.98 E0.03598
G1 X119.378 Y187.425 E0.0367
G1 X118.892 Y186.855 E0.03597
G1 X118.431 Y186.253 E0.03635
G1 X118.002 Y185.629 E0.03634
G1 X117.607 Y184.983 E0.03634
G1 X117.246 Y184.317 E0.03634
G1 X116.92 Y183.634 E0.03634
G1 X116.631 Y182.934 E0.03634
G1 X116.376 Y182.213 E0.0367
G1 X116.168 Y181.508 E0.03525
G1 X115.992 Y180.779 E0.03597
G1 X115.853 Y180.035 E0.03634
G1 X115.753 Y179.277 E0.0367
G1 X115.692 Y178.507 E0.03707
G1 X115.673 Y177.759 E0.03586
G1 X115.673 Y164.923 E0.61595
G1 X115.761 Y164.711 E0.01102
G1 X116.092 Y164.379 E0.02249
G1 X116.249 Y164.315 E0.00814
G1 X116.419 Y164.869 F9000
G1 F1950
G1 X127.358 Y164.869 E0.5249
G1 X127.527 Y165.038 E0.01147
G1 X127.527 Y172.755 E0.37029
G1 X127.545 Y173.478 E0.0347
G1 X127.586 Y174.015 E0.02584
G1 X127.692 Y174.912 E0.04336
G1 X127.82 Y175.621 E0.03455
G1 X127.942 Y176.145 E0.02584
G1 X128.185 Y177.016 E0.04336
G1 X128.42 Y177.696 E0.03456
G1 X128.619 Y178.196 E0.02583
G1 X128.993 Y179.019 E0.04335
G1 X129.329 Y179.656 E0.03457
G1 X129.602 Y180.12 E0.02583
G1 X130.097 Y180.876 E0.04335
G1 X130.527 Y181.455 E0.03458
G1 X130.867 Y181.872 E0.02582
G1 X131.472 Y182.543 E0.04338
G1 X131.853 Y182.923 E0.02582
G1 X132.385 Y183.41 E0.03461
G1 X132.941 Y183.869 E0.03459
G1 X133.519 Y184.298 E0.03455
G1 X134.275 Y184.793 E0.04335
G1 X134.739 Y185.066 E0.02583
G1 X135.376 Y185.402 E0.03457
G1 X136.199 Y185.776 E0.04336
G1 X136.699 Y185.975 E0.02583
G1 X137.38 Y186.21 E0.03456
G1 X138.25 Y186.453 E0.04336
G1 X138.775 Y186.575 E0.02583
G1 X139.483 Y186.703 E0.03455
G1 X140.381 Y186.809 E0.04337
G1 X140.918 Y186.85 E0.02584
G1 X141.641 Y186.868 E0.03471
G1 X182.991 Y186.879 E1.98417
G1 X183.041 Y186.888 E0.00242
G1 X183.283 Y186.976 E0.0124
G1 X183.327 Y187.001 E0.00242
G1 X183.524 Y187.166 E0.01231
G1 X183.549 Y187.194 E0.00182
G1 X183.626 Y187.304 E0.00641
G1 X183.643 Y187.337 E0.00181
G1 X183.731 Y187.578 E0.0123
G1 X183.74 Y187.627 E0.0024
G1 X183.75 Y191.476 E0.18467
G1 X183.581 Y191.646 E0.01149
G1 X176.65 Y191.646 E0.3326
G1 X176.65 Y192.477 E0.03987
G1 X176.481 Y192.646 E0.01147
G1 X171.242 Y192.646 E0.25139
G1 X171.073 Y192.477 E0.01147
G1 X171.073 Y191.646 E0.03987
G1 X130.134 Y191.646 E1.96442
G1 X129.408 Y191.626 E0.03486
G1 X128.69 Y191.57 E0.03453
G1 X127.969 Y191.475 E0.03489
G1 X127.254 Y191.343 E0.03489
G1 X126.54 Y191.171 E0.03525
G1 X125.843 Y190.965 E0.03489
G1 X125.158 Y190.722 E0.03489
G1 X124.486 Y190.443 E0.03489
G1 X123.83 Y190.13 E0.03489
G1 X123.191 Y189.783 E0.03489
G1 X122.571 Y189.403 E0.03489
G1 X121.972 Y188.991 E0.03489
G1 X121.395 Y188.548 E0.03489
G1 X120.842 Y188.076 E0.03489
G1 X120.315 Y187.575 E0.03489
G1 X119.815 Y187.047 E0.03489
G1 X119.343 Y186.494 E0.03489
G1 X118.9 Y185.917 E0.03489
G1 X118.488 Y185.318 E0.03489
G1 X118.112 Y184.705 E0.03453
G1 X117.765 Y184.066 E0.03489
G1 X117.452 Y183.409 E0.03489
G1 X117.174 Y182.738 E0.03489
G1 X116.931 Y182.052 E0.03489
G1 X116.724 Y181.355 E0.03489
G1 X116.552 Y180.641 E0.03525
G1 X116.42 Y179.926 E0.03489
G1 X116.326 Y179.213 E0.03453
G1 X116.269 Y178.48 E0.03525
G1 X116.25 Y177.758 E0.03468
G1 X116.25 Y165.038 E0.61035
G1 X116.376 Y164.911 E0.00859
G1 E-0.8 F3000
G1 Z0.5 F9000
G1 X116.376 Y159.223
G1 Z0.2
G1 E0.8 F1800
G1 F1950
G1 X112.856 Y159.223 E0.1689
G1 X112.598 Y159.155 E0.0128
G1 X112.519 Y159.115 E0.00427
G1 X112.259 Y158.932 E0.01528
G1 X112.168 Y158.827 E0.00664
G1 X112.04 Y158.579 E0.01339
G1 X112.007 Y158.445 E0.00664
G1 X112.007 Y134.812 E1.13398
G1 X112.04 Y134.678 E0.00664
G1 X112.168 Y134.43 E0.01339
G1 X112.259 Y134.326 E0.00664
G1 X112.519 Y134.142 E0.01528
G1 X112.598 Y134.102 E0.00427
G1 X112.856 Y134.035 E0.0128
G1 X146.861 Y134.035 E1.63167
G1 X146.949 Y134.048 E0.00427
G1 X147.198 Y134.142 E0.0128
G1 X147.458 Y134.326 E0.01528
G1 X147.549 Y134.43 E0.00664
G1 X147.678 Y134.678 E0.01339
G1 X147.71 Y134.812 E0.00664
G1 X147.71 Y143.933 E0.43764
G1 X189.081 Y151.228 E2.01579
G1 X189.258 Y151.33 E0.00977
G1 X189.524 Y151.646 E0.01984
G1 X189.593 Y151.838 E0.00977
G1 X189.593 Y158.592 E0.32408
G1 X189.505 Y158.804 E0.01102
G1 X189.174 Y159.135 E0.02249
G1 X188.962 Y159.223 E0.01102
G1 X116.436 Y159.223 E3.48009
G1 X116.436 Y158.646 F9000
G1 F1950
G1 X112.901 Y158.646 E0.16964
G1 X112.816 Y158.619 E0.00429
G1 X112.649 Y158.5 E0.00982
G1 X112.584 Y158.376 E0.00674
G1 X112.584 Y134.882 E1.12734
G1 X112.649 Y134.757 E0.00674
G1 X112.816 Y134.639 E0.00982
G1 X112.901 Y134.612 E0.00429
G1 X146.816 Y134.612 E1.6274
G1 X146.901 Y134.639 E0.00429
G1 X147.069 Y134.757 E0.00982
G1 X147.133 Y134.882 E0.00674
G1 X147.133 Y144.417 E0.45756
G1 X188.881 Y151.779 E2.03415
G1 X189.016 Y151.939 E0.01008
G1 X189.016 Y158.477 E0.31369
G1 X188.847 Y158.646 E0.01147
G1 X116.496 Y158.646 E3.4717
G1 E-0.8 F3000
G1 Z0.5 F9000
G1 X116.496 Y128.966
G1 Z0.2
G1 E0.8 F1800
G1 F1950
G1 X111.038 Y128.966 E0.2619
G1 X110.826 Y128.878 E0.01102
G1 X110.495 Y128.547 E0.02249
G1 X110.407 Y128.334 E0.01102
G1 X110.407 Y121.7 E0.31837
G1 X110.476 Y121.508 E0.00977
G1 X110.742 Y121.192 E0.01984
G1 X110.919 Y121.09 E0.00977
G1 X151.119 Y114.001 E1.95873
G1 X151.3 Y113.959 E0.00894
G1 X151.603 Y113.834 E0.01572
G1 X151.765 Y113.733 E0.00918
G1 X151.918 Y113.608 E0.00947
G1 X152.045 Y113.474 E0.00886
G1 X152.156 Y113.325 E0.00891
G1 X152.303 Y113.038 E0.01545
G1 X152.36 Y112.855 E0.00922
G1 X152.394 Y112.672 E0.00891
G1 X152.407 Y112.463 E0.01004
G1 X152.407 Y104.555 E0.37946
G1 X152.44 Y104.421 E0.00664
G1 X152.568 Y104.173 E0.01339
G1 X152.659 Y104.069 E0.00664
G1 X152.919 Y103.885 E0.01528
G1 X152.998 Y103.845 E0.00427
G1 X153.256 Y103.777 E0.0128
G1 X187.183 Y103.777 E1.62794
G1 X187.271 Y103.791 E0.00427
G1 X187.521 Y103.885 E0.0128
G1 X187.781 Y104.069 E0.01528
G1 X187.871 Y104.173 E0.00664
G1 X188 Y104.421 E0.01339
G1 X188.032 Y104.555 E0.00664
G1 X188.032 Y128.188 E1.13398
G1 X188 Y128.322 E0.00664
G1 X187.871 Y128.57 E0.01339
G1 X187.781 Y128.674 E0.00664
G1 X187.521 Y128.858 E0.01528
G1 X187.441 Y128.898 E0.00427
G1 X187.183 Y128.966 E0.0128
G1 X116.556 Y128.966 E3.38897
G1 X116.556 Y128.389 F9000
G1 F1950
G1 X111.153 Y128.389 E0.25927
G1 X110.984 Y128.22 E0.01147
G1 X110.984 Y121.801 E0.30798
G1 X111.119 Y121.64 E0.01008
G1 X151.234 Y114.567 E1.9546
G1 X151.461 Y114.514 E0.01119
G1 X151.676 Y114.439 E0.01094
G1 X151.882 Y114.341 E0.01091
G1 X152.103 Y114.202 E0.01252
G1 X152.311 Y114.031 E0.01294
G1 X152.488 Y113.846 E0.01228
G1 X152.64 Y113.64 E0.0123
G1 X152.768 Y113.416 E0.01237
G1 X152.844 Y113.24 E0.00917
G1 X152.921 Y112.994 E0.01237
G1 X152.968 Y112.742 E0.0123
G1 X152.984 Y112.481 E0.01257
G1 X152.984 Y104.625 E0.37698
G1 X153.049 Y104.5 E0.00674
G1 X153.216 Y104.382 E0.00982
G1 X153.301 Y104.354 E0.00429
G1 X187.138 Y104.354 E1.62367
G1 X187.224 Y104.382 E0.0043
G1 X187.391 Y104.5 E0.00982
G1 X187.455 Y104.625 E0.00674
G1 X187.455 Y128.118 E1.12734
G1 X187.391 Y128.243 E0.00674
G1 X187.224 Y128.361 E0.00982
G1 X187.138 Y128.389 E0.00429
G1 X116.616 Y128.389 E3.38396
M104 S248 ; set temperature
G1 E-0.8 F3000
G1 Z0.5 F9000
; printing object Dock_sidemount_fixed_v2.stl id:0 copy 0
G1 X126.166 Y167.468
G1 Z0.2
G1 E0.8 F1800
;TYPE:Solid infill
;WIDTH:0.61191
G1 F3000
G1 X125.176 Y166.477 E0.06636
G1 X124.359 Y166.477 E0.03865
G1 X125.918 Y168.036 E0.1044
G1 X125.918 Y168.852 E0.03865
G1 X123.543 Y166.477 E0.15906
G1 X122.727 Y166.477 E0.03865
G1 X125.918 Y169.668 E0.21372
G1 X125.918 Y170.484 E0.03865
G1 X121.911 Y166.477 E0.26838
G1 X121.095 Y166.477 E0.03865
G1 X125.918 Y171.3 E0.32303
G1 X125.918 Y172.116 E0.03865
G1 X120.279 Y166.477 E0.37769
G1 X119.463 Y166.477 E0.03865
G1 X125.926 Y172.94 E0.43286
G1 X125.967 Y173.797 E0.04063
G1 X118.647 Y166.477 E0.49025
G1 X117.859 Y166.477 E0.03731
G1 X117.859 Y166.505 E0.00134
G1 X126.047 Y174.693 E0.54838
G1 X126.101 Y175.154 E0.02199
G1 X126.206 Y175.668 E0.02482
G1 X117.86 Y167.323 E0.55894
G1 X117.861 Y168.14 E0.03871
G1 X126.429 Y176.708 E0.57385
G1 X126.65 Y177.499 E0.03886
G1 X126.793 Y177.888 E0.01966
G1 X117.862 Y168.957 E0.59814
G1 X117.864 Y169.775 E0.03871
G1 X127.325 Y179.236 E0.63366
G1 X127.55 Y179.731 E0.02577
G1 X128.226 Y180.953 E0.06611
G1 X117.865 Y170.592 E0.69392
G1 X117.866 Y171.409 E0.03871
G1 X136.494 Y190.037 E1.24761
G1 X137.31 Y190.037 E0.03865
G1 X133.442 Y186.17 E0.25903
G1 X134.664 Y186.846 E0.06611
G1 X135.159 Y187.07 E0.02577
G1 X138.126 Y190.037 E0.19869
G1 X138.942 Y190.037 E0.03865
G1 X136.507 Y187.602 E0.16309
G1 X136.897 Y187.745 E0.01966
G1 X137.687 Y187.966 E0.03886
G1 X139.758 Y190.037 E0.13873
G1 X140.574 Y190.037 E0.03865
G1 X138.727 Y188.19 E0.12374
G1 X139.241 Y188.294 E0.02482
G1 X139.702 Y188.348 E0.02199
G1 X141.391 Y190.037 E0.11311
G1 X142.207 Y190.037 E0.03865
G1 X140.598 Y188.428 E0.10774
G1 X141.455 Y188.469 E0.04063
G1 X143.023 Y190.037 E0.10501
G1 X143.839 Y190.037 E0.03865
G1 X142.279 Y188.477 E0.10449
G1 X143.095 Y188.477 E0.03866
G1 X144.655 Y190.037 E0.10447
G1 X145.471 Y190.037 E0.03865
G1 X143.911 Y188.477 E0.10446
G1 X144.728 Y188.478 E0.03866
G1 X146.287 Y190.037 E0.10444
G1 X147.103 Y190.037 E0.03865
G1 X145.544 Y188.478 E0.10443
