; generated by SuperSlicer 2.4 on 2023-01-17 at 02:12:12 UTC


;
;

;
;
; 

; external perimeters extrusion width = 0.63mm
; perimeters extrusion width = 0.68mm
; infill extrusion width = 0.68mm
; solid infill extrusion width = 0.68mm
; top infill extrusion width = 0.63mm
; first layer extrusion width = 0.93mm

; object:{"name":"Dock_mount_fixed_v2","id":"Dock_mount_fixed_v2.stl id:0 copy 0","object_center":[158.168103,140.477986,0.000000],"boundingbox_center":[158.168103,140.477986,18.127514],"boundingbox_size":[52.212637,66.775833,36.255028]}
; plater:{"center":[158.168103,140.477986,0.000000],"boundingbox_center":[158.168103,140.477986,18.127514],"boundingbox_size":[52.212637,66.775833,36.255028]}

;TYPE:Custom
M104 S0 ; Stops SuperSlicer from sending temp waits separately

M140 S0

print_start EXTRUDER=242 BED=100 CHAMBER=0
M107
G21 ; set units to millimeters
G90 ; use absolute coordinates
M83 ; use relative distances for extrusion
; Filament gcode
;_TOOLCHANGE 0
M107
;LAYER_CHANGE
;Z:0.2375
;HEIGHT:0.2375
TIMELAPSE_TAKE_FRAME
;BEFORE_LAYER_CHANGE
;0.2375


G1 E-0.8 F3000
G1 Z0.2 F8460
G1 Z0.2375
;AFTER_LAYER_CHANGE
;0.2375
G92 E0
G1 Z0.4375
G1 X130.275 Y104.717
G1 Z0.2375
G1 E0.8 F1800
;TYPE:Skirt
;WIDTH:0.78
G1 X129.685 Y106.077 E0.10677
G1 X128.65 Y113.567 E0.54428
G1 X128.644 Y120.683 E0.51222
G1 X129.758 Y161.259 E2.92201
G1 X130.086 Y163.445 E0.15913
G1 X130.785 Y165.879 E0.18227
G1 X131.672 Y167.868 E0.15675
G1 X133.019 Y170.051 E0.18467
G1 X134.107 Y171.404 E0.12494
G1 X135.435 Y172.74 E0.13563
G1 X136.859 Y173.898 E0.13215
G1 X138.178 Y174.771 E0.11387
G1 X139.571 Y175.521 E0.11387
G1 X141.892 Y176.432 E0.17946
G1 X143.825 Y176.927 E0.14367
G1 X145.391 Y177.155 E0.11387
G1 X147.077 Y177.242 E0.12153
G1 X185.16 Y177.285 E2.74144
G1 X186.499 Y176.946 E0.09945
G1 X187.568 Y175.918 E0.10677
G1 X187.963 Y174.489 E0.10677
G1 X187.975 Y162.751 E0.84493
G1 X187.317 Y160.946 E0.1383
G1 X140.368 Y105.143 E5.24963
G1 X139.595 Y104.467 E0.07388
G1 X138.963 Y104.101 E0.05261
G1 X137.865 Y103.748 E0.08301
G1 X137.138 Y103.676 E0.05261
G1 X132.46 Y103.671 E0.33673
G1 X131.477 Y103.848 E0.07188
G1 X130.348 Y104.664 E0.10029
G1 X130.963 Y105.036 F8460
G1 F1800
G1 X130.406 Y106.18 E0.09154
G1 X129.378 Y113.568 E0.53697
G1 X129.372 Y120.663 E0.51075
G1 X130.485 Y161.227 E2.92109
G1 X130.798 Y163.288 E0.15009
G1 X131.478 Y165.652 E0.17703
G1 X132.346 Y167.584 E0.15247
G1 X133.625 Y169.645 E0.17466
G1 X134.644 Y170.912 E0.11703
G1 X135.944 Y172.219 E0.13267
G1 X138.528 Y174.132 E0.23147
G1 X139.862 Y174.853 E0.1091
G1 X142.124 Y175.741 E0.17497
G1 X143.99 Y176.217 E0.13863
G1 X145.49 Y176.433 E0.10911
G1 X185.161 Y176.557 E2.8557
G1 X185.818 Y176.451 E0.04793
G1 X186.843 Y175.698 E0.09154
G1 X187.234 Y174.488 E0.09154
G1 X187.246 Y162.75 E0.84493
G1 X186.76 Y161.415 E0.10232
G1 X139.81 Y105.612 E5.24963
G1 X138.683 Y104.774 E0.1011
G1 X137.769 Y104.47 E0.06934
G1 X137.137 Y104.404 E0.04576
G1 X132.459 Y104.399 E0.33673
G1 X131.046 Y105.001 E0.11059
G1 X131.641 Y105.404 F8460
G1 F1800
G1 X131.128 Y106.282 E0.07321
G1 X130.107 Y113.569 E0.52965
G1 X130.1 Y120.644 E0.50929
G1 X131.213 Y161.195 E2.92017
G1 X131.509 Y163.131 E0.14104
G1 X132.17 Y165.425 E0.17179
G1 X132.983 Y167.23 E0.14252
G1 X134.23 Y169.24 E0.17033
G1 X135.182 Y170.42 E0.10913
G1 X136.453 Y171.698 E0.12972
G1 X138.878 Y173.493 E0.21721
G1 X140.152 Y174.185 E0.10434
G1 X142.356 Y175.051 E0.17048
G1 X144.155 Y175.508 E0.13359
G1 X145.59 Y175.712 E0.10435
G1 X185.162 Y175.828 E2.84857
G1 X186.12 Y175.428 E0.07476
G1 X186.506 Y174.487 E0.07321
G1 X186.518 Y162.75 E0.84493
G1 X186.203 Y161.884 E0.06633
G1 X139.253 Y106.081 E5.24963
G1 X138.404 Y105.446 E0.07629
G1 X137.136 Y105.133 E0.09401
G1 X132.458 Y105.128 E0.33673
G1 X131.726 Y105.375 E0.05563
G1 X132.278 Y106.012 F8460
G1 F1800
G1 X131.849 Y106.384 E0.04092
G1 X130.835 Y113.569 E0.52234
G1 X130.828 Y120.624 E0.50783
G1 X131.941 Y161.162 E2.91925
G1 X132.222 Y162.982 E0.13257
G1 X132.862 Y165.197 E0.16598
G1 X133.62 Y166.876 E0.13257
G1 X134.836 Y168.835 E0.16599
G1 X135.72 Y169.929 E0.10122
G1 X136.962 Y171.177 E0.12676
G1 X139.228 Y172.854 E0.20295
G1 X140.443 Y173.516 E0.09958
G1 X142.588 Y174.36 E0.16598
G1 X144.32 Y174.798 E0.12856
G1 X145.69 Y174.99 E0.09959
G1 X185.162 Y175.1 E2.84145
G1 X185.777 Y174.486 E0.06254
G1 X185.789 Y162.749 E0.84493
G1 X185.645 Y162.353 E0.03034
G1 X138.695 Y106.55 E5.24963
G1 X138.124 Y106.119 E0.05148
G1 X137.135 Y105.861 E0.07358
G1 X132.458 Y105.856 E0.33673
G1 X132.346 Y105.953 E0.01061
G1 X133.274 Y107.032 F8460
;WIDTH:0.93
;HEIGHT:0.24
G1 F1800
G1 X136.61 Y107.036 E0.29241
G1 X137.083 Y107.036 E0.04143
G1 X137.112 Y107.038 E0.00252
G1 X137.321 Y107.066 E0.0185
G1 X137.376 Y107.081 E0.00505
G1 X137.579 Y107.165 E0.01919
G1 X137.628 Y107.194 E0.00505
G1 X137.802 Y107.327 E0.01919
G1 X137.843 Y107.368 E0.00505
G1 X137.976 Y107.542 E0.01919
G1 X138.004 Y107.591 E0.00505
G1 X138.088 Y107.794 E0.01919
G1 X138.103 Y107.849 E0.00504
G1 X138.13 Y108.059 E0.0185
G1 X138.132 Y108.087 E0.00252
G1 X138.09 Y149.311 E3.61355
G1 X138.142 Y150.534 E0.10727
G1 X138.299 Y151.74 E0.10661
G1 X138.562 Y152.928 E0.10661
G1 X138.926 Y154.088 E0.10661
G1 X139.39 Y155.212 E0.10661
G1 X139.951 Y156.292 E0.10662
G1 X140.603 Y157.318 E0.10661
G1 X141.343 Y158.284 E0.10661
G1 X142.163 Y159.181 E0.10661
G1 X143.059 Y160.004 E0.10661
G1 X144.024 Y160.745 E0.10661
G1 X145.049 Y161.4 E0.10661
G1 X146.127 Y161.962 E0.10661
G1 X147.25 Y162.429 E0.10661
G1 X148.41 Y162.796 E0.10661
G1 X149.597 Y163.06 E0.10661
G1 X150.803 Y163.22 E0.10661
G1 X152.025 Y163.275 E0.10727
G1 X184.356 Y163.308 E2.83407
G1 X184.613 Y163.566 E0.0319
G1 X184.603 Y173.667 E0.88544
G1 X184.346 Y173.924 E0.0319
G1 X147.098 Y173.881 E3.26499
G1 X145.836 Y173.823 E0.11079
G1 X145.816 Y173.821 E0.00175
G1 X144.571 Y173.649 E0.11016
G1 X144.551 Y173.645 E0.00175
G1 X143.328 Y173.361 E0.11009
G1 X142.956 Y173.244 E0.03414
G1 X142.113 Y172.961 E0.07797
G1 X142.096 Y172.954 E0.00165
G1 X140.944 Y172.453 E0.11012
G1 X140.926 Y172.444 E0.00175
G1 X139.823 Y171.841 E0.11015
G1 X139.806 Y171.83 E0.00175
G1 X138.764 Y171.129 E0.11015
G1 X138.748 Y171.117 E0.00175
G1 X137.773 Y170.325 E0.11014
G1 X137.758 Y170.311 E0.00175
G1 X136.86 Y169.435 E0.10996
G1 X136.602 Y169.153 E0.03348
G1 X135.804 Y168.168 E0.11113
G1 X135.792 Y168.152 E0.00175
G1 X135.094 Y167.108 E0.1101
G1 X135.084 Y167.093 E0.00159
G1 X134.652 Y166.315 E0.078
G1 X134.473 Y165.968 E0.03421
G1 X133.974 Y164.816 E0.11005
G1 X133.967 Y164.797 E0.00175
G1 X133.575 Y163.603 E0.11014
G1 X133.57 Y163.585 E0.00168
G1 X133.368 Y162.719 E0.07795
G1 X133.288 Y162.357 E0.03253
G1 X133.284 Y162.339 E0.00157
G1 X133.115 Y161.094 E0.11011
G1 X133.113 Y161.075 E0.00175
G1 X133.057 Y159.822 E0.10992
G1 X133.098 Y120.43 E3.45297
G1 X133.074 Y120.43 E0.0021
G1 X132.817 Y120.172 E0.0319
G1 X132.817 Y120.048 E0.01087
G1 X132.261 Y120.048 E0.0487
G1 X132.004 Y119.79 E0.0319
G1 X132.01 Y114.389 E0.47347
G1 X132.267 Y114.132 E0.0319
G1 X133.01 Y114.132 E0.0651
G1 X133.017 Y107.289 E0.59984
G1 X133.211 Y107.096 E0.02401
M104 S242 ; set temperature
G1 E-0.8 F3000
G1 Z0.4375 F8460
; printing object Dock_mount_fixed_v2.stl id:0 copy 0
G1 X135.477 Y109.495
G1 Z0.2375
G1 E0.8 F1800
;TYPE:Solid infill
;HEIGHT:0.2375
G1 F2400
G1 X135.67 Y109.495 E0.01681
G1 X135.63 Y149.363 E3.46038
G1 X135.689 Y150.746 E0.12019
G1 X135.874 Y152.165 E0.12421
G1 X136.182 Y153.563 E0.12421
G1 X136.611 Y154.928 E0.12421
G1 X137.158 Y156.251 E0.12422
G1 X137.817 Y157.521 E0.12421
G1 X138.585 Y158.728 E0.12421
G1 X139.455 Y159.865 E0.12421
G1 X140.42 Y160.921 E0.12421
G1 X141.475 Y161.889 E0.12421
G1 X142.609 Y162.761 E0.12421
G1 X143.815 Y163.531 E0.12421
G1 X145.084 Y164.193 E0.12421
G1 X146.406 Y164.742 E0.12421
G1 X147.77 Y165.174 E0.12421
G1 X149.167 Y165.485 E0.12421
G1 X150.585 Y165.673 E0.12421
G1 X151.969 Y165.735 E0.12019
G1 X182.151 Y165.766 E2.61972
G1 X182.145 Y171.461 E0.49434
G1 X147.152 Y171.421 E3.03732
G1 X146.052 Y171.37 E0.09558
G1 X145.014 Y171.227 E0.09091
G1 X143.702 Y170.899 E0.11742
G1 X142.988 Y170.66 E0.0653
G1 X142.018 Y170.238 E0.09186
G1 X141.094 Y169.732 E0.09139
G1 X140.221 Y169.145 E0.09137
G1 X139.407 Y168.483 E0.09105
G1 X138.454 Y167.531 E0.11694
G1 X137.78 Y166.699 E0.09289
G1 X137.193 Y165.822 E0.0916
G1 X136.693 Y164.905 E0.09069
G1 X136.273 Y163.933 E0.09185
G1 X135.944 Y162.932 E0.09149
G1 X135.709 Y161.909 E0.09108
G1 X135.566 Y160.863 E0.0916
G1 X135.517 Y159.763 E0.09558
G1 X135.56 Y117.972 E3.62733
G1 X135.279 Y117.972 E0.02441
G1 X135.279 Y117.591 E0.03309
G1 X134.466 Y117.59 E0.07055
G1 X134.467 Y116.594 E0.08643
G1 X135.467 Y116.595 E0.08674
G1 X135.477 Y109.585 E0.60848
G1 X137.031 Y157.923 F8460
G1 F2400
G1 X137.863 Y159.232 E0.13463
G1 X138.78 Y160.429 E0.13087
G1 X139.798 Y161.542 E0.13088
G1 X140.908 Y162.562 E0.13088
G1 X142.104 Y163.481 E0.13088
G1 X143.375 Y164.293 E0.13088
G1 X144.711 Y164.99 E0.13088
G1 X146.104 Y165.569 E0.13087
G1 X147.541 Y166.024 E0.13088
G1 X149.013 Y166.351 E0.13087
G1 X150.508 Y166.55 E0.13087
G1 X151.949 Y166.614 E0.12519
G1 X181.271 Y166.644 E2.54509
G1 X181.267 Y170.581 E0.34174
G1 X147.173 Y170.542 E2.95929
G1 X146.132 Y170.494 E0.09038
G1 X145.181 Y170.362 E0.08335
G1 X143.948 Y170.055 E0.11027
G1 X143.304 Y169.838 E0.05898
G1 X142.405 Y169.447 E0.08512
G1 X141.552 Y168.98 E0.08444
G1 X140.744 Y168.437 E0.08443
G1 X139.996 Y167.829 E0.08369
G1 X139.108 Y166.941 E0.10903
G1 X138.488 Y166.177 E0.0854
G1 X137.946 Y165.366 E0.08467
G1 X137.484 Y164.519 E0.08376
G1 X137.096 Y163.621 E0.0849
G1 X136.792 Y162.696 E0.08455
G1 X136.574 Y161.751 E0.08414
G1 X136.443 Y160.784 E0.08466
G1 X136.396 Y159.744 E0.09037
G1 X136.398 Y158.107 E0.14211
G1 X136.945 Y157.948 E0.04942
G1 X137.959 Y160.834 F8460
G1 F2400
G1 X139.175 Y162.164 E0.15634
G1 X140.342 Y163.235 E0.13754
G1 X141.598 Y164.201 E0.13754
G1 X142.934 Y165.054 E0.13754
G1 X144.339 Y165.787 E0.13754
G1 X145.802 Y166.395 E0.13753
G1 X147.313 Y166.873 E0.13754
G1 X148.859 Y167.218 E0.13754
G1 X150.43 Y167.426 E0.13754
G1 X151.929 Y167.493 E0.13018
G1 X180.391 Y167.522 E2.47046
G1 X180.389 Y169.701 E0.18913
G1 X147.194 Y169.663 E2.88125
G1 X146.213 Y169.618 E0.08518
G1 X145.348 Y169.498 E0.0758
G1 X144.195 Y169.211 E0.10313
G1 X143.62 Y169.017 E0.05265
G1 X142.792 Y168.657 E0.07838
G1 X142.009 Y168.228 E0.0775
G1 X141.268 Y167.73 E0.07749
G1 X140.586 Y167.175 E0.07632
G1 X139.762 Y166.352 E0.10112
G1 X139.197 Y165.655 E0.07791
G1 X138.698 Y164.91 E0.07774
G1 X138.275 Y164.133 E0.07682
G1 X137.918 Y163.309 E0.07795
G1 X137.64 Y162.459 E0.07761
G1 X137.44 Y161.593 E0.0772
G1 X137.374 Y161.109 E0.0424
G1 X137.878 Y160.873 E0.04829
G1 X140.181 Y164.22 F8460
G1 F2400
G1 X141.093 Y164.922 E0.09986
G1 X142.493 Y165.816 E0.1442
G1 X143.966 Y166.584 E0.1442
G1 X145.5 Y167.222 E0.1442
G1 X147.084 Y167.723 E0.1442
G1 X148.338 Y168.002 E0.11153
G1 X148.252 Y168.786 E0.0684
G1 X147.214 Y168.784 E0.09003
G1 X146.294 Y168.742 E0.07998
G1 X145.515 Y168.634 E0.06824
G1 X144.442 Y168.366 E0.09599
G1 X143.936 Y168.196 E0.04633
G1 X143.179 Y167.867 E0.07164
G1 X142.466 Y167.477 E0.07056
G1 X141.792 Y167.023 E0.07055
G1 X141.175 Y166.522 E0.06896
G1 X140.416 Y165.763 E0.09321
G1 X139.905 Y165.132 E0.07042
G1 X139.636 Y164.731 E0.04197
G1 X140.115 Y164.282 E0.05698
G1 X148.735 Y168.419 F8460
;TYPE:Gap fill
;WIDTH:1.637056
G1 F2880
G1 X149.102 Y168.453 E0.05787
;WIDTH:1.528761
G1 X149.47 Y168.488 E0.05392
G1 X149.886 Y168.515 E0.06077
;WIDTH:1.419904
G1 X150.301 Y168.543 E0.0563
G1 X150.361 Y168.546 E0.00806
G1 X151.125 Y168.563 E0.10334
;WIDTH:1.348174
G1 X151.89 Y168.581 E0.09792
G1 X151.918 Y168.581 E0.00362
G1 X179.301 Y168.611 E3.50739
G1 X179.626 Y168.611 E0.04162
G1 X179.951 Y168.611 E0.04162
G1 X147.429 Y168.298 F8460
;WIDTH:0.156451
G1 F2880
G1 X147.376 Y168.292 E0.00055
G1 X147.302 Y168.284 E0.00079
G1 X147.227 Y168.276 E0.00079
G1 X147.088 Y168.257 E0.00146
;WIDTH:0.237465
G1 X146.941 Y168.237 E0.00272
G1 X146.646 Y168.185 E0.00553
;WIDTH:0.394945
G1 X146.35 Y168.132 E0.0102
G1 X145.997 Y168.052 E0.01231
;WIDTH:0.517354
G1 X145.643 Y167.972 E0.01669
G1 X145.459 Y167.92 E0.0088
G1 X145.275 Y167.869 E0.0088
G1 X145.255 Y167.862 E0.00099
G1 X144.951 Y167.762 E0.01471
;WIDTH:0.63861
G1 X144.648 Y167.662 E0.01854
G1 X144.427 Y167.579 E0.01371
G1 X144.206 Y167.496 E0.01371
G1 X143.663 Y167.265 E0.03424
G1 X143.638 Y167.254 E0.00155
G1 X143.574 Y167.223 E0.00413
G1 X143.51 Y167.192 E0.00413
G1 X143.181 Y167.017 E0.02162
G1 X142.853 Y166.841 E0.02162
G1 X142.531 Y166.65 E0.02171
;WIDTH:0.574639
G1 X142.209 Y166.459 E0.01935
G1 X142.136 Y166.41 E0.00454
G1 X141.876 Y166.222 E0.01662
;WIDTH:0.484304
G1 X141.615 Y166.034 E0.01375
G1 X141.417 Y165.874 E0.01088
;WIDTH:0.411004
G1 X141.219 Y165.715 E0.00904
;WIDTH:0.337704
G1 X141.02 Y165.556 E0.0072
;WIDTH:0.264404
G1 X140.822 Y165.397 E0.00536
G1 X140.78 Y165.359 E0.00117
G1 X140.642 Y165.224 E0.00407
;WIDTH:0.156452
G1 X140.504 Y165.089 E0.00201
G1 X140.466 Y165.053 E0.00055
G1 X139.606 Y164.157 F8460
;WIDTH:1.414733
G1 F2880
G1 X139.574 Y164.116 E0.00694
G1 X139.537 Y164.069 E0.00805
G1 X139.385 Y163.866 E0.03417
;WIDTH:1.207249
G1 X139.227 Y163.656 E0.02999
;WIDTH:1.29937
G1 X139.133 Y163.523 E0.0201
;WIDTH:1.214419
G1 X139.038 Y163.39 E0.01873
;WIDTH:1.129469
G1 X138.944 Y163.257 E0.01736
;WIDTH:1.044518
G1 X138.849 Y163.124 E0.01599
;WIDTH:0.959568
G1 X138.755 Y162.992 E0.01463
G1 X138.679 Y162.874 E0.01251
;WIDTH:0.818684
G1 X138.604 Y162.757 E0.01057
G1 X138.586 Y162.728 E0.00258
G1 X138.519 Y162.614 E0.01005
;WIDTH:0.728556
G1 X138.452 Y162.499 E0.00887
;WIDTH:0.654214
G1 X138.385 Y162.385 E0.0079
;WIDTH:0.579873
G1 X138.318 Y162.27 E0.00693
G1 X138.254 Y162.147 E0.00724
;WIDTH:0.495189
G1 X138.189 Y162.025 E0.00608
;WIDTH:0.410504
G1 X138.125 Y161.902 E0.00492
;WIDTH:0.32582
G1 X138.06 Y161.779 E0.00376
;WIDTH:0.241135
G1 X137.996 Y161.656 E0.0026
;WIDTH:0.156451
G1 X137.931 Y161.533 E0.00144
G1 X137.537 Y160.547 F8460
;WIDTH:1.360565
G1 F2880
G1 X137.508 Y160.481 E0.00926
G1 X137.476 Y160.403 E0.01092
;WIDTH:1.261106
G1 X137.443 Y160.325 E0.01009
;WIDTH:1.186814
G1 X137.411 Y160.247 E0.00947
;WIDTH:1.112523
G1 X137.378 Y160.169 E0.00886
;WIDTH:1.038232
G1 X137.346 Y160.091 E0.00824
G1 X137.313 Y160 E0.00946
;WIDTH:0.96065
G1 X137.28 Y159.909 E0.00872
;WIDTH:0.883069
G1 X137.246 Y159.818 E0.00797
;WIDTH:0.805487
G1 X137.213 Y159.727 E0.00723
G1 X137.198 Y159.678 E0.00379
G1 X137.159 Y159.546 E0.01028
;WIDTH:0.685947
G1 X137.121 Y159.413 E0.00865
;WIDTH:0.597698
G1 X137.082 Y159.281 E0.00745
;WIDTH:0.509449
G1 X137.044 Y159.148 E0.00625
;WIDTH:0.421199
G1 X137.005 Y159.016 E0.00504
;WIDTH:0.33295
G1 X136.967 Y158.883 E0.00384
;WIDTH:0.244701
G1 X136.928 Y158.751 E0.00264
;WIDTH:0.156452
G1 X136.89 Y158.618 E0.00144
G1 X136.875 Y158.568 E0.00055
G1 X136.629 Y157.582 F8460
;WIDTH:1.408724
G1 F2880
G1 X136.601 Y157.48 E0.01423
;WIDTH:1.334536
G1 X136.574 Y157.377 E0.01345
;WIDTH:1.260348
G1 X136.546 Y157.275 E0.01267
;WIDTH:1.18616
G1 X136.518 Y157.173 E0.01189
;WIDTH:1.111972
G1 X136.49 Y157.07 E0.01112
G1 X136.463 Y156.96 E0.01184
;WIDTH:1.040347
G1 X136.437 Y156.851 E0.01104
;WIDTH:0.968721
G1 X136.41 Y156.741 E0.01024
;WIDTH:0.897096
G1 X136.383 Y156.631 E0.00944
G1 X136.375 Y156.594 E0.00313
G1 X136.339 Y156.411 E0.01565
;WIDTH:0.79736
G1 X136.302 Y156.227 E0.0138
;WIDTH:0.713843
G1 X136.266 Y156.043 E0.01226
;WIDTH:0.630326
G1 X136.23 Y155.86 E0.01071
;WIDTH:0.546808
G1 X136.193 Y155.676 E0.00917
;WIDTH:0.463291
G1 X136.157 Y155.492 E0.00763
;WIDTH:0.379773
G1 X136.121 Y155.308 E0.00608
;WIDTH:0.296256
G1 X136.082 Y155.114 E0.0048
G1 X136.049 Y154.893 E0.00542
;WIDTH:0.156451
G1 X136.015 Y154.672 E0.00233
G1 X133.722 Y119.145 F8460
;TYPE:External perimeter
;WIDTH:0.93
G1 F1980
G1 X132.909 Y119.144 E0.07055
G1 X132.913 Y115.037 E0.35651
G1 X133.913 Y115.038 E0.0868
G1 X133.923 Y107.937 E0.61629
G1 X137.037 Y107.94 E0.27028
G1 X137.113 Y107.95 E0.00661
G1 X137.179 Y107.989 E0.00669
G1 X137.218 Y108.056 E0.00669
G1 X137.228 Y108.131 E0.00662
