; generated by SuperSlicer 2.5.59 on 2023-05-06 at 23:35:10 UTC


;
;

;
;
; 

; external perimeters extrusion width = 0.43mm
; perimeters extrusion width = 0.45mm
; infill extrusion width = 0.45mm
; solid infill extrusion width = 0.45mm
; top infill extrusion width = 0.42mm
; support material extrusion width = 0.42mm
; first layer extrusion width = 0.57mm

; object:{"name":"door_hinge_x6","id":"door_hinge_x6.stl id:0 copy 0","object_center":[150.000000,132.000000,0.000000],"boundingbox_center":[150.000000,132.000000,6.500000],"boundingbox_size":[40.000000,27.000000,13.000000]}
EXCLUDE_OBJECT_DEFINE NAME=door_hinge_x6_stl_id_0_copy_0 CENTER=150.000000,132.000000 POLYGON=[[130.000000,120.900000],[130.002320,120.803656],[130.003968,120.774160],[130.006840,120.734840],[130.009280,120.707536],[130.015568,120.651120],[130.020872,120.611864],[130.027280,120.570808],[130.034272,120.531400],[130.037048,120.516864],[130.057768,120.422744],[130.059528,120.415600],[130.061200,120.409024],[130.083024,120.329744],[130.090728,120.304248],[130.108368,120.250600],[130.112720,120.238064],[130.127424,120.197352],[130.146792,120.147912],[130.169144,120.094936],[130.185184,120.059520],[130.215456,119.997000],[130.227768,119.973072],[130.241056,119.948104],[130.265896,119.903552],[130.274472,119.888768],[130.320224,119.814504],[130.325440,119.806440],[130.378040,119.729872],[130.379792,119.727416],[130.421720,119.671576],[130.438168,119.650728],[130.439024,119.649680],[130.500152,119.576944],[130.502808,119.573960],[130.528552,119.545440],[130.565640,119.506224],[130.569048,119.502728],[130.637440,119.435960],[130.645448,119.428552],[130.707976,119.373328],[130.719816,119.363592],[130.771576,119.321720],[130.780520,119.314768],[130.801864,119.298888],[130.854888,119.260240],[130.906096,119.225672],[130.930880,119.209720],[130.974152,119.183368],[131.008304,119.163168],[131.048096,119.141056],[131.063720,119.132816],[131.086976,119.120560],[131.155104,119.087240],[131.166720,119.081864],[131.196608,119.068448],[131.247312,119.047032],[131.282256,119.033384],[131.328704,119.016024],[131.350600,119.008360],[131.398408,118.992720],[131.410920,118.988720],[131.436704,118.981272],[131.493864,118.965096],[131.509032,118.961200],[131.515992,118.959504],[131.527256,118.956936],[131.634640,118.933680],[131.661472,118.928856],[131.670808,118.927280],[131.721696,118.919832],[131.754040,118.915184],[131.759888,118.914512],[131.765720,118.913896],[131.830504,118.907200],[131.834840,118.906832],[131.873872,118.903984],[138.079472,118.507296],[138.200000,118.500000],[161.800000,118.500000],[161.920528,118.507296],[168.122720,118.903720],[168.169424,118.907112],[168.227360,118.912920],[168.233248,118.913528],[168.239120,118.914200],[168.278304,118.919832],[168.338304,118.928608],[168.355136,118.931552],[168.459152,118.953320],[168.470512,118.955856],[168.505792,118.964712],[168.584976,118.987232],[168.588784,118.988328],[168.649392,119.008360],[168.671088,119.015688],[168.698304,119.025768],[168.752624,119.046816],[168.803392,119.068448],[168.833312,119.081760],[168.844896,119.087240],[168.913024,119.120520],[168.951904,119.141056],[168.991648,119.163160],[169.025856,119.183368],[169.069056,119.209672],[169.093904,119.225672],[169.145040,119.260104],[169.198128,119.298888],[169.219392,119.314528],[169.228432,119.321720],[169.291984,119.373040],[169.354576,119.428552],[169.362592,119.435720],[169.431072,119.502664],[169.471456,119.545440],[169.497264,119.573944],[169.499840,119.576944],[169.560976,119.649640],[169.578272,119.671576],[169.620208,119.727416],[169.621952,119.729792],[169.674560,119.806440],[169.679792,119.814296],[169.725520,119.888768],[169.734112,119.903208],[169.758944,119.948104],[169.772240,119.973072],[169.784576,119.996568],[169.814816,120.059520],[169.830800,120.094432],[169.853216,120.147912],[169.872432,120.196848],[169.887280,120.238064],[169.891632,120.250600],[169.909104,120.303864],[169.916976,120.329744],[169.938800,120.409024],[169.942224,120.422744],[169.962960,120.516864],[169.965696,120.531432],[169.972720,120.570808],[169.979136,120.611864],[169.984400,120.651152],[169.990720,120.707536],[169.993168,120.734840],[169.996016,120.774176],[169.997680,120.803656],[170.000000,120.900000],[170.000000,137.428928],[169.993152,137.690608],[169.972608,137.951568],[169.938448,138.211104],[169.890752,138.468496],[169.829616,138.723024],[169.755280,138.974016],[169.667904,139.220768],[169.567712,139.462624],[169.455040,139.698880],[169.330128,139.928928],[169.193360,140.152128],[169.045088,140.367856],[168.885728,140.575536],[168.715728,140.774576],[168.535536,140.964464],[165.464464,144.035536],[165.274576,144.215728],[165.075536,144.385728],[164.867856,144.545088],[164.652128,144.693360],[164.428928,144.830128],[164.198880,144.955040],[163.962624,145.067728],[163.720768,145.167904],[163.474016,145.255280],[163.223024,145.329632],[162.968496,145.390736],[162.711104,145.438448],[162.451568,145.472608],[162.190608,145.493152],[161.928928,145.500000],[138.071072,145.500000],[137.809392,145.493152],[137.548432,145.472608],[137.288896,145.438448],[137.031504,145.390736],[136.776976,145.329632],[136.525984,145.255280],[136.279232,145.167904],[136.037392,145.067728],[135.801120,144.955040],[135.571072,144.830128],[135.347872,144.693360],[135.132144,144.545088],[134.924464,144.385728],[134.725424,144.215728],[134.535536,144.035536],[131.464464,140.964464],[131.284272,140.774576],[131.114272,140.575536],[130.954912,140.367856],[130.806640,140.152128],[130.669880,139.928928],[130.544968,139.698880],[130.432280,139.462624],[130.332096,139.220768],[130.244720,138.974016],[130.170376,138.723024],[130.109256,138.468496],[130.061552,138.211104],[130.027392,137.951568],[130.006848,137.690608],[130.000000,137.428928],[130.000000,120.900000]]
; object:{"name":"door_hinge_x6","id":"door_hinge_x6.stl id:0 copy 1","object_center":[150.000000,165.000000,0.000000],"boundingbox_center":[150.000000,165.000000,6.500000],"boundingbox_size":[40.000000,27.000000,13.000000]}
EXCLUDE_OBJECT_DEFINE NAME=door_hinge_x6_stl_id_0_copy_1 CENTER=150.000000,165.000000 POLYGON=[[130.000000,153.900000],[130.002320,153.803648],[130.003968,153.774176],[130.006840,153.734832],[130.009280,153.707536],[130.015568,153.651120],[130.020872,153.611856],[130.027280,153.570800],[130.034272,153.531408],[130.037048,153.516864],[130.057768,153.422752],[130.059528,153.415600],[130.061200,153.409024],[130.083024,153.329744],[130.090728,153.304240],[130.108368,153.250608],[130.112720,153.238064],[130.127424,153.197360],[130.146792,153.147920],[130.169144,153.094944],[130.185184,153.059504],[130.215456,152.997008],[130.227768,152.973072],[130.241056,152.948112],[130.265896,152.903552],[130.274472,152.888768],[130.320224,152.814512],[130.325440,152.806448],[130.378040,152.729872],[130.379792,152.727424],[130.421720,152.671568],[130.438168,152.650720],[130.439024,152.649696],[130.500152,152.576928],[130.502808,152.573952],[130.528552,152.545440],[130.565640,152.506224],[130.569048,152.502736],[130.637440,152.435952],[130.645448,152.428560],[130.707976,152.373328],[130.719816,152.363584],[130.771576,152.321712],[130.780520,152.314752],[130.801864,152.298896],[130.854888,152.260240],[130.906096,152.225680],[130.930880,152.209712],[130.974152,152.183360],[131.008304,152.163184],[131.048096,152.141056],[131.063720,152.132816],[131.086976,152.120560],[131.155104,152.087248],[131.166720,152.081856],[131.196608,152.068448],[131.247312,152.047024],[131.282256,152.033392],[131.328704,152.016016],[131.350600,152.008368],[131.398408,151.992720],[131.410920,151.988704],[131.436704,151.981264],[131.493864,151.965088],[131.509032,151.961200],[131.515992,151.959504],[131.527256,151.956944],[131.634640,151.933680],[131.661472,151.928864],[131.670808,151.927280],[131.721696,151.919824],[131.754040,151.915200],[131.759888,151.914528],[131.765720,151.913888],[131.830504,151.907200],[131.834840,151.906832],[131.873872,151.904000],[138.079472,151.507296],[138.200000,151.500000],[161.800000,151.500000],[161.920528,151.507296],[168.122720,151.903712],[168.169424,151.907104],[168.227360,151.912912],[168.233248,151.913536],[168.239120,151.914208],[168.278304,151.919824],[168.338304,151.928608],[168.355136,151.931552],[168.459152,151.953312],[168.470512,151.955856],[168.505792,151.964720],[168.584976,151.987232],[168.588784,151.988320],[168.649392,152.008368],[168.671088,152.015680],[168.698304,152.025760],[168.752624,152.046816],[168.803392,152.068448],[168.833312,152.081760],[168.844896,152.087248],[168.913024,152.120512],[168.951904,152.141056],[168.991648,152.163168],[169.025856,152.183360],[169.069056,152.209664],[169.093904,152.225680],[169.145040,152.260096],[169.198128,152.298896],[169.219392,152.314528],[169.228432,152.321712],[169.291984,152.373040],[169.354576,152.428560],[169.362592,152.435728],[169.431072,152.502656],[169.471456,152.545440],[169.497264,152.573952],[169.499840,152.576928],[169.560976,152.649648],[169.561824,152.650720],[169.578272,152.671568],[169.620208,152.727424],[169.621952,152.729792],[169.674560,152.806448],[169.679792,152.814304],[169.725520,152.888768],[169.734112,152.903200],[169.758944,152.948112],[169.772240,152.973072],[169.784576,152.996560],[169.814816,153.059504],[169.830800,153.094416],[169.853216,153.147920],[169.872432,153.196832],[169.887280,153.238064],[169.891632,153.250608],[169.909104,153.303856],[169.916976,153.329744],[169.938800,153.409024],[169.942224,153.422752],[169.962960,153.516864],[169.965696,153.531440],[169.972720,153.570800],[169.979136,153.611856],[169.984400,153.651152],[169.990720,153.707536],[169.993168,153.734832],[169.996016,153.774176],[169.997680,153.803648],[170.000000,153.900000],[170.000000,170.428928],[169.993152,170.690608],[169.972608,170.951568],[169.938448,171.211104],[169.890752,171.468496],[169.829616,171.723024],[169.755280,171.974016],[169.667904,172.220768],[169.567712,172.462624],[169.455040,172.698880],[169.330128,172.928928],[169.193360,173.152128],[169.045088,173.367856],[168.885728,173.575536],[168.715728,173.774576],[168.535536,173.964464],[165.464464,177.035536],[165.274576,177.215728],[165.075536,177.385728],[164.867856,177.545088],[164.652128,177.693360],[164.428928,177.830128],[164.198880,177.955040],[163.962624,178.067728],[163.720768,178.167904],[163.474016,178.255280],[163.223024,178.329632],[162.968496,178.390736],[162.711104,178.438448],[162.451568,178.472608],[162.190608,178.493152],[161.928928,178.500000],[138.071072,178.500000],[137.809392,178.493152],[137.548432,178.472608],[137.288896,178.438448],[137.031504,178.390736],[136.776976,178.329632],[136.525984,178.255280],[136.279232,178.167904],[136.037392,178.067728],[135.801120,177.955040],[135.571072,177.830128],[135.347872,177.693360],[135.132144,177.545088],[134.924464,177.385728],[134.725424,177.215728],[134.535536,177.035536],[131.464464,173.964464],[131.284272,173.774576],[131.114272,173.575536],[130.954912,173.367856],[130.806640,173.152128],[130.669880,172.928928],[130.544968,172.698880],[130.432280,172.462624],[130.332096,172.220768],[130.244720,171.974016],[130.170376,171.723024],[130.109256,171.468496],[130.061552,171.211104],[130.027392,170.951568],[130.006848,170.690608],[130.000000,170.428928],[130.000000,153.900000]]
; plater:{"center":[150.000000,148.500000,0.000000],"boundingbox_center":[150.000000,148.500000,6.500000],"boundingbox_size":[40.000000,60.000000,13.000000]}

;TYPE:Custom
SET_PRINT_STATS_INFO TOTAL_LAYER=65

M104 S0 ; Stops SuperSlicer from sending temp waits separately

M109 S0

M140 S0

print_start EXTRUDER=255 BED=110 CHAMBER=0
M107
G21 ; set units to millimeters
G90 ; use absolute coordinates
M82 ; use absolute distances for extrusion
G92 E0
; Filament gcode
;_TOOLCHANGE 0
M107
;LAYER_CHANGE
;Z:0.2
;HEIGHT:0.2
TIMELAPSE_TAKE_FRAME
;BEFORE_LAYER_CHANGE
;0.2


G1 Z0.2 F12000
SET_PRINT_STATS_INFO CURRENT_LAYER=1
;AFTER_LAYER_CHANGE
;0.2
G1 E-0.7 F3300
G1 Z0.5 F12000
M204 S2000
G1 X128.4 Y118.214
G1 Z0.2
G1 E0 F3000
;TYPE:Skirt
;WIDTH:0.52
G1 F3600
G1 X128.007 Y119.614 E0.05768
G1 X128.04 Y171.079 E2.09924
G1 X128.239 Y172.197 E2.14429
G1 X128.525 Y173.061 E2.1804
G1 X128.883 Y173.81 E2.21333
G1 X129.678 Y174.961 E2.26882
G1 X133.559 Y178.837 E2.4864
G1 X134.268 Y179.365 E2.52147
G1 X135.354 Y179.94 E2.57021
G1 X136.842 Y180.382 E2.63178
G1 X138.071 Y180.493 E2.68075
G1 X161.929 Y180.493 E3.62718
G1 X163.158 Y180.382 E3.67615
G1 X164.184 Y180.116 E3.71816
G1 X164.93 Y179.813 E3.75014
G1 X165.655 Y179.413 E3.78299
G1 X166.39 Y178.881 E3.81898
G1 X170.322 Y174.961 E4.03921
G1 X170.955 Y174.092 E4.08187
G1 X171.493 Y173.021 E4.1294
G1 X171.869 Y171.731 E4.18271
G1 X171.993 Y170.429 E4.23459
G1 X171.993 Y119.614 E6.25037
G1 X171.837 Y118.712 E6.28671
G1 X170.998 Y117.524 E6.34439
G1 X169.663 Y116.946 E6.40207
G1 X161.891 Y115.913 E6.71311
G1 X137.855 Y115.929 E7.66658
G1 X130.339 Y116.946 E7.96749
G1 X129.463 Y117.223 E8.00391
G1 X128.444 Y118.174 E8.05921
G1 X128.875 Y118.358 F12000
G1 F3600
G1 X128.484 Y119.614 E8.11142
G1 X128.517 Y171.051 E10.15189
G1 X128.695 Y172.058 E10.19244
G1 X128.96 Y172.866 E10.22618
G1 X129.291 Y173.562 E10.25675
G1 X130.052 Y174.665 E10.30991
G1 X133.644 Y178.277 E10.51199
G1 X134.515 Y178.957 E10.55583
G1 X135.524 Y179.494 E10.60115
G1 X136.711 Y179.869 E10.65053
G1 X138.071 Y180.016 E10.70481
G1 X161.929 Y180.016 E11.65124
G1 X163.085 Y179.911 E11.6973
G1 X164.014 Y179.67 E11.73534
G1 X164.71 Y179.389 E11.76514
G1 X166.073 Y178.524 E11.82917
G1 X169.948 Y174.665 E12.04612
G1 X170.555 Y173.832 E12.08699
G1 X171.055 Y172.833 E12.13132
G1 X171.402 Y171.631 E12.18094
G1 X171.516 Y170.429 E12.22885
G1 X171.516 Y119.614 E14.24463
G1 X170.792 Y117.976 E14.31569
G1 X169.599 Y117.419 E14.3679
G1 X161.891 Y116.39 E14.67639
G1 X138.201 Y116.384 E15.61617
G1 X130.403 Y117.419 E15.92822
G1 X128.926 Y118.326 E15.99695
G1 X129.35 Y118.519 F12000
G1 F3600
G1 X128.961 Y119.614 E16.04306
G1 X128.993 Y171.024 E18.08243
G1 X129.151 Y171.919 E18.11848
G1 X129.395 Y172.671 E18.14985
G1 X129.699 Y173.314 E18.17807
G1 X130.426 Y174.369 E18.22889
G1 X133.981 Y177.94 E18.42878
G1 X134.762 Y178.549 E18.46808
G1 X135.693 Y179.048 E18.50998
G1 X136.828 Y179.407 E18.55717
G1 X138.071 Y179.539 E18.60678
G1 X161.929 Y179.539 E19.5532
G1 X163.012 Y179.439 E19.59635
G1 X164.49 Y178.966 E19.65792
G1 X165.586 Y178.301 E19.70876
G1 X166.126 Y177.839 E19.73695
G1 X169.574 Y174.369 E19.93102
G1 X170.154 Y173.573 E19.97009
G1 X170.616 Y172.645 E20.01121
G1 X170.936 Y171.532 E20.05716
G1 X171.039 Y170.429 E20.10109
G1 X171.039 Y119.614 E22.11687
G1 X170.568 Y118.425 E22.16763
G1 X169.535 Y117.892 E22.21374
G1 X161.891 Y116.867 E22.51968
G1 X138.2 Y116.861 E23.45946
G1 X130.467 Y117.892 E23.76896
G1 X129.402 Y118.49 E23.81739
M104 S255 ; set temperature
G92 E0
G1 E-0.7 F3300
M204 S6000
G1 Z0.5 F12000
; printing object door_hinge_x6.stl id:0 copy 0
EXCLUDE_OBJECT_START NAME=door_hinge_x6_stl_id_0_copy_0
; acceleration to travel
M204 S7000
G1 X135.364 Y119.885
; decel to extrusion
M204 S1000
G1 X136.216 Y120.084
; end travel
G1 Z0.2
G1 E0 F3000
;TYPE:External perimeter
;WIDTH:0.568
G1 F3600
G1 X136.216 Y129.811 E0.4247
G1 X136.247 Y130.203 E0.44187
G1 X136.29 Y130.415 E0.45128
G1 X136.4 Y130.759 E0.46708
G1 X136.604 Y131.163 E0.48683
G1 X136.848 Y131.493 E0.50475
G1 X137.103 Y131.748 E0.52049
G1 X137.271 Y131.883 E0.52989
G1 X137.615 Y132.097 E0.54762
G1 X138.034 Y132.268 E0.56737
G1 X138.386 Y132.351 E0.58317
G1 X138.6 Y132.377 E0.59258
G1 X149.121 Y132.384 E1.05191
G1 X149.536 Y132.457 E1.07031
G1 X150.004 Y132.484 E1.09078
G1 X150.464 Y132.457 E1.1109
G1 X150.879 Y132.384 E1.12929
G1 X161.211 Y132.384 E1.58041
G1 X161.609 Y132.352 E1.59783
G1 X162.007 Y132.256 E1.61569
G1 X162.341 Y132.118 E1.63149
G1 X162.568 Y131.993 E1.64279
G1 X162.893 Y131.752 E1.66046
G1 X163.152 Y131.493 E1.67646
G1 X163.393 Y131.168 E1.69413
G1 X163.518 Y130.941 E1.70544
G1 X163.656 Y130.607 E1.72123
G1 X163.752 Y130.209 E1.7391
