; generated by SuperSlicer 2.4 on 2023-02-01 at 04:29:15 UTC


;
;

;
;
; 

; external perimeters extrusion width = 0.42mm
; perimeters extrusion width = 0.45mm
; infill extrusion width = 0.45mm
; solid infill extrusion width = 0.45mm
; top infill extrusion width = 0.42mm
; first layer extrusion width = 0.62mm

; external perimeters extrusion width = 0.42mm
; perimeters extrusion width = 0.45mm
; infill extrusion width = 0.45mm
; solid infill extrusion width = 0.45mm
; top infill extrusion width = 0.42mm
; first layer extrusion width = 0.62mm

; external perimeters extrusion width = 0.42mm
; perimeters extrusion width = 0.45mm
; infill extrusion width = 0.45mm
; solid infill extrusion width = 0.45mm
; top infill extrusion width = 0.42mm
; first layer extrusion width = 0.62mm

; external perimeters extrusion width = 0.42mm
; perimeters extrusion width = 0.45mm
; infill extrusion width = 0.45mm
; solid infill extrusion width = 0.45mm
; top infill extrusion width = 0.42mm
; first layer extrusion width = 0.62mm

; external perimeters extrusion width = 0.42mm
; perimeters extrusion width = 0.45mm
; infill extrusion width = 0.45mm
; solid infill extrusion width = 0.45mm
; top infill extrusion width = 0.42mm
; first layer extrusion width = 0.62mm

; external perimeters extrusion width = 0.42mm
; perimeters extrusion width = 0.45mm
; infill extrusion width = 0.45mm
; solid infill extrusion width = 0.45mm
; top infill extrusion width = 0.42mm
; first layer extrusion width = 0.62mm

; external perimeters extrusion width = 0.42mm
; perimeters extrusion width = 0.45mm
; infill extrusion width = 0.45mm
; solid infill extrusion width = 0.45mm
; top infill extrusion width = 0.42mm
; first layer extrusion width = 0.62mm

; external perimeters extrusion width = 0.42mm
; perimeters extrusion width = 0.45mm
; infill extrusion width = 0.45mm
; solid infill extrusion width = 0.45mm
; top infill extrusion width = 0.42mm
; first layer extrusion width = 0.62mm

; external perimeters extrusion width = 0.42mm
; perimeters extrusion width = 0.45mm
; infill extrusion width = 0.45mm
; solid infill extrusion width = 0.45mm
; top infill extrusion width = 0.42mm
; first layer extrusion width = 0.62mm

; external perimeters extrusion width = 0.42mm
; perimeters extrusion width = 0.45mm
; infill extrusion width = 0.45mm
; solid infill extrusion width = 0.45mm
; top infill extrusion width = 0.42mm
; first layer extrusion width = 0.62mm

; object:{"name":"Door_Handle_x1","id":"Door_Handle_x1.STL id:0 copy 0","object_center":[158.204911,165.984198,0.000000],"boundingbox_center":[158.204911,165.984198,5.000000],"boundingbox_size":[104.284271,25.499999,10.000000]}
; object:{"name":"Door_Latch_x2","id":"Door_Latch_x2.STL id:1 copy 0","object_center":[195.694662,105.717774,0.000000],"boundingbox_center":[195.694662,105.717774,4.500000],"boundingbox_size":[18.000000,15.000000,9.000000]}
; object:{"name":"Door_Latch_x2","id":"Door_Latch_x2.STL id:1 copy 1","object_center":[209.890868,178.565527,0.000000],"boundingbox_center":[209.890868,178.565527,4.500000],"boundingbox_size":[18.000000,15.000000,9.000000]}
; object:{"name":"Front_Bottom_Left_Clip_x1","id":"Front_Bottom_Left_Clip_x1.stl id:2 copy 0","object_center":[199.417896,133.225794,0.000000],"boundingbox_center":[199.417896,133.225794,2.412071],"boundingbox_size":[32.835129,30.015890,4.824142]}
; object:{"name":"Front_Bottom_Right_Hinge_x1","id":"Front_Bottom_Right_Hinge_x1.stl id:3 copy 0","object_center":[130.356410,133.227319,0.000000],"boundingbox_center":[130.356410,133.227319,2.412766],"boundingbox_size":[34.334213,30.012295,4.825531]}
; object:{"name":"Front_Top_Left_Clip_x1","id":"Front_Top_Left_Clip_x1.stl id:4 copy 0","object_center":[167.099564,116.729013,0.000000],"boundingbox_center":[167.099564,116.729013,2.454013],"boundingbox_size":[29.207695,63.010155,4.908026]}
; object:{"name":"Front_Top_Right_Hinge_x1","id":"Front_Top_Right_Hinge_x1.stl id:5 copy 0","object_center":[81.996368,183.229724,0.000000],"boundingbox_center":[81.996368,183.229724,2.405221],"boundingbox_size":[30.678253,63.011566,4.810442]}
; object:{"name":"Left_Bottom_Front_Panel_Clip_x1","id":"Left_Bottom_Front_Panel_Clip_x1.stl id:6 copy 0","object_center":[132.550498,96.879366,0.000000],"boundingbox_center":[132.550498,96.879366,2.212067],"boundingbox_size":[30.015884,32.718239,4.424133]}
; object:{"name":"Left_Bottom_Rear_Panel_Clip_x1","id":"Left_Bottom_Rear_Panel_Clip_x1.stl id:7 copy 0","object_center":[93.181847,130.382549,0.000000],"boundingbox_center":[93.181847,130.382549,2.212067],"boundingbox_size":[30.015884,32.718231,4.424133]}
; object:{"name":"Left_Top_Front_Panel_Clip_x1","id":"Left_Top_Front_Panel_Clip_x1.stl id:8 copy 0","object_center":[133.842056,200.107457,0.000000],"boundingbox_center":[133.842056,200.107457,2.214259],"boundingbox_size":[63.012009,32.744595,4.428518]}
; object:{"name":"Left_Top_Rear_Panel_Clip_x1","id":"Left_Top_Rear_Panel_Clip_x1.stl id:9 copy 0","object_center":[201.836757,200.107455,0.000000],"boundingbox_center":[201.836757,200.107455,2.214259],"boundingbox_size":[63.012009,32.744598,4.428518]}
; plater:{"center":[150.000001,148.500000,0.000000],"boundingbox_center":[150.000001,148.500000,5.000000],"boundingbox_size":[166.685520,135.959508,10.000000]}

;TYPE:Custom
M104 S0 ; Stops SuperSlicer from sending temp waits separately


; Pre-Processed for Cancel-Object support by preprocess_cancellation v0.2.0
; 11 known objects
EXCLUDE_OBJECT_DEFINE NAME=Door_Handle_x1_STL_id_0_copy_0 CENTER=158.080,167.572 POLYGON=[[106.278,153.444],[106.278,178.524],[210.132,178.524],[210.132,153.444]]
EXCLUDE_OBJECT_DEFINE NAME=Left_Top_Front_Panel_Clip_x1_stl_id_8_copy_0 CENTER=130.770,197.459 POLYGON=[[102.546,183.947],[102.546,216.235],[165.138,216.235],[165.138,183.947]]
EXCLUDE_OBJECT_DEFINE NAME=Front_Top_Right_Hinge_x1_stl_id_5_copy_0 CENTER=87.852,178.728 POLYGON=[[67.044,151.934],[67.044,214.525],[97.122,214.525],[97.122,151.934]]
EXCLUDE_OBJECT_DEFINE NAME=Left_Bottom_Rear_Panel_Clip_x1_stl_id_7_copy_0 CENTER=94.389,131.215 POLYGON=[[78.384,114.282],[78.384,146.503],[107.979,146.503],[107.979,114.282]]
EXCLUDE_OBJECT_DEFINE NAME=Front_Bottom_Right_Hinge_x1_stl_id_3_copy_0 CENTER=134.054,133.941 POLYGON=[[113.401,118.431],[113.401,148.023],[147.31,148.023],[147.31,118.431]]
EXCLUDE_OBJECT_DEFINE NAME=Left_Bottom_Front_Panel_Clip_x1_stl_id_6_copy_0 CENTER=133.834,95.840 POLYGON=[[117.753,80.784],[117.753,112.98],[147.348,112.98],[147.348,80.784]]
EXCLUDE_OBJECT_DEFINE NAME=Front_Top_Left_Clip_x1_stl_id_4_copy_0 CENTER=162.162,115.740 POLYGON=[[152.806,85.434],[152.806,148.024],[181.419,148.024],[181.419,85.434]]
EXCLUDE_OBJECT_DEFINE NAME=Door_Latch_x2_STL_id_1_copy_0 CENTER=195.744,104.296 POLYGON=[[186.905,98.428],[186.905,113.008],[204.485,113.008],[204.485,98.428]]
EXCLUDE_OBJECT_DEFINE NAME=Front_Bottom_Left_Clip_x1_stl_id_2_copy_0 CENTER=196.790,135.599 POLYGON=[[183.239,118.428],[183.239,148.023],[215.624,148.023],[215.624,118.428]]
EXCLUDE_OBJECT_DEFINE NAME=Door_Latch_x2_STL_id_1_copy_1 CENTER=209.942,177.149 POLYGON=[[201.101,171.276],[201.101,185.856],[218.681,185.856],[218.681,171.276]]
EXCLUDE_OBJECT_DEFINE NAME=Left_Top_Rear_Panel_Clip_x1_stl_id_9_copy_0 CENTER=198.614,202.802 POLYGON=[[170.541,183.988],[170.541,216.268],[233.133,216.268],[233.133,183.988]]

M140 S0

print_start EXTRUDER=248 BED=105 CHAMBER=0
M107
G21 ; set units to millimeters
G90 ; use absolute coordinates
M83 ; use relative distances for extrusion
; Filament gcode
;_TOOLCHANGE 0
M107
;LAYER_CHANGE
;Z:0.2
;HEIGHT:0.2
TIMELAPSE_TAKE_FRAME
;BEFORE_LAYER_CHANGE
;0.2


G1 E-0.4 F2400
G1 Z0.3 F9000
TIMELAPSE_TAKE_FRAME
;BEFORE_LAYER_CHANGE
;0.2
G92 E0
G1 Z0.5
G1 X106.826 Y87.882
G1 Z0.2
G1 E0.4 F2280
;TYPE:Skirt
;WIDTH:0.52
G1 F1950
G1 X75.184 Y126.344 E1.97575
G1 X74.888 Y126.853 E0.02336
G1 X63.572 Y153.523 E1.14925
G1 X63.386 Y154.442 E0.03719
G1 X63.402 Y171.341 E0.67039
G1 X63.496 Y171.998 E0.02633
G1 X74.717 Y210.34 E1.58478
G1 X75.311 Y211.34 E0.04615
G1 X80.958 Y216.985 E0.31675
G1 X82.585 Y217.672 E0.07006
G1 X170.248 Y218.866 E3.47784
G1 X234.33 Y218.926 E2.5421
G1 X235.244 Y218.742 E0.03698
G1 X236.288 Y217.877 E0.05377
G1 X236.679 Y216.579 E0.05377
G1 X236.679 Y203.067 E0.53603
G1 X236.602 Y202.47 E0.02385
G1 X208.588 Y95.821 E4.37424
G1 X208.261 Y95.101 E0.03136
G1 X207.21 Y94.246 E0.05377
G1 X181.089 Y83.523 E1.1201
G1 X180.569 Y83.377 E0.02142
G1 X147.982 Y78.154 E1.3092
G1 X131.303 Y78.109 E0.66165
G1 X115.987 Y78.095 E0.60757
G1 X115.301 Y78.197 E0.02754
G1 X114.173 Y78.95 E0.05377
G1 X106.864 Y87.835 E0.45642
G1 X107.232 Y88.138 F9000
G1 F1950
G1 X75.563 Y126.634 E1.97746
G1 X75.327 Y127.04 E0.01861
G1 X64.012 Y153.709 E1.14925
G1 X63.863 Y154.441 E0.02963
G1 X63.879 Y171.341 E0.67039
G1 X63.954 Y171.864 E0.02098
G1 X75.175 Y210.206 E1.58478
G1 X75.648 Y211.003 E0.03677
G1 X81.296 Y216.648 E0.31675
G1 X82.592 Y217.195 E0.05582
G1 X170.248 Y218.389 E3.4776
G1 X234.331 Y218.449 E2.5421
G1 X235.813 Y217.721 E0.0655
G1 X236.202 Y216.579 E0.04786
G1 X236.202 Y203.067 E0.53603
G1 X236.141 Y202.592 E0.019
G1 X208.127 Y95.942 E4.37424
G1 X207.028 Y94.687 E0.06615
G1 X180.494 Y83.848 E1.13705
G1 X147.907 Y78.625 E1.3092
G1 X131.303 Y78.586 E0.65867
G1 X115.987 Y78.572 E0.60757
G1 X114.542 Y79.253 E0.06337
G1 X107.27 Y88.092 E0.45403
G1 X107.639 Y88.395 F9000
G1 F1950
G1 X75.942 Y126.924 E1.97916
G1 X64.451 Y153.896 E1.16301
G1 X64.34 Y154.441 E0.02207
G1 X64.356 Y171.34 E0.67039
G1 X64.412 Y171.73 E0.01563
G1 X75.633 Y210.072 E1.58478
G1 X75.985 Y210.666 E0.02739
G1 X81.633 Y216.31 E0.31675
G1 X82.598 Y216.718 E0.04157
G1 X170.249 Y217.912 E3.47736
G1 X234.331 Y217.972 E2.5421
G1 X235.34 Y217.541 E0.0435
G1 X235.725 Y216.579 E0.04111
G1 X235.679 Y202.713 E0.55007
G1 X207.665 Y96.063 E4.37424
G1 X206.847 Y95.128 E0.04927
G1 X180.418 Y84.319 E1.13273
G1 X147.831 Y79.096 E1.3092
G1 X131.302 Y79.063 E0.65569
G1 X115.986 Y79.049 E0.60757
G1 X114.91 Y79.557 E0.0472
G1 X107.677 Y88.349 E0.45164
G1 X108.045 Y88.652 F9000
G1 F1950
G1 X76.321 Y127.214 E1.98087
G1 X64.89 Y154.082 E1.15829
G1 X64.817 Y154.441 E0.01451
G1 X64.87 Y171.596 E0.68056
G1 X76.091 Y209.938 E1.58478
G1 X76.323 Y210.328 E0.01801
G1 X81.97 Y215.973 E0.31675
G1 X82.605 Y216.241 E0.02733
G1 X170.249 Y217.435 E3.47712
G1 X234.332 Y217.495 E2.5421
G1 X234.87 Y217.32 E0.02245
G1 X235.248 Y216.579 E0.03301
G1 X235.218 Y202.834 E0.54526
G1 X207.204 Y96.184 E4.37424
G1 X206.666 Y95.57 E0.03239
G1 X180.343 Y84.79 E1.1284
G1 X147.756 Y79.567 E1.3092
G1 X131.302 Y79.54 E0.65271
G1 X115.986 Y79.526 E0.60757
G1 X115.278 Y79.86 E0.03103
G1 X108.083 Y88.606 E0.44926
G1 X108.452 Y88.909 F9000
G1 F1950
G1 X76.7 Y127.504 E1.98258
G1 X65.329 Y154.268 E1.15358
G1 X65.328 Y171.462 E0.68207
G1 X76.549 Y209.804 E1.58478
G1 X76.66 Y209.991 E0.00862
G1 X82.307 Y215.635 E0.31675
G1 X82.611 Y215.764 E0.01309
G1 X170.244 Y216.958 E3.47666
G1 X234.332 Y217.018 E2.54232
G1 X234.771 Y216.579 E0.02461
G1 X234.757 Y202.955 E0.54045
G1 X206.743 Y96.305 E4.37424
G1 X206.485 Y96.011 E0.01551
G1 X180.267 Y85.261 E1.12408
G1 X147.68 Y80.038 E1.3092
G1 X131.301 Y80.018 E0.64974
G1 X115.985 Y80.003 E0.60757
G1 X115.647 Y80.163 E0.01486
G1 X108.49 Y88.862 E0.44687
G1 E-0.4 F2400
G1 Z0.5 F9000
G1 X171.485 Y186.556
G1 Z0.2
G1 E0.4 F2280
;WIDTH:0.62
G1 F1950
G1 X171.802 Y186.425 E0.01646
G1 X171.914 Y186.403 E0.00545
G1 X172.694 Y186.403 E0.03743
G1 X189.467 Y186.419 E0.80485
G1 X189.744 Y186.474 E0.01358
G1 X190.008 Y186.584 E0.01367
G1 X190.243 Y186.741 E0.01358
G1 X200.945 Y197.449 E0.72647
G1 X227.642 Y197.474 E1.28103
G1 X227.92 Y197.529 E0.01358
G1 X228.183 Y197.639 E0.01367
G1 X228.418 Y197.796 E0.01358
G1 X233.554 Y202.934 E0.34859
G1 X233.711 Y203.17 E0.01359
G1 X233.82 Y203.433 E0.01368
G1 X233.875 Y203.711 E0.01359
G1 X233.875 Y214.969 E0.54021
G1 X233.853 Y215.08 E0.00546
G1 X233.721 Y215.398 E0.01648
G1 X233.658 Y215.492 E0.00546
G1 X233.246 Y215.904 E0.02796
G1 X233.151 Y215.967 E0.00546
G1 X232.834 Y216.098 E0.01648
G1 X232.722 Y216.12 E0.00546
G1 X171.861 Y216.064 E2.9204
G1 X171.749 Y216.042 E0.00546
G1 X171.432 Y215.91 E0.01648
G1 X171.338 Y215.846 E0.00546
G1 X170.926 Y215.434 E0.02796
G1 X170.863 Y215.339 E0.00546
G1 X170.732 Y215.022 E0.01648
G1 X170.71 Y214.91 E0.00546
G1 X170.761 Y187.552 E1.31276
G1 X170.784 Y187.441 E0.00545
G1 X170.915 Y187.124 E0.01646
G1 X170.979 Y187.03 E0.00545
G1 X171.391 Y186.619 E0.02792
G1 X171.435 Y186.589 E0.00257
G1 X171.758 Y187.067 F9000
G1 F1950
G1 X171.97 Y186.98 E0.01101
G1 X172.693 Y186.981 E0.03471
G1 X189.438 Y186.996 E0.80349
G1 X189.549 Y187.018 E0.00545
G1 X189.76 Y187.106 E0.01095
G1 X189.855 Y187.169 E0.00545
G1 X200.706 Y198.026 E0.73657
G1 X227.613 Y198.051 E1.29113
G1 X227.725 Y198.073 E0.00545
G1 X227.936 Y198.161 E0.01095
G1 X228.03 Y198.224 E0.00545
G1 X233.125 Y203.322 E0.34587
G1 X233.189 Y203.417 E0.00545
G1 X233.276 Y203.628 E0.01096
G1 X233.298 Y203.739 E0.00545
G1 X233.298 Y214.912 E0.53612
G1 X233.21 Y215.124 E0.01102
G1 X232.878 Y215.455 E0.0225
G1 X232.666 Y215.543 E0.01102
G1 X171.918 Y215.487 E2.91494
G1 X171.706 Y215.399 E0.01102
G1 X171.375 Y215.067 E0.0225
G1 X171.288 Y214.854 E0.01102
G1 X171.338 Y187.61 E1.3073
G1 X171.426 Y187.398 E0.01101
G1 X171.715 Y187.11 E0.01959
G1 X172.084 Y187.557 F9000
G1 F1950
G1 X172.693 Y187.558 E0.0292
G1 X189.381 Y187.573 E0.80076
G1 X189.487 Y187.617 E0.0055
G1 X200.467 Y198.603 E0.7453
G1 X227.556 Y198.628 E1.29987
G1 X227.662 Y198.672 E0.0055
G1 X232.677 Y203.69 E0.34042
G1 X232.721 Y203.796 E0.00551
G1 X232.721 Y214.797 E0.52788
G1 X232.552 Y214.966 E0.01148
G1 X172.034 Y214.91 E2.90392
G1 X171.865 Y214.74 E0.01148
G1 X171.915 Y187.726 E1.29629
G1 X172.042 Y187.599 E0.00858
G1 E-0.4 F2400
G1 Z0.5 F9000
G1 X97.61 Y183.515
G1 Z0.2
G1 E0.4 F2280
G1 F1950
G1 X97.588 Y183.626 E0.00545
G1 X97.457 Y183.944 E0.01647
G1 X97.394 Y184.038 E0.00545
G1 X96.983 Y184.45 E0.02794
G1 X96.888 Y184.514 E0.00545
G1 X96.571 Y184.645 E0.01647
G1 X96.46 Y184.667 E0.00545
G1 X93.378 Y184.67 E0.1479
G1 X93.405 Y213.715 E1.3937
G1 X93.383 Y213.827 E0.00546
G1 X93.251 Y214.144 E0.01648
G1 X93.188 Y214.239 E0.00546
G1 X92.776 Y214.651 E0.02796
G1 X92.682 Y214.714 E0.00546
G1 X92.365 Y214.846 E0.01648
G1 X92.253 Y214.868 E0.00546
G1 X83.262 Y214.868 E0.43145
G1 X83.038 Y214.829 E0.01088
G1 X82.72 Y214.704 E0.01639
G1 X82.485 Y214.546 E0.01359
G1 X77.748 Y209.812 E0.32134
G1 X77.591 Y209.577 E0.01358
G1 X77.482 Y209.314 E0.01367
G1 X77.432 Y209.093 E0.01088
G1 X77.402 Y182.339 E1.28374
G1 X66.527 Y171.471 E0.73775
G1 X66.37 Y171.236 E0.01358
G1 X66.244 Y170.918 E0.01638
G1 X66.205 Y170.695 E0.01088
G1 X66.191 Y155.083 E0.74913
G1 X66.229 Y154.86 E0.01087
G1 X66.354 Y154.542 E0.01637
G1 X66.511 Y154.307 E0.01357
G1 X67.935 Y152.878 E0.09678
G1 X68.17 Y152.72 E0.01358
G1 X68.433 Y152.61 E0.01367
G1 X68.654 Y152.56 E0.01088
G1 X90.413 Y152.503 E1.04413
G1 X90.473 Y152.434 E0.00439
G1 X90.551 Y152.3 E0.00743
G1 X90.623 Y152.111 E0.00973
G1 X90.673 Y151.88 E0.01131
G1 X90.711 Y151.349 E0.02557
G1 X90.739 Y151.244 E0.0052
G1 X90.88 Y150.949 E0.01569
G1 X90.945 Y150.862 E0.0052
G1 X91.35 Y150.484 E0.02657
G1 X91.442 Y150.426 E0.0052
G1 X91.746 Y150.307 E0.01569
G1 X91.852 Y150.286 E0.0052
G1 X96.428 Y150.282 E0.21957
G1 X96.54 Y150.304 E0.00545
G1 X96.857 Y150.435 E0.01647
G1 X96.951 Y150.498 E0.00545
G1 X97.364 Y150.91 E0.02794
G1 X97.427 Y151.004 E0.00545
G1 X97.558 Y151.321 E0.01647
G1 X97.581 Y151.433 E0.00545
G1 X97.61 Y183.455 E1.53657
G1 X97.033 Y183.455 F9000
G1 F1950
G1 X96.946 Y183.671 E0.01116
G1 X96.615 Y184.002 E0.02249
G1 X96.403 Y184.09 E0.01102
G1 X92.8 Y184.094 E0.17286
G1 X92.828 Y213.659 E1.41866
G1 X92.74 Y213.871 E0.01102
G1 X92.408 Y214.203 E0.0225
G1 X92.196 Y214.291 E0.01102
G1 X83.29 Y214.291 E0.42736
G1 X83.178 Y214.269 E0.00545
G1 X82.967 Y214.181 E0.01096
G1 X82.873 Y214.118 E0.00545
G1 X78.176 Y209.424 E0.31862
G1 X78.113 Y209.33 E0.00545
G1 X78.026 Y209.119 E0.01095
G1 X78.004 Y209.007 E0.00545
G1 X77.979 Y182.1 E1.29113
