; generated by SuperSlicer 2.5.59 on 2023-03-22 at 15:19:22 UTC


;
;

;
;
; 

; external perimeters extrusion width = 0.67mm
; perimeters extrusion width = 0.68mm
; infill extrusion width = 0.68mm
; solid infill extrusion width = 0.68mm
; top infill extrusion width = 0.67mm
; support material extrusion width = 0.60mm
; first layer extrusion width = 0.90mm

; object:{"name":"Drawer","id":"Drawer.stl id:0 copy 0","object_center":[115.000001,148.500000,0.000000],"boundingbox_center":[115.000001,148.500000,14.500000],"boundingbox_size":[29.000000,60.000000,29.000000]}
EXCLUDE_OBJECT_DEFINE NAME=Drawer_stl_id_0_copy_0 CENTER=115.000001,148.500000 POLYGON=[[100.500000,119.356320],[100.512608,119.231896],[100.527448,119.157560],[100.551272,119.084976],[100.583832,119.014840],[100.611064,118.969312],[100.666592,118.883336],[100.714832,118.825560],[100.769360,118.771928],[100.829680,118.722840],[100.895256,118.678704],[100.933968,118.652944],[101.001568,118.615312],[101.072936,118.583192],[101.147568,118.556856],[101.224840,118.536440],[101.258496,118.528528],[101.379824,118.507232],[101.510344,118.500000],[128.489656,118.500000],[128.577224,118.503368],[128.657272,118.512104],[128.736040,118.527224],[128.769320,118.535152],[128.851440,118.556552],[128.953920,118.594424],[129.023960,118.628624],[129.090024,118.668232],[129.129624,118.694456],[129.193312,118.740472],[129.251544,118.791288],[129.303800,118.846504],[129.349576,118.905720],[129.388472,118.968472],[129.415712,119.014000],[129.446728,119.079968],[129.480592,119.191952],[129.485304,119.227584],[129.500000,119.356320],[129.500000,178.500000],[100.500000,178.500000],[100.500000,119.356320]]
; object:{"name":"Drawer","id":"Drawer.stl id:0 copy 1","object_center":[150.000001,148.500000,0.000000],"boundingbox_center":[150.000001,148.500000,14.500000],"boundingbox_size":[29.000000,60.000000,29.000000]}
EXCLUDE_OBJECT_DEFINE NAME=Drawer_stl_id_0_copy_1 CENTER=150.000001,148.500000 POLYGON=[[135.500000,119.356320],[135.512608,119.231896],[135.527456,119.157560],[135.551264,119.084976],[135.583840,119.014840],[135.611056,118.969312],[135.666592,118.883336],[135.714832,118.825560],[135.769360,118.771928],[135.829680,118.722840],[135.895248,118.678704],[135.933968,118.652944],[136.001568,118.615312],[136.072944,118.583192],[136.147568,118.556856],[136.224832,118.536440],[136.258496,118.528528],[136.379824,118.507232],[136.510352,118.500000],[163.489648,118.500000],[163.577232,118.503368],[163.657280,118.512104],[163.736032,118.527224],[163.769312,118.535152],[163.851440,118.556552],[163.953920,118.594424],[164.023952,118.628624],[164.090032,118.668232],[164.129616,118.694456],[164.193312,118.740472],[164.251536,118.791288],[164.303808,118.846504],[164.349584,118.905720],[164.388480,118.968472],[164.415712,119.014000],[164.446736,119.079968],[164.480592,119.191952],[164.485312,119.227584],[164.500000,119.356320],[164.500000,178.500000],[135.500000,178.500000],[135.500000,119.356320]]
; object:{"name":"Drawer","id":"Drawer.stl id:0 copy 2","object_center":[185.000001,148.500001,0.000000],"boundingbox_center":[185.000001,148.500001,14.500000],"boundingbox_size":[29.000000,60.000000,29.000000]}
EXCLUDE_OBJECT_DEFINE NAME=Drawer_stl_id_0_copy_2 CENTER=185.000001,148.500001 POLYGON=[[170.500000,119.356320],[170.512608,119.231896],[170.527456,119.157560],[170.551264,119.084976],[170.583840,119.014840],[170.611056,118.969312],[170.666592,118.883336],[170.714832,118.825560],[170.769360,118.771928],[170.829680,118.722840],[170.895248,118.678704],[170.933968,118.652944],[171.001568,118.615312],[171.072944,118.583192],[171.147568,118.556856],[171.224832,118.536440],[171.258496,118.528528],[171.379824,118.507232],[171.510352,118.500000],[198.489648,118.500000],[198.577232,118.503368],[198.657280,118.512104],[198.736032,118.527224],[198.769312,118.535152],[198.851440,118.556552],[198.953920,118.594424],[199.023952,118.628624],[199.090032,118.668232],[199.129616,118.694456],[199.193312,118.740472],[199.251536,118.791288],[199.303808,118.846504],[199.349584,118.905720],[199.388480,118.968472],[199.415712,119.014000],[199.446736,119.079968],[199.480592,119.191952],[199.485312,119.227584],[199.500000,119.356320],[199.500000,178.500000],[170.500000,178.500000],[170.500000,119.356320]]
; plater:{"center":[150.000001,148.500000,0.000000],"boundingbox_center":[150.000001,148.500000,14.500000],"boundingbox_size":[99.000000,60.000001,29.000000]}

;TYPE:Custom
SET_PRINT_STATS_INFO TOTAL_LAYER=133

M104 S0 ; Stops SuperSlicer from sending temp waits separately

M109 S0

M140 S0

print_start EXTRUDER=255 BED=108 CHAMBER=0
G21 ; set units to millimeters
G90 ; use absolute coordinates
M82 ; use absolute distances for extrusion
G92 E0
; Filament gcode
;_TOOLCHANGE 0
M107
;LAYER_CHANGE
;Z:0.21875
;HEIGHT:0.21875
TIMELAPSE_TAKE_FRAME
;BEFORE_LAYER_CHANGE
;0.21875


G1 E-0.8 F2100
G1 Z0.2 F9000
G1 Z0.21875
SET_PRINT_STATS_INFO CURRENT_LAYER=1
;AFTER_LAYER_CHANGE
;0.21875
G92 E0
M204 S1500
G1 Z0.41875
G1 X97.309 Y118.921
G1 Z0.21875
G1 E0.8 F2100
;TYPE:Skirt
;WIDTH:0.81
G1 X96.248 Y119.896 E0.89997
G1 X95.856 Y121.282 E0.99995
G1 X95.856 Y180.5 E5.10947
G1 X96.139 Y181.691 E5.19442
G1 X97.114 Y182.752 E5.29439
G1 X98.5 Y183.144 E5.39437
G1 X201.5 Y183.144 E12.54222
G1 X202.691 Y182.861 E12.62717
G1 X203.752 Y181.886 E12.72715
G1 X204.144 Y180.5 E12.82712
G1 X204.144 Y121.282 E16.93664
G1 X203.861 Y120.091 E17.02159
G1 X202.886 Y119.03 E17.12157
G1 X201.5 Y118.638 E17.22154
G1 X98.5 Y118.638 E24.36939
G1 X97.397 Y118.901 E24.4481
G1 X97.811 Y119.741 F9000
G1 F2100
G1 X97.008 Y120.136 E24.5102
G1 X96.619 Y121.282 E24.5942
G1 X96.619 Y180.5 E28.70372
G1 X97.354 Y181.992 E28.81915
G1 X98.5 Y182.381 E28.90315
G1 X201.5 Y182.381 E36.051
G1 X202.992 Y181.646 E36.16644
G1 X203.381 Y180.5 E36.25044
G1 X203.381 Y121.282 E40.35996
G1 X202.646 Y119.79 E40.47539
G1 X201.5 Y119.401 E40.55939
G1 X98.5 Y119.401 E47.70724
G1 X97.891 Y119.701 E47.75433
G92 E0
G1 E-0.8
G1 Z0.41875 F9000
G1 X169.221 Y122.936
G1 Z0.21875
G1 E0 F2100
;WIDTH:0.9
;HEIGHT:0.22
G1 X169.351 Y122.622 E0.02646
G1 X169.84 Y122.133 E0.08048
G1 X170.154 Y122.003 E0.10694
G1 X199.846 Y122.003 E2.42297
G1 X200.16 Y122.133 E2.44943
G1 X200.649 Y122.622 E2.50345
G1 X200.779 Y122.936 E2.52991
G1 X200.779 Y178.846 E6.89095
G1 X200.649 Y179.16 E6.91741
G1 X200.16 Y179.649 E6.97143
G1 X199.846 Y179.779 E6.99789
G1 X170.154 Y179.779 E9.31392
G1 X169.84 Y179.649 E9.34039
G1 X169.351 Y179.16 E9.3944
G1 X169.221 Y178.846 E9.42086
G1 X169.221 Y123.026 E13.77488
G1 X170.074 Y123.106 F9000
G1 F2100
G1 X170.323 Y122.856 E13.80243
G1 X199.677 Y122.856 E16.092
G1 X199.926 Y123.106 E16.11956
G1 X199.926 Y178.677 E20.45413
G1 X199.677 Y178.926 E20.48169
G1 X170.323 Y178.926 E22.77126
G1 X170.074 Y178.677 E22.79881
G1 X170.074 Y123.196 E27.12637
G92 E0
G1 E-0.8
G1 Z0.41875 F9000
G1 X165.779 Y123.196
G1 Z0.21875
G1 E0 F2100
G1 X165.779 Y178.846 E4.34079
G1 X165.649 Y179.16 E4.36725
G1 X165.16 Y179.649 E4.42127
G1 X164.846 Y179.779 E4.44773
G1 X135.154 Y179.779 E6.76376
G1 X134.84 Y179.649 E6.79022
G1 X134.351 Y179.16 E6.84424
G1 X134.221 Y178.846 E6.8707
G1 X134.221 Y122.936 E11.23174
G1 X134.351 Y122.622 E11.2582
G1 X134.84 Y122.133 E11.31222
G1 X135.154 Y122.003 E11.33868
G1 X164.846 Y122.003 E13.65471
G1 X165.16 Y122.133 E13.68117
G1 X165.649 Y122.622 E13.73519
G1 X165.779 Y122.936 E13.76165
G1 X165.779 Y123.106 E13.77488
G1 X164.926 Y123.106 F9000
G1 F2100
G1 X164.926 Y178.677 E18.10946
G1 X164.677 Y178.926 E18.13701
G1 X135.323 Y178.926 E20.42658
G1 X135.074 Y178.677 E20.45413
G1 X135.074 Y123.106 E24.78871
G1 X135.323 Y122.856 E24.81626
G1 X164.677 Y122.856 E27.10583
G1 X164.863 Y123.042 E27.12636
G92 E0
G1 E-0.8
G1 Z0.41875 F9000
G1 X130.779 Y123.042
G1 Z0.21875
G1 E0 F2100
G1 X130.779 Y178.846 E4.35277
G1 X130.649 Y179.16 E4.37923
G1 X130.16 Y179.649 E4.43325
G1 X129.846 Y179.779 E4.45971
G1 X100.154 Y179.779 E6.77574
G1 X99.84 Y179.649 E6.80221
G1 X99.351 Y179.16 E6.85622
G1 X99.221 Y178.846 E6.88268
G1 X99.221 Y122.936 E11.24372
G1 X99.351 Y122.622 E11.27019
G1 X99.84 Y122.133 E11.3242
G1 X100.154 Y122.003 E11.35066
G1 X129.846 Y122.003 E13.66669
G1 X130.16 Y122.133 E13.69316
G1 X130.649 Y122.622 E13.74717
G1 X130.779 Y122.936 E13.77363
G1 X130.779 Y122.952 E13.77488
G1 X129.926 Y123.106 F9000
G1 F2100
G1 X129.926 Y178.677 E18.10946
G1 X129.677 Y178.926 E18.13701
G1 X100.323 Y178.926 E20.42658
G1 X100.074 Y178.677 E20.45413
G1 X100.074 Y123.106 E24.78871
G1 X100.323 Y122.856 E24.81626
G1 X129.677 Y122.856 E27.10583
G1 X129.863 Y123.042 E27.12637
M104 S255 ; set temperature
; printing object Drawer.stl id:0 copy 0
EXCLUDE_OBJECT_START NAME=Drawer_stl_id_0_copy_0
G1 X129.05 Y123.732 F9000
;TYPE:External perimeter
;HEIGHT:0.21875
G1 F2400
G1 X129.05 Y178.05 E31.34044
G1 X100.95 Y178.05 E33.52049
G1 X100.95 Y123.732 E37.73456
G1 X128.96 Y123.732 E39.90763
;WIPE_START
G1 X128.75 Y124.252 F9000
;WIPE_END
G1 X128.197 Y124.585
;TYPE:Internal perimeter
G1 F2400
G1 X128.197 Y177.197 E43.98934
G1 X101.803 Y177.197 E46.03702
G1 X101.803 Y124.585 E50.11873
G1 X128.107 Y124.585 E52.15943
G1 X127.344 Y125.438 F9000
G1 F2400
G1 X127.344 Y176.344 E56.10878
G1 X102.656 Y176.344 E58.0241
G1 X102.656 Y125.438 E61.97345
G1 X127.254 Y125.438 E63.88179
G1 X127.131 Y127.376 F9000
;TYPE:Solid infill
G1 F2400
G1 X125.773 Y126.018 E64.03074
G1 X124.567 Y126.018 E64.12433
G1 X126.764 Y128.215 E64.3654
G1 X126.764 Y129.422 E64.45899
G1 X123.36 Y126.018 E64.83242
G1 X122.154 Y126.018 E64.92601
G1 X126.764 Y130.628 E65.4318
G1 X126.764 Y131.835 E65.5254
G1 X120.947 Y126.018 E66.16355
G1 X119.741 Y126.018 E66.25715
G1 X126.764 Y133.041 E67.02766
G1 X126.764 Y134.247 E67.12126
G1 X118.535 Y126.018 E68.02414
G1 X117.328 Y126.018 E68.11773
G1 X126.764 Y135.454 E69.15297
G1 X126.764 Y136.66 E69.24657
G1 X116.122 Y126.018 E70.41417
G1 X114.915 Y126.018 E70.50777
G1 X126.764 Y137.867 E71.80774
G1 X126.764 Y139.073 E71.90133
G1 X113.709 Y126.018 E73.33366
G1 X112.503 Y126.018 E73.42726
G1 X126.764 Y140.279 E74.99195
G1 X126.764 Y141.486 E75.08554
G1 X111.296 Y126.018 E76.7826
G1 X110.09 Y126.018 E76.8762
G1 X126.764 Y142.692 E78.70562
G1 X126.764 Y143.899 E78.79921
G1 X108.883 Y126.018 E80.76099
G1 X107.677 Y126.018 E80.85459
G1 X126.764 Y145.105 E82.94874
G1 X126.764 Y146.311 E83.04233
G1 X106.471 Y126.018 E85.26884
G1 X105.264 Y126.018 E85.36243
G1 X126.764 Y147.518 E87.72131
G1 X126.764 Y148.724 E87.8149
G1 X104.058 Y126.018 E90.30614
G1 X103.236 Y126.018 E90.36988
G1 X103.236 Y126.403 E90.39973
G1 X126.764 Y149.931 E92.98112
G1 X126.764 Y151.137 E93.07471
G1 X103.236 Y127.609 E95.6561
G1 X103.236 Y128.816 E95.7497
G1 X126.764 Y152.343 E98.33109
G1 X126.764 Y153.55 E98.42468
G1 X103.236 Y130.022 E101.00607
G1 X103.236 Y131.229 E101.09966
G1 X126.764 Y154.756 E103.68105
G1 X126.764 Y155.963 E103.77465
G1 X103.236 Y132.435 E106.35604
G1 X103.236 Y133.641 E106.44963
G1 X126.764 Y157.169 E109.03102
G1 X126.764 Y158.375 E109.12461
G1 X103.236 Y134.848 E111.706
G1 X103.236 Y136.054 E111.7996
G1 X126.764 Y159.582 E114.38099
G1 X126.764 Y160.788 E114.47458
G1 X103.236 Y137.261 E117.05597
G1 X103.236 Y138.467 E117.14957
G1 X126.764 Y161.995 E119.73095
G1 X126.764 Y163.201 E119.82455
G1 X103.236 Y139.673 E122.40594
G1 X103.236 Y140.88 E122.49953
G1 X126.764 Y164.408 E125.08092
G1 X126.764 Y165.614 E125.17452
G1 X103.236 Y142.086 E127.7559
G1 X103.236 Y143.293 E127.8495
G1 X126.764 Y166.82 E130.43089
G1 X126.764 Y168.027 E130.52448
G1 X103.236 Y144.499 E133.10587
G1 X103.236 Y145.705 E133.19947
G1 X126.764 Y169.233 E135.78086
G1 X126.764 Y170.44 E135.87445
G1 X103.236 Y146.912 E138.45584
G1 X103.236 Y148.118 E138.54943
G1 X126.764 Y171.646 E141.13082
G1 X126.764 Y172.852 E141.22442
G1 X103.236 Y149.325 E143.80581
G1 X103.236 Y150.531 E143.8994
G1 X126.764 Y174.059 E146.48079
G1 X126.764 Y175.265 E146.57438
G1 X103.236 Y151.737 E149.15577
G1 X103.236 Y152.944 E149.24937
G1 X126.056 Y175.764 E151.75311
G1 X124.85 Y175.764 E151.8467
G1 X103.236 Y154.15 E154.21808
G1 X103.236 Y155.357 E154.31168
G1 X123.643 Y175.764 E156.55069
G1 X122.437 Y175.764 E156.64429
G1 X103.236 Y156.563 E158.75094
G1 X103.236 Y157.769 E158.84454
G1 X121.231 Y175.764 E160.81883
G1 X120.024 Y175.764 E160.91242
G1 X103.236 Y158.976 E162.75435
G1 X103.236 Y160.182 E162.84794
G1 X118.818 Y175.764 E164.55751
G1 X117.611 Y175.764 E164.6511
G1 X103.236 Y161.389 E166.22831
G1 X103.236 Y162.595 E166.3219
G1 X116.405 Y175.764 E167.76674
G1 X115.199 Y175.764 E167.86033
G1 X103.236 Y163.801 E169.17281
G1 X103.236 Y165.008 E169.2664
G1 X113.992 Y175.764 E170.44652
G1 X112.786 Y175.764 E170.54011
G1 X103.236 Y166.214 E171.58786
G1 X103.236 Y167.421 E171.68145
G1 X111.579 Y175.764 E172.59684
G1 X110.373 Y175.764 E172.69044
G1 X103.236 Y168.627 E173.47346
G1 X103.236 Y169.833 E173.56705
G1 X109.167 Y175.764 E174.21771
G1 X107.96 Y175.764 E174.31131
G1 X103.236 Y171.04 E174.82961
G1 X103.236 Y172.246 E174.9232
G1 X106.754 Y175.764 E175.30913
G1 X105.547 Y175.764 E175.40273
G1 X103.236 Y173.453 E175.6563
G1 X103.236 Y174.659 E175.7499
G1 X104.708 Y176.131 E175.91135
G92 E0
G1 E-0.8 F2100
G1 Z0.41875 F9000
; stop printing object Drawer.stl id:0 copy 0
EXCLUDE_OBJECT_END NAME=Drawer_stl_id_0_copy_0
; printing object Drawer.stl id:0 copy 1
EXCLUDE_OBJECT_START NAME=Drawer_stl_id_0_copy_1
G1 X164.05 Y178.05
G1 Z0.21875
G1 E0 F2100
;TYPE:External perimeter
G1 F2400
G1 X135.95 Y178.05 E2.18005
G1 X135.95 Y123.732 E6.39412
G1 X164.05 Y123.732 E8.57417
G1 X164.05 Y177.96 E12.78126
;WIPE_START
G1 X163.53 Y177.75 F9000
;WIPE_END
G1 X163.197 Y177.197
;TYPE:Internal perimeter
G1 F2400
G1 X136.803 Y177.197 E14.82894
G1 X136.803 Y124.585 E18.91066
G1 X163.197 Y124.585 E20.95834
G1 X163.197 Y177.107 E25.03307
G1 X162.344 Y176.344 F9000
G1 F2400
G1 X137.656 Y176.344 E26.94839
G1 X137.656 Y125.438 E30.89774
G1 X162.344 Y125.438 E32.81306
G1 X162.344 Y176.254 E36.75543
G92 E0
G1 E-0.8 F2100
G1 Z0.41875 F9000
G1 X139.708 Y176.131
G1 Z0.21875
G1 E0 F2100
;TYPE:Solid infill
G1 F2400
G1 X138.236 Y174.659 E0.16145
G1 X138.236 Y173.453 E0.25505
G1 X140.547 Y175.764 E0.50862
G1 X141.754 Y175.764 E0.60221
G1 X138.236 Y172.246 E0.98815
G1 X138.236 Y171.04 E1.08174
G1 X142.96 Y175.764 E1.60004
G1 X144.167 Y175.764 E1.69364
G1 X138.236 Y169.833 E2.3443
G1 X138.236 Y168.627 E2.43789
G1 X145.373 Y175.764 E3.22091
G1 X146.579 Y175.764 E3.31451
G1 X138.236 Y167.421 E4.2299
G1 X138.236 Y166.214 E4.32349
G1 X147.786 Y175.764 E5.37124
G1 X148.992 Y175.764 E5.46483
G1 X138.236 Y165.008 E6.64495
G1 X138.236 Y163.801 E6.73854
G1 X150.199 Y175.764 E8.05102
G1 X151.405 Y175.764 E8.14461
G1 X138.236 Y162.595 E9.58945
G1 X138.236 Y161.389 E9.68304
G1 X152.611 Y175.764 E11.26025
G1 X153.818 Y175.764 E11.35384
G1 X138.236 Y160.182 E13.06341
G1 X138.236 Y158.976 E13.157
G1 X155.024 Y175.764 E14.99893
G1 X156.231 Y175.764 E15.09252
G1 X138.236 Y157.769 E17.06681
G1 X138.236 Y156.563 E17.16041
G1 X157.437 Y175.764 E19.26706
G1 X158.643 Y175.764 E19.36065
G1 X138.236 Y155.357 E21.59967
G1 X138.236 Y154.15 E21.69327
G1 X159.85 Y175.764 E24.06465
G1 X161.056 Y175.764 E24.15824
G1 X138.236 Y152.944 E26.66198
G1 X138.236 Y151.737 E26.75558
G1 X161.764 Y175.265 E29.33697
G1 X161.764 Y174.059 E29.43056
G1 X138.236 Y150.531 E32.01195
G1 X138.236 Y149.325 E32.10554
G1 X161.764 Y172.852 E34.68693
G1 X161.764 Y171.646 E34.78053
G1 X138.236 Y148.118 E37.36192
G1 X138.236 Y146.912 E37.45551
G1 X161.764 Y170.44 E40.0369
G1 X161.764 Y169.233 E40.13049
G1 X138.236 Y145.705 E42.71188
G1 X138.236 Y144.499 E42.80548
G1 X161.764 Y168.027 E45.38687
G1 X161.764 Y166.82 E45.48046
G1 X138.236 Y143.293 E48.06185
G1 X138.236 Y142.086 E48.15545
G1 X161.764 Y165.614 E50.73683
G1 X161.764 Y164.408 E50.83043
G1 X138.236 Y140.88 E53.41182
G1 X138.236 Y139.673 E53.50541
G1 X161.764 Y163.201 E56.0868
G1 X161.764 Y161.995 E56.1804
G1 X138.236 Y138.467 E58.76178
G1 X138.236 Y137.261 E58.85538
G1 X161.764 Y160.788 E61.43677
G1 X161.764 Y159.582 E61.53036
G1 X138.236 Y136.054 E64.11175
G1 X138.236 Y134.848 E64.20535
