; generated by SuperSlicer 2.5.59 on 2023-04-10 at 07:24:21 UTC


;
;

;
;
; 

; external perimeters extrusion width = 0.45mm
; perimeters extrusion width = 0.45mm
; infill extrusion width = 0.45mm
; solid infill extrusion width = 0.45mm
; top infill extrusion width = 0.43mm
; support material extrusion width = 0.42mm
; first layer extrusion width = 0.60mm

; object:{"name":"Duo_Cartridge_LID","id":"Duo_Cartridge_LID.stl id:0 copy 0","object_center":[150.000000,148.500000,0.000000],"boundingbox_center":[150.000000,148.500000,0.892381],"boundingbox_size":[121.958206,51.164276,1.784761]}
EXCLUDE_OBJECT_DEFINE NAME=Duo_Cartridge_LID_stl_id_0_copy_0 CENTER=150.000000,148.500000 POLYGON=[[89.020896,124.746368],[89.022712,124.719592],[89.028072,124.693296],[89.220824,124.206592],[89.513872,123.772800],[89.893456,123.412296],[90.341760,123.141992],[90.837752,122.974560],[91.358168,122.917864],[208.641824,122.917864],[209.162240,122.974560],[209.658240,123.141992],[210.106544,123.412296],[210.486128,123.772800],[210.779168,124.206592],[210.971936,124.693296],[210.977296,124.719592],[210.979088,124.746368],[210.979088,167.729088],[210.973168,167.773152],[210.971392,167.781344],[210.951600,167.829872],[210.189280,168.856048],[210.149968,168.887968],[210.104048,168.908848],[182.921568,173.578592],[182.122096,173.708448],[181.322592,173.819632],[180.517744,173.912800],[179.714208,173.987104],[178.905744,174.043056],[178.098016,174.082144],[121.901976,174.082144],[121.094256,174.043056],[120.285800,173.987104],[119.482256,173.912800],[118.677416,173.819632],[117.877904,173.708448],[117.078432,173.578592],[89.895952,168.908848],[89.850048,168.887968],[89.810712,168.856048],[89.048400,167.829872],[89.028608,167.781344],[89.026848,167.773152],[89.020896,167.729088],[89.020896,124.746368]]
; plater:{"center":[150.000000,148.500000,0.000000],"boundingbox_center":[150.000000,148.500000,0.892381],"boundingbox_size":[121.958206,51.164276,1.784761]}

;TYPE:Custom
SET_PRINT_STATS_INFO TOTAL_LAYER=9

M104 S0 ; Stops SuperSlicer from sending temp waits separately

M109 S0

M140 S0

print_start EXTRUDER=255 BED=105 CHAMBER=0
M107
G21 ; set units to millimeters
G90 ; use absolute coordinates
M82 ; use absolute distances for extrusion
G92 E0
; Filament gcode
;_TOOLCHANGE 0
M107
;LAYER_CHANGE
;Z:0.2
;HEIGHT:0.2
TIMELAPSE_TAKE_FRAME
;BEFORE_LAYER_CHANGE
;0.2


G1 Z0.2 F8700
SET_PRINT_STATS_INFO CURRENT_LAYER=1
;AFTER_LAYER_CHANGE
;0.2
G1 E-0.8 F3000
G1 Z0.7 F8700
G1 X85.122 Y118.256
G1 Z0.2
G1 E0 F3000
;TYPE:Skirt
;WIDTH:0.54
G1 F2250
G1 X83.573 Y120.006 E0.0966
G1 X82.448 Y122.194 E0.19828
G1 X82.063 Y124.076 E0.27768
G1 X82.044 Y170.29 E2.18779
G1 X82.258 Y171.126 E2.22348
G1 X83.651 Y173.672 E2.34344
G1 X84.122 Y174.22 E2.37329
G1 X86.18 Y175.793 E2.48038
G1 X86.833 Y176.104 E2.51024
G1 X88.954 Y176.607 E2.60035
G1 X115.793 Y181.188 E3.72573
G1 X119.621 Y181.676 E3.8852
G1 X121.625 Y181.795 E3.96821
G1 X178.273 Y181.798 E6.30959
G1 X180.301 Y181.683 E6.39353
G1 X184.207 Y181.188 E6.55628
G1 X211.05 Y176.607 E7.68181
G1 X213.599 Y176 E7.79012
G1 X214.434 Y175.529 E7.82973
G1 X216.838 Y173.093 E7.9712
G1 X217.284 Y172.308 E8.00854
G1 X217.961 Y169.486 E8.12849
G1 X217.961 Y124.361 E9.99358
G1 X217.704 Y122.672 E10.06421
G1 X217.552 Y122.194 E10.08492
G1 X216.663 Y120.368 E10.16888
G1 X215.196 Y118.549 E10.26548
G1 X212.947 Y116.94 E10.37976
G1 X211.17 Y116.246 E10.45862
G1 X209.231 Y115.95 E10.53969
G1 X90.985 Y115.936 E15.42706
G1 X88.83 Y116.246 E15.51703
G1 X87.053 Y116.94 E15.59589
G1 X85.171 Y118.222 E15.69001
G1 X85.453 Y118.631 F8700
G1 F2250
G1 X85.411 Y118.66 E15.69214
G1 X83.953 Y120.327 E15.78367
G1 X82.895 Y122.412 E15.8803
G1 X82.553 Y124.158 E15.95382
G1 X82.541 Y170.29 E17.86056
G1 X82.694 Y170.888 E17.88607
G1 X84.087 Y173.433 E18.00604
G1 X84.423 Y173.825 E18.02737
G1 X86.482 Y175.398 E18.13446
G1 X86.949 Y175.62 E18.15581
G1 X89.037 Y176.117 E18.24456
G1 X115.877 Y180.698 E19.36994
G1 X119.672 Y181.182 E19.52807
G1 X121.654 Y181.299 E19.61015
G1 X178.273 Y181.301 E21.95032
G1 X180.272 Y181.187 E22.03307
G1 X184.123 Y180.698 E22.19354
G1 X210.966 Y176.117 E23.31907
G1 X213.484 Y175.517 E23.42603
G1 X214.08 Y175.18 E23.45434
G1 X216.484 Y172.744 E23.59582
G1 X216.803 Y172.183 E23.6225
G1 X217.464 Y169.486 E23.73727
G1 X217.464 Y124.361 E25.60237
G1 X217.105 Y122.412 E25.68429
G1 X216.216 Y120.586 E25.76824
G1 X214.816 Y118.87 E25.85978
G1 X212.766 Y117.403 E25.96395
G1 X210.989 Y116.709 E26.04282
G1 X209.169 Y116.443 E26.11882
G1 X90.985 Y116.433 E31.00364
G1 X89.011 Y116.709 E31.08601
G1 X87.234 Y117.403 E31.16488
G1 X85.503 Y118.597 E31.25181
G1 X85.787 Y119.004 F8700
G1 F2250
G1 X85.7 Y119.065 E31.25619
G1 X84.332 Y120.648 E31.34267
G1 X83.342 Y122.63 E31.43423
G1 X83.033 Y124.362 E31.50695
G1 X83.038 Y170.29 E33.40526
G1 X83.13 Y170.649 E33.42059
G1 X84.523 Y173.195 E33.54055
G1 X84.725 Y173.43 E33.55337
G1 X86.784 Y175.003 E33.66046
G1 X87.064 Y175.137 E33.67329
G1 X89.121 Y175.627 E33.76069
G1 X115.96 Y180.208 E34.88607
G1 X119.724 Y180.688 E35.04286
G1 X121.683 Y180.803 E35.12401
G1 X178.273 Y180.804 E37.46298
G1 X180.243 Y180.69 E37.54453
G1 X184.04 Y180.208 E37.70273
G1 X210.883 Y175.627 E38.82826
G1 X213.368 Y175.033 E38.93387
G1 X213.726 Y174.831 E38.95088
G1 X216.131 Y172.395 E39.09235
G1 X216.322 Y172.058 E39.10839
G1 X216.967 Y169.486 E39.21798
G1 X216.966 Y124.361 E41.08307
G1 X216.658 Y122.63 E41.15577
G1 X215.769 Y120.803 E41.23973
G1 X214.436 Y119.19 E41.3262
G1 X212.585 Y117.866 E41.42028
G1 X210.808 Y117.172 E41.49915
G1 X209.108 Y116.936 E41.57009
G1 X90.985 Y116.93 E46.45237
G1 X89.192 Y117.172 E46.52714
G1 X87.415 Y117.866 E46.606
G1 X85.836 Y118.97 E46.68562
G92 E0
G1 E-0.8 F3000
G1 Z0.7 F8700
G1 X205.006 Y169.174
G1 Z0.2
G1 E0 F3000
;WIDTH:0.6
G1 F2250
G1 X210.078 Y169.168 E0.23492
G1 X210.174 Y169.145 E0.23951
G1 X210.271 Y169.122 E0.24409
G1 X210.447 Y168.943 E0.25575
G1 X210.466 Y168.87 E0.25926
G1 X210.497 Y168.754 E0.26481
G1 X210.497 Y167.534 E0.32132
G1 X210.497 Y163.756 E0.4963
G1 X211.464 Y163.883 E0.54151
G1 X212.709 Y164.399 E0.60393
G1 X213.778 Y165.22 E0.66635
G1 X214.599 Y166.289 E0.72877
G1 X215.114 Y167.534 E0.79119
G1 X215.29 Y168.87 E0.85361
G1 X215.164 Y169.827 E0.89836
G1 X215.114 Y170.206 E0.91603
G1 X214.599 Y171.451 E0.97845
G1 X213.778 Y172.52 E1.04087
G1 X212.709 Y173.34 E1.10329
G1 X211.464 Y173.856 E1.16571
G1 X210.128 Y174.032 E1.22813
G1 X209.17 Y173.905 E1.27288
G1 X208.792 Y173.856 E1.29055
G1 X207.547 Y173.34 E1.35297
G1 X206.478 Y172.52 E1.41539
G1 X205.658 Y171.451 E1.47782
G1 X205.142 Y170.206 E1.54024
G1 X205.014 Y169.234 E1.58563
G92 E0
G1 E-0.8 F3000
G1 Z0.7 F8700
G1 X208.018 Y173.505
G1 Z0.2
G1 E0 F3000
G1 F2250
G1 X211.612 Y173.505 E0.16646
G1 X212.574 Y173.106 E0.21471
G1 X212.781 Y172.948 E0.22677
G1 X207.476 Y172.948 E0.47252
G1 X206.75 Y172.391 E0.5149
G1 X213.507 Y172.391 E0.82791
G1 X213.588 Y172.329 E0.83262
G1 X213.968 Y171.834 E0.86153
G1 X206.289 Y171.834 E1.21722
G1 X205.891 Y171.316 E1.24747
G1 X205.875 Y171.277 E1.24942
G1 X214.381 Y171.277 E1.64343
G1 X214.612 Y170.72 E1.67136
G1 X205.644 Y170.72 E2.08675
G1 X205.414 Y170.163 E2.11468
G1 X214.843 Y170.163 E2.55144
G1 X214.854 Y170.136 E2.55278
G1 X214.899 Y169.792 E2.56883
G1 X214.924 Y169.605 E2.57756
G1 X205.333 Y169.605 E3.02182
G1 X205.311 Y169.441 E3.02948
G1 X210.11 Y169.435 E3.25174
G1 X210.236 Y169.405 E3.25779
G1 X210.407 Y169.364 E3.26592
G1 X210.688 Y169.08 E3.28444
G1 X210.696 Y169.048 E3.28593
G1 X214.997 Y169.048 E3.48515
G1 X215.021 Y168.87 E3.49351
G1 X214.971 Y168.491 E3.51118
G1 X210.764 Y168.491 E3.70604
G1 X210.764 Y167.934 E3.73185
G1 X214.897 Y167.934 E3.92331
G1 X214.854 Y167.603 E3.93877
G1 X214.76 Y167.377 E3.95011
G1 X210.764 Y167.377 E4.13522
G1 X210.764 Y166.82 E4.16103
G1 X214.529 Y166.82 E4.33545
G1 X214.365 Y166.423 E4.35533
G1 X214.242 Y166.263 E4.3647
G1 X210.764 Y166.263 E4.52581
G1 X210.764 Y165.706 E4.55161
G1 X213.814 Y165.706 E4.69292
G1 X213.588 Y165.41 E4.71018
G1 X213.247 Y165.149 E4.73007
G1 X210.764 Y165.149 E4.84509
G1 X210.764 Y164.592 E4.87089
G1 X212.914 Y164.592 E4.97051
G92 E0
G1 E-0.8 F3000
G1 Z0.7 F8700
G1 X94.894 Y169.168
G1 Z0.2
G1 E0 F3000
G1 F2250
G1 X94.84 Y169.576 E0.01904
G1 X94.772 Y170.09 E0.04309
G1 X94.256 Y171.335 E0.10551
G1 X93.436 Y172.405 E0.16793
G1 X92.367 Y173.225 E0.23035
G1 X91.122 Y173.741 E0.29278
G1 X89.786 Y173.916 E0.3552
G1 X88.828 Y173.79 E0.39994
G1 X88.45 Y173.741 E0.41762
G1 X87.205 Y173.225 E0.48004
G1 X86.136 Y172.405 E0.54246
G1 X85.316 Y171.335 E0.60488
G1 X84.8 Y170.09 E0.6673
G1 X84.75 Y169.712 E0.68497
G1 X84.624 Y168.754 E0.72972
G1 X84.8 Y167.418 E0.79214
G1 X85.316 Y166.173 E0.85456
G1 X86.136 Y165.104 E0.91698
G1 X87.205 Y164.284 E0.9794
G1 X88.45 Y163.768 E1.04182
G1 X89.507 Y163.629 E1.0912
G1 X89.508 Y168.826 E1.33191
G1 X89.617 Y169.025 E1.34245
G1 X89.75 Y169.127 E1.35019
G1 X89.922 Y169.168 E1.35842
G1 X94.834 Y169.168 E1.58592
G92 E0
G1 E-0.8 F3000
G1 Z0.7 F8700
G1 X89.479 Y164.465
G1 Z0.2
G1 E0 F3000
G1 F2250
G1 X87.467 Y164.465 E0.0932
G1 X87.34 Y164.518 E0.09958
G1 X86.683 Y165.022 E0.13796
G1 X89.24 Y165.022 E0.25641
G1 X89.24 Y165.579 E0.28221
G1 X86.109 Y165.579 E0.42724
G1 X85.681 Y166.136 E0.45977
G1 X89.24 Y166.136 E0.62461
G1 X89.24 Y166.693 E0.65041
G1 X85.39 Y166.693 E0.82875
G1 X85.159 Y167.25 E0.85668
G1 X89.24 Y167.25 E1.04572
G1 X89.24 Y167.807 E1.07152
G1 X85.018 Y167.807 E1.26707
G1 X84.945 Y168.364 E1.2931
G1 X89.24 Y168.364 E1.49204
G1 X89.24 Y168.894 E1.51658
G1 X89.255 Y168.922 E1.51803
G1 X84.916 Y168.922 E1.71903
G1 X84.989 Y169.479 E1.74506
G1 X94.583 Y169.479 E2.18946
G1 X94.575 Y169.541 E2.19236
G1 X94.512 Y170.021 E2.21479
G1 X94.505 Y170.036 E2.21554
G1 X85.067 Y170.036 E2.65275
G1 X85.297 Y170.593 E2.68068
G1 X94.275 Y170.593 E3.09652
G1 X94.044 Y171.15 E3.12445
G1 X85.528 Y171.15 E3.51891
G1 X85.549 Y171.201 E3.52146
G1 X85.938 Y171.707 E3.55102
G1 X93.634 Y171.707 E3.90754
G1 X93.245 Y172.214 E3.93713
G1 X93.18 Y172.264 E3.94095
G1 X86.392 Y172.264 E4.25538
G1 X87.118 Y172.821 E4.29777
G1 X92.454 Y172.821 E4.54493
G1 X92.232 Y172.991 E4.55789
G1 X91.298 Y173.378 E4.60471
G1 X87.648 Y173.378 E4.7738
G92 E0
G1 E-0.8 F3000
G1 Z0.7 F8700
G1 X89.504 Y128.67
G1 Z0.2
G1 E0 F3000
G1 F2250
G1 X88.37 Y128.2 E0.05684
G1 X87.301 Y127.38 E0.11926
G1 X86.481 Y126.311 E0.18168
G1 X85.965 Y125.066 E0.2441
G1 X85.861 Y124.278 E0.28092
G1 X85.789 Y123.73 E0.30652
G1 X85.915 Y122.772 E0.35127
G1 X85.965 Y122.394 E0.36894
G1 X86.481 Y121.149 E0.43136
G1 X87.301 Y120.08 E0.49378
G1 X88.37 Y119.259 E0.5562
G1 X89.615 Y118.744 E0.61862
G1 X90.951 Y118.568 E0.68104
G1 X92.287 Y118.744 E0.74346
G1 X93.532 Y119.259 E0.80588
G1 X94.601 Y120.08 E0.8683
G1 X95.422 Y121.149 E0.93072
G1 X95.937 Y122.394 E0.99314
G1 X96.07 Y123.4 E1.04018
G1 X91.341 Y123.4 E1.25923
G1 X90.882 Y123.458 E1.28064
G1 X90.435 Y123.632 E1.30286
G1 X90.045 Y123.911 E1.32508
G1 X89.736 Y124.278 E1.3473
G1 X89.523 Y124.714 E1.36978
G1 X89.504 Y124.833 E1.37535
G1 X89.504 Y128.61 E1.5503
G1 X87.842 Y127.76 F8700
G1 F2250
G1 X89.236 Y127.76 E1.6149
G1 X89.236 Y127.203 E1.64071
G1 X87.509 Y127.203 E1.7207
G1 X87.492 Y127.189 E1.72173
G1 X87.075 Y126.646 E1.75347
G1 X89.236 Y126.646 E1.8536
G1 X89.236 Y126.088 E1.8794
G1 X86.678 Y126.088 E1.9979
G1 X86.447 Y125.531 E2.02583
G1 X89.236 Y125.531 E2.15501
G1 X89.236 Y124.974 E2.18081
G1 X86.223 Y124.974 E2.3204
G1 X86.149 Y124.417 E2.34643
G1 X89.37 Y124.417 E2.49563
G1 X89.51 Y124.131 E2.51038
G1 X89.739 Y123.86 E2.52679
G1 X86.076 Y123.86 E2.69644
G1 X86.059 Y123.73 E2.70253
G1 X86.115 Y123.303 E2.72247
G1 X90.543 Y123.303 E2.92759
G1 X90.816 Y123.197 E2.94115
G1 X91.324 Y123.133 E2.96488
G1 X95.765 Y123.133 E3.17058
G1 X95.714 Y122.746 E3.18866
G1 X86.188 Y122.746 E3.62989
G1 X86.226 Y122.464 E3.64309
G1 X86.339 Y122.189 E3.65686
G1 X95.563 Y122.189 E4.08411
G1 X95.332 Y121.632 E4.11204
G1 X86.57 Y121.632 E4.51791
G1 X86.714 Y121.284 E4.53537
G1 X86.875 Y121.075 E4.54757
G1 X95.028 Y121.075 E4.92522
G1 X94.6 Y120.518 E4.95775
G1 X87.302 Y120.518 E5.29581
G1 X87.492 Y120.27 E5.31024
G1 X87.896 Y119.961 E5.33382
G1 X94.007 Y119.961 E5.61689
G1 X93.397 Y119.493 E5.65247
G1 X93.181 Y119.404 E5.6633
G1 X88.721 Y119.404 E5.86991
G1 X89.685 Y119.004 E5.91824
G1 X90.884 Y118.846 E5.97424
G1 X92.462 Y118.846 E6.04737
G92 E0
G1 E-0.8 F3000
G1 Z0.7 F8700
G1 X203.93 Y123.4
G1 Z0.2
G1 E0 F3000
G1 F2250
G1 X204.063 Y122.394 E0.04703
G1 X204.578 Y121.149 E0.10945
G1 X205.399 Y120.08 E0.17187
G1 X206.468 Y119.259 E0.23429
G1 X207.713 Y118.744 E0.29671
G1 X209.049 Y118.568 E0.35913
G1 X210.385 Y118.744 E0.42155
G1 X211.63 Y119.259 E0.48397
G1 X212.699 Y120.08 E0.54639
G1 X213.519 Y121.149 E0.60881
G1 X214.035 Y122.394 E0.67123
G1 X214.211 Y123.73 E0.73365
G1 X214.139 Y124.278 E0.75926
G1 X214.035 Y125.066 E0.79607
G1 X213.519 Y126.311 E0.85849
G1 X212.699 Y127.38 E0.92091
G1 X211.63 Y128.2 E0.98334
G1 X210.496 Y128.67 E1.04016
G1 X210.496 Y124.833 E1.21789
G1 X210.477 Y124.714 E1.22345
G1 X210.264 Y124.278 E1.24594
G1 X209.955 Y123.911 E1.26816
G1 X209.565 Y123.632 E1.29038
G1 X209.118 Y123.458 E1.3126
G1 X208.659 Y123.4 E1.33401
G1 X203.99 Y123.4 E1.55028
G92 E0
G1 E-0.8 F3000
G1 Z0.7 F8700
G1 X210.524 Y127.76
G1 Z0.2
G1 E0 F3000
G1 F2250
G1 X211.765 Y127.76 E0.05745
G1 X212.491 Y127.203 E0.09984
G1 X210.764 Y127.203 E0.17983
G1 X210.764 Y126.646 E0.20563
G1 X212.925 Y126.646 E0.30576
G1 X213.286 Y126.176 E0.33317
G1 X213.322 Y126.088 E0.33756
G1 X210.764 Y126.088 E0.45605
G1 X210.764 Y125.531 E0.48185
G1 X213.553 Y125.531 E0.61103
G1 X213.774 Y124.996 E0.63788
G1 X213.777 Y124.974 E0.63889
G1 X210.764 Y124.974 E0.77847
G1 X210.764 Y124.811 E0.78605
G1 X210.734 Y124.632 E0.79444
G1 X210.63 Y124.417 E0.80551
G1 X213.851 Y124.417 E0.95471
G1 X213.874 Y124.243 E0.96285
G1 X213.924 Y123.86 E0.98074
G1 X210.261 Y123.86 E1.15039
G1 X210.137 Y123.713 E1.15929
G1 X209.693 Y123.395 E1.1846
G1 X209.457 Y123.303 E1.19635
G1 X213.885 Y123.303 E1.40147
G1 X213.812 Y122.746 E1.4275
G1 X204.286 Y122.746 E1.86874
G1 X204.323 Y122.464 E1.88193
G1 X204.437 Y122.189 E1.8957
G1 X213.661 Y122.189 E2.32295
G1 X213.43 Y121.632 E2.35088
G1 X204.668 Y121.632 E2.75675
G1 X204.812 Y121.284 E2.77421
G1 X204.972 Y121.075 E2.78641
G1 X213.125 Y121.075 E3.16407
G1 X212.698 Y120.518 E3.19659
G1 X205.4 Y120.518 E3.53465
G1 X205.589 Y120.27 E3.54908
G1 X205.993 Y119.961 E3.57266
G1 X212.104 Y119.961 E3.85573
G1 X211.495 Y119.493 E3.89131
G1 X211.279 Y119.404 E3.90214
G1 X206.819 Y119.404 E4.10875
G1 X207.783 Y119.004 E4.15708
G1 X208.981 Y118.846 E4.21308
G1 X210.56 Y118.846 E4.28621
M104 S255 ; set temperature
G92 E0
G1 E-0.8 F3000
G1 Z0.7 F8700
; printing object Duo_Cartridge_LID.stl id:0 copy 0
EXCLUDE_OBJECT_START NAME=Duo_Cartridge_LID_stl_id_0_copy_0
G1 X209.918 Y168.59
G1 Z0.2
G1 E0 F3000
;TYPE:External perimeter
G1 F2400
G1 X201.635 Y168.6 E0.38367
G1 X200.116 Y168.676 E0.45414
G1 X199.354 Y168.744 E0.48957
G1 X197.845 Y168.933 E0.56004
G1 X196.347 Y169.199 E0.6305
G1 X195.6 Y169.36 E0.6659
G1 X194.858 Y169.54 E0.70123
G1 X193.394 Y169.953 E0.7717
G1 X191.953 Y170.44 E0.84216
G1 X191.239 Y170.711 E0.87754
G1 X189.795 Y171.302 E0.94984
G1 X188.29 Y171.86 E1.02415
G1 X186.764 Y172.347 E1.09837
G1 X185.217 Y172.764 E1.1726
G1 X183.651 Y173.111 E1.24691
G1 X182.868 Y173.257 E1.28379
G1 X181.282 Y173.496 E1.35808
G1 X179.688 Y173.662 E1.4323
G1 X178.089 Y173.756 E1.50651
G1 X175.611 Y173.756 E1.6213
G1 X174.009 Y173.662 E1.6956
G1 X173.217 Y173.589 E1.73245
G1 X171.624 Y173.386 E1.80684
G1 X170.835 Y173.258 E1.84387
G1 X169.262 Y172.946 E1.91816
G1 X167.704 Y172.564 E1.99245
G1 X166.937 Y172.348 E2.02937
G1 X165.409 Y171.86 E2.10367
G1 X163.905 Y171.303 E2.17797
G1 X162.679 Y170.797 E2.23941
G1 X161.624 Y170.396 E2.29168
G1 X160.056 Y169.878 E2.3682
G1 X158.462 Y169.446 E2.44469
G1 X157.652 Y169.261 E2.48318
G1 X156.028 Y168.96 E2.55967
G1 X154.39 Y168.748 E2.63617
G1 X153.563 Y168.675 E2.67465
G1 X151.915 Y168.598 E2.75105
G1 X151.086 Y168.593 E2.78946
G1 X149.999 Y168.619 E2.83984
