; generated by SuperSlicer 2.5.59 on 2023-03-28 at 03:50:45 UTC


;
;

;
;
; 

; external perimeters extrusion width = 0.50mm
; perimeters extrusion width = 0.51mm
; infill extrusion width = 0.51mm
; solid infill extrusion width = 0.51mm
; top infill extrusion width = 0.50mm
; support material extrusion width = 0.45mm
; first layer extrusion width = 0.67mm

; object:{"name":"EVERYTHING","id":"EVERYTHING.stl id:0 copy 0","object_center":[148.445565,167.366811,0.000000],"boundingbox_center":[148.445565,167.366811,4.687061],"boundingbox_size":[112.869408,134.516022,9.374123]}
EXCLUDE_OBJECT_DEFINE NAME=EVERYTHING_stl_id_0_copy_0 CENTER=148.445565,167.366811 POLYGON=[[92.010864,196.178176],[92.010880,165.396944],[92.029968,154.420960],[98.820048,128.369720],[108.108672,106.460856],[114.125456,104.973472],[120.203416,103.733576],[126.327224,102.744624],[143.909088,100.108792],[152.982064,100.108792],[170.563904,102.744624],[176.687712,103.733576],[182.765680,104.973472],[188.782464,106.460856],[198.071104,128.369720],[204.861184,154.420960],[204.880288,165.396944],[204.880288,196.178176],[204.861184,207.154176],[201.872352,226.302864],[200.674752,227.168304],[192.894656,229.641328],[185.999072,231.424960],[177.907200,232.505536],[107.933944,234.624816],[101.033944,234.624816],[97.366304,232.874816],[95.018808,230.874816],[92.029968,207.154176],[92.010864,196.178176]]
; plater:{"center":[148.445565,167.366811,0.000000],"boundingbox_center":[148.445565,167.366811,4.687061],"boundingbox_size":[112.869408,134.516022,9.374123]}

;TYPE:Custom
SET_PRINT_STATS_INFO TOTAL_LAYER=41

M104 S0 ; Stops SuperSlicer from sending temp waits separately

M109 S0

M140 S0

print_start EXTRUDER=250 BED=108 CHAMBER=0
G21 ; set units to millimeters
G90 ; use absolute coordinates
M82 ; use absolute distances for extrusion
G92 E0
; Filament gcode
;_TOOLCHANGE 0
M107
;LAYER_CHANGE
;Z:0.23125
;HEIGHT:0.23125
TIMELAPSE_TAKE_FRAME
;BEFORE_LAYER_CHANGE
;0.23125


G1 E-0.8 F2100
G1 Z0.2 F8700
G1 Z0.23125
SET_PRINT_STATS_INFO CURRENT_LAYER=1
;AFTER_LAYER_CHANGE
;0.23125
G92 E0
G1 Z0.43125
G1 X99.965 Y99.538
G1 Z0.23125
G1 E0.8 F2100
;TYPE:Skirt
;WIDTH:0.6075
G1 F2250
G1 X99.026 Y100.719 E0.88092
G1 X90.162 Y121.221 E2.07889
G1 X89.959 Y121.924 E2.11815
G1 X85.222 Y152.547 E3.78018
G1 X85.222 Y209.028 E6.80955
G1 X86.125 Y233.751 E8.13648
G1 X86.826 Y235.535 E8.23928
G1 X92.841 Y242.515 E8.73347
G1 X93.577 Y243.127 E8.78484
G1 X95.034 Y243.52 E8.86576
G1 X114.029 Y243.519 E9.88458
G1 X178.707 Y241.373 E13.35552
G1 X187.877 Y240.127 E13.85184
G1 X195.433 Y238.168 E14.27052
G1 X204.286 Y235.354 E14.76879
G1 X205.105 Y234.942 E14.81796
G1 X209.568 Y231.716 E15.11331
G1 X210.308 Y230.936 E15.17098
G1 X210.765 Y229.498 E15.2519
G1 X211.669 Y209.028 E16.35088
G1 X211.669 Y152.547 E19.38026
G1 X206.932 Y121.924 E21.04228
G1 X206.729 Y121.221 E21.08154
G1 X197.865 Y100.719 E22.27951
G1 X197.289 Y99.856 E22.33518
G1 X195.994 Y99.082 E22.4161
G1 X168.504 Y91.322 E23.94812
G1 X167.718 Y91.213 E23.99071
G1 X129.173 Y91.213 E26.05806
G1 X128.387 Y91.322 E26.10065
G1 X100.897 Y99.082 E27.63267
G1 X100.026 Y99.509 E27.68471
G1 X100.412 Y99.908 F8700
G1 F2250
G1 X99.539 Y100.941 E27.75727
G1 X90.675 Y121.442 E28.95523
G1 X90.511 Y122.01 E28.98693
G1 X85.78 Y152.548 E30.64439
G1 X85.78 Y209.027 E33.67367
G1 X86.683 Y233.731 E34.99955
G1 X87.248 Y235.171 E35.08253
G1 X93.263 Y242.151 E35.57672
G1 X95.034 Y242.962 E35.68118
G1 X113.934 Y242.962 E36.69489
G1 X178.634 Y240.82 E40.16697
G1 X187.737 Y239.587 E40.65969
G1 X195.264 Y237.636 E41.07675
G1 X204.117 Y234.822 E41.57501
G1 X204.778 Y234.489 E41.6147
G1 X209.241 Y231.264 E41.91005
G1 X209.759 Y230.749 E41.9492
G1 X210.207 Y229.473 E42.02175
G1 X211.111 Y209.027 E43.11945
G1 X211.111 Y152.548 E46.14873
G1 X206.38 Y122.01 E47.80619
G1 X206.216 Y121.442 E47.83788
G1 X197.352 Y100.941 E49.03585
G1 X196.982 Y100.348 E49.07337
G1 X195.842 Y99.619 E49.14592
G1 X168.353 Y91.859 E50.67794
G1 X167.718 Y91.772 E50.71232
G1 X129.173 Y91.772 E52.77967
G1 X128.538 Y91.859 E52.81405
G1 X101.049 Y99.619 E54.34607
G1 X100.473 Y99.88 E54.37997
G1 X100.926 Y100.397 F8700
G1 F2250
G1 X100.051 Y101.162 E54.44231
G1 X91.062 Y122.096 E55.66422
G1 X86.338 Y152.549 E57.31712
G1 X86.338 Y209.026 E60.3463
G1 X87.241 Y233.71 E61.67113
G1 X87.671 Y234.807 E61.7343
G1 X93.686 Y241.786 E62.22849
G1 X95.034 Y242.404 E62.308
G1 X113.993 Y242.403 E63.32485
G1 X178.56 Y240.267 E66.78983
G1 X187.597 Y239.047 E67.27895
G1 X195.095 Y237.105 E67.69437
G1 X203.948 Y234.29 E68.19263
G1 X204.451 Y234.037 E68.22285
G1 X208.914 Y230.812 E68.51819
G1 X209.65 Y229.448 E68.60126
G1 X210.553 Y209.026 E69.69769
G1 X210.553 Y152.549 E72.72687
G1 X205.704 Y121.664 E74.4037
G1 X196.84 Y101.162 E75.60167
G1 X195.691 Y100.156 E75.68361
G1 X168.201 Y92.397 E77.21563
G1 X167.718 Y92.33 E77.2418
G1 X129.173 Y92.33 E79.30915
G1 X128.69 Y92.397 E79.33532
G1 X101.201 Y100.156 E80.86734
G1 X100.977 Y100.352 E80.88331
G92 E0
G1 E-0.8 F2100
G1 Z0.43125 F8700
G1 X96.474 Y232.526
G1 Z0.23125
G1 E0 F2100
;WIDTH:0.675
;HEIGHT:0.23
G1 F2250
G1 X97.251 Y233.188 E0.06104
G1 X100.721 Y233.188 E0.26863
G1 X100.721 Y234.938 E0.37333
G1 X108.247 Y234.938 E0.82355
G1 X108.247 Y233.188 E0.92825
G1 X111.967 Y233.188 E1.15083
G1 X112.611 Y233.184 E1.18932
G1 X112.766 Y233.183 E1.1986
G1 X112.82 Y233.315 E1.20715
G1 X112.993 Y234.625 E1.28616
G1 X112.82 Y235.934 E1.36516
G1 X112.315 Y237.154 E1.44417
G1 X111.738 Y237.906 E1.50087
G1 X111.511 Y238.202 E1.52318
G1 X110.463 Y239.006 E1.60218
G1 X109.243 Y239.511 E1.68119
G1 X107.934 Y239.684 E1.7602
G1 X106.625 Y239.511 E1.83921
G1 X105.405 Y239.006 E1.91821
G1 X105.005 Y238.699 E1.94835
G1 X104.484 Y238.3 E1.98763
G1 X103.563 Y239.006 E2.05705
G1 X102.343 Y239.511 E2.13606
G1 X101.034 Y239.684 E2.21507
G1 X99.725 Y239.511 E2.29407
G1 X98.505 Y239.006 E2.37308
G1 X97.457 Y238.202 E2.45209
G1 X96.653 Y237.154 E2.53109
G1 X96.147 Y235.934 E2.6101
G1 X95.975 Y234.625 E2.68911
G1 X96.147 Y233.315 E2.76812
G1 X96.449 Y232.588 E2.8152
G92 E0
G1 E-0.8 F2100
G1 Z0.43125 F8700
G1 X100.69 Y233.465
G1 Z0.23125
G1 E0 F2100
G1 F2250
G1 X96.431 Y233.465 E0.2548
G1 X96.348 Y234.09 E0.29255
G1 X100.421 Y234.09 E0.53619
G1 X100.421 Y234.716 E0.57362
G1 X96.29 Y234.716 E0.82075
G1 X96.372 Y235.341 E0.8585
G1 X112.596 Y235.341 E1.82906
G1 X112.678 Y234.716 E1.86681
G1 X108.547 Y234.716 E2.11394
G1 X108.547 Y234.09 E2.15137
G1 X112.891 Y234.09 E2.41124
G1 X112.773 Y235.967 F8700
G1 F2250
G1 X96.486 Y235.967 E3.38561
G1 X96.745 Y236.593 E3.42612
G1 X112.223 Y236.593 E4.35205
G1 X112.053 Y237.003 E4.37861
G1 X111.887 Y237.218 E4.39486
G1 X97.081 Y237.218 E5.28069
G1 X97.561 Y237.844 E5.32786
G1 X111.407 Y237.844 E6.15624
G1 X111.297 Y237.988 E6.16709
G1 X110.669 Y238.47 E6.21444
G1 X105.199 Y238.47 E6.54168
G1 X105.556 Y238.744 E6.56861
G1 X106.405 Y239.095 E6.62359
G1 X110.166 Y239.095 E6.84858
G92 E0
G1 E-0.8 F2100
G1 Z0.43125 F8700
G1 X104.211 Y238.47
G1 Z0.23125
G1 E0 F2100
G1 F2250
G1 X98.299 Y238.47 E0.35368
G1 X98.656 Y238.744 E0.3806
G1 X99.505 Y239.095 E0.43559
G1 X103.266 Y239.095 E0.66058
G92 E0
G1 E-0.8 F2100
G1 Z0.43125 F8700
G1 X100.721 Y218.419
G1 Z0.23125
G1 E0 F2100
G1 F2250
G1 X97.251 Y218.419 E0.2076
G1 X96.474 Y219.08 E0.26863
G1 X96.379 Y218.849 E0.28361
G1 X96.147 Y218.291 E0.31976
G1 X95.975 Y216.982 E0.39876
G1 X96.147 Y215.672 E0.47777
G1 X96.653 Y214.452 E0.55678
G1 X97.457 Y213.404 E0.63578
G1 X98.505 Y212.6 E0.71479
G1 X99.725 Y212.095 E0.7938
G1 X101.034 Y211.923 E0.8728
G1 X102.343 Y212.095 E0.95181
G1 X103.563 Y212.6 E1.03082
G1 X104.484 Y213.307 E1.10024
G1 X105.405 Y212.6 E1.16966
G1 X106.625 Y212.095 E1.24867
G1 X107.934 Y211.923 E1.32767
G1 X109.243 Y212.095 E1.40668
G1 X110.463 Y212.6 E1.48569
G1 X111.511 Y213.404 E1.56469
G1 X112.315 Y214.452 E1.6437
G1 X112.82 Y215.672 E1.72271
G1 X112.993 Y216.982 E1.80171
G1 X112.82 Y218.291 E1.88072
G1 X112.765 Y218.424 E1.88931
G1 X112.155 Y218.42 E1.92583
G1 X111.967 Y218.419 E1.93707
G1 X108.247 Y218.419 E2.15965
G1 X108.247 Y216.669 E2.26434
G1 X100.721 Y216.669 E2.71457
G1 X100.721 Y218.351 E2.81523
G1 X100.69 Y217.241 F8700
G1 F2250
G1 X96.312 Y217.241 E3.07713
G1 X96.394 Y217.866 E3.11488
G1 X100.421 Y217.866 E3.35575
G1 X100.421 Y218.118 E3.37083
G1 X97.141 Y218.118 E3.56708
G1 X96.702 Y218.492 E3.60154
G1 X96.265 Y218.492 E3.62771
G92 E0
G1 E-0.8 F2100
G1 Z0.43125 F8700
G1 X102.601 Y212.236
G1 Z0.23125
G1 E0 F2100
G1 F2250
G1 X100.958 Y212.236 E0.09826
G1 X99.803 Y212.388 E0.16797
G1 X98.66 Y212.861 E0.242
G1 X103.852 Y212.861 E0.55262
G92 E0
G1 E-0.8 F2100
G1 Z0.43125 F8700
G1 X109.501 Y212.236
G1 Z0.23125
G1 E0 F2100
G1 F2250
G1 X107.858 Y212.236 E0.09826
G1 X106.703 Y212.388 E0.16797
G1 X105.56 Y212.861 E0.242
G1 X110.308 Y212.861 E0.52608
G1 X111.125 Y213.487 E0.58765
G1 X97.843 Y213.487 E1.38228
G1 X97.671 Y213.619 E1.39523
G1 X97.292 Y214.113 E1.43248
G1 X111.676 Y214.113 E2.293
G1 X112.053 Y214.604 E2.33003
G1 X112.108 Y214.738 E2.33875
G1 X96.859 Y214.738 E3.25103
G1 X96.6 Y215.364 E3.29154
G1 X112.368 Y215.364 E4.23483
G1 X112.528 Y215.751 E4.25988
G1 X112.559 Y215.989 E4.27429
G1 X96.409 Y215.989 E5.24051
G1 X96.326 Y216.615 E5.27827
G1 X112.642 Y216.615 E6.25434
G1 X112.69 Y216.982 E6.27646
G1 X112.656 Y217.241 E6.2921
G1 X108.547 Y217.241 E6.5379
G1 X108.547 Y217.866 E6.57533
G1 X112.845 Y217.866 E6.83244
G92 E0
G1 E-0.8 F2100
G1 Z0.43125 F8700
G1 X196.945 Y207.37
G1 Z0.23125
G1 E0 F2100
G1 F2250
G1 X197.033 Y206.7 E0.04044
G1 X199.048 Y207.683 E0.1746
G1 X202.135 Y207.683 E0.35928
G1 X203.091 Y206.704 E0.44111
G1 X203.098 Y202.455 E0.69529
G1 X203.313 Y202.483 E0.70826
G1 X204.533 Y202.989 E0.78727
G1 X205.581 Y203.793 E0.86628
G1 X206.385 Y204.84 E0.94528
G1 X206.89 Y206.06 E1.02429
G1 X207.063 Y207.37 E1.1033
G1 X206.89 Y208.679 E1.1823
G1 X206.385 Y209.899 E1.26131
G1 X205.808 Y210.651 E1.31801
G1 X205.581 Y210.947 E1.34032
G1 X204.533 Y211.751 E1.41933
G1 X203.313 Y212.256 E1.49833
G1 X202.004 Y212.429 E1.57734
G1 X200.694 Y212.256 E1.65635
G1 X199.474 Y211.751 E1.73535
G1 X198.427 Y210.947 E1.81436
G1 X197.623 Y209.899 E1.89337
G1 X197.117 Y208.679 E1.97237
G1 X196.954 Y207.437 E2.04734
G92 E0
G1 E-0.8 F2100
G1 Z0.43125 F8700
G1 X203.128 Y203.333
G1 Z0.23125
G1 E0 F2100
G1 F2250
G1 X204.488 Y203.333 E0.08139
G1 X205.304 Y203.958 E0.14287
G1 X203.396 Y203.958 E0.25701
G1 X203.395 Y204.584 E0.29444
G1 X205.81 Y204.584 E0.43891
G1 X206.122 Y204.992 E0.46965
G1 X206.213 Y205.21 E0.48377
G1 X203.394 Y205.21 E0.65242
G1 X203.393 Y205.835 E0.68985
G1 X206.472 Y205.835 E0.87407
G1 X206.598 Y206.139 E0.89372
G1 X206.64 Y206.461 E0.91316
G1 X203.392 Y206.461 E1.1075
G1 X203.391 Y206.826 E1.12934
G1 X203.137 Y207.087 E1.15112
G1 X206.722 Y207.087 E1.36563
G1 X206.76 Y207.37 E1.38271
G1 X206.715 Y207.712 E1.40338
G1 X202.526 Y207.712 E1.65395
G1 X202.262 Y207.983 E1.67658
G1 X198.979 Y207.983 E1.87297
G1 X198.424 Y207.712 E1.9099
G1 X197.293 Y207.712 E1.9776
G1 X197.375 Y208.338 E2.01535
G1 X206.632 Y208.338 E2.56915
G1 X206.598 Y208.601 E2.58501
G1 X206.447 Y208.964 E2.60851
G1 X197.56 Y208.964 E3.14019
G1 X197.819 Y209.589 E3.1807
G1 X206.188 Y209.589 E3.68137
G1 X206.122 Y209.748 E3.69163
G1 X205.764 Y210.215 E3.72686
G1 X198.243 Y210.215 E4.17679
G1 X198.641 Y210.733 E4.21584
G1 X198.781 Y210.841 E4.22643
G1 X205.226 Y210.841 E4.612
G1 X204.411 Y211.466 E4.67349
G1 X199.597 Y211.466 E4.9615
G1 X199.626 Y211.489 E4.9637
G1 X200.773 Y211.964 E5.03798
G1 X201.746 Y212.092 E5.09671
G1 X203.628 Y212.092 E5.20931
G92 E0
G1 E-0.8 F2100
G1 Z0.43125 F8700
G1 X99.107 Y207.066
G1 Z0.23125
G1 E0 F2100
G1 F2250
G1 X99.046 Y207.53 E0.02799
G1 X98.999 Y207.886 E0.04947
G1 X98.494 Y209.106 E0.12847
G1 X97.917 Y209.857 E0.18517
G1 X97.69 Y210.153 E0.20748
G1 X96.642 Y210.957 E0.28649
G1 X95.422 Y211.463 E0.3655
G1 X94.113 Y211.635 E0.4445
G1 X92.804 Y211.463 E0.52351
G1 X91.583 Y210.957 E0.60252
G1 X90.536 Y210.153 E0.68152
G1 X89.732 Y209.106 E0.76053
G1 X89.226 Y207.886 E0.83954
G1 X89.054 Y206.576 E0.91854
G1 X89.226 Y205.267 E0.99755
G1 X89.732 Y204.047 E1.07656
G1 X90.536 Y202.999 E1.15557
G1 X91.583 Y202.195 E1.23457
G1 X92.804 Y201.69 E1.31358
G1 X93.792 Y201.56 E1.3732
G1 X93.8 Y206.704 E1.68095
G1 X94.756 Y207.683 E1.76277
G1 X97.843 Y207.683 E1.94746
G1 X99.047 Y207.095 E2.0276
G92 E0
G1 E-0.8 F2100
G1 Z0.43125 F8700
G1 X93.762 Y202.498
G1 Z0.23125
G1 E0 F2100
G1 F2250
G1 X91.682 Y202.498 E0.12444
G1 X90.866 Y203.124 E0.18592
G1 X93.494 Y203.124 E0.34311
G1 X93.495 Y203.749 E0.38054
G1 X90.339 Y203.749 E0.56938
G1 X89.994 Y204.198 E0.60322
G1 X89.921 Y204.375 E0.61467
G1 X93.496 Y204.375 E0.82856
G1 X93.497 Y205.001 E0.86599
G1 X89.662 Y205.001 E1.09544
G1 X89.519 Y205.345 E1.11775
G1 X89.482 Y205.626 E1.13471
G1 X93.498 Y205.626 E1.37498
G1 X93.499 Y206.252 E1.41241
G1 X89.4 Y206.252 E1.65767
G1 X89.357 Y206.576 E1.67723
G1 X89.397 Y206.878 E1.69542
G1 X93.55 Y206.878 E1.94392
G1 X94.161 Y207.503 E1.99622
G1 X89.479 Y207.503 E2.27632
G1 X89.519 Y207.807 E2.29466
G1 X89.652 Y208.129 E2.3155
G1 X98.573 Y208.129 E2.84921
G1 X98.314 Y208.755 E2.88972
G1 X89.911 Y208.755 E3.39243
G1 X89.994 Y208.954 E3.40535
G1 X90.321 Y209.38 E3.43748
G1 X97.905 Y209.38 E3.89118
G1 X97.679 Y209.675 E3.91338
G1 X97.476 Y209.939 E3.93333
G1 X97.389 Y210.006 E3.93989
G1 X90.837 Y210.006 E4.33187
G1 X91.652 Y210.632 E4.39335
G1 X96.574 Y210.632 E4.68777
G1 X96.491 Y210.695 E4.69401
G1 X95.344 Y211.17 E4.76828
G1 X94.682 Y211.257 E4.80819
G1 X92.389 Y211.257 E4.94539
G92 E0
G1 E-0.8 F2100
G1 Z0.43125 F8700
G1 X197.655 Y185.353
G1 Z0.23125
G1 E0 F2100
G1 F2250
G1 X197.787 Y184.35 E0.06055
G1 X198.292 Y183.13 E0.13956
G1 X199.096 Y182.082 E0.21857
G1 X200.17 Y181.258 E0.29956
G1 X199.474 Y180.97 E0.34464
G1 X198.427 Y180.166 E0.42365
G1 X197.623 Y179.118 E0.50266
G1 X197.117 Y177.898 E0.58166
G1 X196.945 Y176.589 E0.66067
G1 X197.033 Y175.918 E0.70111
G1 X199.049 Y176.901 E0.83527
G1 X202.135 Y176.901 E1.01995
G1 X203.091 Y175.923 E1.10178
G1 X203.098 Y171.674 E1.35596
G1 X203.313 Y171.702 E1.36893
G1 X204.533 Y172.207 E1.44794
G1 X205.581 Y173.011 E1.52695
G1 X206.385 Y174.059 E1.60595
G1 X206.89 Y175.279 E1.68496
G1 X207.063 Y176.589 E1.76397
G1 X206.89 Y177.898 E1.84297
G1 X206.385 Y179.118 E1.92198
G1 X205.808 Y179.87 E1.97868
G1 X205.581 Y180.166 E2.00099
G1 X204.533 Y180.97 E2.08
G1 X204.507 Y180.99 E2.08198
G1 X205.203 Y181.278 E2.12706
G1 X206.251 Y182.082 E2.20607
G1 X207.055 Y183.13 E2.28508
G1 X207.56 Y184.35 E2.36408
G1 X207.732 Y185.659 E2.44309
G1 X207.56 Y186.969 E2.5221
G1 X207.055 Y188.189 E2.6011
G1 X206.478 Y188.941 E2.6578
G1 X206.251 Y189.236 E2.68011
G1 X205.203 Y190.04 E2.75912
G1 X203.983 Y190.546 E2.83813
G1 X203.099 Y190.662 E2.89144
G1 X203.091 Y185.663 E3.19049
G1 X202.903 Y185.446 E3.20767
G1 X202.81 Y185.353 E3.21551
G1 X202.134 Y184.674 E3.27289
G1 X199.048 Y184.674 E3.45746
G1 X197.716 Y185.324 E3.54618
G1 X197.807 Y184.439 F8700
G1 F2250
G1 X207.269 Y184.439 E4.11225
G1 X207.013 Y183.813 E4.15269
G1 X198.334 Y183.813 E4.67187
G1 X198.555 Y183.281 E4.7063
G1 X198.627 Y183.188 E4.71338
G1 X206.72 Y183.188 E5.19758
G1 X206.24 Y182.562 E5.24476
G1 X199.107 Y182.562 E5.67152
G1 X199.311 Y182.296 E5.69155
G1 X199.78 Y181.936 E5.72693
G1 X205.567 Y181.936 E6.07317
G1 X205.052 Y181.541 E6.11205
G1 X204.496 Y181.311 E6.148
G1 X200.595 Y181.311 E6.38139
G1 X200.766 Y181.18 E6.39426
G1 X199.626 Y180.707 E6.46809
G1 X199.597 Y180.685 E6.47029
G1 X204.411 Y180.685 E6.75831
G1 X205.226 Y180.059 E6.81979
G1 X198.781 Y180.059 E7.20537
G1 X198.641 Y179.952 E7.21596
G1 X198.243 Y179.434 E7.25501
G1 X205.764 Y179.434 E7.70494
G1 X206.122 Y178.967 E7.74016
G1 X206.188 Y178.808 E7.75043
G1 X197.819 Y178.808 E8.2511
G1 X197.56 Y178.182 E8.29161
G1 X206.447 Y178.182 E8.82329
G1 X206.598 Y177.819 E8.84679
G1 X206.632 Y177.557 E8.86264
G1 X197.375 Y177.557 E9.41645
G1 X197.293 Y176.931 E9.4542
G1 X198.424 Y176.931 E9.5219
G1 X198.979 Y177.202 E9.55882
G1 X202.262 Y177.202 E9.75522
G1 X202.526 Y176.931 E9.77784
G1 X206.715 Y176.931 E10.02842
G1 X206.76 Y176.589 E10.04909
