; generated by SuperSlicer 2.4 on 2023-02-16 at 14:34:36 UTC


;
;

;
;
; 

; external perimeters extrusion width = 0.42mm
; perimeters extrusion width = 0.47mm
; infill extrusion width = 0.45mm
; solid infill extrusion width = 0.47mm
; top infill extrusion width = 0.45mm
; support material extrusion width = 0.40mm
; first layer extrusion width = 0.61mm

; object:{"name":"face_plate_through_logo","id":"face_plate_through_logo.stl id:0 copy 0","object_center":[127.050312,148.500000,0.000000],"boundingbox_center":[127.050312,148.500000,4.500000],"boundingbox_size":[39.899376,40.000000,9.000000]}
; object:{"name":"face_plate_through_logo","id":"face_plate_through_logo.stl id:0 copy 1","object_center":[172.949688,148.500000,0.000000],"boundingbox_center":[172.949688,148.500000,4.500000],"boundingbox_size":[39.899376,40.000000,9.000000]}
; plater:{"center":[150.000000,148.500000,0.000000],"boundingbox_center":[150.000000,148.500000,4.500000],"boundingbox_size":[85.798752,40.000000,9.000000]}

;TYPE:Custom
M104 S0 ; Stops SuperSlicer from sending temp waits separately


; Pre-Processed for Cancel-Object support by preprocess_cancellation v0.2.0
; 2 known objects
EXCLUDE_OBJECT_DEFINE NAME=face_plate_through_logo_stl_id_0_copy_0 CENTER=127.362,148.490 POLYGON=[[107.315,128.712],[107.315,168.288],[146.788,168.288],[146.788,128.712]]
EXCLUDE_OBJECT_DEFINE NAME=face_plate_through_logo_stl_id_0_copy_1 CENTER=173.257,148.486 POLYGON=[[153.214,128.712],[153.214,168.288],[192.687,168.288],[192.687,128.712]]

M140 S0

print_start EXTRUDER=250 BED=110 CHAMBER=0
M107
G21 ; set units to millimeters
G90 ; use absolute coordinates
M83 ; use relative distances for extrusion
; Filament gcode
;_TOOLCHANGE 0
M107
;LAYER_CHANGE
;Z:0.2375
;HEIGHT:0.2375
TIMELAPSE_TAKE_FRAME
;BEFORE_LAYER_CHANGE
;0.2375


G1 Z0.2375 F12000
;AFTER_LAYER_CHANGE
;0.2375
G92 E0
G1 E-0.4 F2700
G1 Z0.7375 F12000
M204 S1000
G1 X105.885 Y125.567
G1 Z0.2375
G1 E0.4 F2700
;TYPE:Skirt
;WIDTH:0.44
G1 F1800
G1 X105.494 Y126.781 E0.04899
G1 X105.494 Y170.219 E1.66858
G1 X105.604 Y170.886 E0.02599
G1 X106.363 Y171.911 E0.04899
G1 X107.577 Y172.301 E0.04899
G1 X185.371 Y172.301 E2.98833
G1 X186.607 Y172.185 E0.04769
G1 X187.509 Y171.967 E0.03566
G1 X188.373 Y171.652 E0.03533
G1 X189.492 Y171.045 E0.04889
G1 X190.448 Y170.314 E0.04623
G1 X195.017 Y165.694 E0.24957
G1 X195.58 Y164.882 E0.03798
G1 X196.173 Y163.681 E0.05146
G1 X196.558 Y162.358 E0.05291
G1 X196.701 Y160.972 E0.05354
G1 X196.701 Y136.028 E0.95816
G1 X196.626 Y135.063 E0.03718
G1 X196.443 Y134.155 E0.0356
G1 X196.051 Y133.026 E0.0459
G1 X195.293 Y131.68 E0.05934
G1 X194.718 Y130.957 E0.03546
G1 X190.668 Y126.892 E0.22044
G1 X189.558 Y125.994 E0.05487
G1 X188.793 Y125.552 E0.03393
G1 X187.959 Y125.182 E0.03505
G1 X186.757 Y124.842 E0.04797
G1 X185.371 Y124.699 E0.05354
G1 X107.577 Y124.699 E2.98833
G1 X106.91 Y124.808 E0.02599
G1 X105.933 Y125.532 E0.04668
G1 X106.271 Y125.702 F12000
G1 F1800
G1 X105.883 Y126.781 E0.04406
G1 X105.883 Y170.219 E1.66858
G1 X106.498 Y171.525 E0.05545
G1 X107.577 Y171.913 E0.04406
G1 X185.371 Y171.913 E2.98833
G1 X186.523 Y171.806 E0.04445
G1 X187.376 Y171.602 E0.03369
G1 X188.24 Y171.287 E0.03533
G1 X189.299 Y170.708 E0.04635
G1 X190.173 Y170.039 E0.04229
G1 X194.697 Y165.473 E0.24692
G1 X195.261 Y164.661 E0.03798
G1 X195.821 Y163.517 E0.04892
G1 X196.182 Y162.258 E0.0503
G1 X196.312 Y160.972 E0.04967
G1 X196.312 Y136.028 E0.95816
G1 X196.239 Y135.097 E0.0359
G1 X196.064 Y134.239 E0.03364
G1 X195.686 Y133.159 E0.04393
G1 X194.984 Y131.916 E0.05485
G1 X194.443 Y131.232 E0.0335
G1 X190.393 Y127.166 E0.22044
G1 X189.363 Y126.33 E0.05095
G1 X188.598 Y125.888 E0.03393
G1 X187.808 Y125.54 E0.03319
G1 X186.657 Y125.217 E0.04589
G1 X185.371 Y125.087 E0.04967
G1 X107.577 Y125.087 E2.98833
G1 X106.325 Y125.676 E0.05315
G1 E-0.4 F2700
G1 Z0.7375 F12000
; acceleration to travel
M204 S1500
G1 X134.904 Y127.938
; decel to extrusion
M204 S1000
G1 X153.956 Y129.445
; end travel
G1 Z0.2375
G1 E0.4 F2700
;WIDTH:0.612
;HEIGHT:0.24
G1 F1800
G1 X154.042 Y129.013 E0.02461
G1 X154.21 Y128.607 E0.02462
G1 X154.379 Y128.332 E0.01804
G1 X154.929 Y127.764 E0.0442
G1 X155.192 Y127.573 E0.01819
G1 X155.704 Y127.347 E0.03134
G1 X156.141 Y127.259 E0.02489
G1 X185.294 Y127.259 E1.63046
G1 X186.203 Y127.348 E0.05104
G1 X187.102 Y127.599 E0.05225
G1 X187.603 Y127.822 E0.03063
G1 X188.154 Y128.142 E0.03564
G1 X188.904 Y128.75 E0.05401
G1 X192.936 Y132.813 E0.32011
G1 X193.281 Y133.283 E0.03258
G1 X193.649 Y133.941 E0.0422
G1 X193.918 Y134.652 E0.0425
G1 X194.054 Y135.203 E0.03177
G1 X194.14 Y136.106 E0.05072
G1 X194.14 Y160.906 E1.38697
G1 X194.063 Y161.743 E0.047
G1 X193.844 Y162.58 E0.0484
G1 X193.502 Y163.35 E0.04713
G1 X193.02 Y164.081 E0.04897
G1 X188.588 Y168.535 E0.35142
G1 X188.108 Y168.887 E0.03328
G1 X187.36 Y169.295 E0.04762
G1 X186.694 Y169.535 E0.03962
G1 X186.006 Y169.684 E0.03938
G1 X185.289 Y169.741 E0.04023
G1 X156.141 Y169.741 E1.63015
G1 X155.709 Y169.655 E0.02461
G1 X155.302 Y169.487 E0.02462
G1 X155.028 Y169.317 E0.01804
G1 X154.46 Y168.767 E0.0442
G1 X154.27 Y168.504 E0.01819
G1 X154.044 Y167.991 E0.03134
G1 X153.956 Y167.555 E0.02491
G1 X153.969 Y162.498 E0.28277
G1 X154.028 Y162.22 E0.01592
G1 X154.158 Y161.859 E0.02147
G1 X154.291 Y161.608 E0.01587
G1 X154.725 Y161.069 E0.03873
G1 X154.937 Y160.876 E0.01601
G1 X155.357 Y160.616 E0.02761
G1 X155.73 Y160.477 E0.02225
G1 X156.561 Y160.325 E0.0473
G1 X157.422 Y160.262 E0.04823
G1 X165.858 Y160.261 E0.47184
G1 X165.858 Y136.739 E1.31548
G1 X157.421 Y136.74 E0.47189
G1 X156.56 Y136.677 E0.04829
G1 X155.728 Y136.525 E0.04726
G1 X155.361 Y136.388 E0.02194
G1 X154.985 Y136.161 E0.02457
G1 X154.727 Y135.936 E0.01913
G1 X154.291 Y135.394 E0.0389
G1 X154.158 Y135.143 E0.01587
G1 X154.027 Y134.779 E0.02164
G1 X153.96 Y134.398 E0.02166
G1 X153.956 Y129.505 E0.27363
G1 X154.517 Y129.505 F12000
G1 F1800
G1 X154.517 Y129.472 E0.00181
G1 X154.57 Y129.202 E0.01539
G1 X154.719 Y128.843 E0.02174
G1 X154.837 Y128.657 E0.01233
G1 X155.311 Y128.175 E0.03779
G1 X155.491 Y128.048 E0.01233
G1 X155.898 Y127.873 E0.0248
G1 X156.168 Y127.82 E0.01539
G1 X185.281 Y127.82 E1.62815
G1 X186.123 Y127.903 E0.04734
G1 X186.894 Y128.12 E0.04481
G1 X187.335 Y128.315 E0.02695
G1 X187.854 Y128.615 E0.03354
G1 X188.517 Y129.156 E0.04783
G1 X192.497 Y133.162 E0.31586
G1 X192.801 Y133.573 E0.02858
G1 X193.133 Y134.16 E0.03767
G1 X193.388 Y134.834 E0.04032
G1 X193.504 Y135.315 E0.02769
G1 X193.58 Y136.119 E0.04517
G1 X193.58 Y160.893 E1.38549
G1 X193.507 Y161.667 E0.0435
G1 X193.308 Y162.414 E0.04323
G1 X193 Y163.099 E0.04201
G1 X192.569 Y163.748 E0.04357
G1 X188.238 Y168.097 E0.34324
G1 X187.821 Y168.405 E0.02899
G1 X187.149 Y168.775 E0.04291
G1 X186.521 Y169.002 E0.03735
G1 X185.942 Y169.127 E0.03312
G1 X185.278 Y169.18 E0.03731
G1 X156.168 Y169.18 E1.62798
G1 X155.898 Y169.127 E0.01539
G1 X155.539 Y168.978 E0.02174
G1 X155.353 Y168.86 E0.01233
G1 X154.872 Y168.386 E0.03779
G1 X154.745 Y168.205 E0.01233
G1 X154.57 Y167.798 E0.0248
G1 X154.517 Y167.528 E0.01539
G1 X154.525 Y162.581 E0.27668
G1 X154.562 Y162.39 E0.01085
G1 X154.678 Y162.069 E0.01909
G1 X154.771 Y161.899 E0.01085
G1 X155.145 Y161.441 E0.03309
G1 X155.29 Y161.312 E0.01085
G1 X155.625 Y161.11 E0.02184
G1 X155.855 Y161.024 E0.01374
G1 X156.647 Y160.879 E0.04504
G1 X157.451 Y160.822 E0.04508
G1 X166.419 Y160.822 E0.50153
G1 X166.419 Y136.179 E1.37818
G1 X157.45 Y136.18 E0.50158
G1 X156.645 Y136.123 E0.04514
G1 X155.854 Y135.978 E0.045
G1 X155.625 Y135.892 E0.01369
G1 X155.33 Y135.719 E0.01914
G1 X155.145 Y135.561 E0.01355
G1 X154.771 Y135.103 E0.03309
G1 X154.678 Y134.933 E0.01085
G1 X154.562 Y134.612 E0.01909
G1 X154.52 Y134.373 E0.01355
G1 X154.517 Y129.565 E0.26892
G1 X155.077 Y129.564 F12000
G1 F1800
G1 X155.077 Y129.499 E0.00363
G1 X155.099 Y129.391 E0.00618
G1 X155.226 Y129.083 E0.01865
G1 X155.288 Y128.991 E0.00618
G1 X155.688 Y128.591 E0.03164
G1 X155.779 Y128.529 E0.00618
G1 X156.088 Y128.402 E0.01865
G1 X156.196 Y128.38 E0.00618
G1 X185.267 Y128.38 E1.62586
G1 X185.997 Y128.45 E0.04098
G1 X186.688 Y128.642 E0.04012
G1 X187.068 Y128.808 E0.02319
G1 X187.553 Y129.089 E0.03139
G1 X188.13 Y129.561 E0.04165
G1 X192.06 Y133.513 E0.31173
G1 X192.322 Y133.865 E0.0245
G1 X192.634 Y134.416 E0.03545
G1 X192.857 Y135.013 E0.03565
G1 X192.954 Y135.425 E0.02365
G1 X193.019 Y136.132 E0.03972
G1 X193.019 Y160.88 E1.38406
G1 X192.958 Y161.548 E0.03753
G1 X192.788 Y162.206 E0.03799
G1 X192.499 Y162.848 E0.03936
G1 X192.119 Y163.413 E0.0381
G1 X187.887 Y167.66 E0.3353
G1 X187.532 Y167.924 E0.02473
G1 X186.936 Y168.256 E0.03818
G1 X186.382 Y168.459 E0.03298
G1 X185.878 Y168.57 E0.02888
G1 X185.266 Y168.62 E0.03433
G1 X156.196 Y168.62 E1.6258
G1 X156.088 Y168.598 E0.00618
G1 X155.779 Y168.471 E0.01865
G1 X155.688 Y168.409 E0.00618
G1 X155.288 Y168.009 E0.03164
G1 X155.226 Y167.917 E0.00618
G1 X155.099 Y167.609 E0.01865
G1 X155.077 Y167.501 E0.00618
G1 X155.081 Y162.654 E0.27108
G1 X155.098 Y162.558 E0.00543
G1 X155.197 Y162.282 E0.01638
G1 X155.245 Y162.198 E0.00543
G1 X155.561 Y161.817 E0.02768
G1 X155.635 Y161.754 E0.00543
G1 X155.888 Y161.605 E0.01641
G1 X155.98 Y161.571 E0.00549
G1 X156.732 Y161.433 E0.04277
G1 X157.48 Y161.382 E0.0419
G1 X166.979 Y161.382 E0.53128
G1 X166.979 Y135.618 E1.44088
G1 X157.48 Y135.62 E0.53126
G1 X156.701 Y135.565 E0.0437
G1 X155.98 Y135.431 E0.04099
G1 X155.888 Y135.397 E0.00549
G1 X155.635 Y135.248 E0.01641
G1 X155.561 Y135.185 E0.00543
G1 X155.245 Y134.804 E0.02768
G1 X155.197 Y134.72 E0.00543
G1 X155.098 Y134.444 E0.01638
G1 X155.081 Y134.348 E0.00543
G1 X155.077 Y129.624 E0.26421
G1 X155.638 Y129.624 F12000
G1 F1800
G1 X155.638 Y129.554 E0.0039
G1 X155.723 Y129.348 E0.01248
G1 X156.045 Y129.026 E0.02547
G1 X156.251 Y128.94 E0.01248
G1 X185.255 Y128.94 E1.62206
G1 X185.873 Y128.997 E0.03472
G1 X186.484 Y129.164 E0.03544
G1 X186.801 Y129.301 E0.01932
G1 X187.253 Y129.562 E0.02918
G1 X187.742 Y129.966 E0.03549
G1 X191.624 Y133.866 E0.30774
G1 X191.844 Y134.158 E0.02048
G1 X192.117 Y134.634 E0.03064
G1 X192.325 Y135.192 E0.03334
G1 X192.403 Y135.532 E0.0195
G1 X192.459 Y136.145 E0.03441
G1 X192.459 Y160.867 E1.38263
G1 X192.403 Y161.473 E0.03404
G1 X192.252 Y162.039 E0.03274
G1 X191.999 Y162.593 E0.03408
G1 X191.67 Y163.076 E0.03266
G1 X187.534 Y167.224 E0.32762
G1 X187.241 Y167.445 E0.02052
G1 X186.722 Y167.738 E0.03332
G1 X186.207 Y167.926 E0.03066
G1 X185.813 Y168.013 E0.02259
G1 X185.255 Y168.06 E0.03132
G1 X156.251 Y168.059 E1.62206
G1 X156.045 Y167.974 E0.01248
G1 X155.723 Y167.652 E0.02547
G1 X155.638 Y167.446 E0.01248
G1 X155.641 Y162.703 E0.26528
G1 X155.708 Y162.518 E0.01095
G1 X155.962 Y162.212 E0.02224
G1 X156.13 Y162.113 E0.01095
G1 X156.787 Y161.991 E0.03735
G1 X157.49 Y161.943 E0.03938
G1 X167.54 Y161.943 E0.56208
G1 X167.54 Y135.058 E1.50357
G1 X157.49 Y135.06 E0.56207
G1 X156.787 Y135.011 E0.03939
G1 X156.13 Y134.889 E0.03735
G1 X155.962 Y134.79 E0.01095
G1 X155.708 Y134.484 E0.02224
G1 X155.641 Y134.299 E0.01095
G1 X155.638 Y129.684 E0.25814
G1 X156.198 Y129.683 F12000
G1 F1800
G1 X156.198 Y129.665 E0.00101
G1 X156.363 Y129.501 E0.01299
G1 X185.249 Y129.501 E1.61549
G1 X185.74 Y129.543 E0.02759
G1 X185.764 Y129.547 E0.00137
G1 X186.256 Y129.678 E0.02848
G1 X186.275 Y129.684 E0.00109
G1 X186.543 Y129.799 E0.01633
G1 X186.941 Y130.029 E0.02571
G1 X186.961 Y130.043 E0.00134
G1 X187.349 Y130.366 E0.02828
G1 X191.184 Y134.214 E0.30378
G1 X191.196 Y134.228 E0.00103
G1 X191.362 Y134.446 E0.01535
G1 X191.372 Y134.461 E0.00103
G1 X191.614 Y134.881 E0.02709
G1 X191.624 Y134.903 E0.00134
G1 X191.79 Y135.358 E0.02709
G1 X191.795 Y135.376 E0.00104
G1 X191.854 Y135.644 E0.01535
G1 X191.857 Y135.662 E0.00103
G1 X191.898 Y136.151 E0.02743
G1 X191.898 Y160.849 E1.38129
G1 X191.857 Y161.341 E0.02759
G1 X191.853 Y161.365 E0.00137
G1 X191.721 Y161.859 E0.02862
G1 X191.713 Y161.883 E0.00138
G1 X191.507 Y162.325 E0.02726
G1 X191.495 Y162.345 E0.00134
G1 X191.217 Y162.746 E0.02727
G1 X191.201 Y162.765 E0.0014
G1 X187.186 Y166.784 E0.3177
G1 X187.172 Y166.796 E0.00105
G1 X186.954 Y166.963 E0.01535
G1 X186.938 Y166.973 E0.00103
G1 X186.518 Y167.214 E0.02709
G1 X186.496 Y167.224 E0.00134
G1 X186.041 Y167.39 E0.02709
G1 X186.023 Y167.396 E0.00104
G1 X185.755 Y167.455 E0.01535
G1 X185.737 Y167.458 E0.00103
G1 X185.249 Y167.499 E0.02743
G1 X156.363 Y167.499 E1.61549
G1 X156.198 Y167.335 E0.01299
G1 X156.202 Y162.801 E0.25356
G1 X156.331 Y162.645 E0.01129
G1 X156.851 Y162.548 E0.02959
G1 X157.494 Y162.503 E0.03609
G1 X168.1 Y162.503 E0.59315
G1 X168.1 Y134.497 E1.56627
G1 X157.494 Y134.499 E0.59315
G1 X156.851 Y134.454 E0.03609
G1 X156.331 Y134.357 E0.02959
G1 X156.202 Y134.201 E0.01129
G1 X156.198 Y129.743 E0.24931
G1 E-0.4 F2700
G1 Z0.7375 F12000
; acceleration to travel
M204 S1500
G1 X151.129 Y132.262
; decel to extrusion
M204 S1000
G1 X147.75 Y133.941
; end travel
G1 Z0.2375
G1 E0.4 F2700
G1 F1800
G1 X148.019 Y134.652 E0.0425
G1 X148.154 Y135.203 E0.03177
G1 X148.241 Y136.106 E0.05072
G1 X148.241 Y160.906 E1.38697
G1 X148.163 Y161.743 E0.047
G1 X147.945 Y162.58 E0.0484
G1 X147.603 Y163.35 E0.04713
G1 X147.121 Y164.081 E0.04897
G1 X142.689 Y168.535 E0.35142
G1 X142.209 Y168.887 E0.03328
G1 X141.461 Y169.295 E0.04762
G1 X140.795 Y169.535 E0.03962
G1 X140.107 Y169.684 E0.03938
G1 X139.389 Y169.741 E0.04023
G1 X110.241 Y169.741 E1.63015
G1 X109.81 Y169.655 E0.02461
G1 X109.403 Y169.487 E0.02462
G1 X109.129 Y169.317 E0.01804
G1 X108.561 Y168.767 E0.0442
G1 X108.37 Y168.504 E0.01819
G1 X108.144 Y167.991 E0.03134
G1 X108.057 Y167.555 E0.02491
G1 X108.07 Y162.498 E0.28277
G1 X108.128 Y162.22 E0.01592
G1 X108.259 Y161.859 E0.02147
G1 X108.392 Y161.608 E0.01587
G1 X108.826 Y161.069 E0.03873
G1 X109.038 Y160.876 E0.01601
G1 X109.458 Y160.616 E0.02761
G1 X109.83 Y160.477 E0.02225
G1 X110.662 Y160.325 E0.0473
G1 X111.522 Y160.262 E0.04823
G1 X119.959 Y160.261 E0.47184
G1 X119.959 Y136.739 E1.31548
G1 X111.521 Y136.74 E0.47189
G1 X110.66 Y136.677 E0.04829
G1 X109.829 Y136.525 E0.04726
G1 X109.462 Y136.388 E0.02194
G1 X109.085 Y136.161 E0.02457
G1 X108.828 Y135.936 E0.01913
G1 X108.392 Y135.394 E0.0389
G1 X108.259 Y135.143 E0.01587
G1 X108.127 Y134.779 E0.02164
G1 X108.061 Y134.398 E0.02166
G1 X108.057 Y129.445 E0.27699
G1 X108.142 Y129.013 E0.02461
G1 X108.311 Y128.607 E0.02462
G1 X108.48 Y128.332 E0.01804
G1 X109.029 Y127.764 E0.0442
G1 X109.292 Y127.573 E0.01819
G1 X109.805 Y127.347 E0.03134
G1 X110.241 Y127.259 E0.02489
G1 X139.395 Y127.259 E1.63046
G1 X140.303 Y127.348 E0.05104
G1 X141.203 Y127.599 E0.05225
G1 X141.703 Y127.822 E0.03063
G1 X142.255 Y128.142 E0.03564
G1 X143.005 Y128.75 E0.05401
G1 X147.037 Y132.813 E0.32011
G1 X147.381 Y133.283 E0.03258
G1 X147.72 Y133.889 E0.03884
G1 X147.233 Y134.16 F12000
G1 F1800
G1 X147.489 Y134.834 E0.04032
G1 X147.605 Y135.315 E0.02769
G1 X147.68 Y136.119 E0.04517
G1 X147.68 Y160.893 E1.38549
G1 X147.607 Y161.667 E0.0435
G1 X147.409 Y162.414 E0.04323
G1 X147.101 Y163.099 E0.04201
G1 X146.67 Y163.748 E0.04357
G1 X142.339 Y168.097 E0.34324
G1 X141.922 Y168.405 E0.02899
G1 X141.25 Y168.775 E0.04291
G1 X140.622 Y169.002 E0.03735
G1 X140.043 Y169.127 E0.03312
G1 X139.378 Y169.18 E0.03731
G1 X110.269 Y169.18 E1.62798
G1 X109.999 Y169.127 E0.01539
G1 X109.64 Y168.978 E0.02174
G1 X109.454 Y168.86 E0.01233
G1 X108.972 Y168.386 E0.03779
G1 X108.845 Y168.205 E0.01233
G1 X108.671 Y167.798 E0.0248
G1 X108.617 Y167.528 E0.01539
G1 X108.625 Y162.581 E0.27668
G1 X108.663 Y162.39 E0.01085
G1 X108.779 Y162.069 E0.01909
G1 X108.871 Y161.899 E0.01085
G1 X109.246 Y161.441 E0.03309
G1 X109.391 Y161.312 E0.01085
G1 X109.725 Y161.11 E0.02184
G1 X109.955 Y161.024 E0.01374
G1 X110.748 Y160.879 E0.04504
G1 X111.552 Y160.822 E0.04508
G1 X120.52 Y160.822 E0.50153
G1 X120.52 Y136.179 E1.37818
G1 X111.551 Y136.18 E0.50158
G1 X110.746 Y136.123 E0.04514
G1 X109.954 Y135.978 E0.045
G1 X109.725 Y135.892 E0.01369
G1 X109.43 Y135.719 E0.01914
G1 X109.246 Y135.561 E0.01355
G1 X108.871 Y135.103 E0.03309
G1 X108.779 Y134.933 E0.01085
G1 X108.663 Y134.612 E0.01909
G1 X108.621 Y134.373 E0.01355
