; generated by SuperSlicer 2.4 on 2023-02-07 at 19:22:23 UTC


;
;

;
;
; 

; external perimeters extrusion width = 0.42mm
; perimeters extrusion width = 0.46mm
; infill extrusion width = 0.44mm
; solid infill extrusion width = 0.46mm
; top infill extrusion width = 0.44mm
; support material extrusion width = 0.40mm
; first layer extrusion width = 0.60mm

; object:{"name":"Filament_Card_Caddy_25","id":"Filament_Card_Caddy_25.stl id:0 copy 0","object_center":[150.297448,180.978315,0.000000],"boundingbox_center":[150.297448,180.978315,10.000000],"boundingbox_size":[67.500000,78.099998,20.000000]}
; plater:{"center":[150.297448,180.978315,0.000000],"boundingbox_center":[150.297448,180.978315,10.000000],"boundingbox_size":[67.500000,78.099998,20.000000]}

;TYPE:Custom
M104 S0 ; Stops SuperSlicer from sending temp waits separately


; Pre-Processed for Cancel-Object support by preprocess_cancellation v0.2.0
; 1 known objects
EXCLUDE_OBJECT_DEFINE NAME=Filament_Card_Caddy_25_stl_id_0_copy_0 CENTER=150.352,178.870 POLYGON=[[116.757,142.138],[116.757,219.818],[183.837,219.818],[183.837,142.138]]

M140 S0

print_start EXTRUDER=245 BED=105 CHAMBER=0
M107
G21 ; set units to millimeters
G90 ; use absolute coordinates
M83 ; use relative distances for extrusion
; Filament gcode
;_TOOLCHANGE 0
M107
;LAYER_CHANGE
;Z:0.2
;HEIGHT:0.2
TIMELAPSE_TAKE_FRAME
;BEFORE_LAYER_CHANGE
;0.2


G1 E-0.8 F3000
G1 Z0.2 F8400
;AFTER_LAYER_CHANGE
;0.2
G92 E0
G1 X114.905 Y139.301
G1 E0.8 F1800
;TYPE:Skirt
;WIDTH:0.44
G1 X113.755 Y140.492 E0.05465
G1 X113.051 Y141.606 E0.04352
G1 X112.814 Y142.117 E0.01859
G1 X112.366 Y143.633 E0.0522
G1 X112.252 Y144.82 E0.03936
G1 X112.252 Y217.137 E2.38773
G1 X112.366 Y218.324 E0.03936
G1 X112.487 Y218.874 E0.01859
G1 X113.051 Y220.351 E0.0522
G1 X113.92 Y221.671 E0.05219
G1 X115.111 Y222.82 E0.05465
G1 X116.225 Y223.525 E0.04352
G1 X116.736 Y223.762 E0.01859
G1 X118.252 Y224.21 E0.0522
G1 X119.439 Y224.324 E0.03936
G1 X181.156 Y224.324 E2.03775
G1 X182.343 Y224.21 E0.03936
G1 X182.893 Y224.088 E0.01859
G1 X184.37 Y223.525 E0.0522
G1 X185.69 Y222.656 E0.05219
G1 X186.84 Y221.465 E0.05465
G1 X187.544 Y220.351 E0.04352
G1 X187.781 Y219.84 E0.01859
G1 X188.229 Y218.324 E0.05219
G1 X188.343 Y217.137 E0.03936
G1 X188.328 Y144.538 E2.39703
G1 X188.108 Y143.083 E0.04859
G1 X187.781 Y142.117 E0.03368
G1 X187.055 Y140.797 E0.04975
G1 X186.36 Y139.938 E0.03647
G1 X185.243 Y138.959 E0.04904
G1 X183.859 Y138.195 E0.05219
G1 X182.896 Y137.869 E0.03356
G1 X181.4 Y137.645 E0.04995
G1 X119.439 Y137.633 E2.0458
G1 X118.252 Y137.747 E0.03936
G1 X117.702 Y137.868 E0.01859
G1 X116.225 Y138.432 E0.0522
G1 X114.955 Y139.268 E0.05021
G1 X115.178 Y139.588 F8400
G1 F1800
G1 X114.062 Y140.744 E0.05304
G1 X113.19 Y142.244 E0.05729
G1 X112.761 Y143.676 E0.04936
G1 X112.649 Y144.82 E0.03794
G1 X112.649 Y217.137 E2.38773
G1 X112.863 Y218.746 E0.05361
G1 X113.391 Y220.145 E0.04936
G1 X114.208 Y221.397 E0.04935
G1 X115.363 Y222.513 E0.05304
G1 X116.863 Y223.386 E0.0573
G1 X118.295 Y223.815 E0.04936
G1 X119.439 Y223.927 E0.03794
G1 X181.156 Y223.927 E2.03775
G1 X182.766 Y223.712 E0.05361
G1 X184.164 Y223.185 E0.04936
G1 X185.416 Y222.368 E0.04935
G1 X186.533 Y221.213 E0.05304
G1 X187.405 Y219.713 E0.05729
G1 X187.834 Y218.281 E0.04936
G1 X187.946 Y217.137 E0.03794
G1 X187.933 Y144.581 E2.3956
G1 X187.731 Y143.21 E0.04575
G1 X187.405 Y142.244 E0.03368
G1 X186.715 Y141.002 E0.04691
G1 X186.086 Y140.226 E0.03298
G1 X185.037 Y139.299 E0.04621
G1 X183.732 Y138.571 E0.04935
G1 X182.769 Y138.245 E0.03356
G1 X181.361 Y138.04 E0.04697
G1 X119.439 Y138.03 E2.04452
G1 X117.829 Y138.244 E0.05361
G1 X116.43 Y138.772 E0.04936
G1 X115.229 Y139.556 E0.04737
G1 X117.015 Y141.702 F8400
;WIDTH:0.604
G1 F1800
G1 X117.764 Y141.234 E0.0412
G1 X118.601 Y140.936 E0.04144
G1 X119.516 Y140.826 E0.04301
G1 X181.09 Y140.826 E2.87267
G1 X181.929 Y140.921 E0.03937
G1 X182.712 Y141.179 E0.03845
G1 X183.478 Y141.625 E0.04139
G1 X184.091 Y142.187 E0.0388
G1 X184.376 Y142.537 E0.02103
G1 X184.722 Y143.109 E0.03121
G1 X184.813 Y143.307 E0.01017
G1 X185.067 Y144.107 E0.03916
G1 X185.15 Y144.883 E0.03639
G1 X185.15 Y217.058 E3.36729
G1 X185.067 Y217.849 E0.03708
G1 X184.813 Y218.65 E0.03919
G1 X184.72 Y218.85 E0.01033
G1 X184.301 Y219.526 E0.0371
G1 X184.092 Y219.769 E0.01495
G1 X183.58 Y220.254 E0.03292
G1 X182.831 Y220.722 E0.0412
G1 X181.994 Y221.02 E0.04144
G1 X181.079 Y221.131 E0.04301
G1 X119.517 Y221.131 E2.87209
G1 X118.727 Y221.048 E0.03708
G1 X117.926 Y220.794 E0.03919
G1 X117.725 Y220.701 E0.01033
G1 X117.05 Y220.281 E0.0371
G1 X116.807 Y220.073 E0.01495
G1 X116.322 Y219.561 E0.03292
G1 X115.853 Y218.812 E0.0412
G1 X115.555 Y217.975 E0.04144
G1 X115.445 Y217.06 E0.04301
G1 X115.445 Y144.898 E3.36662
G1 X115.528 Y144.108 E0.03708
G1 X115.782 Y143.307 E0.03919
G1 X115.875 Y143.106 E0.01033
G1 X116.294 Y142.431 E0.0371
G1 X116.503 Y142.188 E0.01495
G1 X116.972 Y141.744 E0.03012
G1 X117.357 Y142.151 F8400
G1 F1800
G1 X117.38 Y142.13 E0.00145
G1 X118.032 Y141.728 E0.03574
G1 X118.756 Y141.476 E0.03575
G1 X119.532 Y141.387 E0.03646
G1 X181.075 Y141.387 E2.87121
G1 X181.781 Y141.464 E0.03315
G1 X182.507 Y141.702 E0.03565
G1 X183.166 Y142.093 E0.03574
G1 X183.695 Y142.584 E0.03369
G1 X183.906 Y142.843 E0.01557
G1 X184.233 Y143.386 E0.02958
G1 X184.285 Y143.497 E0.00569
G1 X184.513 Y144.196 E0.03432
G1 X184.589 Y144.898 E0.03292
G1 X184.589 Y217.044 E3.36589
G1 X184.513 Y217.76 E0.03363
G1 X184.285 Y218.46 E0.03432
G1 X184.233 Y218.57 E0.00569
G1 X183.859 Y219.179 E0.03334
G1 X183.695 Y219.372 E0.01182
G1 X183.215 Y219.827 E0.03086
G1 X182.563 Y220.229 E0.03574
G1 X181.839 Y220.48 E0.03575
G1 X181.063 Y220.57 E0.03646
G1 X119.532 Y220.57 E2.87064
G1 X118.816 Y220.493 E0.03363
G1 X118.116 Y220.266 E0.03433
G1 X118.005 Y220.214 E0.00569
G1 X117.397 Y219.84 E0.03334
G1 X117.204 Y219.676 E0.01182
G1 X116.749 Y219.196 E0.03085
G1 X116.347 Y218.543 E0.03574
G1 X116.095 Y217.82 E0.03575
G1 X116.006 Y217.044 E0.03646
G1 X116.006 Y144.913 E3.36517
G1 X116.082 Y144.196 E0.03363
G1 X116.31 Y143.497 E0.03433
G1 X116.361 Y143.386 E0.00569
G1 X116.736 Y142.778 E0.03334
G1 X116.9 Y142.584 E0.01182
G1 X117.314 Y142.192 E0.02661
G1 X117.7 Y142.598 F8400
G1 F1800
G1 X117.733 Y142.566 E0.00212
G1 X117.757 Y142.548 E0.00142
G1 X118.282 Y142.23 E0.02864
G1 X118.31 Y142.218 E0.00142
G1 X118.892 Y142.021 E0.02865
G1 X118.922 Y142.014 E0.00142
G1 X119.54 Y141.948 E0.02901
G1 X181.054 Y141.948 E2.8699
G1 X181.224 Y141.964 E0.00796
G1 X181.674 Y142.015 E0.02112
G1 X181.703 Y142.021 E0.0014
G1 X182.285 Y142.218 E0.02864
G1 X182.313 Y142.23 E0.00142
G1 X182.838 Y142.548 E0.02864
G1 X182.862 Y142.566 E0.00142
G1 X183.314 Y142.998 E0.02912
G1 X183.419 Y143.126 E0.00773
G1 X183.431 Y143.142 E0.00094
G1 X183.745 Y143.663 E0.0284
G1 X183.758 Y143.691 E0.00142
G1 X183.955 Y144.273 E0.02865
G1 X183.961 Y144.302 E0.00142
G1 X184.028 Y144.921 E0.02901
G1 X184.028 Y217.036 E3.36446
G1 X183.961 Y217.654 E0.02901
G1 X183.955 Y217.684 E0.00142
G1 X183.758 Y218.266 E0.02865
G1 X183.745 Y218.293 E0.00142
G1 X183.431 Y218.814 E0.0284
G1 X183.419 Y218.831 E0.00094
G1 X183.302 Y218.972 E0.00854
G1 X182.862 Y219.39 E0.02832
G1 X182.838 Y219.409 E0.00142
G1 X182.313 Y219.726 E0.02864
G1 X182.285 Y219.739 E0.00142
G1 X181.703 Y219.936 E0.02865
G1 X181.673 Y219.942 E0.00142
G1 X181.055 Y220.009 E0.02901
G1 X119.54 Y220.009 E2.86993
G1 X118.922 Y219.942 E0.02901
G1 X118.892 Y219.936 E0.00142
G1 X118.31 Y219.739 E0.02865
G1 X118.282 Y219.726 E0.00142
G1 X117.761 Y219.411 E0.0284
G1 X117.745 Y219.4 E0.00094
G1 X117.604 Y219.283 E0.00854
G1 X117.186 Y218.843 E0.02832
G1 X117.167 Y218.819 E0.00142
G1 X116.85 Y218.293 E0.02864
G1 X116.837 Y218.266 E0.00142
G1 X116.64 Y217.684 E0.02865
G1 X116.634 Y217.654 E0.00142
G1 X116.567 Y217.036 E0.02901
G1 X116.567 Y144.921 E3.36446
G1 X116.634 Y144.302 E0.02901
G1 X116.64 Y144.273 E0.00142
G1 X116.837 Y143.691 E0.02865
G1 X116.85 Y143.663 E0.00142
G1 X117.164 Y143.142 E0.0284
G1 X117.176 Y143.126 E0.00094
G1 X117.293 Y142.985 E0.00854
G1 X117.656 Y142.639 E0.02341
M104 S245 ; set temperature
; printing object Filament_Card_Caddy_25.stl id:0 copy 0
EXCLUDE_OBJECT_START NAME=Filament_Card_Caddy_25_stl_id_0_copy_0
G1 X118.058 Y143.061 F8400
;TYPE:External perimeter
G1 F1800
G1 X118.099 Y143.022 E0.00264
G1 X118.542 Y142.754 E0.0239
G1 X119.033 Y142.588 E0.02391
G1 X119.564 Y142.53 E0.02468
G1 X181.033 Y142.53 E2.83908
G1 X181.162 Y142.543 E0.00601
G1 X181.562 Y142.588 E0.01857
G1 X182.053 Y142.754 E0.02394
G1 X182.496 Y143.022 E0.0239
G1 X182.881 Y143.388 E0.02455
G1 X182.948 Y143.471 E0.00493
G1 X183.222 Y143.923 E0.02442
G1 X183.387 Y144.414 E0.02391
G1 X183.445 Y144.945 E0.02468
G1 X183.445 Y217.012 E3.3286
G1 X183.387 Y217.543 E0.02468
G1 X183.222 Y218.033 E0.02391
G1 X182.948 Y218.486 E0.02442
G1 X182.881 Y218.568 E0.00493
G1 X182.496 Y218.935 E0.02455
G1 X182.053 Y219.203 E0.0239
G1 X181.562 Y219.368 E0.02391
G1 X181.031 Y219.426 E0.02468
G1 X119.564 Y219.426 E2.83901
G1 X119.033 Y219.368 E0.02468
G1 X118.542 Y219.203 E0.02391
G1 X118.09 Y218.929 E0.02442
G1 X118.007 Y218.862 E0.00493
G1 X117.641 Y218.476 E0.02455
G1 X117.373 Y218.033 E0.0239
G1 X117.207 Y217.543 E0.02391
G1 X117.149 Y217.012 E0.02468
G1 X117.149 Y144.945 E3.3286
G1 X117.207 Y144.414 E0.02468
G1 X117.373 Y143.923 E0.02391
G1 X117.647 Y143.471 E0.02442
G1 X117.714 Y143.388 E0.00493
G1 X118.014 Y143.102 E0.01914
;WIPE_START
G1 X118.442 Y143.174 F8400
;WIPE_END
G1 X118.106 Y143.795
;TYPE:Internal perimeter
G1 F1800
G1 X118.126 Y143.771 E0.00147
G1 X118.442 Y143.47 E0.02013
G1 X118.78 Y143.266 E0.01825
G1 X119.154 Y143.139 E0.01826
G1 X119.594 Y143.091 E0.02044
G1 X181.005 Y143.091 E2.8364
G1 X181.103 Y143.101 E0.00455
G1 X181.439 Y143.139 E0.01561
G1 X181.815 Y143.266 E0.01833
G1 X182.153 Y143.47 E0.01825
G1 X182.469 Y143.771 E0.02013
G1 X182.489 Y143.795 E0.00147
G1 X182.71 Y144.161 E0.01972
G1 X182.836 Y144.535 E0.01826
G1 X182.884 Y144.975 E0.02044
G1 X182.884 Y216.981 E3.32578
G1 X182.836 Y217.421 E0.02044
G1 X182.71 Y217.796 E0.01826
G1 X182.489 Y218.161 E0.01973
G1 X182.469 Y218.186 E0.00146
G1 X182.153 Y218.486 E0.02013
G1 X181.815 Y218.691 E0.01825
G1 X181.44 Y218.817 E0.01826
G1 X181.001 Y218.865 E0.02044
G1 X119.594 Y218.865 E2.83619
G1 X119.154 Y218.817 E0.02044
G1 X118.78 Y218.691 E0.01826
G1 X118.414 Y218.47 E0.01973
G1 X118.39 Y218.45 E0.00147
G1 X118.089 Y218.134 E0.02013
G1 X117.885 Y217.796 E0.01825
G1 X117.759 Y217.421 E0.01826
G1 X117.711 Y216.981 E0.02044
G1 X117.711 Y144.975 E3.32578
G1 X117.759 Y144.535 E0.02044
G1 X117.885 Y144.161 E0.01826
G1 X118.075 Y143.847 E0.01695
G1 X118.555 Y144.143 F8400
G1 F1800
G1 X118.565 Y144.127 E0.00088
G1 X118.784 Y143.919 E0.01396
G1 X119.018 Y143.778 E0.01259
G1 X119.276 Y143.691 E0.0126
G1 X119.625 Y143.652 E0.0162
G1 X181.072 Y143.662 E2.83807
G1 X181.316 Y143.69 E0.01138
G1 X181.577 Y143.778 E0.01272
G1 X181.811 Y143.919 E0.01259
G1 X182.03 Y144.127 E0.01396
G1 X182.199 Y144.401 E0.01487
G1 X182.285 Y144.657 E0.01247
G1 X182.323 Y145.006 E0.01621
G1 X182.323 Y216.951 E3.32296
G1 X182.285 Y217.3 E0.01621
G1 X182.199 Y217.555 E0.01247
G1 X182.03 Y217.829 E0.01487
G1 X181.811 Y218.038 E0.01396
G1 X181.577 Y218.179 E0.01259
G1 X181.319 Y218.266 E0.0126
G1 X180.97 Y218.304 E0.0162
G1 X119.625 Y218.304 E2.83337
G1 X119.276 Y218.266 E0.0162
G1 X119.02 Y218.18 E0.01247
G1 X118.746 Y218.01 E0.01487
G1 X118.538 Y217.792 E0.01396
G1 X118.397 Y217.558 E0.01259
G1 X118.31 Y217.3 E0.0126
G1 X118.272 Y216.951 E0.0162
G1 X118.272 Y145.006 E3.32296
G1 X118.31 Y144.657 E0.0162
G1 X118.396 Y144.401 E0.01247
G1 X118.524 Y144.194 E0.01122
G1 X182.135 Y144.828 F8400
;TYPE:Solid infill
;WIDTH:0.603824
G1 F1800
G1 X181.147 Y143.84 E0.06452
G1 X180.343 Y143.83 F8400
G1 F1800
G1 X182.155 Y145.642 E0.11829
G1 X182.155 Y146.435 F8400
G1 F1800
G1 X179.55 Y143.83 E0.17012
G1 X178.756 Y143.83 F8400
G1 F1800
G1 X182.155 Y147.229 E0.22194
G1 X182.155 Y148.022 F8400
G1 F1800
G1 X177.963 Y143.83 E0.27376
G1 X177.169 Y143.83 F8400
G1 F1800
G1 X182.155 Y148.816 E0.32558
G1 X182.155 Y149.609 F8400
G1 F1800
G1 X176.375 Y143.83 E0.37741
G1 X175.582 Y143.83 F8400
G1 F1800
G1 X182.155 Y150.403 E0.42923
G1 X182.155 Y151.196 F8400
G1 F1800
G1 X174.788 Y143.829 E0.48105
G1 X173.995 Y143.829 F8400
G1 F1800
G1 X182.155 Y151.99 E0.53288
G1 X182.155 Y152.783 F8400
G1 F1800
G1 X173.201 Y143.829 E0.5847
G1 X172.407 Y143.829 F8400
G1 F1800
G1 X182.155 Y153.577 E0.63652
G1 X182.155 Y154.37 F8400
G1 F1800
G1 X171.614 Y143.829 E0.68834
G1 X170.82 Y143.829 F8400
G1 F1800
G1 X182.155 Y155.164 E0.74017
G1 X182.155 Y155.957 F8400
G1 F1800
G1 X170.027 Y143.829 E0.79199
G1 X169.233 Y143.829 F8400
G1 F1800
G1 X182.155 Y156.751 E0.84381
G1 X182.155 Y157.544 F8400
G1 F1800
G1 X168.439 Y143.828 E0.89563
G1 X167.646 Y143.828 F8400
G1 F1800
G1 X182.155 Y158.338 E0.94746
G1 X182.155 Y159.131 F8400
G1 F1800
G1 X166.852 Y143.828 E0.99928
G1 X166.058 Y143.828 F8400
G1 F1800
G1 X182.155 Y159.925 E1.0511
G1 X182.155 Y160.718 F8400
G1 F1800
G1 X165.265 Y143.828 E1.10292
G1 X164.471 Y143.828 F8400
G1 F1800
G1 X182.155 Y161.512 E1.15475
G1 X182.155 Y162.305 F8400
G1 F1800
G1 X163.678 Y143.828 E1.20657
G1 X162.884 Y143.828 F8400
G1 F1800
G1 X182.155 Y163.099 E1.25839
G1 X182.155 Y163.892 F8400
G1 F1800
G1 X162.09 Y143.827 E1.31022
G1 X161.297 Y143.827 F8400
G1 F1800
G1 X182.155 Y164.686 E1.36204
G1 X182.155 Y165.479 F8400
G1 F1800
G1 X160.503 Y143.827 E1.41386
G1 X159.71 Y143.827 F8400
G1 F1800
G1 X182.155 Y166.272 E1.46568
G1 X182.155 Y167.066 F8400
G1 F1800
G1 X158.916 Y143.827 E1.51751
G1 X158.122 Y143.827 F8400
G1 F1800
G1 X182.155 Y167.859 E1.56933
G1 X182.155 Y168.653 F8400
G1 F1800
G1 X157.329 Y143.827 E1.62115
G1 X156.535 Y143.827 F8400
G1 F1800
G1 X182.155 Y169.446 E1.67297
G1 X182.155 Y170.24 F8400
G1 F1800
G1 X155.742 Y143.826 E1.7248
G1 X154.948 Y143.826 F8400
G1 F1800
G1 X182.155 Y171.033 E1.77662
G1 X182.155 Y171.827 F8400
G1 F1800
G1 X154.154 Y143.826 E1.82844
G1 X153.361 Y143.826 F8400
G1 F1800
G1 X182.155 Y172.62 E1.88026
G1 X182.155 Y173.414 F8400
G1 F1800
G1 X152.567 Y143.826 E1.93209
G1 X151.773 Y143.826 F8400
G1 F1800
G1 X182.155 Y174.207 E1.98391
G1 X182.155 Y175.001 F8400
G1 F1800
G1 X150.98 Y143.826 E2.03573
G1 X150.186 Y143.826 F8400
G1 F1800
G1 X182.155 Y175.794 E2.08756
G1 X182.155 Y176.588 F8400
G1 F1800
G1 X149.393 Y143.825 E2.13938
G1 X148.599 Y143.825 F8400
G1 F1800
G1 X182.155 Y177.381 E2.1912
G1 X182.155 Y178.175 F8400
G1 F1800
G1 X147.805 Y143.825 E2.24302
G1 X147.012 Y143.825 F8400
G1 F1800
G1 X182.155 Y178.968 E2.29485
G1 X182.155 Y179.762 F8400
G1 F1800
G1 X146.218 Y143.825 E2.34667
G1 X145.425 Y143.825 F8400
G1 F1800
G1 X182.155 Y180.555 E2.39849
G1 X182.155 Y181.349 F8400
G1 F1800
G1 X144.631 Y143.825 E2.45031
G1 X143.837 Y143.825 F8400
G1 F1800
G1 X182.155 Y182.142 E2.50214
G1 X182.155 Y182.936 F8400
G1 F1800
G1 X143.044 Y143.824 E2.55396
G1 X142.25 Y143.824 F8400
G1 F1800
G1 X182.155 Y183.729 E2.60578
G1 X182.155 Y184.523 F8400
G1 F1800
G1 X141.457 Y143.824 E2.6576
G1 X140.663 Y143.824 F8400
G1 F1800
G1 X182.155 Y185.316 E2.70943
G1 X182.155 Y186.11 F8400
G1 F1800
G1 X139.869 Y143.824 E2.76125
G1 X139.076 Y143.824 F8400
G1 F1800
G1 X182.155 Y186.903 E2.81307
G1 X182.155 Y187.697 F8400
G1 F1800
G1 X138.282 Y143.824 E2.8649
G1 X137.488 Y143.824 F8400
G1 F1800
G1 X182.155 Y188.49 E2.91672
G1 X182.155 Y189.284 F8400
G1 F1800
G1 X136.695 Y143.823 E2.96854
G1 X135.901 Y143.823 F8400
G1 F1800
G1 X182.155 Y190.077 E3.02036
G1 X182.155 Y190.871 F8400
G1 F1800
G1 X135.108 Y143.823 E3.07219
G1 X134.314 Y143.823 F8400
G1 F1800
G1 X182.155 Y191.664 E3.12401
G1 X182.155 Y192.458 F8400
G1 F1800
G1 X133.52 Y143.823 E3.17583
G1 X132.727 Y143.823 F8400
G1 F1800
G1 X182.155 Y193.251 E3.22765
G1 X182.155 Y194.044 F8400
G1 F1800
G1 X131.933 Y143.823 E3.27948
G1 X131.14 Y143.823 F8400
G1 F1800
G1 X182.155 Y194.838 E3.3313
G1 X182.155 Y195.631 F8400
G1 F1800
G1 X130.346 Y143.822 E3.38312
G1 X129.552 Y143.822 F8400
G1 F1800
G1 X182.155 Y196.425 E3.43494
G1 X182.155 Y197.218 F8400
G1 F1800
