; generated by SuperSlicer 2.4 on 2023-02-07 at 18:23:41 UTC


;
;

;
;
; 

; external perimeters extrusion width = 0.42mm
; perimeters extrusion width = 0.46mm
; infill extrusion width = 0.44mm
; solid infill extrusion width = 0.46mm
; top infill extrusion width = 0.44mm
; support material extrusion width = 0.40mm
; first layer extrusion width = 0.60mm

; object:{"name":"Filament_Card","id":"Filament_Card.stl id:0 copy 0","object_center":[150.000000,148.500000,0.000000],"boundingbox_center":[150.000000,148.500000,1.000000],"boundingbox_size":[60.000000,34.000000,2.000000]}
; plater:{"center":[150.000000,148.500000,0.000000],"boundingbox_center":[150.000000,148.500000,1.000000],"boundingbox_size":[60.000000,34.000000,2.000000]}

;TYPE:Custom
M104 S0 ; Stops SuperSlicer from sending temp waits separately


; Pre-Processed for Cancel-Object support by preprocess_cancellation v0.2.0
; 1 known objects
EXCLUDE_OBJECT_DEFINE NAME=Filament_Card_stl_id_0_copy_0 CENTER=145.942,148.857 POLYGON=[[120.21,131.71],[120.21,165.29],[179.79,165.29],[179.79,131.71]]

M140 S0

print_start EXTRUDER=245 BED=105 CHAMBER=0
M107
G21 ; set units to millimeters
G90 ; use absolute coordinates
M83 ; use relative distances for extrusion
; Filament gcode
;_TOOLCHANGE 0
M107
;LAYER_CHANGE
;Z:0.2
;HEIGHT:0.2
TIMELAPSE_TAKE_FRAME
;BEFORE_LAYER_CHANGE
;0.2


G1 E-0.8 F3000
G1 Z0.2 F8400
;AFTER_LAYER_CHANGE
;0.2
G92 E0
G1 X119.344 Y130.678
G1 E0.8 F1800
;TYPE:Skirt
;WIDTH:0.44
G1 X118.494 Y131.729 E0.04465
G1 X117.947 Y132.929 E0.04354
G1 X117.714 Y134.28 E0.04524
G1 X117.704 Y162.5 E0.93176
G1 X117.753 Y163.176 E0.02239
G1 X117.943 Y164.054 E0.02964
G1 X118.278 Y164.886 E0.02963
G1 X118.527 Y165.319 E0.0165
G1 X118.86 Y165.788 E0.01897
G1 X119.508 Y166.473 E0.03112
G1 X120.614 Y167.222 E0.04411
G1 X121.824 Y167.658 E0.04245
G1 X123 Y167.796 E0.03911
G1 X147.828 Y167.792 E0.81974
G1 X177.146 Y166.143 E0.96954
G1 X178.184 Y165.943 E0.03489
G1 X178.98 Y165.555 E0.02926
G1 X179.618 Y165.035 E0.02718
G1 X180.055 Y164.48 E0.0233
G1 X180.443 Y163.684 E0.02927
G1 X180.634 Y162.761 E0.03111
G1 X182.282 Y146.443 E0.54152
G1 X182.286 Y134.28 E0.40159
G1 X182.173 Y133.389 E0.02964
G1 X181.91 Y132.531 E0.02964
G1 X181.473 Y131.681 E0.03157
G1 X180.822 Y130.844 E0.03498
G1 X179.771 Y129.994 E0.04465
G1 X178.969 Y129.59 E0.02964
G1 X178.111 Y129.327 E0.02964
G1 X177.118 Y129.214 E0.033
G1 X123 Y129.204 E1.78681
G1 X122.324 Y129.253 E0.0224
G1 X121.429 Y129.447 E0.03021
G1 X120.181 Y130.027 E0.04547
G1 X119.392 Y130.641 E0.033
G1 X119.632 Y130.952 F8400
G1 F1800
G1 X118.822 Y131.952 E0.04246
G1 X118.331 Y133.032 E0.03919
G1 X118.109 Y134.313 E0.04292
G1 X118.101 Y162.5 E0.93065
G1 X118.148 Y163.143 E0.02127
G1 X118.327 Y163.953 E0.02741
G1 X118.851 Y165.089 E0.04131
G1 X119.184 Y165.558 E0.01897
G1 X119.783 Y166.186 E0.02867
G1 X120.778 Y166.86 E0.03967
G1 X121.916 Y167.271 E0.03997
G1 X123 Y167.399 E0.03602
G1 X147.805 Y167.395 E0.819
G1 X177.123 Y165.746 E0.96954
G1 X178.041 Y165.573 E0.03084
G1 X178.752 Y165.23 E0.02607
G1 X179.337 Y164.754 E0.0249
G1 X179.73 Y164.252 E0.02102
G1 X180.073 Y163.541 E0.02607
G1 X180.239 Y162.721 E0.02763
G1 X181.887 Y146.403 E0.54152
G1 X181.891 Y134.313 E0.39916
G1 X181.789 Y133.489 E0.02741
G1 X181.549 Y132.695 E0.02741
G1 X181.149 Y131.911 E0.02905
G1 X180.547 Y131.131 E0.03253
G1 X179.548 Y130.322 E0.04242
G1 X178.805 Y129.951 E0.02741
G1 X178.011 Y129.711 E0.02741
G1 X177.118 Y129.611 E0.02967
G1 X123 Y129.601 E1.78681
G1 X122.357 Y129.648 E0.02129
G1 X121.532 Y129.831 E0.0279
G1 X120.411 Y130.351 E0.04082
G1 X119.679 Y130.916 E0.03051
M104 S245 ; set temperature
;WIPE_START
G1 F6720
G1 X119.631 Y130.953 E-0.02599
G1 X118.822 Y131.952 E-0.54492
G1 X118.638 Y132.358 E-0.18909
;WIPE_END
G1 E-0.04 F3000
; printing object Filament_Card.stl id:0 copy 0
EXCLUDE_OBJECT_START NAME=Filament_Card_stl_id_0_copy_0
G1 X128.837 Y151.337 F8400
G1 E0.8 F1800
;TYPE:Internal perimeter
;WIDTH:0.604
G1 X128.837 Y163.663 E0.56931
G1 X141.163 Y163.663 E0.56931
G1 X141.163 Y151.337 E0.56931
G1 X128.897 Y151.337 E0.56654
G1 X129.398 Y151.898 F8400
;TYPE:External perimeter
G1 F1800
G1 X129.398 Y163.102 E0.51748
G1 X140.602 Y163.102 E0.51748
G1 X140.602 Y151.898 E0.51748
G1 X129.458 Y151.898 E0.51471
;WIPE_START
G1 X128.998 Y151.898 F8400
;WIPE_END
G1 X127.906 Y161.088
;TYPE:Internal perimeter
G1 F1800
G1 X128.276 Y161.154 E0.01736
G1 X128.276 Y163.776 E0.12112
G1 X125.64 Y163.776 E0.12174
G1 X125.572 Y163.409 E0.01724
G1 X125.85 Y163.302 E0.01375
G1 X126.466 Y162.935 E0.03313
G1 X127.006 Y162.474 E0.03282
G1 X127.471 Y161.916 E0.03352
G1 X127.829 Y161.296 E0.03305
G1 X127.885 Y161.144 E0.00751
G1 X127.803 Y134.262 F8400
G1 F1800
G1 X126.583 Y133.557 E0.06508
G1 X126.672 Y133.225 E0.01591
G1 X128.934 Y133.225 E0.10445
G1 X129.023 Y133.558 E0.01591
G1 X127.855 Y134.232 E0.06227
;WIPE_START
G1 F6720
G1 X126.583 Y133.557 E-0.61067
G1 X126.672 Y133.225 E-0.14609
G1 X126.68 Y133.225 E-0.00325
;WIPE_END
G1 E-0.04 F3000
G1 X122.001 Y134.393 F8400
G1 E0.8 F1800
G1 X121.758 Y134.174 E0.01511
G1 X121.89 Y133.882 E0.01477
G1 X122.011 Y133.705 E0.00992
G1 X122.151 Y133.559 E0.00933
G1 X122.397 Y133.384 E0.01398
G1 X122.582 Y133.3 E0.00938
G1 X122.713 Y133.265 E0.00624
G1 X123.075 Y133.224 E0.01685
G1 X123.361 Y133.224 E0.01318
G1 X123.45 Y133.557 E0.01591
G1 X122.053 Y134.363 E0.07451
G1 X122.285 Y140.334 F8400
G1 F1800
G1 X125.016 Y141.91 E0.14564
G1 X125.35 Y141.718 E0.01782
G1 X125.35 Y143.125 E0.065
G1 X132.36 Y147.172 E0.37386
G1 X139.37 Y143.125 E0.37386
G1 X139.37 Y135.03 E0.37386
G1 X137.794 Y134.12 E0.08406
G1 X137.883 Y133.788 E0.01591
G1 X177.009 Y133.794 E1.80713
G1 X177.123 Y133.804 E0.00526
G1 X177.234 Y133.833 E0.00532
G1 X177.343 Y133.882 E0.0055
G1 X177.441 Y133.948 E0.0055
G1 X177.514 Y134.019 E0.00468
G1 X177.628 Y134.178 E0.00904
G1 X177.667 Y134.266 E0.00445
G1 X177.697 Y134.381 E0.0055
G1 X177.715 Y134.584 E0.00942
G1 X177.715 Y145.121 E0.48664
G1 X177.322 Y145.482 E0.02463
G1 X176.953 Y145.911 E0.02616
G1 X176.65 Y146.365 E0.0252
G1 X176.39 Y146.867 E0.02611
G1 X176.196 Y147.42 E0.02706
G1 X176.09 Y147.96 E0.02545
G1 X176.059 Y148.329 E0.01709
G1 X176.066 Y161.566 E0.61137
G1 X149.79 Y161.559 E1.21362
G1 X149.237 Y161.627 E0.02572
G1 X148.627 Y161.791 E0.02918
G1 X148.095 Y162.018 E0.0267
G1 X147.596 Y162.314 E0.0268
G1 X146.997 Y162.805 E0.03579
G1 X146.621 Y163.215 E0.02569
G1 X142.285 Y163.215 E0.20024
G1 X142.285 Y150.215 E0.60044
G1 X127.715 Y150.215 E0.67297
G1 X127.715 Y156.457 E0.28833
G1 X127.063 Y155.814 E0.04228
G1 X126.466 Y155.398 E0.03364
G1 X122.285 Y152.984 E0.22296
G1 X122.285 Y140.394 E0.58153
G1 X125.016 Y141.263 F8400
G1 F1800
G1 X125.911 Y140.746 E0.04774
G1 X125.911 Y142.801 E0.09492
G1 X132.36 Y146.524 E0.34393
G1 X138.809 Y142.801 E0.34393
G1 X138.809 Y135.354 E0.34393
G1 X135.699 Y133.559 E0.16585
G1 X135.788 Y133.226 E0.01591
G1 X177.031 Y133.233 E1.90491
G1 X177.217 Y133.248 E0.00857
G1 X177.422 Y133.302 E0.0098
G1 X177.618 Y133.39 E0.00992
G1 X177.795 Y133.511 E0.00991
G1 X177.941 Y133.651 E0.00933
G1 X178.116 Y133.897 E0.01399
G1 X178.198 Y134.078 E0.00916
G1 X178.252 Y134.286 E0.00992
G1 X178.276 Y134.561 E0.01273
G1 X178.276 Y145.4 E0.50062
G1 X178.101 Y145.528 E0.01
G1 X177.726 Y145.872 E0.02351
G1 X177.401 Y146.251 E0.02307
G1 X177.134 Y146.65 E0.02218
G1 X176.907 Y147.09 E0.02285
G1 X176.739 Y147.568 E0.02339
G1 X176.646 Y148.038 E0.02214
G1 X176.62 Y148.352 E0.01457
G1 X176.627 Y162.127 E0.63622
G1 X149.824 Y162.12 E1.23797
G1 X149.345 Y162.179 E0.02231
G1 X148.811 Y162.322 E0.02552
G1 X148.35 Y162.519 E0.02315
G1 X147.919 Y162.775 E0.02313
G1 X147.383 Y163.214 E0.03201
G1 X147.028 Y163.601 E0.02427
G1 X146.9 Y163.776 E0.01
G1 X141.724 Y163.776 E0.23904
G1 X141.724 Y150.776 E0.60044
G1 X128.276 Y150.776 E0.62114
G1 X128.276 Y157.865 E0.32745
G1 X127.933 Y157.949 E0.01629
G1 X127.553 Y157.215 E0.03816
G1 X127.208 Y156.745 E0.02694
G1 X126.703 Y156.247 E0.03274
G1 X126.165 Y155.872 E0.03032
G1 X121.724 Y153.308 E0.23682
G1 X121.724 Y139.362 E0.64415
G1 X124.964 Y141.233 E0.17279
G1 X125.016 Y140.615 F8400
G1 F1800
G1 X126.472 Y139.774 E0.07767
G1 X126.472 Y142.477 E0.12485
G1 X132.36 Y145.876 E0.31401
G1 X138.248 Y142.477 E0.31401
G1 X138.248 Y135.678 E0.31401
G1 X133.605 Y132.998 E0.24763
G1 X133.694 Y132.665 E0.01591
G1 X177.054 Y132.672 E2.0027
G1 X177.31 Y132.693 E0.01188
G1 X177.61 Y132.771 E0.01429
G1 X177.893 Y132.899 E0.01434
G1 X178.149 Y133.073 E0.01433
G1 X178.368 Y133.282 E0.01398
G1 X178.605 Y133.617 E0.01893
G1 X178.729 Y133.89 E0.01388
G1 X178.807 Y134.191 E0.01434
G1 X178.837 Y134.537 E0.01604
G1 X178.837 Y145.684 E0.51487
G1 X178.458 Y145.962 E0.0217
G1 X178.131 Y146.263 E0.02054
G1 X177.849 Y146.591 E0.01999
G1 X177.618 Y146.936 E0.01917
G1 X177.423 Y147.313 E0.01959
G1 X177.282 Y147.716 E0.01972
G1 X177.203 Y148.116 E0.01883
G1 X177.181 Y148.375 E0.01204
G1 X177.188 Y162.447 E0.64995
G1 X177.162 Y162.662 E0.00998
G1 X176.947 Y162.688 E0.00999
G1 X149.858 Y162.681 E1.25117
G1 X149.452 Y162.731 E0.01891
G1 X148.995 Y162.854 E0.02187
G1 X148.605 Y163.021 E0.0196
G1 X148.242 Y163.236 E0.01947
G1 X147.769 Y163.623 E0.02822
G1 X147.462 Y163.958 E0.021
G1 X147.184 Y164.337 E0.0217
G1 X123.044 Y164.337 E1.11496
G1 X122.608 Y164.288 E0.02025
G1 X122.393 Y164.23 E0.01031
G1 X122.107 Y164.101 E0.01447
G1 X121.851 Y163.927 E0.01433
G1 X121.632 Y163.718 E0.01398
G1 X121.395 Y163.383 E0.01893
G1 X121.271 Y163.11 E0.01388
G1 X121.193 Y162.809 E0.01434
G1 X121.13 Y162.073 E0.03415
G1 X122.2 Y162.691 E0.05709
G1 X122.73 Y162.939 E0.02701
G1 X123.329 Y163.104 E0.02871
G1 X123.948 Y163.165 E0.02871
G1 X124.558 Y163.121 E0.02828
G1 X125.033 Y163.015 E0.02249
G1 X125.604 Y162.795 E0.02823
G1 X126.138 Y162.478 E0.02871
G1 X126.606 Y162.078 E0.02842
G1 X126.73 Y161.933 E0.00882
G1 X127.009 Y161.594 E0.02028
G1 X127.319 Y161.057 E0.02862
G1 X127.534 Y160.474 E0.02871
G1 X127.648 Y159.863 E0.02871
G1 X127.656 Y159.241 E0.02871
G1 X127.561 Y158.638 E0.02823
G1 X127.412 Y158.162 E0.02301
G1 X127.075 Y157.512 E0.0338
G1 X126.782 Y157.113 E0.02287
G1 X126.343 Y156.68 E0.02848
G1 X125.863 Y156.346 E0.02701
G1 X121.163 Y153.632 E0.25068
G1 X121.163 Y134.544 E0.88163
G1 X121.212 Y134.108 E0.02025
G1 X121.27 Y133.893 E0.01031
G1 X121.399 Y133.607 E0.01447
G1 X121.573 Y133.351 E0.01433
G1 X121.782 Y133.132 E0.01398
G1 X122.117 Y132.895 E0.01893
G1 X122.393 Y132.77 E0.01401
G1 X122.608 Y132.712 E0.01031
G1 X123.044 Y132.663 E0.02025
G1 X131.027 Y132.664 E0.36872
G1 X131.116 Y132.997 E0.01591
G1 X127.803 Y134.91 E0.17669
G1 X125.016 Y133.301 E0.14866
G1 X121.849 Y135.129 E0.16891
G1 X121.849 Y138.786 E0.16891
G1 X124.964 Y140.585 E0.16614
G1 X125.016 Y139.967 F8400
;TYPE:External perimeter
G1 F1800
G1 X127.622 Y138.462 E0.13898
G1 X127.622 Y135.453 E0.13898
G1 X125.016 Y133.948 E0.13898
G1 X122.41 Y135.453 E0.13898
G1 X122.41 Y138.462 E0.13898
G1 X124.964 Y139.937 E0.13621
;WIPE_START
G1 X125.273 Y140.273 F8400
;WIPE_END
;WIPE_START
G1 F6720
G1 X126.765 Y139.281 E-0.76
;WIPE_END
G1 E-0.04 F3000
G1 X147.508 Y164.898 F8400
G1 E0.8 F1800
G1 X123.013 Y164.898 E1.13138
G1 X122.504 Y164.841 E0.02365
G1 X122.203 Y164.76 E0.01438
G1 X121.833 Y164.593 E0.0188
G1 X121.496 Y164.365 E0.01875
G1 X121.206 Y164.086 E0.01862
G1 X120.906 Y163.664 E0.02387
G1 X120.74 Y163.298 E0.01859
G1 X120.638 Y162.905 E0.01876
G1 X120.602 Y162.487 E0.01935
G1 X120.602 Y161.829 E0.03039
G1 X120.618 Y161.707 E0.00569
G1 X120.658 Y161.612 E0.00477
G1 X120.72 Y161.53 E0.00477
G1 X120.802 Y161.467 E0.00477
G1 X120.898 Y161.427 E0.00477
G1 X121 Y161.414 E0.00477
G1 X121.102 Y161.427 E0.00477
G1 X121.216 Y161.475 E0.00569
G1 X122.46 Y162.193 E0.06634
G1 X122.925 Y162.411 E0.0237
G1 X123.432 Y162.55 E0.02429
G1 X123.955 Y162.602 E0.02429
G1 X124.477 Y162.565 E0.02414
G1 X124.871 Y162.476 E0.01865
G1 X125.358 Y162.289 E0.02412
G1 X125.81 Y162.02 E0.02429
G1 X126.208 Y161.68 E0.02419
G1 X126.3 Y161.572 E0.00655
G1 X126.547 Y161.273 E0.01788
G1 X126.809 Y160.818 E0.02426
G1 X126.991 Y160.325 E0.0243
G1 X127.087 Y159.808 E0.02429
G1 X127.094 Y159.282 E0.02429
G1 X127.013 Y158.766 E0.02412
G1 X126.891 Y158.377 E0.01884
G1 X126.597 Y157.809 E0.02951
G1 X126.356 Y157.482 E0.01879
G1 X125.983 Y157.113 E0.02421
G1 X125.562 Y156.82 E0.0237
G1 X120.818 Y154.081 E0.25301
G1 X120.72 Y154.006 E0.00569
G1 X120.658 Y153.924 E0.00477
G1 X120.618 Y153.829 E0.00477
G1 X120.602 Y153.707 E0.00569
G1 X120.602 Y134.513 E0.88651
G1 X120.659 Y134.004 E0.02365
G1 X120.74 Y133.703 E0.01437
G1 X120.907 Y133.333 E0.0188
G1 X121.135 Y132.996 E0.01875
G1 X121.414 Y132.706 E0.01862
G1 X121.836 Y132.406 E0.02387
G1 X122.203 Y132.24 E0.01864
G1 X122.504 Y132.159 E0.01438
G1 X123.013 Y132.102 E0.02365
G1 X177.076 Y132.111 E2.49706
G1 X177.404 Y132.137 E0.01519
G1 X177.798 Y132.24 E0.01877
G1 X178.167 Y132.407 E0.01875
G1 X178.504 Y132.635 E0.01875
G1 X178.794 Y132.914 E0.01862
G1 X179.094 Y133.336 E0.02388
G1 X179.26 Y133.702 E0.01859
G1 X179.362 Y134.095 E0.01876
G1 X179.398 Y134.513 E0.01935
G1 X179.398 Y146.008 E0.53094
G1 X179.133 Y146.163 E0.01417
G1 X178.815 Y146.396 E0.01822
G1 X178.535 Y146.653 E0.01757
G1 X178.296 Y146.931 E0.0169
G1 X178.102 Y147.222 E0.01615
G1 X177.94 Y147.536 E0.01633
G1 X177.824 Y147.864 E0.01605
G1 X177.759 Y148.193 E0.01552
G1 X177.742 Y148.399 E0.00951
G1 X177.749 Y162.482 E0.65046
G1 X177.725 Y162.679 E0.0092
G1 X177.66 Y162.848 E0.00834
G1 X177.551 Y163.004 E0.00883
G1 X177.348 Y163.16 E0.01182
G1 X177.179 Y163.225 E0.00834
G1 X176.982 Y163.249 E0.0092
G1 X149.893 Y163.242 E1.25117
G1 X149.559 Y163.283 E0.0155
G1 X149.179 Y163.386 E0.01821
G1 X148.859 Y163.522 E0.01605
G1 X148.565 Y163.697 E0.0158
G1 X148.156 Y164.032 E0.02443
G1 X147.896 Y164.315 E0.01773
G1 X147.663 Y164.633 E0.01822
G1 X147.538 Y164.846 E0.0114
;WIPE_START
G1 X147.202 Y164.64 F8400
;WIPE_END
G1 X141.465 Y164
;TYPE:Gap fill
;WIDTH:0.199172
G1 F1800
G1 X128.535 Y164 E0.16632
G1 X127.974 Y161.648 F8400
;WIDTH:0.145396
G1 F1800
G1 X127.959 Y161.704 E0.00049
G1 X127.935 Y161.794 E0.00079
;WIDTH:0.219129
G1 X127.911 Y161.884 E0.00135
;WIDTH:0.279369
G1 X127.887 Y161.974 E0.00181
;WIDTH:0.339609
G1 X127.863 Y162.064 E0.00227
;WIDTH:0.399849
G1 X127.839 Y162.154 E0.00274
G1 X127.829 Y162.185 E0.00097
G1 X127.803 Y162.255 E0.00219
;WIDTH:0.475355
G1 X127.778 Y162.325 E0.00265
;WIDTH:0.531104
G1 X127.753 Y162.395 E0.00299
;WIDTH:0.586853
G1 X127.727 Y162.465 E0.00333
;WIDTH:0.642602
G1 X127.702 Y162.535 E0.00367
;WIDTH:0.698351
G1 X127.677 Y162.605 E0.00402
;WIDTH:0.7541
G1 X127.651 Y162.675 E0.00436
;WIDTH:0.809849
G1 X127.626 Y162.745 E0.0047
;WIDTH:0.865598
G1 X127.601 Y162.815 E0.00504
;WIDTH:0.921346
G1 X127.575 Y162.885 E0.00538
;WIDTH:0.977095
G1 X127.55 Y162.955 E0.00572
;WIDTH:1.055048
G1 X127.509 Y163.028 E0.00696
;WIDTH:1.021098
G1 X127.44 Y163.053 E0.00589
;WIDTH:0.96541
G1 X127.372 Y163.079 E0.00555
;WIDTH:0.909721
G1 X127.303 Y163.104 E0.00522
;WIDTH:0.854032
G1 X127.234 Y163.129 E0.00488
;WIDTH:0.798343
G1 X127.166 Y163.155 E0.00455
;WIDTH:0.742654
G1 X127.097 Y163.18 E0.00421
;WIDTH:0.686966
G1 X127.029 Y163.205 E0.00388
;WIDTH:0.631277
G1 X126.96 Y163.23 E0.00354
;WIDTH:0.575588
G1 X126.892 Y163.256 E0.00321
;WIDTH:0.519899
G1 X126.823 Y163.281 E0.00287
;WIDTH:0.46421
G1 X126.754 Y163.306 E0.00254
G1 X126.72 Y163.318 E0.00127
G1 X126.634 Y163.341 E0.00308
;WIDTH:0.385204
G1 X126.548 Y163.365 E0.0025
;WIDTH:0.328625
G1 X126.462 Y163.388 E0.00209
;WIDTH:0.272047
G1 X126.377 Y163.412 E0.00168
;WIDTH:0.215468
G1 X126.291 Y163.435 E0.00126
;WIDTH:0.158889
G1 X126.205 Y163.459 E0.00085
G1 X126.15 Y163.474 E0.00055
G1 X125.353 Y163.647 F8400
;WIDTH:0.884063
G1 F1800
G1 X125.28 Y163.657 E0.00511
;WIDTH:0.832741
G1 X125.186 Y163.669 E0.00612
G1 X125.077 Y163.68 E0.00715
G1 X124.968 Y163.691 E0.00715
G1 X124.821 Y163.707 E0.00961
;WIDTH:0.751698
G1 X124.674 Y163.724 E0.00863
G1 X124.621 Y163.728 E0.00307
G1 X124.294 Y163.739 E0.01908
;WIDTH:0.697166
G1 X123.968 Y163.751 E0.01761
G1 X123.912 Y163.751 E0.00299
G1 X123.579 Y163.734 E0.01795
;WIDTH:0.763484
