; generated by SuperSlicer 2.5.59 on 2023-04-03 at 23:14:10 UTC


;
;

;
;
; 

; external perimeters extrusion width = 0.62mm
; perimeters extrusion width = 0.62mm
; infill extrusion width = 0.62mm
; solid infill extrusion width = 0.62mm
; top infill extrusion width = 0.62mm
; first layer extrusion width = 0.77mm

; object:{"name":"First_Layer_Patch-0","id":"First_Layer_Patch-0.25mm.stl id:0 copy 0","object_center":[150.000000,148.500000,0.000000],"boundingbox_center":[150.000000,148.500000,0.125000],"boundingbox_size":[25.000000,25.000000,0.250000]}
EXCLUDE_OBJECT_DEFINE NAME=First_Layer_Patch_0_25mm_stl_id_0_copy_0 CENTER=150.000000,148.500000 POLYGON=[[137.500000,136.000000],[162.500000,136.000000],[162.500000,161.000000],[137.500000,161.000000],[137.500000,136.000000]]
; object:{"name":"First_Layer_Patch-0","id":"First_Layer_Patch-0.25mm.stl id:0 copy 1","object_center":[150.000000,253.589996,0.000000],"boundingbox_center":[150.000000,253.589996,0.125000],"boundingbox_size":[25.000000,25.000000,0.250000]}
EXCLUDE_OBJECT_DEFINE NAME=First_Layer_Patch_0_25mm_stl_id_0_copy_1 CENTER=150.000000,253.589996 POLYGON=[[137.500000,241.090000],[162.500000,241.090000],[162.500000,266.090000],[137.500000,266.090000],[137.500000,241.090000]]
; object:{"name":"First_Layer_Patch-0","id":"First_Layer_Patch-0.25mm.stl id:0 copy 2","object_center":[255.089996,148.500000,0.000000],"boundingbox_center":[255.089996,148.500000,0.125000],"boundingbox_size":[25.000000,25.000000,0.250000]}
EXCLUDE_OBJECT_DEFINE NAME=First_Layer_Patch_0_25mm_stl_id_0_copy_2 CENTER=255.089996,148.500000 POLYGON=[[242.590000,136.000000],[267.590000,136.000000],[267.590000,161.000000],[242.590000,161.000000],[242.590000,136.000000]]
; object:{"name":"First_Layer_Patch-0","id":"First_Layer_Patch-0.25mm.stl id:0 copy 3","object_center":[255.089996,253.589996,0.000000],"boundingbox_center":[255.089996,253.589996,0.125000],"boundingbox_size":[25.000000,25.000000,0.250000]}
EXCLUDE_OBJECT_DEFINE NAME=First_Layer_Patch_0_25mm_stl_id_0_copy_3 CENTER=255.089996,253.589996 POLYGON=[[242.590000,241.090000],[267.590000,241.090000],[267.590000,266.090000],[242.590000,266.090000],[242.590000,241.090000]]
; object:{"name":"First_Layer_Patch-0","id":"First_Layer_Patch-0.25mm.stl id:0 copy 4","object_center":[150.000000,43.410004,0.000000],"boundingbox_center":[150.000000,43.410004,0.125000],"boundingbox_size":[25.000000,25.000000,0.250000]}
EXCLUDE_OBJECT_DEFINE NAME=First_Layer_Patch_0_25mm_stl_id_0_copy_4 CENTER=150.000000,43.410004 POLYGON=[[137.500000,30.910004],[162.500000,30.910004],[162.500000,55.910004],[137.500000,55.910004],[137.500000,30.910004]]
; object:{"name":"First_Layer_Patch-0","id":"First_Layer_Patch-0.25mm.stl id:0 copy 5","object_center":[255.089996,43.410004,0.000000],"boundingbox_center":[255.089996,43.410004,0.125000],"boundingbox_size":[25.000000,25.000000,0.250000]}
EXCLUDE_OBJECT_DEFINE NAME=First_Layer_Patch_0_25mm_stl_id_0_copy_5 CENTER=255.089996,43.410004 POLYGON=[[242.590000,30.910004],[267.590000,30.910004],[267.590000,55.910004],[242.590000,55.910004],[242.590000,30.910004]]
; object:{"name":"First_Layer_Patch-0","id":"First_Layer_Patch-0.25mm.stl id:0 copy 6","object_center":[44.910004,148.500000,0.000000],"boundingbox_center":[44.910004,148.500000,0.125000],"boundingbox_size":[25.000000,25.000000,0.250000]}
EXCLUDE_OBJECT_DEFINE NAME=First_Layer_Patch_0_25mm_stl_id_0_copy_6 CENTER=44.910004,148.500000 POLYGON=[[32.410004,136.000000],[57.410004,136.000000],[57.410004,161.000000],[32.410004,161.000000],[32.410004,136.000000]]
; object:{"name":"First_Layer_Patch-0","id":"First_Layer_Patch-0.25mm.stl id:0 copy 7","object_center":[44.910004,253.589996,0.000000],"boundingbox_center":[44.910004,253.589996,0.125000],"boundingbox_size":[25.000000,25.000000,0.250000]}
EXCLUDE_OBJECT_DEFINE NAME=First_Layer_Patch_0_25mm_stl_id_0_copy_7 CENTER=44.910004,253.589996 POLYGON=[[32.410004,241.090000],[57.410004,241.090000],[57.410004,266.090000],[32.410004,266.090000],[32.410004,241.090000]]
; object:{"name":"First_Layer_Patch-0","id":"First_Layer_Patch-0.25mm.stl id:0 copy 8","object_center":[44.910004,43.410004,0.000000],"boundingbox_center":[44.910004,43.410004,0.125000],"boundingbox_size":[25.000000,25.000000,0.250000]}
EXCLUDE_OBJECT_DEFINE NAME=First_Layer_Patch_0_25mm_stl_id_0_copy_8 CENTER=44.910004,43.410004 POLYGON=[[32.410004,30.910004],[57.410004,30.910004],[57.410004,55.910004],[32.410004,55.910004],[32.410004,30.910004]]
; plater:{"center":[150.000000,148.500000,0.000000],"boundingbox_center":[150.000000,148.500000,0.125000],"boundingbox_size":[235.179992,235.179992,0.250000]}

;TYPE:Custom
SET_PRINT_STATS_INFO TOTAL_LAYER=1

M104 S0 ; Stops SuperSlicer from sending temp waits separately

M109 S0

M140 S0

print_start EXTRUDER=250 BED=105 CHAMBER=0
G21 ; set units to millimeters
G90 ; use absolute coordinates
M82 ; use absolute distances for extrusion
G92 E0
; Filament gcode
;_TOOLCHANGE 0
M107
;LAYER_CHANGE
;Z:0.25
;HEIGHT:0.25
TIMELAPSE_TAKE_FRAME
;BEFORE_LAYER_CHANGE
;0.25


G1 E-0.8 F2100
G1 Z0.2 F8700
G1 Z0.25
SET_PRINT_STATS_INFO CURRENT_LAYER=1
;AFTER_LAYER_CHANGE
;0.25
G92 E0
G1 Z0.45
G1 X30.579 Y29.651
G1 Z0.25
G1 E0.8 F120
;TYPE:Skirt
;WIDTH:0.7425
G1 F2250
G1 X30.188 Y30.91 E0.89438
G1 X30.188 Y266.09 E17.7327
G1 X30.335 Y266.886 E17.79064
G1 X31.151 Y267.921 E17.88502
G1 X32.41 Y268.312 E17.97941
G1 X267.59 Y268.312 E34.81773
G1 X268.386 Y268.165 E34.87567
G1 X269.421 Y267.349 E34.97005
G1 X269.812 Y266.09 E35.06443
G1 X269.812 Y30.91 E51.90275
G1 X269.665 Y30.114 E51.96069
G1 X268.849 Y29.079 E52.05507
G1 X267.59 Y28.688 E52.14945
G1 X32.41 Y28.688 E68.98777
G1 X31.614 Y28.835 E69.04571
G1 X30.644 Y29.6 E69.13419
G1 X31.264 Y29.892 F8700
G1 F2250
G1 X30.877 Y30.91 E69.21218
G1 X30.877 Y266.09 E86.0505
G1 X31.392 Y267.236 E86.14048
G1 X32.41 Y267.623 E86.21847
G1 X267.59 Y267.623 E103.05679
G1 X268.736 Y267.108 E103.14677
G1 X269.123 Y266.09 E103.22476
G1 X269.123 Y30.91 E120.06308
G1 X268.608 Y29.764 E120.15306
G1 X267.59 Y29.377 E120.23105
G1 X32.41 Y29.377 E137.06937
G1 X31.339 Y29.858 E137.15344
G1 X31.942 Y30.207 F8700
G1 F2250
G1 X31.566 Y30.91 E137.21052
G1 X31.566 Y266.09 E154.04884
G1 X31.707 Y266.558 E154.08386
G1 X32.41 Y266.934 E154.14093
G1 X267.59 Y266.934 E170.97926
G1 X268.058 Y266.793 E171.01427
G1 X268.434 Y266.09 E171.07135
G1 X268.434 Y30.91 E187.90967
G1 X268.293 Y30.442 E187.94469
G1 X267.59 Y30.066 E188.00176
G1 X32.41 Y30.066 E204.84009
G1 X32.021 Y30.183 E204.86919
M104 S250 ; set temperature
G92 E0
G1 E-0.8 F2100
G1 Z0.45 F8700
; printing object First_Layer_Patch-0.25mm.stl id:0 copy 0
EXCLUDE_OBJECT_START NAME=First_Layer_Patch_0_25mm_stl_id_0_copy_0
G1 X139.318 Y137.818
G1 Z0.25
G1 E0 F120
;TYPE:Internal perimeter
;WIDTH:0.77
G1 F2400
G1 X160.682 Y137.818 E1.59072
G1 X160.682 Y159.182 E3.18144
G1 X139.318 Y159.182 E4.77216
G1 X139.318 Y137.9 E6.35674
G1 X138.601 Y137.101 F8700
G1 F2400
G1 X161.399 Y137.101 E8.05413
G1 X161.399 Y159.899 E9.75153
G1 X138.601 Y159.899 E11.44892
G1 X138.601 Y137.184 E13.14017
G1 X137.885 Y136.385 F8700
;TYPE:External perimeter
G1 F2400
G1 X162.115 Y136.385 E14.94424
G1 X162.115 Y160.615 E16.7483
G1 X137.885 Y160.615 E18.55237
G1 X137.885 Y136.468 E20.35029
;WIPE_START
G1 X138.361 Y136.66 F8700
;WIPE_END
G92 E0
G1 E-0.8 F2100
G1 Z0.45 F8700
G1 X160.503 Y139.445
G1 Z0.25
G1 E0 F120
;TYPE:Solid infill
G1 F2400
G1 X159.363 Y138.305 E0.12004
G1 X158.35 Y138.305 E0.19547
G1 X160.195 Y140.15 E0.38975
G1 X160.195 Y141.163 E0.46518
G1 X157.337 Y138.305 E0.76613
G1 X156.324 Y138.305 E0.84155
G1 X160.195 Y142.176 E1.24918
G1 X160.195 Y143.189 E1.32461
G1 X155.311 Y138.305 E1.8389
G1 X154.298 Y138.305 E1.91433
G1 X160.195 Y144.202 E2.5353
G1 X160.195 Y145.215 E2.61073
G1 X153.285 Y138.305 E3.33837
G1 X152.272 Y138.305 E3.4138
G1 X160.195 Y146.228 E4.24812
G1 X160.195 Y147.241 E4.32355
G1 X151.259 Y138.305 E5.26453
G1 X150.246 Y138.305 E5.33996
G1 X160.195 Y148.254 E6.38762
G1 X160.195 Y149.267 E6.46305
G1 X149.233 Y138.305 E7.61738
G1 X148.219 Y138.305 E7.69281
G1 X160.195 Y150.281 E8.95382
G1 X160.195 Y151.294 E9.02925
G1 X147.206 Y138.305 E10.39693
G1 X146.193 Y138.305 E10.47236
G1 X160.195 Y152.307 E11.94671
G1 X160.195 Y153.32 E12.02214
G1 X145.18 Y138.305 E13.60316
G1 X144.167 Y138.305 E13.67859
G1 X160.195 Y154.333 E15.36629
G1 X160.195 Y155.346 E15.44171
G1 X143.154 Y138.305 E17.23608
G1 X142.141 Y138.305 E17.31151
G1 X160.195 Y156.359 E19.21256
G1 X160.195 Y157.372 E19.28799
G1 X141.128 Y138.305 E21.2957
G1 X140.115 Y138.305 E21.37113
G1 X160.195 Y158.385 E23.48552
G1 X160.195 Y158.695 E23.50861
G1 X159.492 Y158.695 E23.56095
G1 X139.805 Y139.008 E25.63397
G1 X139.805 Y140.021 E25.70939
G1 X158.479 Y158.695 E27.67574
G1 X157.466 Y158.695 E27.75117
G1 X139.805 Y141.034 E29.61084
G1 X139.805 Y142.047 E29.68627
G1 X156.453 Y158.695 E31.43927
G1 X155.44 Y158.695 E31.5147
G1 X139.805 Y143.06 E33.16103
G1 X139.805 Y144.073 E33.23646
G1 X154.427 Y158.695 E34.77611
G1 X153.414 Y158.695 E34.85154
G1 X139.805 Y145.086 E36.28452
G1 X139.805 Y146.099 E36.35995
G1 X152.401 Y158.695 E37.68626
G1 X151.388 Y158.695 E37.76169
G1 X139.805 Y147.112 E38.98133
G1 X139.805 Y148.125 E39.05676
G1 X150.375 Y158.695 E40.16972
G1 X149.362 Y158.695 E40.24515
G1 X139.805 Y149.138 E41.25144
G1 X139.805 Y150.152 E41.32687
G1 X148.348 Y158.695 E42.22648
G1 X147.335 Y158.695 E42.30191
G1 X139.805 Y151.165 E43.09486
G1 X139.805 Y152.178 E43.17029
G1 X146.322 Y158.695 E43.85656
G1 X145.309 Y158.695 E43.93199
G1 X139.805 Y153.191 E44.51159
G1 X139.805 Y154.204 E44.58702
G1 X144.296 Y158.695 E45.05994
G1 X143.283 Y158.695 E45.13537
G1 X139.805 Y155.217 E45.50163
G1 X139.805 Y156.23 E45.57706
G1 X142.27 Y158.695 E45.83664
G1 X141.257 Y158.695 E45.91207
G1 X139.805 Y157.243 E46.06497
G1 X139.805 Y158.256 E46.1404
G1 X140.552 Y159.003 E46.21907
G92 E0
G1 E-0.8 F2100
G1 Z0.45 F8700
; stop printing object First_Layer_Patch-0.25mm.stl id:0 copy 0
EXCLUDE_OBJECT_END NAME=First_Layer_Patch_0_25mm_stl_id_0_copy_0
; printing object First_Layer_Patch-0.25mm.stl id:0 copy 1
EXCLUDE_OBJECT_START NAME=First_Layer_Patch_0_25mm_stl_id_0_copy_1
G1 X139.318 Y242.908
G1 Z0.25
G1 E0 F120
;TYPE:Internal perimeter
G1 F2400
G1 X160.682 Y242.908 E1.59072
G1 X160.682 Y264.272 E3.18144
G1 X139.318 Y264.272 E4.77216
G1 X139.318 Y242.99 E6.35674
G1 X138.601 Y242.191 F8700
G1 F2400
G1 X161.399 Y242.191 E8.05413
G1 X161.399 Y264.989 E9.75153
G1 X138.601 Y264.989 E11.44892
G1 X138.601 Y242.274 E13.14017
G1 X137.885 Y241.475 F8700
;TYPE:External perimeter
G1 F2400
G1 X162.115 Y241.475 E14.94424
G1 X162.115 Y265.705 E16.7483
G1 X137.885 Y265.705 E18.55237
G1 X137.885 Y241.557 E20.35029
;WIPE_START
G1 X138.361 Y241.75 F8700
;WIPE_END
G92 E0
G1 E-0.8 F2100
G1 Z0.45 F8700
G1 X160.503 Y244.535
G1 Z0.25
G1 E0 F120
;TYPE:Solid infill
G1 F2400
G1 X159.363 Y243.395 E0.12004
G1 X158.35 Y243.395 E0.19547
G1 X160.195 Y245.24 E0.38975
G1 X160.195 Y246.253 E0.46518
G1 X157.337 Y243.395 E0.76613
G1 X156.324 Y243.395 E0.84155
G1 X160.195 Y247.266 E1.24918
G1 X160.195 Y248.279 E1.32461
G1 X155.311 Y243.395 E1.8389
G1 X154.298 Y243.395 E1.91433
G1 X160.195 Y249.292 E2.5353
G1 X160.195 Y250.305 E2.61073
G1 X153.285 Y243.395 E3.33837
G1 X152.272 Y243.395 E3.4138
G1 X160.195 Y251.318 E4.24812
G1 X160.195 Y252.331 E4.32355
G1 X151.259 Y243.395 E5.26453
G1 X150.246 Y243.395 E5.33996
G1 X160.195 Y253.344 E6.38762
G1 X160.195 Y254.357 E6.46305
G1 X149.233 Y243.395 E7.61738
G1 X148.219 Y243.395 E7.69281
G1 X160.195 Y255.371 E8.95382
G1 X160.195 Y256.384 E9.02925
G1 X147.206 Y243.395 E10.39693
G1 X146.193 Y243.395 E10.47236
G1 X160.195 Y257.397 E11.94671
G1 X160.195 Y258.41 E12.02214
G1 X145.18 Y243.395 E13.60316
G1 X144.167 Y243.395 E13.67859
G1 X160.195 Y259.423 E15.36629
G1 X160.195 Y260.436 E15.44171
G1 X143.154 Y243.395 E17.23608
G1 X142.141 Y243.395 E17.31151
G1 X160.195 Y261.449 E19.21256
G1 X160.195 Y262.462 E19.28799
G1 X141.128 Y243.395 E21.2957
G1 X140.115 Y243.395 E21.37113
G1 X160.195 Y263.475 E23.48552
G1 X160.195 Y263.785 E23.50861
G1 X159.492 Y263.785 E23.56095
G1 X139.805 Y244.098 E25.63397
G1 X139.805 Y245.111 E25.70939
G1 X158.479 Y263.785 E27.67574
G1 X157.466 Y263.785 E27.75117
G1 X139.805 Y246.124 E29.61084
G1 X139.805 Y247.137 E29.68627
G1 X156.453 Y263.785 E31.43927
G1 X155.44 Y263.785 E31.5147
G1 X139.805 Y248.15 E33.16103
G1 X139.805 Y249.163 E33.23646
G1 X154.427 Y263.785 E34.77611
G1 X153.414 Y263.785 E34.85154
G1 X139.805 Y250.176 E36.28452
G1 X139.805 Y251.189 E36.35995
G1 X152.401 Y263.785 E37.68626
G1 X151.388 Y263.785 E37.76169
G1 X139.805 Y252.202 E38.98133
G1 X139.805 Y253.215 E39.05676
G1 X150.375 Y263.785 E40.16972
G1 X149.362 Y263.785 E40.24515
G1 X139.805 Y254.228 E41.25144
G1 X139.805 Y255.242 E41.32687
G1 X148.348 Y263.785 E42.22648
G1 X147.335 Y263.785 E42.30191
G1 X139.805 Y256.255 E43.09486
G1 X139.805 Y257.268 E43.17029
G1 X146.322 Y263.785 E43.85656
G1 X145.309 Y263.785 E43.93199
G1 X139.805 Y258.281 E44.51159
G1 X139.805 Y259.294 E44.58702
G1 X144.296 Y263.785 E45.05994
G1 X143.283 Y263.785 E45.13537
G1 X139.805 Y260.307 E45.50163
G1 X139.805 Y261.32 E45.57706
G1 X142.27 Y263.785 E45.83664
G1 X141.257 Y263.785 E45.91207
G1 X139.805 Y262.333 E46.06497
G1 X139.805 Y263.346 E46.1404
G1 X140.552 Y264.093 E46.21907
G92 E0
G1 E-0.8 F2100
G1 Z0.45 F8700
; stop printing object First_Layer_Patch-0.25mm.stl id:0 copy 1
EXCLUDE_OBJECT_END NAME=First_Layer_Patch_0_25mm_stl_id_0_copy_1
; printing object First_Layer_Patch-0.25mm.stl id:0 copy 3
EXCLUDE_OBJECT_START NAME=First_Layer_Patch_0_25mm_stl_id_0_copy_3
G1 X244.408 Y264.272
G1 Z0.25
G1 E0 F120
;TYPE:Internal perimeter
G1 F2400
G1 X244.408 Y242.908 E1.59072
G1 X265.772 Y242.908 E3.18144
G1 X265.772 Y264.272 E4.77216
G1 X244.49 Y264.272 E6.35674
G1 X243.691 Y264.989 F8700
G1 F2400
G1 X243.691 Y242.191 E8.05413
G1 X266.489 Y242.191 E9.75153
G1 X266.489 Y264.989 E11.44892
G1 X243.774 Y264.989 E13.14017
G1 X242.975 Y265.705 F8700
;TYPE:External perimeter
G1 F2400
G1 X242.975 Y241.475 E14.94424
G1 X267.205 Y241.475 E16.7483
G1 X267.205 Y265.705 E18.55237
G1 X243.057 Y265.705 E20.35029
;WIPE_START
G1 X243.25 Y265.229 F8700
;WIPE_END
G92 E0
G1 E-0.8 F2100
G1 Z0.45 F8700
G1 X245.642 Y264.093
G1 Z0.25
G1 E0 F120
;TYPE:Solid infill
G1 F2400
G1 X244.895 Y263.346 E0.07867
G1 X244.895 Y262.333 E0.1541
G1 X246.347 Y263.785 E0.30701
G1 X247.36 Y263.785 E0.38244
G1 X244.895 Y261.32 E0.64202
G1 X244.895 Y260.307 E0.71745
G1 X248.373 Y263.785 E1.0837
G1 X249.386 Y263.785 E1.15913
G1 X244.895 Y259.294 E1.63206
G1 X244.895 Y258.281 E1.70748
G1 X250.399 Y263.785 E2.28708
G1 X251.412 Y263.785 E2.36251
G1 X244.895 Y257.268 E3.04878
G1 X244.895 Y256.255 E3.12421
G1 X252.425 Y263.785 E3.91716
G1 X253.438 Y263.785 E3.99259
G1 X244.895 Y255.242 E4.89221
G1 X244.895 Y254.228 E4.96763
G1 X254.452 Y263.785 E5.97393
G1 X255.465 Y263.785 E6.04935
G1 X244.895 Y253.215 E7.16232
G1 X244.895 Y252.202 E7.23775
G1 X256.478 Y263.785 E8.45738
G1 X257.491 Y263.785 E8.53281
G1 X244.895 Y251.189 E9.85912
G1 X244.895 Y250.176 E9.93455
G1 X258.504 Y263.785 E11.36753
G1 X259.517 Y263.785 E11.44296
G1 X244.895 Y249.163 E12.98262
G1 X244.895 Y248.15 E13.05804
G1 X260.53 Y263.785 E14.70437
G1 X261.543 Y263.785 E14.7798
G1 X244.895 Y247.137 E16.5328
G1 X244.895 Y246.124 E16.60823
G1 X262.556 Y263.785 E18.4679
G1 X263.569 Y263.785 E18.54333
G1 X244.895 Y245.111 E20.50968
G1 X244.895 Y244.098 E20.58511
G1 X264.582 Y263.785 E22.65813
G1 X265.285 Y263.785 E22.71047
G1 X265.285 Y263.475 E22.73355
G1 X245.205 Y243.395 E24.84794
G1 X246.218 Y243.395 E24.92337
G1 X265.285 Y262.462 E26.93109
G1 X265.285 Y261.449 E27.00652
G1 X247.231 Y243.395 E28.90756
G1 X248.244 Y243.395 E28.98299
G1 X265.285 Y260.436 E30.77736
G1 X265.285 Y259.423 E30.85279
G1 X249.257 Y243.395 E32.54048
G1 X250.27 Y243.395 E32.61591
G1 X265.285 Y258.41 E34.19694
G1 X265.285 Y257.397 E34.27237
G1 X251.283 Y243.395 E35.74672
G1 X252.296 Y243.395 E35.82215
G1 X265.285 Y256.384 E37.18983
G1 X265.285 Y255.371 E37.26525
