; generated by SuperSlicer 2.4 on 2023-01-25 at 19:42:17 UTC


;
;

;
;
; 

; external perimeters extrusion width = 0.52mm
; perimeters extrusion width = 0.56mm
; infill extrusion width = 0.56mm
; solid infill extrusion width = 0.56mm
; top infill extrusion width = 0.52mm
; first layer extrusion width = 0.77mm

; external perimeters extrusion width = 0.52mm
; perimeters extrusion width = 0.56mm
; infill extrusion width = 0.56mm
; solid infill extrusion width = 0.56mm
; top infill extrusion width = 0.52mm
; first layer extrusion width = 0.77mm

; object:{"name":"Foot_Front_Right_x1","id":"Foot_Front_Right_x1.stl id:0 copy 0","object_center":[150.000000,178.750000,0.000000],"boundingbox_center":[150.000000,178.750000,13.399994],"boundingbox_size":[40.500000,26.799999,26.799988]}
; object:{"name":"Foot_Rear_Left_Inlet_x1","id":"Foot_Rear_Left_Inlet_x1.stl id:1 copy 0","object_center":[150.000000,132.100000,0.000000],"boundingbox_center":[150.000000,132.100000,26.000053],"boundingbox_size":[84.953606,54.500000,52.000107]}
; plater:{"center":[150.000000,148.500000,0.000000],"boundingbox_center":[150.000000,148.500000,26.000053],"boundingbox_size":[84.953606,87.300000,52.000107]}

;TYPE:Custom
M104 S0 ; Stops SuperSlicer from sending temp waits separately


; Pre-Processed for Cancel-Object support by preprocess_cancellation v0.2.0
; 2 known objects
EXCLUDE_OBJECT_DEFINE NAME=Foot_Front_Right_x1_stl_id_0_copy_0 CENTER=148.685,177.133 POLYGON=[[130.012,165.612],[130.012,191.888],[169.988,191.888],[169.988,165.612]]
EXCLUDE_OBJECT_DEFINE NAME=Foot_Rear_Left_Inlet_x1_stl_id_1_copy_0 CENTER=150.971,130.863 POLYGON=[[107.786,105.112],[107.786,159.088],[192.214,159.088],[192.214,105.112]]

M140 S0

print_start EXTRUDER=248 BED=105 CHAMBER=0
G21 ; set units to millimeters
G90 ; use absolute coordinates
M83 ; use relative distances for extrusion
; Filament gcode
;_TOOLCHANGE 0
M107
;LAYER_CHANGE
;Z:0.2
;HEIGHT:0.2
TIMELAPSE_TAKE_FRAME
;BEFORE_LAYER_CHANGE
;0.2


G1 E-0.8 F3000
G1 Z0.3 F9000
;AFTER_LAYER_CHANGE
;0.2
G92 E0
G1 Z0.5
G1 X105.843 Y103.37
G1 Z0.2
G1 E0.8 F1800
;TYPE:Skirt
;WIDTH:0.65
G1 F1950
G1 X105.106 Y105.15 E0.09727
G1 X105.106 Y144.05 E1.96363
G1 X105.341 Y145.113 E0.05498
G1 X127.568 Y192.813 E2.65642
G1 X128.37 Y193.83 E0.06537
G1 X130.15 Y194.568 E0.09727
G1 X169.15 Y194.568 E1.96868
G1 X170.515 Y194.165 E0.07185
G1 X171.436 Y193.104 E0.07093
G1 X194.55 Y142.974 E2.78654
G1 X194.85 Y141.971 E0.05286
G1 X194.873 Y106.456 E1.79274
G1 X194.658 Y105.247 E0.062
G1 X194.246 Y104.432 E0.04611
G1 X193.642 Y103.747 E0.04611
G1 X192.885 Y103.235 E0.04611
G1 X192.024 Y102.929 E0.04612
G1 X183.1 Y102.435 E0.45116
G1 X107.823 Y102.432 E3.7999
G1 X106.043 Y103.17 E0.09727
G1 X105.896 Y103.317 E0.01049
G1 X106.325 Y103.746 F9000
G1 F1950
G1 X106.272 Y103.799 E0.00379
G1 X105.713 Y105.15 E0.07382
G1 X105.713 Y144.05 E1.96363
G1 X105.891 Y144.857 E0.04172
G1 X128.118 Y192.557 E2.65642
G1 X128.799 Y193.401 E0.05474
G1 X130.15 Y193.961 E0.07382
G1 X169.15 Y193.961 E1.96868
G1 X170.047 Y193.737 E0.04668
G1 X170.885 Y192.85 E0.06159
G1 X193.999 Y142.72 E2.78654
G1 X194.246 Y141.902 E0.04316
G1 X194.266 Y106.457 E1.78923
G1 X194.095 Y105.472 E0.05043
G1 X193.757 Y104.792 E0.03837
G1 X193.258 Y104.217 E0.03837
G1 X192.632 Y103.787 E0.03837
G1 X191.918 Y103.527 E0.03837
G1 X183.07 Y103.042 E0.44728
G1 X107.823 Y103.039 E3.7984
G1 X106.472 Y103.599 E0.07382
G1 X106.378 Y103.693 E0.00671
G1 X106.808 Y104.122 F9000
G1 F1950
G1 X106.701 Y104.228 E0.00757
G1 X106.32 Y105.15 E0.05036
G1 X106.32 Y144.05 E1.96363
G1 X106.442 Y144.601 E0.02847
G1 X128.668 Y192.301 E2.65642
G1 X129.228 Y192.972 E0.04412
G1 X130.15 Y193.354 E0.05036
G1 X169.15 Y193.354 E1.96868
G1 X170.334 Y192.596 E0.07095
G1 X193.448 Y142.466 E2.78654
G1 X193.643 Y141.832 E0.03346
G1 X193.659 Y106.457 E1.78572
G1 X193.531 Y105.698 E0.03887
G1 X193.267 Y105.151 E0.03063
G1 X192.875 Y104.688 E0.03063
G1 X192.379 Y104.338 E0.03063
G1 X191.812 Y104.124 E0.03063
G1 X183.041 Y103.648 E0.4434
G1 X107.823 Y103.646 E3.79689
G1 X106.901 Y104.028 E0.05036
G1 X106.861 Y104.069 E0.00292
M104 S248 ; set temperature
G1 E-0.8 F3000
G1 Z0.5 F9000
; printing object Foot_Front_Right_x1.stl id:0 copy 0
EXCLUDE_OBJECT_START NAME=Foot_Front_Right_x1_stl_id_0_copy_0
G1 X167.496 Y168.584
G1 Z0.2
G1 E0.8 F1800
;TYPE:Solid infill
;WIDTH:0.766636
G1 F3000
G1 X166.331 Y167.419 E0.09921
G1 X165.296 Y167.419 E0.06234
G1 X167.181 Y169.304 E0.16057
G1 X167.181 Y170.339 E0.06234
G1 X164.261 Y167.419 E0.24874
G1 X163.225 Y167.419 E0.06234
G1 X167.181 Y171.375 E0.3369
G1 X167.181 Y172.41 E0.06234
G1 X162.19 Y167.419 E0.42507
G1 X161.155 Y167.419 E0.06234
G1 X167.181 Y173.445 E0.51323
G1 X167.181 Y174.481 E0.06234
G1 X160.119 Y167.419 E0.6014
G1 X159.084 Y167.419 E0.06234
G1 X167.181 Y175.516 E0.68956
G1 X167.181 Y176.551 E0.06234
G1 X158.049 Y167.419 E0.77773
G1 X157.013 Y167.419 E0.06234
G1 X167.181 Y177.587 E0.86589
G1 X167.181 Y178.622 E0.06234
G1 X155.978 Y167.419 E0.95406
G1 X154.943 Y167.419 E0.06234
G1 X167.181 Y179.657 E1.04222
G1 X167.181 Y180.693 E0.06234
G1 X153.907 Y167.419 E1.13039
G1 X152.872 Y167.419 E0.06234
G1 X167.181 Y181.728 E1.21855
G1 X167.181 Y182.763 E0.06234
G1 X151.837 Y167.419 E1.30672
G1 X150.801 Y167.419 E0.06234
G1 X167.181 Y183.799 E1.39489
G1 X167.181 Y184.834 E0.06234
G1 X149.766 Y167.419 E1.48305
G1 X148.731 Y167.419 E0.06234
G1 X167.181 Y185.869 E1.57122
G1 X167.181 Y186.905 E0.06234
G1 X147.695 Y167.419 E1.65938
G1 X146.66 Y167.419 E0.06234
G1 X167.181 Y187.94 E1.74755
G1 X167.181 Y188.975 E0.06234
G1 X145.625 Y167.419 E1.83571
G1 X144.589 Y167.419 E0.06234
G1 X167.181 Y190.01 E1.92388
G1 X167.181 Y190.081 E0.00427
G1 X166.217 Y190.081 E0.05807
G1 X162.02 Y185.884 E0.3574
G1 X163.434 Y188.334 E0.17032
G1 X165.496 Y190.396 E0.17561
G1 X159.685 Y183.55 F9000
G1 F3000
G1 X143.554 Y167.419 E1.37368
G1 X142.519 Y167.419 E0.06234
G1 X157.917 Y182.816 E1.31124
G1 X156.881 Y182.816 E0.06234
G1 X141.484 Y167.419 E1.31124
G1 X140.448 Y167.419 E0.06234
G1 X155.846 Y182.816 E1.31124
G1 X154.811 Y182.816 E0.06234
G1 X139.413 Y167.419 E1.31124
G1 X138.378 Y167.419 E0.06234
G1 X153.775 Y182.816 E1.31124
G1 X152.74 Y182.816 E0.06234
G1 X137.342 Y167.419 E1.31124
G1 X136.307 Y167.419 E0.06234
G1 X151.705 Y182.816 E1.31124
G1 X150.669 Y182.816 E0.06234
G1 X135.272 Y167.419 E1.31124
G1 X134.236 Y167.419 E0.06234
G1 X149.726 Y182.908 E1.31905
G1 X149.533 Y182.933 E0.0117
G1 X148.955 Y183.173 E0.03767
G1 X133.201 Y167.419 E1.3416
G1 X132.166 Y167.419 E0.06234
G1 X148.298 Y183.551 E1.37377
G1 X147.792 Y183.939 E0.03838
G1 X147.731 Y184.019 E0.00608
G1 X131.819 Y168.107 E1.35503
G1 X131.819 Y169.142 E0.06234
G1 X147.281 Y184.605 E1.31675
G1 X147.246 Y184.65 E0.00347
G1 X146.897 Y185.256 E0.04208
G1 X131.819 Y170.177 E1.28401
G1 X131.819 Y171.213 E0.06234
G1 X146.518 Y185.912 E1.25174
G1 X146.139 Y186.568 E0.04564
G1 X131.819 Y172.248 E1.21947
G1 X131.819 Y173.283 E0.06234
G1 X145.76 Y187.225 E1.1872
G1 X145.381 Y187.881 E0.04564
G1 X131.819 Y174.319 E1.15493
G1 X131.819 Y175.354 E0.06234
G1 X145.002 Y188.537 E1.12266
G1 X144.623 Y189.194 E0.04564
G1 X131.819 Y176.389 E1.09039
G1 X131.819 Y177.425 E0.06234
G1 X144.244 Y189.85 E1.05812
G1 X144.11 Y190.081 E0.01608
G1 X143.44 Y190.081 E0.04037
G1 X131.819 Y178.46 E0.98965
G1 X131.819 Y179.495 E0.06234
G1 X142.405 Y190.081 E0.90149
G1 X141.369 Y190.081 E0.06234
G1 X131.819 Y180.531 E0.81332
G1 X131.819 Y181.566 E0.06234
G1 X140.334 Y190.081 E0.72516
G1 X139.299 Y190.081 E0.06234
G1 X131.819 Y182.601 E0.63699
G1 X131.819 Y183.637 E0.06234
G1 X138.263 Y190.081 E0.54883
G1 X137.228 Y190.081 E0.06234
G1 X131.819 Y184.672 E0.46066
G1 X131.819 Y185.707 E0.06234
G1 X136.193 Y190.081 E0.3725
G1 X135.157 Y190.081 E0.06234
G1 X131.819 Y186.743 E0.28433
G1 X131.819 Y187.778 E0.06234
G1 X134.122 Y190.081 E0.19616
G1 X133.087 Y190.081 E0.06234
G1 X131.819 Y188.813 E0.108
G1 X131.819 Y189.848 E0.06234
G1 X132.366 Y190.396 E0.04664
G1 X131.27 Y190.63 F9000
;TYPE:Internal perimeter
;WIDTH:0.775
G1 F2880
G1 X131.27 Y166.87 E1.44639
G1 X167.73 Y166.87 E2.21947
G1 X167.73 Y190.63 E1.44639
G1 X164.368 Y190.63 E0.20468
G1 X164.143 Y190.601 E0.0138
G1 X164.005 Y190.421 E0.0138
G1 X160.85 Y184.956 E0.38413
G1 X160.37 Y184.33 E0.04801
G1 X159.68 Y183.801 E0.05292
G1 X158.877 Y183.468 E0.05292
G1 X158.095 Y183.365 E0.04801
G1 X150.458 Y183.365 E0.46486
G1 X149.677 Y183.468 E0.04801
G1 X148.873 Y183.801 E0.05292
G1 X148.184 Y184.33 E0.05292
G1 X147.704 Y184.956 E0.04801
G1 X144.548 Y190.421 E0.38413
G1 X144.41 Y190.601 E0.0138
G1 X144.186 Y190.63 E0.0138
G1 X131.345 Y190.63 E0.78167
G1 X130.537 Y191.363 F9000
;TYPE:External perimeter
G1 F2880
G1 X130.537 Y166.137 E1.53551
G1 X168.463 Y166.137 E2.3086
G1 X168.463 Y191.363 E1.53551
G1 X164.32 Y191.363 E0.25217
G1 X164.027 Y191.324 E0.01799
G1 X163.784 Y191.223 E0.01602
G1 X163.575 Y191.063 E0.01602
G1 X163.395 Y190.829 E0.01798
G1 X160.24 Y185.364 E0.38413
G1 X159.848 Y184.852 E0.03922
G1 X159.311 Y184.441 E0.04118
G1 X158.686 Y184.182 E0.04118
G1 X158.047 Y184.098 E0.03922
G1 X150.506 Y184.098 E0.45902
G1 X149.868 Y184.182 E0.03922
G1 X149.243 Y184.441 E0.04118
G1 X148.706 Y184.852 E0.04119
G1 X148.314 Y185.364 E0.03922
G1 X145.158 Y190.829 E0.38413
G1 X144.978 Y191.063 E0.01798
G1 X144.77 Y191.223 E0.01602
G1 X144.526 Y191.324 E0.01602
G1 X144.234 Y191.363 E0.01798
G1 X130.612 Y191.363 E0.82915
;WIPE_START
G1 X130.787 Y190.929 F9000
;WIPE_END
G1 E-0.8 F3000
G1 Z0.5 F9000
; stop printing object Foot_Front_Right_x1.stl id:0 copy 0
EXCLUDE_OBJECT_END NAME=Foot_Front_Right_x1_stl_id_0_copy_0
; printing object Foot_Rear_Left_Inlet_x1.stl id:1 copy 0
EXCLUDE_OBJECT_START NAME=Foot_Rear_Left_Inlet_x1_stl_id_1_copy_0
G1 X121.3 Y142.596
G1 Z0.2
G1 E0.8 F1800
;TYPE:Solid infill
;WIDTH:0.7494
G1 F3000
G1 X109.592 Y130.888 E0.97462
G1 X109.592 Y131.923 E0.06094
G1 X119.95 Y142.281 E0.86223
G1 X118.914 Y142.281 E0.06094
G1 X109.592 Y132.959 E0.77604
G1 X109.592 Y133.994 E0.06094
G1 X117.879 Y142.281 E0.68986
G1 X116.844 Y142.281 E0.06094
G1 X109.592 Y135.029 E0.60368
G1 X109.592 Y136.065 E0.06094
G1 X115.808 Y142.281 E0.5175
G1 X114.773 Y142.281 E0.06094
G1 X109.592 Y137.1 E0.43131
G1 X109.592 Y138.135 E0.06094
G1 X113.738 Y142.281 E0.34513
G1 X112.703 Y142.281 E0.06094
G1 X109.592 Y139.171 E0.25895
G1 X109.592 Y140.206 E0.06094
G1 X111.667 Y142.281 E0.17276
G1 X110.632 Y142.281 E0.06094
G1 X109.592 Y141.241 E0.08658
G1 X109.592 Y142.277 E0.06094
G1 X109.911 Y142.596 E0.0266
G1 X121.244 Y132.188 F9000
G1 F3000
G1 X131.338 Y142.281 E0.84025
G1 X130.303 Y142.281 E0.06094
G1 X120.818 Y132.797 E0.78952
G1 X120.162 Y133.176 E0.04461
G1 X129.268 Y142.281 E0.75797
G1 X128.232 Y142.281 E0.06094
G1 X119.506 Y133.555 E0.72643
G1 X118.849 Y133.934 E0.04461
G1 X127.197 Y142.281 E0.69488
G1 X126.162 Y142.281 E0.06094
G1 X118.193 Y134.313 E0.66334
G1 X117.945 Y134.456 E0.01684
G1 X116.42 Y133.575 E0.10364
G1 X125.126 Y142.281 E0.72472
G1 X124.091 Y142.281 E0.06094
G1 X113.971 Y132.161 E0.84245
G1 X111.521 Y130.747 E0.16649
G1 X123.056 Y142.281 E0.96017
G1 X122.02 Y142.281 E0.06094
G1 X109.592 Y129.853 E1.03459
G1 X109.592 Y128.818 E0.06094
G1 X109.622 Y128.847 E0.00248
G1 X109.622 Y127.812 E0.06094
G1 X109.592 Y127.782 E0.00248
G1 X109.592 Y126.747 E0.06094
G1 X109.622 Y126.777 E0.00248
G1 X109.622 Y125.741 E0.06094
G1 X109.592 Y125.712 E0.00248
G1 X109.592 Y124.676 E0.06094
G1 X109.622 Y124.706 E0.00248
G1 X109.622 Y123.671 E0.06094
G1 X109.592 Y123.641 E0.00248
G1 X109.592 Y122.606 E0.06094
G1 X109.622 Y122.635 E0.00248
G1 X109.622 Y121.6 E0.06094
G1 X109.592 Y121.57 E0.00248
G1 X109.592 Y120.535 E0.06094
G1 X109.622 Y120.565 E0.00248
G1 X109.622 Y120.039 E0.03096
G1 X109.945 Y119.852 E0.02195
G1 X109.592 Y119.5 E0.02936
G1 X109.592 Y118.464 E0.06094
G1 X110.601 Y119.473 E0.084
G1 X111.257 Y119.094 E0.04461
G1 X109.592 Y117.429 E0.13864
G1 X109.592 Y116.394 E0.06094
G1 X111.914 Y118.716 E0.19327
G1 X112.57 Y118.337 E0.04461
G1 X109.592 Y115.358 E0.24791
G1 X109.592 Y114.323 E0.06094
G1 X113.226 Y117.958 E0.30255
G1 X113.883 Y117.579 E0.04461
G1 X109.592 Y113.288 E0.35719
G1 X109.592 Y112.252 E0.06094
G1 X114.539 Y117.2 E0.41183
G1 X115.195 Y116.821 E0.04461
G1 X109.592 Y111.217 E0.46646
G1 X109.592 Y110.182 E0.06094
G1 X115.852 Y116.442 E0.5211
G1 X116.508 Y116.063 E0.04461
G1 X109.592 Y109.147 E0.57574
G1 X109.592 Y108.111 E0.06094
G1 X117.165 Y115.684 E0.63038
G1 X117.821 Y115.305 E0.04461
G1 X109.592 Y107.076 E0.68502
G1 X109.592 Y106.919 E0.00926
G1 X110.47 Y106.919 E0.05169
G1 X119.931 Y116.38 E0.78757
G1 X122.38 Y117.794 E0.16649
G1 X111.505 Y106.919 E0.90529
G1 X112.541 Y106.919 E0.06094
G1 X125.69 Y120.068 E1.09461
G1 E-0.8
G1 Z0.5 F9000
G1 X183.887 Y134.782
G1 Z0.2
G1 E0.8 F1800
G1 F3000
G1 X180.648 Y131.543 E0.26963
G1 X180.648 Y130.507 E0.06094
G1 X183.122 Y132.981 E0.20593
G1 X183.122 Y131.946 E0.06094
G1 X180.648 Y129.472 E0.20593
G1 X180.648 Y128.437 E0.06094
G1 X183.122 Y130.91 E0.20593
G1 X183.122 Y129.875 E0.06094
G1 X180.648 Y127.401 E0.20593
G1 X180.648 Y126.366 E0.06094
G1 X183.122 Y128.84 E0.20593
G1 X183.122 Y127.805 E0.06094
G1 X180.648 Y125.331 E0.20593
G1 X180.648 Y124.295 E0.06094
G1 X183.122 Y126.769 E0.20593
G1 X183.122 Y125.734 E0.06094
G1 X180.648 Y123.26 E0.20593
G1 X180.648 Y122.225 E0.06094
G1 X183.231 Y124.808 E0.21502
G1 X183.245 Y124.697 E0.00659
G1 X183.512 Y124.054 E0.04099
G1 X180.648 Y121.189 E0.23842
G1 X180.648 Y120.154 E0.06094
G1 X183.893 Y123.4 E0.27016
G1 X184.302 Y122.866 E0.03957
G1 X184.355 Y122.826 E0.00389
G1 X180.648 Y119.119 E0.30859
G1 X180.648 Y118.084 E0.06094
G1 X184.941 Y122.376 E0.35736
G1 X185.055 Y122.288 E0.00852
G1 X185.583 Y121.984 E0.03587
G1 X180.648 Y117.048 E0.41084
G1 X180.648 Y116.013 E0.06094
G1 X186.24 Y121.605 E0.46548
G1 X186.896 Y121.226 E0.04461
G1 X180.648 Y114.978 E0.52012
G1 X180.648 Y113.942 E0.06094
G1 X187.552 Y120.847 E0.57476
G1 X188.209 Y120.468 E0.04461
G1 X180.648 Y112.907 E0.62939
G1 X180.648 Y111.872 E0.06094
G1 X189.096 Y120.319 E0.70322
G1 X190.702 Y108.467 F9000
G1 F3000
G1 X189.475 Y107.24 E0.10211
G1 X188.387 Y107.187 E0.06416
G1 X190.387 Y109.187 E0.16654
G1 X190.387 Y110.222 E0.06094
G1 X187.298 Y107.133 E0.25717
G1 X186.209 Y107.08 E0.06416
G1 X190.387 Y111.258 E0.3478
G1 X190.387 Y112.293 E0.06094
G1 X185.12 Y107.026 E0.43843
G1 X184.031 Y106.973 E0.06416
G1 X190.387 Y113.328 E0.52907
G1 X190.387 Y114.364 E0.06094
G1 X182.943 Y106.919 E0.6197
G1 X181.907 Y106.919 E0.06098
G1 X190.387 Y115.399 E0.70594
G1 X190.387 Y116.434 E0.06094
G1 X180.871 Y106.919 E0.79212
G1 X179.836 Y106.919 E0.06094
G1 X190.387 Y117.47 E0.87831
G1 X190.387 Y118.505 E0.06094
G1 X178.801 Y106.919 E0.96449
G1 X177.765 Y106.919 E0.06094
G1 X190.178 Y119.331 E1.03325
G1 X189.521 Y119.71 E0.04461
G1 X176.73 Y106.919 E1.06479
G1 X175.695 Y106.919 E0.06094
G1 X177.523 Y108.747 E0.1522
G1 X177.082 Y108.747 E0.02594
G1 X176.488 Y108.747 E0.035
G1 X174.659 Y106.919 E0.1522
G1 X173.624 Y106.919 E0.06094
G1 X175.453 Y108.747 E0.1522
G1 X174.417 Y108.747 E0.06094
G1 X172.589 Y106.919 E0.1522
G1 X171.554 Y106.919 E0.06094
G1 X173.382 Y108.747 E0.1522
G1 X172.347 Y108.747 E0.06094
G1 X170.518 Y106.919 E0.1522
G1 X169.483 Y106.919 E0.06094
G1 X171.311 Y108.747 E0.1522
G1 X170.276 Y108.747 E0.06094
G1 X168.448 Y106.919 E0.1522
G1 X167.412 Y106.919 E0.06094
G1 X169.241 Y108.747 E0.1522
G1 X168.205 Y108.747 E0.06094
G1 X166.377 Y106.919 E0.1522
G1 X165.342 Y106.919 E0.06094
G1 X167.17 Y108.747 E0.1522
G1 X166.135 Y108.747 E0.06094
G1 X164.306 Y106.919 E0.1522
G1 X163.271 Y106.919 E0.06094
G1 X165.099 Y108.747 E0.1522
G1 X164.064 Y108.747 E0.06094
G1 X162.236 Y106.919 E0.1522
G1 X161.2 Y106.919 E0.06094
G1 X163.029 Y108.747 E0.1522
G1 X161.993 Y108.747 E0.06094
G1 X160.165 Y106.919 E0.1522
G1 X159.13 Y106.919 E0.06094
G1 X160.958 Y108.747 E0.1522
G1 X159.923 Y108.747 E0.06094
G1 X158.094 Y106.919 E0.1522
G1 X157.059 Y106.919 E0.06094
G1 X158.888 Y108.747 E0.1522
G1 X157.852 Y108.747 E0.06094
G1 X156.024 Y106.919 E0.1522
G1 X154.988 Y106.919 E0.06094
