; generated by SuperSlicer 2.4 on 2023-01-25 at 16:49:09 UTC


;
;

;
;
; 

; external perimeters extrusion width = 0.52mm
; perimeters extrusion width = 0.56mm
; infill extrusion width = 0.56mm
; solid infill extrusion width = 0.56mm
; top infill extrusion width = 0.52mm
; first layer extrusion width = 0.77mm

; external perimeters extrusion width = 0.52mm
; perimeters extrusion width = 0.56mm
; infill extrusion width = 0.56mm
; solid infill extrusion width = 0.56mm
; top infill extrusion width = 0.52mm
; first layer extrusion width = 0.77mm

; object:{"name":"Foot_Front_Left_x1","id":"Foot_Front_Left_x1.stl id:0 copy 0","object_center":[150.000000,132.099998,0.000000],"boundingbox_center":[150.000000,132.099998,13.400009],"boundingbox_size":[40.500000,26.799999,26.800018]}
; object:{"name":"Foot_Rear_Right_x1","id":"Foot_Rear_Right_x1.stl id:1 copy 0","object_center":[150.000000,164.900000,0.000000],"boundingbox_center":[150.000000,164.900000,13.399994],"boundingbox_size":[40.500000,26.800003,26.799988]}
; plater:{"center":[150.000000,148.500000,0.000000],"boundingbox_center":[150.000000,148.500000,13.400009],"boundingbox_size":[40.500000,59.600003,26.800018]}

;TYPE:Custom
M104 S0 ; Stops SuperSlicer from sending temp waits separately


; Pre-Processed for Cancel-Object support by preprocess_cancellation v0.2.0
; 2 known objects
EXCLUDE_OBJECT_DEFINE NAME=Foot_Front_Left_x1_stl_id_0_copy_0 CENTER=151.284,130.417 POLYGON=[[130.012,118.962],[130.012,145.237],[169.988,145.237],[169.988,118.962]]
EXCLUDE_OBJECT_DEFINE NAME=Foot_Rear_Right_x1_stl_id_1_copy_0 CENTER=151.252,164.155 POLYGON=[[130.012,151.762],[130.012,178.038],[169.988,178.038],[169.988,151.762]]

M140 S0

print_start EXTRUDER=248 BED=105 CHAMBER=0
G21 ; set units to millimeters
G90 ; use absolute coordinates
M83 ; use relative distances for extrusion
; Filament gcode
;_TOOLCHANGE 0
M107
;LAYER_CHANGE
;Z:0.2
;HEIGHT:0.2
TIMELAPSE_TAKE_FRAME
;BEFORE_LAYER_CHANGE
;0.2


G1 E-0.8 F3000
G1 Z0.3 F9000
;AFTER_LAYER_CHANGE
;0.2
G92 E0
G1 Z0.5
G1 X127.87 Y116.74
G1 Z0.2
G1 E0.8 F1800
;TYPE:Skirt
;WIDTH:0.65
G1 F1950
G1 X127.133 Y118.443 E0.09368
G1 X126.132 Y151.32 E1.66035
G1 X126.132 Y178.48 E1.371
G1 X126.87 Y180.26 E0.09727
G1 X127.79 Y181.18 E0.06568
G1 X129.57 Y181.918 E0.09727
G1 X169.43 Y181.918 E2.01208
G1 X171.21 Y181.18 E0.09727
G1 X172.13 Y180.26 E0.06568
G1 X172.867 Y178.557 E0.09368
G1 X173.868 Y145.68 E1.66035
G1 X173.868 Y118.52 E1.371
G1 X173.13 Y116.74 E0.09727
G1 X172.21 Y115.82 E0.06568
G1 X170.43 Y115.082 E0.09727
G1 X130.57 Y115.082 E2.01208
G1 X128.79 Y115.82 E0.09727
G1 X127.923 Y116.687 E0.0619
G1 X128.352 Y117.116 F9000
G1 F1950
G1 X128.299 Y117.169 E0.00379
G1 X127.74 Y118.462 E0.07109
G1 X126.739 Y151.32 E1.65942
G1 X126.739 Y178.48 E1.371
G1 X127.299 Y179.831 E0.07382
G1 X128.219 Y180.751 E0.06568
G1 X129.57 Y181.311 E0.07382
G1 X169.43 Y181.311 E2.01208
G1 X170.781 Y180.751 E0.07382
G1 X171.701 Y179.831 E0.06568
G1 X172.26 Y178.538 E0.07109
G1 X173.261 Y145.68 E1.65942
G1 X173.261 Y118.52 E1.371
G1 X172.701 Y117.169 E0.07382
G1 X171.781 Y116.249 E0.06568
G1 X170.43 Y115.689 E0.07382
G1 X130.57 Y115.689 E2.01208
G1 X129.219 Y116.249 E0.07382
G1 X128.405 Y117.063 E0.05811
G1 X128.834 Y117.492 F9000
G1 F1950
G1 X128.728 Y117.598 E0.00757
G1 X128.347 Y118.48 E0.0485
G1 X127.346 Y151.32 E1.65848
G1 X127.346 Y178.48 E1.371
G1 X127.728 Y179.402 E0.05036
G1 X128.648 Y180.322 E0.06568
G1 X129.57 Y180.704 E0.05036
G1 X169.43 Y180.704 E2.01208
G1 X170.352 Y180.322 E0.05036
G1 X171.272 Y179.402 E0.06568
G1 X171.653 Y178.52 E0.0485
G1 X172.654 Y145.68 E1.65848
G1 X172.654 Y118.52 E1.371
G1 X172.272 Y117.598 E0.05036
G1 X171.352 Y116.678 E0.06568
G1 X170.43 Y116.296 E0.05036
G1 X130.57 Y116.296 E2.01208
G1 X129.648 Y116.678 E0.05036
G1 X128.887 Y117.439 E0.05433
G1 E-0.8 F3000
G1 Z0.5 F9000
G1 X130.047 Y150.802
G1 Z0.2
G1 E0.8 F1800
;WIDTH:0.775
G1 F1950
G1 X144.307 Y150.803 E0.86807
G1 X144.866 Y150.875 E0.0343
G1 X145.004 Y150.916 E0.00875
G1 X145.43 Y151.092 E0.02807
G1 X145.596 Y151.188 E0.01166
G1 X145.961 Y151.469 E0.02807
G1 X146.097 Y151.604 E0.01166
G1 X146.42 Y152.036 E0.03284
G1 X149.551 Y157.459 E0.38121
G1 X149.765 Y157.738 E0.02139
G1 X149.992 Y157.912 E0.01737
G1 X150.255 Y158.021 E0.01737
G1 X150.604 Y158.067 E0.02139
G1 X157.95 Y158.067 E0.44716
G1 X158.298 Y158.021 E0.02139
G1 X158.562 Y157.912 E0.01737
G1 X158.788 Y157.738 E0.01737
G1 X159.002 Y157.459 E0.02139
G1 X162.146 Y152.016 E0.38267
G1 X162.488 Y151.568 E0.03429
G1 X162.592 Y151.469 E0.00875
G1 X162.998 Y151.161 E0.03098
G1 X163.124 Y151.092 E0.00875
G1 X163.595 Y150.9 E0.03098
G1 X163.735 Y150.866 E0.00875
G1 X164.247 Y150.803 E0.03138
G1 X168.953 Y150.802 E0.28652
G1 X169.095 Y150.83 E0.00878
G1 X169.363 Y150.941 E0.01764
G1 X169.483 Y151.021 E0.00878
G1 X169.729 Y151.267 E0.02121
G1 X169.809 Y151.387 E0.00878
G1 X169.92 Y151.655 E0.01764
G1 X169.948 Y151.797 E0.00878
G1 X169.948 Y178.004 E1.59529
G1 X169.92 Y178.145 E0.00878
G1 X169.809 Y178.413 E0.01764
G1 X169.729 Y178.533 E0.00878
G1 X169.483 Y178.779 E0.02121
G1 X169.363 Y178.859 E0.00878
G1 X169.095 Y178.97 E0.01764
G1 X168.953 Y178.998 E0.00878
G1 X130.047 Y178.998 E2.36837
G1 X129.905 Y178.97 E0.00878
G1 X129.637 Y178.859 E0.01764
G1 X129.517 Y178.779 E0.00878
G1 X129.271 Y178.533 E0.02121
G1 X129.191 Y178.413 E0.00878
G1 X129.08 Y178.145 E0.01764
G1 X129.052 Y178.004 E0.00878
G1 X129.052 Y151.797 E1.59529
G1 X129.08 Y151.655 E0.00878
G1 X129.191 Y151.387 E0.01764
G1 X129.271 Y151.267 E0.00878
G1 X129.517 Y151.021 E0.02121
G1 X129.637 Y150.941 E0.00878
G1 X129.905 Y150.83 E0.01764
G1 X129.973 Y150.817 E0.00421
G1 X130.119 Y151.534 F9000
G1 F1950
G1 X144.271 Y151.534 E0.86149
G1 X144.295 Y151.536 E0.00146
G1 X144.699 Y151.589 E0.02483
G1 X144.746 Y151.601 E0.00292
G1 X145.127 Y151.759 E0.02515
G1 X145.169 Y151.783 E0.00292
G1 X145.497 Y152.035 E0.02515
G1 X145.531 Y152.069 E0.00292
G1 X145.779 Y152.392 E0.02483
G1 X145.792 Y152.412 E0.00146
G1 X148.941 Y157.867 E0.3834
G1 X149.243 Y158.26 E0.03018
G1 X149.623 Y158.551 E0.02911
G1 X150.064 Y158.734 E0.02911
G1 X150.556 Y158.799 E0.03018
G1 X157.998 Y158.799 E0.453
G1 X158.489 Y158.734 E0.03018
G1 X158.931 Y158.551 E0.02911
G1 X159.31 Y158.26 E0.02911
G1 X159.612 Y157.867 E0.03018
G1 X162.761 Y152.412 E0.3834
G1 X162.775 Y152.392 E0.00146
G1 X163.023 Y152.069 E0.02483
G1 X163.057 Y152.035 E0.00292
G1 X163.385 Y151.783 E0.02515
G1 X163.426 Y151.759 E0.00292
G1 X163.808 Y151.601 E0.02515
G1 X163.854 Y151.589 E0.00292
G1 X164.259 Y151.536 E0.02483
G1 X164.283 Y151.534 E0.00146
G1 X168.881 Y151.534 E0.27994
G1 X169.016 Y151.59 E0.00886
G1 X169.16 Y151.734 E0.01243
G1 X169.216 Y151.869 E0.00886
G1 X169.216 Y177.931 E1.58651
G1 X169.16 Y178.066 E0.00886
G1 X169.016 Y178.21 E0.01243
G1 X168.881 Y178.266 E0.00886
G1 X130.119 Y178.266 E2.35959
G1 X129.984 Y178.21 E0.00886
G1 X129.84 Y178.066 E0.01243
G1 X129.784 Y177.931 E0.00886
G1 X129.784 Y151.869 E1.58651
G1 X129.84 Y151.734 E0.00886
G1 X129.984 Y151.59 E0.01243
G1 X130.049 Y151.563 E0.0043
G1 E-0.8 F3000
G1 Z0.5 F9000
G1 X130.853 Y146.198
G1 Z0.2
G1 E0.8 F1800
G1 F1950
G1 X130.584 Y146.087 E0.01773
G1 X130.163 Y145.666 E0.03619
G1 X130.052 Y145.397 E0.01773
G1 X130.052 Y118.997 E1.60708
G1 X130.08 Y118.855 E0.00878
G1 X130.191 Y118.587 E0.01764
G1 X130.271 Y118.467 E0.00878
G1 X130.517 Y118.221 E0.02121
G1 X130.637 Y118.141 E0.00878
G1 X130.905 Y118.03 E0.01764
G1 X131.047 Y118.002 E0.00878
G1 X169.954 Y118.002 E2.36837
G1 X170.095 Y118.03 E0.00878
G1 X170.363 Y118.141 E0.01764
G1 X170.483 Y118.221 E0.00878
G1 X170.729 Y118.467 E0.02121
G1 X170.809 Y118.587 E0.00878
G1 X170.92 Y118.855 E0.01764
G1 X170.948 Y118.996 E0.00878
G1 X170.948 Y145.203 E1.59529
G1 X170.92 Y145.345 E0.00878
G1 X170.809 Y145.613 E0.01764
G1 X170.729 Y145.733 E0.00878
G1 X170.483 Y145.979 E0.02121
G1 X170.363 Y146.059 E0.00878
G1 X170.095 Y146.17 E0.01764
G1 X169.954 Y146.198 E0.00878
G1 X155.717 Y146.198 E0.86661
G1 X155.181 Y146.134 E0.03284
G1 X155.042 Y146.1 E0.00875
G1 X154.57 Y145.908 E0.03098
G1 X154.444 Y145.839 E0.00875
G1 X154.039 Y145.531 E0.03098
G1 X153.903 Y145.396 E0.01166
G1 X153.58 Y144.964 E0.03284
G1 X150.449 Y139.541 E0.38121
G1 X150.235 Y139.262 E0.02139
G1 X150.008 Y139.088 E0.01737
G1 X149.745 Y138.979 E0.01737
G1 X149.396 Y138.933 E0.02139
G1 X142.05 Y138.933 E0.44716
G1 X141.702 Y138.979 E0.02139
G1 X141.438 Y139.088 E0.01737
G1 X141.212 Y139.262 E0.01737
G1 X140.998 Y139.541 E0.02139
G1 X137.854 Y144.984 E0.38267
G1 X137.512 Y145.432 E0.0343
G1 X137.408 Y145.531 E0.00875
G1 X137.002 Y145.839 E0.03098
G1 X136.876 Y145.908 E0.00875
G1 X136.405 Y146.1 E0.03098
G1 X136.265 Y146.134 E0.00875
G1 X135.753 Y146.197 E0.03138
G1 X130.928 Y146.198 E0.29375
G1 X130.998 Y145.466 F9000
G1 F1950
G1 X130.784 Y145.252 E0.01846
G1 X130.784 Y119.069 E1.59383
G1 X130.84 Y118.934 E0.00886
G1 X130.984 Y118.79 E0.01243
G1 X131.119 Y118.734 E0.00886
G1 X169.881 Y118.734 E2.35959
G1 X170.016 Y118.79 E0.00886
G1 X170.16 Y118.934 E0.01243
G1 X170.216 Y119.069 E0.00886
G1 X170.216 Y145.131 E1.58651
G1 X170.16 Y145.266 E0.00886
G1 X170.016 Y145.41 E0.01243
G1 X169.881 Y145.466 E0.00886
G1 X155.729 Y145.466 E0.86149
G1 X155.705 Y145.464 E0.00146
G1 X155.301 Y145.411 E0.02483
G1 X155.254 Y145.399 E0.00292
G1 X154.873 Y145.241 E0.02515
G1 X154.831 Y145.217 E0.00292
G1 X154.503 Y144.965 E0.02515
G1 X154.469 Y144.931 E0.00292
G1 X154.221 Y144.608 E0.02483
G1 X154.208 Y144.588 E0.00146
G1 X151.059 Y139.133 E0.3834
G1 X150.757 Y138.74 E0.03018
G1 X150.377 Y138.449 E0.02911
G1 X149.936 Y138.266 E0.02911
G1 X149.444 Y138.201 E0.03018
G1 X142.002 Y138.201 E0.453
G1 X141.511 Y138.266 E0.03018
G1 X141.069 Y138.449 E0.02911
G1 X140.69 Y138.74 E0.02911
G1 X140.388 Y139.133 E0.03018
G1 X137.239 Y144.588 E0.3834
G1 X137.225 Y144.608 E0.00146
G1 X136.977 Y144.931 E0.02483
G1 X136.943 Y144.965 E0.00292
G1 X136.615 Y145.217 E0.02516
G1 X136.574 Y145.241 E0.00292
G1 X136.192 Y145.399 E0.02515
G1 X136.146 Y145.411 E0.00292
G1 X135.741 Y145.464 E0.02483
G1 X135.717 Y145.466 E0.00146
G1 X131.073 Y145.466 E0.28269
M104 S248 ; set temperature
; printing object Foot_Front_Left_x1.stl id:0 copy 0
EXCLUDE_OBJECT_START NAME=Foot_Front_Left_x1_stl_id_0_copy_0
G1 X133.366 Y143.746 F9000
;TYPE:Solid infill
;WIDTH:0.767046
G1 F3000
G1 X132.819 Y143.198 E0.04666
G1 X132.819 Y142.163 E0.06238
G1 X134.087 Y143.431 E0.10805
G1 X135.122 Y143.431 E0.06238
G1 X132.819 Y141.128 E0.19627
G1 X132.819 Y140.093 E0.06238
G1 X135.777 Y143.051 E0.25204
G1 X136.156 Y142.394 E0.04566
G1 X132.819 Y139.057 E0.28433
G1 X132.819 Y138.022 E0.06238
G1 X136.535 Y141.738 E0.31661
G1 X136.914 Y141.082 E0.04566
G1 X132.819 Y136.987 E0.3489
G1 X132.819 Y135.951 E0.06238
G1 X137.293 Y140.425 E0.38119
G1 X137.671 Y139.769 E0.04566
G1 X132.819 Y134.916 E0.41348
G1 X132.819 Y133.881 E0.06238
G1 X138.05 Y139.112 E0.44577
G1 X138.429 Y138.456 E0.04566
G1 X132.819 Y132.845 E0.47805
G1 X132.819 Y131.81 E0.06238
G1 X138.83 Y137.821 E0.51218
G1 X139.239 Y137.289 E0.04045
G1 X139.292 Y137.248 E0.00404
G1 X132.819 Y130.775 E0.55153
G1 X132.819 Y129.739 E0.06238
G1 X139.878 Y136.798 E0.60145
G1 X140.043 Y136.671 E0.01256
G1 X140.568 Y136.454 E0.03426
G1 X132.819 Y128.704 E0.6603
G1 X132.819 Y127.669 E0.06238
G1 X141.381 Y136.231 E0.72951
G1 X141.869 Y136.166 E0.02968
G1 X142.352 Y136.166 E0.02908
G1 X132.819 Y126.633 E0.81224
G1 X132.819 Y125.598 E0.06238
G1 X143.387 Y136.166 E0.90045
G1 X144.422 Y136.166 E0.06238
G1 X132.819 Y124.563 E0.98866
G1 X132.819 Y123.527 E0.06238
G1 X145.458 Y136.166 E1.07688
G1 X146.493 Y136.166 E0.06238
G1 X132.819 Y122.492 E1.16509
G1 X132.819 Y121.457 E0.06238
G1 X147.528 Y136.166 E1.2533
G1 X148.563 Y136.166 E0.06238
G1 X133.166 Y120.769 E1.31194
G1 X134.201 Y120.769 E0.06238
G1 X149.602 Y136.17 E1.31222
G1 X150.467 Y136.283 E0.05255
G1 X150.952 Y136.485 E0.03166
G1 X135.236 Y120.769 E1.33905
G1 X136.272 Y120.769 E0.06238
G1 X158.934 Y143.431 E1.93094
G1 X159.97 Y143.431 E0.06238
G1 X137.307 Y120.769 E1.93094
G1 X138.342 Y120.769 E0.06238
G1 X161.005 Y143.431 E1.93094
G1 X162.04 Y143.431 E0.06238
G1 X139.378 Y120.769 E1.93094
G1 X140.413 Y120.769 E0.06238
G1 X163.076 Y143.431 E1.93094
G1 X164.111 Y143.431 E0.06238
G1 X141.448 Y120.769 E1.93094
G1 X142.484 Y120.769 E0.06238
G1 X165.146 Y143.431 E1.93094
G1 X166.182 Y143.431 E0.06238
G1 X143.519 Y120.769 E1.93094
G1 X144.554 Y120.769 E0.06238
G1 X167.217 Y143.431 E1.93094
G1 X168.181 Y143.431 E0.05811
G1 X168.181 Y143.361 E0.00427
G1 X145.589 Y120.769 E1.92491
G1 X146.625 Y120.769 E0.06238
G1 X168.181 Y142.325 E1.83669
G1 X168.181 Y141.29 E0.06238
G1 X147.66 Y120.769 E1.74848
G1 X148.695 Y120.769 E0.06238
G1 X168.181 Y140.255 E1.66027
G1 X168.181 Y139.219 E0.06238
G1 X149.731 Y120.769 E1.57206
G1 X150.766 Y120.769 E0.06238
G1 X168.181 Y138.184 E1.48384
G1 X168.181 Y137.149 E0.06238
G1 X151.801 Y120.769 E1.39563
G1 X152.837 Y120.769 E0.06238
G1 X168.181 Y136.113 E1.30742
G1 X168.181 Y135.078 E0.06238
G1 X153.872 Y120.769 E1.21921
G1 X154.907 Y120.769 E0.06238
G1 X168.181 Y134.043 E1.13099
G1 X168.181 Y133.007 E0.06238
G1 X155.943 Y120.769 E1.04278
G1 X156.978 Y120.769 E0.06238
G1 X168.181 Y131.972 E0.95457
G1 X168.181 Y130.937 E0.06238
G1 X158.013 Y120.769 E0.86636
G1 X159.049 Y120.769 E0.06238
G1 X168.181 Y129.901 E0.77814
G1 X168.181 Y128.866 E0.06238
G1 X160.084 Y120.769 E0.68993
G1 X161.119 Y120.769 E0.06238
G1 X168.181 Y127.831 E0.60172
G1 X168.181 Y126.795 E0.06238
G1 X162.155 Y120.769 E0.51351
G1 X163.19 Y120.769 E0.06238
G1 X168.181 Y125.76 E0.42529
G1 X168.181 Y124.725 E0.06238
G1 X164.225 Y120.769 E0.33708
G1 X165.261 Y120.769 E0.06238
G1 X168.181 Y123.689 E0.24887
G1 X168.181 Y122.654 E0.06238
G1 X166.296 Y120.769 E0.16066
G1 X167.331 Y120.769 E0.06238
G1 X168.496 Y121.934 E0.09927
G1 X158.214 Y143.746 F9000
G1 F3000
G1 X153.144 Y138.677 E0.43193
G1 X154.559 Y141.126 E0.17041
G1 X157.179 Y143.746 E0.22322
G1 X169.462 Y144.712 F9000
;TYPE:External perimeter
;WIDTH:0.775
G1 F2880
G1 X155.766 Y144.712 E0.83372
G1 X155.474 Y144.674 E0.01798
G1 X155.23 Y144.573 E0.01602
G1 X155.022 Y144.413 E0.01602
G1 X154.842 Y144.179 E0.01798
G1 X151.686 Y138.714 E0.38413
G1 X151.294 Y138.202 E0.03922
G1 X150.757 Y137.791 E0.04119
G1 X150.132 Y137.532 E0.04118
G1 X149.494 Y137.447 E0.03922
G1 X141.953 Y137.447 E0.45902
G1 X141.314 Y137.532 E0.03922
G1 X140.689 Y137.791 E0.04118
G1 X140.152 Y138.202 E0.04119
G1 X139.76 Y138.714 E0.03922
G1 X136.605 Y144.179 E0.38413
G1 X136.425 Y144.413 E0.01798
G1 X136.216 Y144.573 E0.01602
G1 X135.973 Y144.674 E0.01602
G1 X135.68 Y144.712 E0.01798
G1 X131.538 Y144.712 E0.25217
G1 X131.538 Y119.488 E1.53551
G1 X169.462 Y119.488 E2.3086
G1 X169.462 Y144.637 E1.53095
;WIPE_START
G1 X169.029 Y144.462 F9000
;WIPE_END
G1 X168.73 Y143.98
;TYPE:Internal perimeter
G1 F2880
G1 X155.814 Y143.98 E0.78623
G1 X155.59 Y143.951 E0.0138
G1 X155.452 Y143.771 E0.0138
G1 X152.296 Y138.306 E0.38413
G1 X151.816 Y137.68 E0.04801
G1 X151.127 Y137.151 E0.05292
G1 X150.323 Y136.818 E0.05292
G1 X149.542 Y136.715 E0.04801
G1 X141.905 Y136.715 E0.46486
G1 X141.123 Y136.818 E0.04801
G1 X140.32 Y137.151 E0.05292
G1 X139.63 Y137.68 E0.05292
G1 X139.15 Y138.306 E0.04801
G1 X135.995 Y143.771 E0.38413
G1 X135.857 Y143.951 E0.0138
G1 X135.632 Y143.98 E0.0138
G1 X132.27 Y143.98 E0.20468
G1 X132.27 Y120.22 E1.44639
G1 X168.73 Y120.22 E2.21947
G1 X168.73 Y143.905 E1.44182
G1 E-0.8 F3000
G1 Z0.5 F9000
; stop printing object Foot_Front_Left_x1.stl id:0 copy 0
EXCLUDE_OBJECT_END NAME=Foot_Front_Left_x1_stl_id_0_copy_0
; printing object Foot_Rear_Right_x1.stl id:1 copy 0
EXCLUDE_OBJECT_START NAME=Foot_Rear_Right_x1_stl_id_1_copy_0
G1 X166.016 Y153.254
G1 Z0.2
G1 E0.8 F1800
;TYPE:Solid infill
;WIDTH:0.762698
G1 F3000
G1 X167.181 Y154.419 E0.0987
G1 X167.181 Y155.454 E0.06202
G1 X165.296 Y153.569 E0.15975
G1 X164.443 Y153.569 E0.05108
G1 X164.376 Y153.684 E0.00801
G1 X167.181 Y156.49 E0.23765
G1 X167.181 Y157.525 E0.06202
G1 X163.997 Y154.341 E0.26976
G1 X163.618 Y154.997 E0.0454
G1 X167.181 Y158.56 E0.30186
