; generated by SuperSlicer 2.5.59 on 2023-04-06 at 14:14:55 UTC


;
;

;
;
; 

; external perimeters extrusion width = 0.45mm
; perimeters extrusion width = 0.45mm
; infill extrusion width = 0.45mm
; solid infill extrusion width = 0.45mm
; top infill extrusion width = 0.43mm
; support material extrusion width = 0.42mm
; first layer extrusion width = 0.60mm

; object:{"name":"Frame_Brace-Voron","id":"Frame_Brace-Voron.stl id:0 copy 0","object_center":[150.000001,148.500000,0.000000],"boundingbox_center":[150.000001,148.500000,10.000000],"boundingbox_size":[144.066025,144.066025,20.000000]}
EXCLUDE_OBJECT_DEFINE NAME=Frame_Brace_Voron_stl_id_0_copy_0 CENTER=150.000001,148.500000 POLYGON=[[77.966984,184.533008],[79.381200,181.118784],[182.618800,77.881200],[186.033024,76.466984],[220.033024,76.466984],[222.033024,78.466984],[222.033024,86.466984],[220.618800,89.881200],[206.860784,103.639232],[105.139232,205.360784],[91.381200,219.118800],[87.966984,220.533024],[79.966984,220.533024],[77.966984,218.533024],[77.966984,184.533008]]
; plater:{"center":[150.000001,148.500000,0.000000],"boundingbox_center":[150.000001,148.500000,10.000000],"boundingbox_size":[144.066025,144.066025,20.000000]}

;TYPE:Custom
SET_PRINT_STATS_INFO TOTAL_LAYER=91

M104 S0 ; Stops SuperSlicer from sending temp waits separately

M109 S0

M140 S0

print_start EXTRUDER=255 BED=105 CHAMBER=0
G21 ; set units to millimeters
G90 ; use absolute coordinates
M83 ; use relative distances for extrusion
; Filament gcode
;_TOOLCHANGE 0
M107
;LAYER_CHANGE
;Z:0.3
;HEIGHT:0.3
TIMELAPSE_TAKE_FRAME
;BEFORE_LAYER_CHANGE
;0.3


G1 Z0.3 F8700
SET_PRINT_STATS_INFO CURRENT_LAYER=1
;AFTER_LAYER_CHANGE
;0.3
G92 E0
G1 E-0.7 F1800
G1 Z0.9 F8700
G1 X126.121 Y126.121
G1 Z0.3
G1 E0.7 F1800
;TYPE:Skirt
;WIDTH:0.54
G1 F2250
G1 X73.642 Y178.6 E4.40266
G1 X73.276 Y179.148 E0.03909
G1 X72.257 Y181.609 E0.15804
G1 X72.128 Y182.256 E0.0391
G1 X72.128 Y221.018 E2.29946
G1 X72.623 Y222.213 E0.07669
G1 X76.287 Y225.877 E0.30745
G1 X77.482 Y226.372 E0.07669
G1 X90.244 Y226.372 E0.75709
G1 X90.891 Y226.243 E0.0391
G1 X93.352 Y225.224 E0.15804
G1 X93.9 Y224.858 E0.03909
G1 X226.358 Y92.4 E11.11241
G1 X226.724 Y91.852 E0.03909
G1 X227.743 Y89.391 E0.15804
G1 X227.872 Y88.744 E0.0391
G1 X227.872 Y75.982 E0.75709
G1 X227.377 Y74.787 E0.07669
G1 X223.713 Y71.123 E0.30745
G1 X222.518 Y70.628 E0.07669
G1 X183.756 Y70.628 E2.29946
G1 X183.109 Y70.757 E0.0391
G1 X180.648 Y71.776 E0.15804
G1 X180.1 Y72.142 E0.03909
G1 X126.164 Y126.079 E4.52495
G1 X126.5 Y126.415 F8700
G1 F2250
G1 X73.978 Y178.936 E4.40622
G1 X73.715 Y179.33 E0.02809
G1 X72.696 Y181.791 E0.15804
G1 X72.604 Y182.256 E0.02809
G1 X72.604 Y221.018 E2.29946
G1 X72.959 Y221.876 E0.05509
G1 X76.624 Y225.541 E0.30745
G1 X77.482 Y225.896 E0.05509
G1 X90.244 Y225.896 E0.75709
G1 X90.709 Y225.804 E0.02809
G1 X93.17 Y224.785 E0.15804
G1 X93.564 Y224.522 E0.02809
G1 X226.022 Y92.064 E11.11241
G1 X226.285 Y91.67 E0.02809
G1 X227.304 Y89.209 E0.15804
G1 X227.396 Y88.744 E0.02809
G1 X227.396 Y75.982 E0.75709
G1 X227.041 Y75.124 E0.05509
G1 X223.376 Y71.459 E0.30745
G1 X222.518 Y71.104 E0.05509
G1 X183.756 Y71.104 E2.29946
G1 X183.291 Y71.196 E0.02809
G1 X180.83 Y72.215 E0.15804
G1 X180.436 Y72.478 E0.02809
G1 X126.542 Y126.373 E4.52139
G1 X126.879 Y126.709 F8700
G1 F2250
G1 X74.315 Y179.273 E4.40978
G1 X73.135 Y181.973 E0.17482
G1 X73.079 Y182.256 E0.01708
G1 X73.079 Y221.018 E2.29946
G1 X73.295 Y221.54 E0.0335
G1 X76.96 Y225.205 E0.30745
G1 X77.482 Y225.421 E0.0335
G1 X90.244 Y225.421 E0.75709
G1 X90.527 Y225.365 E0.01708
G1 X93.227 Y224.185 E0.17482
G1 X225.685 Y91.727 E11.11241
G1 X226.865 Y89.027 E0.17482
G1 X226.921 Y88.744 E0.01708
G1 X226.921 Y75.982 E0.75709
G1 X226.705 Y75.46 E0.0335
G1 X223.04 Y71.795 E0.30745
G1 X222.518 Y71.579 E0.0335
G1 X183.756 Y71.579 E2.29946
G1 X183.473 Y71.635 E0.01708
G1 X180.773 Y72.815 E0.17482
G1 X126.921 Y126.667 E4.51783
G1 E-0.7 F1800
G1 Z0.9 F8700
G1 X79.549 Y213.374
G1 Z0.3
G1 E0.7 F1800
;WIDTH:0.6
G1 F2250
G1 X79.549 Y218.644 E0.35206
G1 X79.856 Y218.951 E0.02899
G1 X84.956 Y218.951 E0.34072
G1 X84.834 Y219.877 E0.06243
G1 X84.315 Y221.13 E0.09059
G1 X83.49 Y222.206 E0.09059
G1 X82.414 Y223.031 E0.09059
G1 X81.161 Y223.55 E0.09059
G1 X79.817 Y223.727 E0.09059
G1 X78.473 Y223.55 E0.09059
G1 X77.22 Y223.031 E0.09059
G1 X76.144 Y222.206 E0.09059
G1 X75.319 Y221.13 E0.09059
G1 X74.8 Y219.877 E0.09059
G1 X74.623 Y218.533 E0.09059
G1 X74.8 Y217.189 E0.09059
G1 X75.319 Y215.936 E0.09059
G1 X76.144 Y214.86 E0.09059
G1 X77.22 Y214.035 E0.09059
G1 X78.473 Y213.516 E0.09059
G1 X79.49 Y213.382 E0.06853
G1 X79.522 Y214.177 F8700
G1 F2250
G1 X77.547 Y214.177 E0.13198
G1 X77.35 Y214.259 E0.01427
G1 X76.758 Y214.713 E0.04981
G1 X79.292 Y214.713 E0.16929
G1 X79.292 Y215.249 E0.03578
G1 X76.17 Y215.249 E0.20857
G1 X75.759 Y215.784 E0.0451
G1 X79.292 Y215.784 E0.23603
G1 X79.292 Y216.32 E0.03578
G1 X75.438 Y216.32 E0.25749
G1 X75.216 Y216.856 E0.03873
G1 X79.292 Y216.856 E0.27231
G1 X79.292 Y217.391 E0.03578
G1 X75.032 Y217.391 E0.28457
G1 X74.962 Y217.927 E0.03609
G1 X79.292 Y217.927 E0.28928
G1 X79.292 Y218.462 E0.03578
G1 X74.891 Y218.462 E0.29399
G1 X74.882 Y218.533 E0.00476
G1 X74.943 Y218.998 E0.03134
G1 X79.54 Y218.998 E0.30707
G1 X79.75 Y219.208 E0.01983
G1 X84.663 Y219.208 E0.32825
G1 X84.62 Y219.534 E0.02195
G1 X75.014 Y219.534 E0.64176
G1 X75.05 Y219.81 E0.01864
G1 X75.157 Y220.069 E0.01873
G1 X84.476 Y220.069 E0.62256
G1 X84.255 Y220.605 E0.03873
G1 X75.379 Y220.605 E0.59292
G1 X75.543 Y221 E0.0286
G1 X75.651 Y221.141 E0.01179
G1 X83.983 Y221.141 E0.55667
G1 X83.572 Y221.676 E0.0451
G1 X76.062 Y221.676 E0.50175
G1 X76.327 Y222.023 E0.02917
G1 X76.574 Y222.212 E0.02077
G1 X83.06 Y222.212 E0.43329
G1 X82.362 Y222.747 E0.05878
G1 X77.272 Y222.747 E0.34002
G1 X77.35 Y222.807 E0.00652
G1 X78.499 Y223.283 E0.08313
G1 X81.737 Y223.283 E0.21628
G1 E-0.7 F1800
G1 Z0.9 F8700
G1 X220.451 Y83.626
G1 Z0.3
G1 E0.7 F1800
G1 F2250
G1 X220.451 Y78.356 E0.35206
G1 X220.144 Y78.049 E0.02899
G1 X215.044 Y78.049 E0.34072
G1 X215.166 Y77.123 E0.06243
G1 X215.685 Y75.87 E0.09059
G1 X216.51 Y74.794 E0.09059
G1 X217.586 Y73.969 E0.09059
G1 X218.839 Y73.45 E0.09059
G1 X220.183 Y73.273 E0.09059
G1 X221.527 Y73.45 E0.09059
G1 X222.78 Y73.969 E0.09059
G1 X223.856 Y74.794 E0.09059
G1 X224.681 Y75.87 E0.09059
G1 X225.2 Y77.123 E0.09059
G1 X225.377 Y78.467 E0.09059
G1 X225.2 Y79.811 E0.09059
G1 X224.681 Y81.064 E0.09059
G1 X223.856 Y82.14 E0.09059
G1 X222.78 Y82.965 E0.09059
G1 X221.527 Y83.484 E0.09059
G1 X220.51 Y83.618 E0.06853
G1 X220.478 Y83.182 F8700
G1 F2250
G1 X221.586 Y83.182 E0.07404
G1 X222.65 Y82.741 E0.07698
G1 X222.774 Y82.646 E0.01039
G1 X220.708 Y82.646 E0.13801
G1 X220.708 Y82.11 E0.03578
G1 X223.472 Y82.11 E0.18465
G1 X223.673 Y81.957 E0.0169
G1 X223.965 Y81.575 E0.03214
G1 X220.708 Y81.575 E0.21762
G1 X220.708 Y81.039 E0.03578
G1 X224.376 Y81.039 E0.24507
G1 X224.457 Y80.934 E0.00882
G1 X224.635 Y80.504 E0.03115
G1 X220.708 Y80.504 E0.26237
G1 X220.708 Y79.968 E0.03578
G1 X224.857 Y79.968 E0.27719
G1 X224.95 Y79.744 E0.01618
G1 X224.991 Y79.432 E0.02101
G1 X220.708 Y79.432 E0.28612
G1 X220.708 Y78.897 E0.03578
G1 X225.061 Y78.897 E0.29083
G1 X225.118 Y78.467 E0.02896
G1 X225.104 Y78.361 E0.00713
G1 X220.708 Y78.361 E0.29368
G1 X220.708 Y78.25 E0.00746
G1 X220.284 Y77.826 E0.04006
G1 X225.034 Y77.826 E0.3173
G1 X224.963 Y77.29 E0.03609
G1 X215.403 Y77.29 E0.63866
G1 X215.416 Y77.19 E0.00675
G1 X215.597 Y76.754 E0.03149
G1 X224.769 Y76.754 E0.6128
G1 X224.548 Y76.219 E0.03873
G1 X215.818 Y76.219 E0.58315
G1 X215.909 Y76 E0.01585
G1 X216.152 Y75.683 E0.02665
G1 X224.214 Y75.683 E0.53858
G1 X223.803 Y75.147 E0.0451
G1 X216.563 Y75.147 E0.48367
G1 X216.693 Y74.977 E0.01431
G1 X217.17 Y74.612 E0.04012
G1 X223.196 Y74.612 E0.40257
G1 X222.65 Y74.193 E0.04594
G1 X222.368 Y74.076 E0.02042
G1 X217.998 Y74.076 E0.29194
G1 X218.906 Y73.7 E0.06564
G1 X220.118 Y73.541 E0.08169
G1 X221.677 Y73.541 E0.10413
M104 S255 ; set temperature
G1 E-0.7 F1800
G1 Z0.9 F8700
; printing object Frame_Brace-Voron.stl id:0 copy 0
EXCLUDE_OBJECT_START NAME=Frame_Brace_Voron_stl_id_0_copy_0
G1 X219.883 Y78.617
G1 Z0.3
G1 E0.7 F1800
;TYPE:External perimeter
G1 F2400
G1 X219.883 Y87.491 E0.59283
G1 X219.823 Y87.637 E0.01054
G1 X187.772 Y119.687 E3.02804
G1 X187.436 Y119.975 E0.02955
G1 X187.034 Y120.223 E0.03153
G1 X186.637 Y120.387 E0.02871
G1 X186.178 Y120.496 E0.03153
G1 X185.737 Y120.53 E0.02955
G1 X182.812 Y120.53 E0.1954
G1 X182.113 Y120.565 E0.04675
G1 X181.414 Y120.669 E0.04722
G1 X180.77 Y120.831 E0.04437
G1 X180.104 Y121.066 E0.04723
G1 X179.426 Y121.387 E0.05007
G1 X178.856 Y121.729 E0.0444
G1 X178.288 Y122.149 E0.04722
G1 X177.769 Y122.619 E0.04675
G1 X124.119 Y176.269 E5.06871
G1 X123.649 Y176.788 E0.04675
G1 X123.229 Y177.356 E0.04722
G1 X122.888 Y177.926 E0.04437
G1 X122.583 Y178.564 E0.04723
G1 X122.331 Y179.27 E0.05007
G1 X122.169 Y179.914 E0.0444
G1 X122.065 Y180.613 E0.04722
G1 X122.03 Y181.312 E0.04675
G1 X122.03 Y184.237 E0.1954
G1 X121.996 Y184.678 E0.02955
G1 X121.887 Y185.137 E0.03153
G1 X121.723 Y185.534 E0.02871
G1 X121.475 Y185.936 E0.03153
G1 X121.187 Y186.272 E0.02955
G1 X89.137 Y218.323 E3.02804
G1 X88.991 Y218.383 E0.01054
G1 X80.117 Y218.383 E0.59283
G1 X80.117 Y183.509 E2.32977
G1 X80.177 Y183.363 E0.01054
G1 X99.228 Y164.313 E1.79984
G1 X99.564 Y164.025 E0.02955
G1 X99.966 Y163.777 E0.03153
G1 X100.363 Y163.613 E0.02871
G1 X100.822 Y163.504 E0.03153
G1 X101.263 Y163.47 E0.02955
G1 X104.188 Y163.47 E0.1954
G1 X104.887 Y163.435 E0.04675
G1 X105.586 Y163.331 E0.04722
G1 X106.23 Y163.169 E0.0444
G1 X106.936 Y162.917 E0.05007
G1 X107.574 Y162.612 E0.04723
G1 X108.144 Y162.271 E0.04437
G1 X108.712 Y161.851 E0.04722
G1 X109.231 Y161.381 E0.04675
G1 X162.881 Y107.731 E5.06871
G1 X163.351 Y107.212 E0.04675
G1 X163.771 Y106.644 E0.04722
G1 X164.112 Y106.074 E0.04437
G1 X164.417 Y105.436 E0.04723
G1 X164.669 Y104.73 E0.05007
G1 X164.831 Y104.086 E0.0444
G1 X164.935 Y103.387 E0.04722
G1 X164.97 Y102.688 E0.04675
G1 X164.97 Y99.763 E0.1954
G1 X165.004 Y99.322 E0.02955
G1 X165.113 Y98.863 E0.03153
G1 X165.277 Y98.466 E0.02871
G1 X165.525 Y98.064 E0.03153
G1 X165.813 Y97.728 E0.02955
G1 X184.863 Y78.677 E1.79984
G1 X185.009 Y78.617 E0.01054
G1 X219.823 Y78.617 E2.32577
;WIPE_START
G1 X219.683 Y78.963 F8700
;WIPE_END
G1 X219.347 Y79.153
;TYPE:Internal perimeter
G1 F2400
G1 X219.347 Y87.355 E0.54794
G1 X187.408 Y119.294 E3.01755
G1 X187.12 Y119.541 E0.02536
G1 X186.79 Y119.744 E0.02586
G1 X186.472 Y119.876 E0.02301
G1 X186.095 Y119.966 E0.02586
G1 X185.717 Y119.995 E0.02536
G1 X182.799 Y119.995 E0.19491
G1 X182.06 Y120.031 E0.04941
G1 X181.309 Y120.144 E0.05073
G1 X180.615 Y120.317 E0.04779
G1 X179.899 Y120.571 E0.05076
G1 X179.173 Y120.915 E0.05365
G1 X178.559 Y121.283 E0.04788
G1 X177.948 Y121.735 E0.05073
G1 X177.4 Y122.231 E0.04941
G1 X123.731 Y175.9 E5.07048
G1 X123.235 Y176.448 E0.04941
G1 X122.783 Y177.059 E0.05073
G1 X122.415 Y177.672 E0.04779
G1 X122.088 Y178.358 E0.05076
G1 X121.818 Y179.114 E0.05365
G1 X121.644 Y179.809 E0.04788
G1 X121.531 Y180.56 E0.05073
G1 X121.495 Y181.299 E0.04941
G1 X121.495 Y184.217 E0.19491
G1 X121.466 Y184.595 E0.02536
G1 X121.376 Y184.972 E0.02586
G1 X121.244 Y185.29 E0.02301
G1 X121.041 Y185.62 E0.02586
G1 X120.794 Y185.908 E0.02536
G1 X88.855 Y217.847 E3.01755
G1 X80.653 Y217.847 E0.54794
G1 X80.653 Y183.645 E2.28488
G1 X99.592 Y164.706 E1.78935
G1 X99.88 Y164.459 E0.02536
G1 X100.21 Y164.256 E0.02586
G1 X100.528 Y164.124 E0.02301
G1 X100.905 Y164.034 E0.02586
G1 X101.283 Y164.005 E0.02536
G1 X104.201 Y164.005 E0.19491
G1 X104.94 Y163.969 E0.04941
G1 X105.691 Y163.856 E0.05073
G1 X106.386 Y163.682 E0.04787
G1 X107.142 Y163.412 E0.05366
G1 X107.828 Y163.085 E0.05076
G1 X108.441 Y162.717 E0.04779
G1 X109.052 Y162.265 E0.05073
G1 X109.6 Y161.769 E0.04941
G1 X163.269 Y108.1 E5.07048
G1 X163.765 Y107.552 E0.04941
G1 X164.217 Y106.941 E0.05073
G1 X164.585 Y106.328 E0.04779
G1 X164.912 Y105.642 E0.05076
G1 X165.182 Y104.886 E0.05365
G1 X165.356 Y104.191 E0.04788
G1 X165.469 Y103.44 E0.05073
G1 X165.505 Y102.701 E0.04941
G1 X165.505 Y99.783 E0.19491
G1 X165.534 Y99.405 E0.02536
G1 X165.624 Y99.028 E0.02586
G1 X165.756 Y98.71 E0.02301
G1 X165.959 Y98.38 E0.02586
G1 X166.206 Y98.092 E0.02536
G1 X185.145 Y79.153 E1.78935
G1 X219.287 Y79.153 E2.28087
G1 X218.812 Y79.688 F8700
G1 F2400
G1 X218.812 Y87.133 E0.49733
G1 X187.044 Y118.901 E3.00136
G1 X186.803 Y119.107 E0.02117
G1 X186.546 Y119.266 E0.02019
G1 X186.306 Y119.365 E0.01731
G1 X186.012 Y119.435 E0.02019
G1 X185.696 Y119.459 E0.02117
G1 X182.786 Y119.459 E0.19443
G1 X182.007 Y119.498 E0.05207
G1 X181.204 Y119.618 E0.05424
G1 X180.461 Y119.804 E0.05121
G1 X179.695 Y120.075 E0.05429
G1 X178.92 Y120.442 E0.05724
G1 X178.261 Y120.837 E0.05136
G1 X177.608 Y121.32 E0.05424
G1 X177.031 Y121.843 E0.05207
G1 X123.343 Y175.531 E5.07225
G1 X122.82 Y176.108 E0.05207
G1 X122.337 Y176.761 E0.05424
G1 X121.943 Y177.419 E0.05121
G1 X121.593 Y178.152 E0.05429
G1 X121.304 Y178.959 E0.05724
G1 X121.118 Y179.704 E0.05135
G1 X120.998 Y180.507 E0.05424
G1 X120.959 Y181.286 E0.05207
G1 X120.959 Y184.196 E0.19443
G1 X120.935 Y184.512 E0.02117
G1 X120.865 Y184.806 E0.02019
G1 X120.766 Y185.046 E0.01731
G1 X120.607 Y185.303 E0.02019
G1 X120.401 Y185.544 E0.02117
G1 X88.633 Y217.312 E3.00136
G1 X81.188 Y217.312 E0.49733
G1 X81.188 Y183.867 E2.23427
G1 X99.956 Y165.099 E1.77316
G1 X100.197 Y164.893 E0.02117
G1 X100.454 Y164.734 E0.02019
G1 X100.694 Y164.635 E0.01731
G1 X100.988 Y164.565 E0.02019
G1 X101.304 Y164.541 E0.02117
G1 X104.214 Y164.541 E0.19443
G1 X104.993 Y164.502 E0.05207
G1 X105.796 Y164.382 E0.05424
G1 X106.541 Y164.196 E0.05135
G1 X107.348 Y163.907 E0.05724
G1 X108.081 Y163.557 E0.05429
G1 X108.739 Y163.163 E0.05121
G1 X109.392 Y162.68 E0.05424
G1 X109.969 Y162.157 E0.05207
G1 X163.657 Y108.469 E5.07225
G1 X164.18 Y107.892 E0.05207
G1 X164.663 Y107.239 E0.05424
G1 X165.057 Y106.581 E0.05121
G1 X165.408 Y105.848 E0.05429
G1 X165.696 Y105.041 E0.05724
G1 X165.882 Y104.296 E0.05135
G1 X166.002 Y103.493 E0.05424
G1 X166.041 Y102.714 E0.05207
G1 X166.041 Y99.804 E0.19443
G1 X166.065 Y99.488 E0.02117
G1 X166.135 Y99.194 E0.02019
G1 X166.234 Y98.954 E0.01731
G1 X166.393 Y98.697 E0.02019
G1 X166.599 Y98.456 E0.02117
G1 X185.367 Y79.688 E1.77316
G1 X218.752 Y79.688 E2.23026
G1 E-0.7 F1800
G1 Z0.9 F8700
G1 X117.532 Y174.424
G1 Z0.3
G1 E0.7 F1800
;TYPE:External perimeter
G1 F2400
G1 X117.19 Y173.947 E0.03922
G1 X116.828 Y173.542 E0.03628
G1 X111.958 Y168.672 E0.4601
G1 X111.525 Y168.287 E0.03869
G1 X111.075 Y167.968 E0.03686
G1 X110.562 Y167.682 E0.03926
G1 X110.019 Y167.457 E0.03929
G1 X109.488 Y167.304 E0.03691
G1 X108.874 Y167.2 E0.0416
G1 X108.331 Y167.17 E0.03632
G1 X103.728 Y167.17 E0.30749
G1 X103.15 Y167.203 E0.0387
G1 X102.606 Y167.296 E0.03686
G1 X102.041 Y167.457 E0.03926
G1 X101.497 Y167.682 E0.03932
G1 X100.983 Y167.968 E0.03926
G1 X100.534 Y168.287 E0.03686
G1 X100.101 Y168.672 E0.0387
G1 X85.319 Y183.454 E1.39654
G1 X84.934 Y183.886 E0.03869
G1 X84.615 Y184.336 E0.03686
G1 X84.329 Y184.85 E0.03926
G1 X84.104 Y185.393 E0.03932
G1 X83.943 Y185.959 E0.03926
G1 X83.85 Y186.502 E0.03686
G1 X83.817 Y187.081 E0.0387
G1 X83.817 Y205.986 E1.26298
G1 X83.857 Y206.622 E0.04254
G1 X83.978 Y207.256 E0.04317
G1 X84.179 Y207.871 E0.04317
G1 X84.454 Y208.454 E0.04308
G1 X84.776 Y208.971 E0.04071
G1 X85.161 Y209.444 E0.04072
G1 X85.623 Y209.893 E0.04309
G1 X86.14 Y210.282 E0.04317
G1 X86.701 Y210.602 E0.04318
G1 X87.298 Y210.849 E0.04318
G1 X87.922 Y211.02 E0.04318
G1 X88.562 Y211.111 E0.04317
G1 X89.207 Y211.12 E0.04309
G1 X89.813 Y211.057 E0.04072
G1 X90.407 Y210.92 E0.04074
G1 X91.047 Y210.688 E0.04548
G1 X91.59 Y210.409 E0.04079
G1 X92.124 Y210.046 E0.04313
G1 X92.602 Y209.625 E0.04254
G1 X116.828 Y185.399 E2.2888
G1 X117.213 Y184.967 E0.0387
G1 X117.532 Y184.517 E0.03686
G1 X117.818 Y184.003 E0.03926
G1 X118.043 Y183.459 E0.03932
G1 X118.204 Y182.894 E0.03926
G1 X118.297 Y182.35 E0.03686
G1 X118.33 Y181.772 E0.03869
G1 X118.33 Y177.169 E0.30751
