; generated by SuperSlicer 2.4 on 2023-02-27 at 15:18:00 UTC


;
;

;
;
; 

; external perimeters extrusion width = 0.42mm
; perimeters extrusion width = 0.46mm
; infill extrusion width = 0.44mm
; solid infill extrusion width = 0.46mm
; top infill extrusion width = 0.44mm
; support material extrusion width = 0.40mm
; first layer extrusion width = 0.60mm

; object:{"name":"frame_cover_plate (1)","id":"frame_cover_plate (1).stl id:0 copy 0","object_center":[150.000000,148.500000,0.000000],"boundingbox_center":[150.000000,148.500000,1.600000],"boundingbox_size":[122.000000,37.000000,3.200000]}
; plater:{"center":[150.000000,148.500000,0.000000],"boundingbox_center":[150.000000,148.500000,1.600000],"boundingbox_size":[122.000000,37.000000,3.200000]}

;TYPE:Custom
M104 S0 ; Stops SuperSlicer from sending temp waits separately


; Pre-Processed for Cancel-Object support by preprocess_cancellation v0.2.0
; 1 known objects
EXCLUDE_OBJECT_DEFINE NAME=frame_cover_plate_1_stl_id_0_copy_0 CENTER=149.012,147.853 POLYGON=[[89.21,130.21],[89.21,166.79],[210.79,166.79],[210.79,130.21]]

M140 S0

print_start EXTRUDER=245 BED=101 CHAMBER=0
M107
G21 ; set units to millimeters
G90 ; use absolute coordinates
M83 ; use relative distances for extrusion
; Filament gcode
;_TOOLCHANGE 0
M107
;LAYER_CHANGE
;Z:0.2
;HEIGHT:0.2
TIMELAPSE_TAKE_FRAME
;BEFORE_LAYER_CHANGE
;0.2


G1 Z0.2 F12000
;AFTER_LAYER_CHANGE
;0.2
G92 E0
G1 E-0.4 F2700
G1 Z0.3 F12000
G1 X88.118 Y127.555
G1 Z0.2
G1 E0.4 F2700
;TYPE:Skirt
;WIDTH:0.44
G1 F1860
G1 X87.066 Y128.452 E0.04566
G1 X86.281 Y129.592 E0.04566
G1 X85.96 Y130.366 E0.02769
G1 X85.722 Y131.628 E0.04239
G1 X85.704 Y165.098 E1.10509
G1 X85.819 Y166.105 E0.03346
G1 X85.96 Y166.634 E0.01806
G1 X86.555 Y167.882 E0.04566
G1 X87.066 Y168.548 E0.02769
G1 X88.118 Y169.445 E0.04566
G1 X89.366 Y170.04 E0.04566
G1 X89.895 Y170.181 E0.01806
G1 X90.902 Y170.296 E0.03346
G1 X209.098 Y170.296 E3.90253
G1 X210.105 Y170.181 E0.03346
G1 X210.634 Y170.04 E0.01806
G1 X211.882 Y169.445 E0.04566
G1 X212.934 Y168.548 E0.04566
G1 X213.719 Y167.408 E0.04566
G1 X214.04 Y166.634 E0.02769
G1 X214.278 Y165.372 E0.04239
G1 X214.296 Y131.902 E1.10509
G1 X214.181 Y130.895 E0.03346
G1 X214.04 Y130.366 E0.01806
G1 X213.445 Y129.118 E0.04566
G1 X212.934 Y128.452 E0.02769
G1 X211.882 Y127.555 E0.04566
G1 X211.408 Y127.281 E0.01806
G1 X210.634 Y126.96 E0.02769
G1 X209.372 Y126.722 E0.04239
G1 X90.902 Y126.704 E3.91157
G1 X89.895 Y126.819 E0.03346
G1 X89.366 Y126.96 E0.01806
G1 X88.172 Y127.529 E0.04368
G1 X88.36 Y127.87 F12000
G1 F1860
G1 X87.381 Y128.694 E0.04225
G1 X86.648 Y129.744 E0.04225
G1 X86.327 Y130.518 E0.02769
G1 X86.116 Y131.68 E0.03898
G1 X86.101 Y165.098 E1.10338
G1 X86.213 Y166.053 E0.03174
G1 X86.327 Y166.482 E0.01464
G1 X86.648 Y167.256 E0.02769
G1 X87.381 Y168.306 E0.04225
G1 X88.36 Y169.13 E0.04225
G1 X89.518 Y169.673 E0.04225
G1 X89.947 Y169.787 E0.01464
G1 X90.902 Y169.899 E0.03174
G1 X209.098 Y169.899 E3.90253
G1 X210.053 Y169.787 E0.03174
G1 X210.482 Y169.673 E0.01464
G1 X211.64 Y169.13 E0.04225
G1 X212.619 Y168.306 E0.04225
G1 X213.352 Y167.256 E0.04225
G1 X213.673 Y166.482 E0.02769
G1 X213.884 Y165.32 E0.03898
G1 X213.899 Y131.902 E1.10338
G1 X213.787 Y130.947 E0.03174
G1 X213.673 Y130.518 E0.01464
G1 X213.13 Y129.36 E0.04225
G1 X212.619 Y128.694 E0.02769
G1 X211.64 Y127.87 E0.04225
G1 X211.256 Y127.648 E0.01464
G1 X210.482 Y127.327 E0.02769
G1 X209.32 Y127.116 E0.03898
G1 X90.902 Y127.101 E3.90985
G1 X89.947 Y127.213 E0.03174
G1 X89.518 Y127.327 E0.01464
G1 X88.414 Y127.845 E0.04027
G1 E-0.4 F2700
G1 Z0.3 F12000
G1 X89.697 Y129.817
G1 Z0.2
G1 E0.4 F2700
;WIDTH:0.604
G1 F1860
G1 X89.794 Y129.764 E0.00514
G1 X90.307 Y129.554 E0.02584
G1 X90.414 Y129.528 E0.00514
G1 X90.982 Y129.458 E0.0267
G1 X146.037 Y129.459 E2.56854
G1 X146.586 Y129.528 E0.02584
G1 X146.693 Y129.554 E0.00514
G1 X147.206 Y129.764 E0.02584
G1 X147.333 Y129.838 E0.00685
G1 X147.744 Y130.153 E0.02413
G1 X147.847 Y130.256 E0.00685
G1 X148.219 Y130.761 E0.02925
G1 X148.434 Y131.272 E0.02584
G1 X148.472 Y131.414 E0.00685
G1 X148.542 Y131.982 E0.0267
G1 X148.542 Y138.448 E0.30169
G1 X148.592 Y138.853 E0.01905
G1 X148.72 Y139.185 E0.01661
G1 X148.93 Y139.482 E0.01693
G1 X149.16 Y139.685 E0.01432
G1 X149.514 Y139.866 E0.01858
G1 X149.874 Y139.945 E0.01719
G1 X150.126 Y139.945 E0.01173
G1 X150.486 Y139.866 E0.01719
G1 X150.804 Y139.708 E0.01659
G1 X151.1 Y139.448 E0.01836
G1 X151.278 Y139.19 E0.01463
G1 X151.408 Y138.853 E0.01684
G1 X151.458 Y138.448 E0.01905
G1 X151.458 Y131.982 E0.30169
G1 X151.528 Y131.414 E0.0267
G1 X151.566 Y131.272 E0.00685
G1 X151.817 Y130.697 E0.02925
G1 X152.153 Y130.256 E0.02584
G1 X152.229 Y130.177 E0.00514
G1 X152.667 Y129.838 E0.02584
G1 X152.761 Y129.781 E0.00514
G1 X153.272 Y129.566 E0.02584
G1 X153.414 Y129.528 E0.00685
G1 X153.982 Y129.458 E0.0267
G1 X209.018 Y129.458 E2.56768
G1 X209.622 Y129.535 E0.02841
G1 X209.728 Y129.566 E0.00514
G1 X210.239 Y129.781 E0.02584
G1 X210.333 Y129.838 E0.00514
G1 X210.771 Y130.177 E0.02584
G1 X210.847 Y130.256 E0.00514
G1 X211.183 Y130.697 E0.02585
G1 X211.236 Y130.794 E0.00514
G1 X211.446 Y131.307 E0.02584
G1 X211.472 Y131.414 E0.00514
G1 X211.539 Y131.927 E0.02413
G1 X211.542 Y146.768 E0.69243
G1 X211.472 Y147.336 E0.0267
G1 X211.434 Y147.478 E0.00685
G1 X211.236 Y147.956 E0.02413
G1 X211.162 Y148.083 E0.00685
G1 X210.823 Y148.521 E0.02584
G1 X210.333 Y148.912 E0.02925
G1 X210.206 Y148.986 E0.00685
G1 X209.728 Y149.184 E0.02413
G1 X209.586 Y149.222 E0.00685
G1 X209.037 Y149.291 E0.02584
G1 X208.055 Y149.292 E0.04579
G1 X207.689 Y149.34 E0.01722
G1 X207.399 Y149.46 E0.01463
G1 X207.151 Y149.651 E0.01463
G1 X206.96 Y149.899 E0.01463
G1 X206.84 Y150.189 E0.01463
G1 X206.799 Y150.5 E0.01463
G1 X206.84 Y150.811 E0.01463
G1 X206.96 Y151.101 E0.01463
G1 X207.151 Y151.349 E0.01463
G1 X207.399 Y151.54 E0.01463
G1 X207.689 Y151.66 E0.01463
G1 X208.055 Y151.708 E0.01722
G1 X209.037 Y151.709 E0.04579
G1 X209.586 Y151.778 E0.02584
G1 X209.728 Y151.816 E0.00685
G1 X210.303 Y152.067 E0.02925
G1 X210.771 Y152.427 E0.02755
G1 X211.162 Y152.917 E0.02925
G1 X211.236 Y153.044 E0.00685
G1 X211.446 Y153.557 E0.02585
G1 X211.472 Y153.664 E0.00514
G1 X211.542 Y154.232 E0.0267
G1 X211.542 Y165.018 E0.50324
G1 X211.465 Y165.622 E0.0284
G1 X211.434 Y165.728 E0.00514
G1 X211.219 Y166.239 E0.02584
G1 X211.162 Y166.333 E0.00514
G1 X210.823 Y166.771 E0.02584
G1 X210.333 Y167.162 E0.02925
G1 X210.206 Y167.236 E0.00685
G1 X209.728 Y167.434 E0.02413
G1 X209.586 Y167.472 E0.00685
G1 X209.018 Y167.542 E0.0267
G1 X205.482 Y167.542 E0.165
G1 X204.878 Y167.465 E0.0284
G1 X204.294 Y167.236 E0.02925
G1 X204.167 Y167.162 E0.00685
G1 X203.729 Y166.823 E0.02584
G1 X203.338 Y166.333 E0.02925
G1 X203.264 Y166.206 E0.00685
G1 X203.054 Y165.691 E0.02595
G1 X203.027 Y165.581 E0.00529
G1 X202.914 Y164.669 E0.04288
G1 X202.798 Y164.351 E0.0158
G1 X202.606 Y164.059 E0.0163
G1 X202.441 Y163.894 E0.01086
G1 X202.149 Y163.702 E0.0163
G1 X201.834 Y163.587 E0.01567
G1 X201.451 Y163.542 E0.01799
G1 X199.549 Y163.542 E0.08872
G1 X199.166 Y163.587 E0.01799
G1 X198.841 Y163.705 E0.01613
G1 X198.58 Y163.873 E0.01449
G1 X198.394 Y164.059 E0.01226
G1 X198.202 Y164.351 E0.0163
G1 X198.086 Y164.669 E0.0158
G1 X197.973 Y165.581 E0.04288
G1 X197.934 Y165.727 E0.00705
G1 X197.683 Y166.303 E0.0293
G1 X197.347 Y166.744 E0.02584
G1 X197.271 Y166.823 E0.00514
G1 X196.803 Y167.183 E0.02755
G1 X196.228 Y167.434 E0.02925
G1 X196.086 Y167.472 E0.00685
G1 X195.518 Y167.542 E0.0267
G1 X90.982 Y167.542 E4.87705
G1 X90.378 Y167.465 E0.02841
G1 X90.272 Y167.434 E0.00514
G1 X89.761 Y167.219 E0.02584
G1 X89.667 Y167.162 E0.00514
G1 X89.229 Y166.823 E0.02584
G1 X89.153 Y166.744 E0.00514
G1 X88.817 Y166.303 E0.02584
G1 X88.764 Y166.206 E0.00514
G1 X88.554 Y165.693 E0.02584
G1 X88.528 Y165.586 E0.00514
G1 X88.458 Y165.018 E0.0267
G1 X88.458 Y154.232 E0.50324
G1 X88.528 Y153.664 E0.0267
G1 X88.554 Y153.557 E0.00514
G1 X88.781 Y153.011 E0.02755
G1 X89.153 Y152.506 E0.02925
G1 X89.256 Y152.403 E0.00685
G1 X89.697 Y152.067 E0.02584
G1 X90.272 Y151.816 E0.02925
G1 X90.414 Y151.778 E0.00685
G1 X90.963 Y151.709 E0.02584
G1 X91.945 Y151.708 E0.04579
G1 X92.311 Y151.66 E0.01722
G1 X92.601 Y151.54 E0.01463
G1 X92.849 Y151.349 E0.01463
G1 X93.04 Y151.101 E0.01463
G1 X93.16 Y150.811 E0.01463
G1 X93.201 Y150.5 E0.01463
G1 X93.16 Y150.189 E0.01463
G1 X93.04 Y149.899 E0.01463
G1 X92.849 Y149.651 E0.01463
G1 X92.601 Y149.46 E0.01463
G1 X92.311 Y149.34 E0.01463
G1 X91.945 Y149.292 E0.01722
G1 X90.963 Y149.291 E0.04579
G1 X90.414 Y149.222 E0.02584
G1 X90.272 Y149.184 E0.00685
G1 X89.794 Y148.986 E0.02413
G1 X89.667 Y148.912 E0.00685
G1 X89.229 Y148.573 E0.02584
G1 X88.838 Y148.083 E0.02925
G1 X88.764 Y147.956 E0.00685
G1 X88.566 Y147.478 E0.02413
G1 X88.528 Y147.336 E0.00685
G1 X88.458 Y146.768 E0.0267
G1 X88.461 Y131.927 E0.69243
G1 X88.528 Y131.414 E0.02413
G1 X88.554 Y131.307 E0.00514
G1 X88.764 Y130.794 E0.02584
G1 X88.817 Y130.697 E0.00514
G1 X89.177 Y130.229 E0.02755
G1 X89.256 Y130.153 E0.00514
G1 X89.65 Y129.854 E0.02305
G1 X89.99 Y130.297 F12000
G1 F1860
G1 X90.026 Y130.276 E0.00195
G1 X90.47 Y130.092 E0.02242
G1 X90.505 Y130.082 E0.00172
G1 X90.972 Y130.021 E0.02199
G1 X90.991 Y130.019 E0.00086
G1 X146.009 Y130.019 E2.56683
G1 X146.028 Y130.021 E0.00086
G1 X146.495 Y130.082 E0.02199
G1 X146.53 Y130.092 E0.00172
G1 X146.974 Y130.276 E0.02242
G1 X147.006 Y130.294 E0.00172
G1 X147.387 Y130.587 E0.02242
G1 X147.413 Y130.613 E0.00172
G1 X147.706 Y130.994 E0.02242
G1 X147.724 Y131.026 E0.00172
G1 X147.908 Y131.47 E0.02242
G1 X147.918 Y131.505 E0.00172
G1 X147.979 Y131.972 E0.02199
G1 X147.981 Y131.991 E0.00086
G1 X147.981 Y138.483 E0.30287
G1 X148.043 Y138.991 E0.02391
G1 X148.222 Y139.453 E0.02309
G1 X148.509 Y139.859 E0.0232
G1 X148.803 Y140.118 E0.01827
G1 X148.877 Y140.175 E0.00437
G1 X149.326 Y140.399 E0.02343
G1 X149.813 Y140.506 E0.02327
G1 X150.187 Y140.506 E0.01741
G1 X150.674 Y140.399 E0.02327
G1 X151.116 Y140.179 E0.02307
G1 X151.496 Y139.853 E0.02334
G1 X151.553 Y139.778 E0.0044
G1 X151.777 Y139.454 E0.01837
G1 X151.957 Y138.991 E0.02317
G1 X152.019 Y138.483 E0.02391
G1 X152.019 Y131.991 E0.30287
G1 X152.021 Y131.972 E0.00086
G1 X152.082 Y131.505 E0.02199
G1 X152.092 Y131.47 E0.00172
G1 X152.276 Y131.026 E0.02242
G1 X152.294 Y130.994 E0.00172
G1 X152.587 Y130.613 E0.02242
G1 X152.613 Y130.587 E0.00172
G1 X152.994 Y130.294 E0.02242
G1 X153.026 Y130.276 E0.00172
G1 X153.47 Y130.092 E0.02242
G1 X153.505 Y130.082 E0.00172
G1 X153.972 Y130.021 E0.02199
G1 X153.991 Y130.019 E0.00086
G1 X209.009 Y130.019 E2.56683
G1 X209.028 Y130.021 E0.00086
G1 X209.495 Y130.082 E0.02199
G1 X209.53 Y130.092 E0.00172
G1 X209.974 Y130.276 E0.02242
G1 X210.006 Y130.294 E0.00172
G1 X210.387 Y130.587 E0.02242
G1 X210.413 Y130.613 E0.00172
G1 X210.706 Y130.994 E0.02242
G1 X210.724 Y131.026 E0.00172
G1 X210.908 Y131.47 E0.02242
G1 X210.918 Y131.505 E0.00172
G1 X210.979 Y131.972 E0.02199
G1 X210.981 Y131.991 E0.00086
G1 X210.981 Y146.759 E0.689
G1 X210.979 Y146.778 E0.00086
G1 X210.918 Y147.245 E0.02199
G1 X210.908 Y147.28 E0.00172
G1 X210.724 Y147.724 E0.02242
G1 X210.706 Y147.756 E0.00172
G1 X210.413 Y148.137 E0.02242
G1 X210.387 Y148.163 E0.00172
G1 X210.006 Y148.456 E0.02242
G1 X209.974 Y148.474 E0.00172
G1 X209.53 Y148.658 E0.02242
G1 X209.495 Y148.668 E0.00172
G1 X209.028 Y148.729 E0.02199
G1 X209.009 Y148.731 E0.00086
G1 X208.018 Y148.731 E0.04622
G1 X207.543 Y148.793 E0.02239
G1 X207.116 Y148.97 E0.02152
G1 X206.751 Y149.251 E0.02152
G1 X206.47 Y149.616 E0.02152
G1 X206.293 Y150.043 E0.02152
G1 X206.233 Y150.5 E0.02152
G1 X206.293 Y150.957 E0.02152
G1 X206.47 Y151.384 E0.02152
G1 X206.751 Y151.749 E0.02152
G1 X207.116 Y152.03 E0.02152
G1 X207.543 Y152.207 E0.02152
G1 X208.018 Y152.269 E0.02239
G1 X209.009 Y152.269 E0.04622
G1 X209.028 Y152.271 E0.00086
G1 X209.495 Y152.332 E0.02199
G1 X209.53 Y152.342 E0.00172
G1 X209.974 Y152.526 E0.02242
G1 X210.006 Y152.544 E0.00172
G1 X210.387 Y152.837 E0.02242
G1 X210.413 Y152.863 E0.00172
G1 X210.706 Y153.244 E0.02242
G1 X210.724 Y153.276 E0.00172
G1 X210.908 Y153.72 E0.02242
G1 X210.918 Y153.755 E0.00172
G1 X210.979 Y154.222 E0.02199
G1 X210.981 Y154.241 E0.00086
G1 X210.981 Y165.009 E0.50239
G1 X210.979 Y165.028 E0.00086
G1 X210.918 Y165.495 E0.02199
G1 X210.908 Y165.53 E0.00172
G1 X210.724 Y165.974 E0.02242
G1 X210.706 Y166.006 E0.00172
G1 X210.413 Y166.387 E0.02242
G1 X210.387 Y166.413 E0.00172
G1 X210.006 Y166.706 E0.02242
G1 X209.974 Y166.724 E0.00172
G1 X209.53 Y166.908 E0.02242
G1 X209.495 Y166.918 E0.00172
G1 X209.028 Y166.979 E0.02199
G1 X209.009 Y166.981 E0.00086
G1 X205.491 Y166.981 E0.16415
G1 X205.472 Y166.979 E0.00086
G1 X205.005 Y166.918 E0.02199
G1 X204.97 Y166.908 E0.00172
G1 X204.526 Y166.724 E0.02242
G1 X204.494 Y166.706 E0.00172
G1 X204.113 Y166.413 E0.02242
G1 X204.087 Y166.387 E0.00172
G1 X203.794 Y166.006 E0.02242
G1 X203.776 Y165.974 E0.00172
G1 X203.591 Y165.53 E0.02245
G1 X203.582 Y165.493 E0.00177
G1 X203.463 Y164.536 E0.04499
G1 X203.303 Y164.096 E0.02186
G1 X203.042 Y163.702 E0.02202
G1 X202.798 Y163.458 E0.01616
G1 X202.404 Y163.197 E0.02202
G1 X201.965 Y163.037 E0.02182
G1 X201.484 Y162.981 E0.02259
G1 X199.516 Y162.981 E0.09178
G1 X199.035 Y163.037 E0.02259
G1 X198.593 Y163.199 E0.02197
G1 X198.288 Y163.39 E0.01681
G1 X198.21 Y163.451 E0.00462
G1 X197.958 Y163.702 E0.01662
G1 X197.697 Y164.096 E0.02202
G1 X197.537 Y164.536 E0.02186
G1 X197.418 Y165.493 E0.04499
G1 X197.409 Y165.53 E0.00177
G1 X197.224 Y165.974 E0.02245
G1 X197.206 Y166.006 E0.00172
G1 X196.913 Y166.387 E0.02242
G1 X196.887 Y166.413 E0.00172
G1 X196.506 Y166.706 E0.02242
G1 X196.474 Y166.724 E0.00172
G1 X196.03 Y166.908 E0.02242
G1 X195.995 Y166.918 E0.00172
G1 X195.528 Y166.979 E0.02199
G1 X195.509 Y166.981 E0.00086
G1 X90.991 Y166.981 E4.8762
G1 X90.972 Y166.979 E0.00086
G1 X90.505 Y166.918 E0.02199
G1 X90.47 Y166.908 E0.00172
G1 X90.026 Y166.724 E0.02242
G1 X89.994 Y166.706 E0.00172
G1 X89.613 Y166.413 E0.02242
G1 X89.587 Y166.387 E0.00172
G1 X89.294 Y166.006 E0.02242
G1 X89.276 Y165.974 E0.00172
G1 X89.092 Y165.53 E0.02242
G1 X89.082 Y165.495 E0.00172
G1 X89.021 Y165.028 E0.02199
G1 X89.019 Y165.009 E0.00086
G1 X89.019 Y154.241 E0.50239
G1 X89.021 Y154.222 E0.00086
G1 X89.082 Y153.755 E0.02199
G1 X89.092 Y153.72 E0.00172
G1 X89.276 Y153.276 E0.02242
G1 X89.294 Y153.244 E0.00172
G1 X89.587 Y152.863 E0.02242
G1 X89.613 Y152.837 E0.00172
G1 X89.994 Y152.544 E0.02242
G1 X90.026 Y152.526 E0.00172
G1 X90.47 Y152.342 E0.02242
G1 X90.505 Y152.332 E0.00172
G1 X90.972 Y152.271 E0.02199
G1 X90.991 Y152.269 E0.00086
G1 X91.982 Y152.269 E0.04622
G1 X92.457 Y152.207 E0.02239
G1 X92.884 Y152.03 E0.02152
G1 X93.249 Y151.749 E0.02152
G1 X93.53 Y151.384 E0.02152
G1 X93.707 Y150.957 E0.02152
G1 X93.767 Y150.5 E0.02152
G1 X93.707 Y150.043 E0.02152
G1 X93.53 Y149.616 E0.02152
G1 X93.249 Y149.251 E0.02152
G1 X92.884 Y148.97 E0.02152
G1 X92.457 Y148.793 E0.02152
G1 X91.982 Y148.731 E0.02239
G1 X90.991 Y148.731 E0.04622
G1 X90.972 Y148.729 E0.00086
G1 X90.505 Y148.668 E0.02199
G1 X90.47 Y148.658 E0.00172
G1 X90.026 Y148.474 E0.02242
G1 X89.994 Y148.456 E0.00172
G1 X89.613 Y148.163 E0.02242
G1 X89.587 Y148.137 E0.00172
G1 X89.294 Y147.756 E0.02242
G1 X89.276 Y147.724 E0.00172
G1 X89.092 Y147.28 E0.02242
G1 X89.082 Y147.245 E0.00172
G1 X89.021 Y146.778 E0.02199
G1 X89.019 Y146.759 E0.00086
G1 X89.019 Y131.991 E0.689
G1 X89.021 Y131.972 E0.00086
G1 X89.082 Y131.505 E0.02199
G1 X89.092 Y131.47 E0.00172
G1 X89.276 Y131.026 E0.02242
G1 X89.294 Y130.994 E0.00172
G1 X89.587 Y130.613 E0.02242
G1 X89.613 Y130.587 E0.00172
G1 X89.942 Y130.334 E0.01939
M104 S245 ; set temperature
; printing object frame_cover_plate (1).stl id:0 copy 0
EXCLUDE_OBJECT_START NAME=frame_cover_plate_1_stl_id_0_copy_0
G1 X90.297 Y130.796 F12000
;TYPE:External perimeter
G1 F3000
G1 X90.639 Y130.652 E0.0173
G1 X91.02 Y130.602 E0.01793
G1 X145.98 Y130.602 E2.56412
G1 X146.361 Y130.652 E0.01793
G1 X146.698 Y130.792 E0.01699
G1 X146.987 Y131.013 E0.01699
G1 X147.208 Y131.302 E0.01699
