; generated by SuperSlicer 2.4 on 2023-02-11 at 11:43:42 UTC


;
;

;
;
; 

; external perimeters extrusion width = 0.64mm
; perimeters extrusion width = 0.70mm
; infill extrusion width = 0.67mm
; solid infill extrusion width = 0.70mm
; top infill extrusion width = 0.67mm
; support material extrusion width = 0.60mm
; first layer extrusion width = 0.91mm

; object:{"name":"front-left","id":"front-left.stl id:0 copy 0","object_center":[150.000000,123.072002,0.000000],"boundingbox_center":[150.000000,123.072002,22.981003],"boundingbox_size":[65.597000,44.855995,45.962006]}
; object:{"name":"front-left","id":"front-left.stl id:0 copy 1","object_center":[150.000001,173.927998,0.000000],"boundingbox_center":[150.000001,173.927998,22.981003],"boundingbox_size":[65.597000,44.855995,45.962006]}
; plater:{"center":[150.000000,148.500000,0.000000],"boundingbox_center":[150.000000,148.500000,22.981003],"boundingbox_size":[65.597001,95.711991,45.962006]}

;TYPE:Custom
M104 S0 ; Stops SuperSlicer from sending temp waits separately


; Pre-Processed for Cancel-Object support by preprocess_cancellation v0.2.0
; 2 known objects
EXCLUDE_OBJECT_DEFINE NAME=front_left_stl_id_0_copy_0 CENTER=153.814,115.120 POLYGON=[[117.519,100.962],[117.519,145.182],[182.481,145.182],[182.481,100.962]]
EXCLUDE_OBJECT_DEFINE NAME=front_left_stl_id_0_copy_1 CENTER=153.825,165.990 POLYGON=[[117.52,151.818],[117.52,196.038],[182.481,196.038],[182.481,151.818]]

M140 S0

print_start EXTRUDER=245 BED=105 CHAMBER=0
M107
G21 ; set units to millimeters
G90 ; use absolute coordinates
M83 ; use relative distances for extrusion
; Filament gcode
;_TOOLCHANGE 0
M107
;LAYER_CHANGE
;Z:0.21875
;HEIGHT:0.21875
TIMELAPSE_TAKE_FRAME
;BEFORE_LAYER_CHANGE
;0.21875


G1 Z0.21875 F8400
;AFTER_LAYER_CHANGE
;0.21875
G92 E0
G1 E-0.8 F3000
G1 Z0.71875 F8400
G1 X112.175 Y97.428
G1 Z0.21875
G1 E0.8 F3000
;TYPE:Skirt
;WIDTH:0.66
G1 F1800
G1 X111.782 Y98.891 E0.08447
G1 X111.782 Y173.813 E4.17729
G1 X112.203 Y175.323 E0.08736
G1 X113.296 Y176.372 E0.08447
G1 X157.247 Y200.517 E2.79591
G1 X158.652 Y200.878 E0.08085
G1 X185.007 Y200.886 E1.46942
G1 X186.46 Y200.499 E0.08386
G1 X187.534 Y199.43 E0.08447
G1 X187.927 Y197.967 E0.08447
G1 X187.927 Y98.891 E5.52394
G1 X187.54 Y97.439 E0.08381
G1 X186.471 Y96.365 E0.08447
G1 X185.008 Y95.972 E0.08447
G1 X114.702 Y95.972 E3.9199
G1 X113.249 Y96.359 E0.08381
G1 X112.239 Y97.364 E0.07945
G1 X112.786 Y97.606 F8400
G1 F1800
G1 X112.395 Y98.891 E0.07491
G1 X112.395 Y173.813 E4.17729
G1 X112.653 Y174.873 E0.0608
G1 X113.591 Y175.835 E0.07491
G1 X157.542 Y199.98 E2.79591
G1 X158.652 Y200.265 E0.06388
G1 X185.007 Y200.273 E1.46942
G1 X185.881 Y200.101 E0.0497
G1 X186.923 Y199.252 E0.07491
G1 X187.314 Y197.967 E0.07491
G1 X187.314 Y98.891 E5.52394
G1 X187.142 Y98.017 E0.04966
G1 X186.293 Y96.976 E0.07491
G1 X185.008 Y96.585 E0.07491
G1 X114.702 Y96.584 E3.9199
G1 X113.828 Y96.756 E0.04966
G1 X112.856 Y97.549 E0.06989
G1 E-0.8 F3000
G1 Z0.71875 F8400
G1 X116.85 Y150.95
G1 Z0.21875
G1 E0.8 F3000
;WIDTH:0.912
;HEIGHT:0.22
G1 F1800
G1 X182.859 Y150.95 E5.22114
G1 X183.177 Y151.082 E0.02721
G1 X183.673 Y151.578 E0.05555
G1 X183.805 Y151.896 E0.02721
G1 X183.805 Y195.817 E3.47409
G1 X183.673 Y196.135 E0.02722
G1 X183.176 Y196.632 E0.05556
G1 X182.858 Y196.763 E0.02722
G1 X160.801 Y196.756 E1.7447
G1 X160.483 Y196.625 E0.02721
G1 X159.987 Y196.128 E0.05553
G1 X159.855 Y195.81 E0.02721
G1 X159.855 Y173.713 E1.74786
G1 X159.987 Y173.395 E0.02721
G1 X160.484 Y172.898 E0.05555
G1 X160.801 Y172.767 E0.02721
G1 X161.433 Y172.767 E0.04999
G1 X161.433 Y172.622 E0.01146
G1 X116.85 Y172.611 E3.52645
G1 X116.532 Y172.479 E0.02721
G1 X116.036 Y171.983 E0.05554
G1 X115.904 Y171.665 E0.02721
G1 X115.904 Y151.896 E1.56372
G1 X116.036 Y151.578 E0.02721
G1 X116.533 Y151.081 E0.05555
G1 X116.767 Y150.984 E0.02009
G1 X117.022 Y151.814 F8400
G1 F1800
G1 X182.687 Y151.815 E5.19393
G1 X182.94 Y152.068 E0.02833
G1 X182.94 Y195.645 E3.44687
G1 X182.687 Y195.899 E0.02834
G1 X160.973 Y195.892 E1.71748
G1 X160.72 Y195.638 E0.02833
G1 X160.72 Y173.885 E1.72065
G1 X160.973 Y173.632 E0.02833
G1 X162.298 Y173.632 E0.10478
G1 X162.298 Y171.757 E0.14825
G1 X117.022 Y171.746 E3.58123
G1 X116.769 Y171.493 E0.02833
G1 X116.769 Y152.068 E1.53651
G1 X116.959 Y151.878 E0.02121
G1 E-0.8 F3000
G1 Z0.71875 F8400
G1 X116.966 Y121.755
G1 Z0.21875
G1 E0.8 F3000
G1 F1800
G1 X116.85 Y121.755 E0.00917
G1 X116.532 Y121.623 E0.02721
G1 X116.036 Y121.127 E0.05554
G1 X115.904 Y120.809 E0.02721
G1 X115.904 Y101.04 E1.56372
G1 X116.036 Y100.722 E0.02721
G1 X116.533 Y100.225 E0.05555
G1 X116.85 Y100.094 E0.02721
G1 X182.859 Y100.094 E5.22114
G1 X183.177 Y100.226 E0.02721
G1 X183.673 Y100.722 E0.05555
G1 X183.805 Y101.04 E0.02721
G1 X183.805 Y144.961 E3.47409
G1 X183.673 Y145.279 E0.02722
G1 X183.176 Y145.776 E0.05556
G1 X182.858 Y145.907 E0.02722
G1 X160.801 Y145.9 E1.7447
G1 X160.483 Y145.769 E0.02721
G1 X159.987 Y145.272 E0.05553
G1 X159.855 Y144.954 E0.02721
G1 X159.855 Y122.857 E1.74786
G1 X159.987 Y122.539 E0.02721
G1 X160.484 Y122.042 E0.05555
G1 X160.801 Y121.911 E0.02721
G1 X161.433 Y121.911 E0.04999
G1 X161.433 Y121.766 E0.01146
G1 X117.056 Y121.755 E3.51016
G1 X117.056 Y120.89 F8400
G1 F1800
G1 X117.022 Y120.89 E0.00268
G1 X116.769 Y120.637 E0.02833
G1 X116.769 Y101.212 E1.53651
G1 X117.022 Y100.958 E0.02833
G1 X182.687 Y100.959 E5.19393
G1 X182.94 Y101.212 E0.02833
G1 X182.94 Y144.789 E3.44687
G1 X182.687 Y145.043 E0.02834
G1 X160.973 Y145.036 E1.71748
G1 X160.72 Y144.782 E0.02833
G1 X160.72 Y123.029 E1.72065
G1 X160.973 Y122.776 E0.02833
G1 X162.298 Y122.776 E0.10478
G1 X162.298 Y120.901 E0.14825
G1 X117.146 Y120.89 E3.57143
M104 S245 ; set temperature
; printing object front-left.stl id:0 copy 0
EXCLUDE_OBJECT_START NAME=front_left_stl_id_0_copy_0
G1 X117.657 Y120.002 F8400
;TYPE:External perimeter
;HEIGHT:0.21875
G1 F1800
G1 X117.657 Y101.847 E1.41404
G1 X182.052 Y101.847 E5.01542
G1 X182.052 Y144.154 E3.29512
G1 X161.608 Y144.147 E1.59224
G1 X161.608 Y123.664 E1.59538
G1 X163.186 Y123.664 E0.1229
G1 X163.186 Y120.013 E0.28435
G1 X117.748 Y120.002 E3.53908
;WIPE_START
G1 X117.958 Y119.483 F8400
;WIPE_END
G1 X118.523 Y119.137
;TYPE:Internal perimeter
G1 F1800
G1 X118.523 Y102.712 E1.27931
G1 X181.187 Y102.712 E4.88067
G1 X181.187 Y143.289 E3.16035
G1 X162.474 Y143.283 E1.45749
G1 X162.474 Y124.529 E1.46065
G1 X164.052 Y124.529 E0.1229
G1 X164.052 Y119.148 E0.41909
G1 X118.613 Y119.137 E3.53908
G1 X119.388 Y118.272 F8400
G1 F1800
G1 X119.388 Y103.577 E1.14457
G1 X180.321 Y103.577 E4.74592
G1 X180.321 Y142.423 E3.02557
G1 X163.339 Y142.418 E1.32274
G1 X163.339 Y125.394 E1.32592
G1 X164.917 Y125.394 E0.1229
G1 X164.917 Y118.283 E0.55383
G1 X119.478 Y118.272 E3.53908
G1 X120.253 Y117.408 F8400
G1 F1800
G1 X120.253 Y104.442 E1.00984
G1 X179.456 Y104.442 E4.61117
G1 X179.456 Y141.558 E2.8908
G1 X164.204 Y141.553 E1.18798
G1 X164.204 Y126.259 E1.19119
G1 X165.782 Y126.259 E0.1229
G1 X165.782 Y117.419 E0.68856
G1 X120.343 Y117.408 E3.53908
G1 X120.512 Y116.275 F8400
;TYPE:Solid infill
;WIDTH:0.89317
G1 F1800
G1 X121.014 Y116.776 E0.05413
G1 X122.238 Y116.777 E0.09334
G1 X120.884 Y115.423 E0.146
G1 X120.884 Y114.2 E0.09332
G1 X123.461 Y116.777 E0.278
G1 X124.685 Y116.777 E0.09334
G1 X120.884 Y112.976 E0.41001
G1 X120.884 Y111.753 E0.09332
G1 X125.909 Y116.777 E0.54201
G1 X127.132 Y116.778 E0.09334
G1 X120.884 Y110.53 E0.67401
G1 X120.884 Y109.306 E0.09332
G1 X128.356 Y116.778 E0.80601
G1 X129.58 Y116.778 E0.09334
G1 X120.884 Y108.083 E0.93801
G1 X120.884 Y106.86 E0.09332
G1 X130.803 Y116.779 E1.07001
G1 X132.027 Y116.779 E0.09334
G1 X120.884 Y105.636 E1.20202
G1 X120.884 Y105.074 E0.04292
G1 X121.545 Y105.074 E0.0504
G1 X133.251 Y116.779 E1.26274
G1 X134.474 Y116.78 E0.09334
G1 X122.768 Y105.074 E1.26277
G1 X123.992 Y105.074 E0.09332
G1 X135.698 Y116.78 E1.2628
G1 X136.922 Y116.78 E0.09334
G1 X125.215 Y105.074 E1.26283
G1 X126.438 Y105.074 E0.09332
G1 X138.145 Y116.78 E1.26286
G1 X139.369 Y116.781 E0.09334
G1 X127.662 Y105.074 E1.2629
G1 X128.885 Y105.074 E0.09332
G1 X140.593 Y116.781 E1.26293
G1 X141.816 Y116.781 E0.09334
G1 X130.109 Y105.074 E1.26296
G1 X131.332 Y105.074 E0.09332
G1 X143.04 Y116.782 E1.26299
G1 X144.264 Y116.782 E0.09334
G1 X132.555 Y105.074 E1.26302
G1 X133.779 Y105.074 E0.09332
G1 X145.487 Y116.782 E1.26305
G1 X146.711 Y116.782 E0.09334
G1 X135.002 Y105.074 E1.26308
G1 X136.225 Y105.074 E0.09332
G1 X147.935 Y116.783 E1.26311
G1 X149.158 Y116.783 E0.09334
G1 X137.449 Y105.074 E1.26315
G1 X138.672 Y105.074 E0.09332
G1 X150.382 Y116.783 E1.26318
G1 X151.606 Y116.784 E0.09334
G1 X139.896 Y105.074 E1.26321
G1 X141.119 Y105.074 E0.09332
G1 X152.829 Y116.784 E1.26324
G1 X154.053 Y116.784 E0.09334
G1 X142.342 Y105.074 E1.26327
G1 X143.566 Y105.074 E0.09332
G1 X155.277 Y116.785 E1.2633
G1 X156.5 Y116.785 E0.09334
G1 X144.789 Y105.074 E1.26333
G1 X146.012 Y105.074 E0.09332
G1 X157.724 Y116.785 E1.26336
G1 X158.948 Y116.785 E0.09334
G1 X147.236 Y105.074 E1.2634
G1 X148.459 Y105.074 E0.09332
G1 X160.171 Y116.786 E1.26343
G1 X161.395 Y116.786 E0.09334
G1 X149.683 Y105.074 E1.26346
G1 X150.906 Y105.074 E0.09332
G1 X162.619 Y116.786 E1.26349
G1 X163.842 Y116.787 E0.09334
G1 X152.129 Y105.074 E1.26352
G1 X153.353 Y105.074 E0.09332
G1 X165.438 Y117.159 E1.30369
G1 X179.197 Y106.45 F8400
G1 F1800
G1 X177.82 Y105.074 E0.14851
G1 X176.597 Y105.074 E0.09332
G1 X178.825 Y107.302 E0.24035
G1 X178.825 Y108.525 E0.09332
G1 X175.374 Y105.074 E0.37232
G1 X174.15 Y105.074 E0.09332
G1 X178.825 Y109.749 E0.50429
G1 X178.825 Y110.972 E0.09332
G1 X172.927 Y105.074 E0.63626
G1 X171.703 Y105.074 E0.09332
G1 X178.825 Y112.195 E0.76823
G1 X178.825 Y113.419 E0.09332
G1 X170.48 Y105.074 E0.9002
G1 X169.257 Y105.074 E0.09332
G1 X178.825 Y114.642 E1.03217
G1 X178.825 Y115.865 E0.09332
G1 X168.033 Y105.074 E1.16414
G1 X166.81 Y105.074 E0.09332
G1 X178.825 Y117.089 E1.29611
G1 X178.825 Y118.312 E0.09332
G1 X165.587 Y105.074 E1.42808
G1 X164.363 Y105.074 E0.09332
G1 X178.825 Y119.536 E1.56005
G1 X178.825 Y120.759 E0.09332
G1 X163.14 Y105.074 E1.69202
G1 X161.916 Y105.074 E0.09332
G1 X178.825 Y121.982 E1.82399
G1 X178.825 Y123.206 E0.09332
G1 X160.693 Y105.074 E1.95596
G1 X159.47 Y105.074 E0.09332
G1 X178.825 Y124.429 E2.08794
G1 X178.825 Y125.652 E0.09332
G1 X158.246 Y105.074 E2.21991
G1 X157.023 Y105.074 E0.09332
G1 X178.825 Y126.876 E2.35188
G1 X178.825 Y128.099 E0.09332
G1 X155.799 Y105.074 E2.48385
G1 X154.576 Y105.074 E0.09332
G1 X178.825 Y129.323 E2.61582
G1 X178.825 Y130.546 E0.09332
G1 X166.413 Y118.134 E1.33891
G1 X166.413 Y119.357 E0.09332
G1 X178.825 Y131.769 E1.33891
G1 X178.825 Y132.993 E0.09332
G1 X166.413 Y120.581 E1.33891
G1 X166.413 Y121.804 E0.09332
G1 X178.825 Y134.216 E1.33891
G1 X178.825 Y135.439 E0.09332
G1 X166.413 Y123.028 E1.33891
G1 X166.413 Y124.251 E0.09332
G1 X178.825 Y136.663 E1.33891
G1 X178.825 Y137.886 E0.09332
G1 X166.413 Y125.474 E1.33891
G1 X166.413 Y126.698 E0.09332
G1 X178.825 Y139.11 E1.33891
G1 X178.825 Y140.333 E0.09332
G1 X165.383 Y126.891 E1.45007
G1 X164.835 Y126.891 E0.04177
G1 X164.835 Y127.566 E0.05155
G1 X178.195 Y140.926 E1.44115
G1 X176.971 Y140.926 E0.09335
G1 X164.835 Y128.79 E1.30914
G1 X164.835 Y130.013 E0.09332
G1 X175.747 Y140.925 E1.17713
G1 X174.523 Y140.925 E0.09335
G1 X164.835 Y131.237 E1.04512
G1 X164.835 Y132.46 E0.09332
G1 X173.3 Y140.925 E0.9131
G1 X172.076 Y140.924 E0.09335
G1 X164.835 Y133.683 E0.78109
G1 X164.835 Y134.907 E0.09332
G1 X170.852 Y140.924 E0.64908
G1 X169.628 Y140.923 E0.09335
G1 X164.835 Y136.13 E0.51707
G1 X164.835 Y137.353 E0.09332
G1 X168.405 Y140.923 E0.38506
G1 X167.181 Y140.923 E0.09335
G1 X164.835 Y138.577 E0.25304
G1 X164.835 Y139.8 E0.09332
G1 X166.329 Y141.294 E0.16117
G1 E-0.8 F3000
G1 Z0.71875 F8400
; stop printing object front-left.stl id:0 copy 0
EXCLUDE_OBJECT_END NAME=front_left_stl_id_0_copy_0
; printing object front-left.stl id:0 copy 1
EXCLUDE_OBJECT_START NAME=front_left_stl_id_0_copy_1
G1 X163.186 Y174.52
G1 Z0.21875
G1 E0.8 F3000
;TYPE:External perimeter
;WIDTH:0.912
G1 F1800
G1 X163.186 Y170.869 E0.28435
G1 X117.658 Y170.858 E3.54609
G1 X117.658 Y152.703 E1.41404
G1 X182.052 Y152.703 E5.01542
G1 X182.052 Y195.01 E3.29512
G1 X161.609 Y195.003 E1.59224
G1 X161.609 Y174.52 E1.59538
G1 X163.096 Y174.52 E0.11589
;WIPE_START
G1 X163.786 Y174.52 F8400
;WIPE_END
G1 X164.052 Y175.385
;TYPE:Internal perimeter
G1 F1800
G1 X164.052 Y170.004 E0.41909
G1 X118.523 Y169.993 E3.54609
G1 X118.523 Y153.568 E1.27931
G1 X181.187 Y153.568 E4.88067
G1 X181.187 Y194.145 E3.16035
G1 X162.474 Y194.139 E1.45749
G1 X162.474 Y175.385 E1.46065
G1 X163.962 Y175.385 E0.11589
G1 X163.339 Y176.25 F8400
G1 F1800
G1 X164.917 Y176.25 E0.1229
G1 X164.917 Y169.139 E0.55383
G1 X119.388 Y169.128 E3.54609
G1 X119.388 Y154.433 E1.14457
G1 X180.321 Y154.433 E4.74592
G1 X180.321 Y193.279 E3.02557
G1 X163.339 Y193.274 E1.32274
G1 X163.339 Y176.34 E1.31891
G1 X164.204 Y177.115 F8400
G1 F1800
G1 X165.782 Y177.115 E0.1229
G1 X165.782 Y168.275 E0.68856
G1 X120.253 Y168.264 E3.54609
G1 X120.253 Y155.298 E1.00984
G1 X179.456 Y155.298 E4.61117
G1 X179.456 Y192.414 E2.8908
G1 X164.204 Y192.409 E1.18798
G1 X164.204 Y177.205 E1.18418
G1 X165.438 Y168.015 F8400
;TYPE:Solid infill
;WIDTH:0.89317
G1 F1800
G1 X153.353 Y155.93 E1.30369
G1 X152.129 Y155.93 E0.09332
G1 X163.842 Y167.643 E1.26352
G1 X162.619 Y167.642 E0.09334
G1 X150.906 Y155.93 E1.26349
G1 X149.683 Y155.93 E0.09332
G1 X161.395 Y167.642 E1.26346
G1 X160.171 Y167.642 E0.09334
G1 X148.459 Y155.93 E1.26343
G1 X147.236 Y155.93 E0.09332
G1 X158.948 Y167.641 E1.2634
G1 X157.724 Y167.641 E0.09334
G1 X146.012 Y155.93 E1.26336
G1 X144.789 Y155.93 E0.09332
G1 X156.5 Y167.641 E1.26333
G1 X155.277 Y167.641 E0.09334
G1 X143.566 Y155.93 E1.2633
G1 X142.342 Y155.93 E0.09332
G1 X154.053 Y167.64 E1.26327
G1 X152.829 Y167.64 E0.09334
G1 X141.119 Y155.93 E1.26324
G1 X139.896 Y155.93 E0.09332
G1 X151.606 Y167.64 E1.26321
G1 X150.382 Y167.639 E0.09334
G1 X138.672 Y155.93 E1.26318
G1 X137.449 Y155.93 E0.09332
G1 X149.158 Y167.639 E1.26315
G1 X147.935 Y167.639 E0.09334
G1 X136.225 Y155.93 E1.26311
G1 X135.002 Y155.93 E0.09332
G1 X146.711 Y167.638 E1.26308
G1 X145.487 Y167.638 E0.09334
G1 X133.779 Y155.93 E1.26305
G1 X132.555 Y155.93 E0.09332
G1 X144.264 Y167.638 E1.26302
G1 X143.04 Y167.638 E0.09334
G1 X131.332 Y155.93 E1.26299
G1 X130.109 Y155.93 E0.09332
G1 X141.816 Y167.637 E1.26296
G1 X140.593 Y167.637 E0.09334
G1 X128.885 Y155.93 E1.26293
G1 X127.662 Y155.93 E0.09332
G1 X139.369 Y167.637 E1.2629
G1 X138.145 Y167.636 E0.09334
G1 X126.438 Y155.93 E1.26286
G1 X125.215 Y155.93 E0.09332
G1 X136.922 Y167.636 E1.26283
G1 X135.698 Y167.636 E0.09334
G1 X123.992 Y155.93 E1.2628
G1 X122.768 Y155.93 E0.09332
G1 X134.474 Y167.636 E1.26277
G1 X133.251 Y167.635 E0.09334
G1 X121.545 Y155.93 E1.26274
G1 X120.884 Y155.93 E0.0504
G1 X120.884 Y156.492 E0.04292
G1 X132.027 Y167.635 E1.20202
G1 X130.803 Y167.635 E0.09334
G1 X120.884 Y157.716 E1.07001
G1 X120.884 Y158.939 E0.09332
G1 X129.58 Y167.634 E0.93801
G1 X128.356 Y167.634 E0.09334
G1 X120.884 Y160.162 E0.80601
G1 X120.884 Y161.386 E0.09332
G1 X127.132 Y167.634 E0.67401
G1 X125.909 Y167.633 E0.09334
G1 X120.884 Y162.609 E0.54201
G1 X120.884 Y163.832 E0.09332
G1 X124.685 Y167.633 E0.41001
G1 X123.461 Y167.633 E0.09334
G1 X120.884 Y165.056 E0.278
G1 X120.884 Y166.279 E0.09332
G1 X122.238 Y167.633 E0.146
G1 X121.014 Y167.632 E0.09334
G1 X120.512 Y167.131 E0.05413
G1 E-0.8 F3000
G1 Z0.71875 F8400
G1 X166.329 Y192.15
G1 Z0.21875
G1 E0.8 F3000
G1 F1800
G1 X164.835 Y190.656 E0.16117
G1 X164.835 Y189.433 E0.09332
G1 X167.181 Y191.779 E0.25304
G1 X168.405 Y191.779 E0.09335
G1 X164.835 Y188.209 E0.38506
G1 X164.835 Y186.986 E0.09332
G1 X169.628 Y191.779 E0.51707
G1 X170.852 Y191.78 E0.09335
G1 X164.835 Y185.763 E0.64908
G1 X164.835 Y184.539 E0.09332
G1 X172.076 Y191.78 E0.78109
G1 X173.3 Y191.78 E0.09335
G1 X164.835 Y183.316 E0.9131
G1 X164.835 Y182.093 E0.09332
G1 X174.523 Y191.781 E1.04512
G1 X175.747 Y191.781 E0.09335
G1 X164.835 Y180.869 E1.17713
G1 X164.835 Y179.646 E0.09332
