; generated by SuperSlicer 2.4 on 2023-02-23 at 19:56:06 UTC


;
;

;
;
; 

; external perimeters extrusion width = 0.42mm
; perimeters extrusion width = 0.46mm
; infill extrusion width = 0.44mm
; solid infill extrusion width = 0.46mm
; top infill extrusion width = 0.44mm
; support material extrusion width = 0.40mm
; first layer extrusion width = 0.60mm

; object:{"name":"Front_Skirt_B_x1","id":"Front_Skirt_B_x1.stl id:0 copy 0","object_center":[147.699407,136.512832,0.000000],"boundingbox_center":[147.699407,136.512832,6.000015],"boundingbox_size":[52.886997,40.099998,12.000031]}
; plater:{"center":[147.699407,136.512832,0.000000],"boundingbox_center":[147.699407,136.512832,6.000015],"boundingbox_size":[52.886997,40.099998,12.000031]}

;TYPE:Custom
M104 S0 ; Stops SuperSlicer from sending temp waits separately


; Pre-Processed for Cancel-Object support by preprocess_cancellation v0.2.0
; 1 known objects
EXCLUDE_OBJECT_DEFINE NAME=Front_Skirt_B_x1_stl_id_0_copy_0 CENTER=145.929,138.925 POLYGON=[[121.466,116.673],[121.466,156.353],[173.933,156.353],[173.933,116.673]]

M140 S0

print_start EXTRUDER=245 BED=101 CHAMBER=0
M107
G21 ; set units to millimeters
G90 ; use absolute coordinates
M83 ; use relative distances for extrusion
; Filament gcode
;_TOOLCHANGE 0
M107
;LAYER_CHANGE
;Z:0.2
;HEIGHT:0.2
TIMELAPSE_TAKE_FRAME
;BEFORE_LAYER_CHANGE
;0.2


G1 Z0.2 F12000
;AFTER_LAYER_CHANGE
;0.2
G92 E0
G1 E-0.4 F2700
G1 Z0.7 F12000
G1 X119.474 Y116.594
G1 Z0.2
G1 E0.4 F2700
;TYPE:Skirt
;WIDTH:0.44
G1 F1860
G1 X118.704 Y117.481 E0.03878
G1 X118.43 Y117.954 E0.01806
G1 X118.047 Y119.065 E0.03878
G1 X117.96 Y119.865 E0.02656
G1 X117.96 Y154.861 E1.15549
G1 X118.047 Y155.661 E0.02656
G1 X118.189 Y156.189 E0.01806
G1 X118.43 Y156.771 E0.0208
G1 X119.087 Y157.745 E0.03878
G1 X119.974 Y158.515 E0.03878
G1 X120.447 Y158.789 E0.01806
G1 X121.558 Y159.171 E0.03878
G1 X122.358 Y159.258 E0.02656
G1 X165.776 Y159.258 E1.43357
G1 X166.576 Y159.171 E0.02656
G1 X167.104 Y159.03 E0.01806
G1 X168.16 Y158.515 E0.03878
G1 X168.66 Y158.132 E0.0208
G1 X169.482 Y157.175 E0.04164
G1 X176.307 Y147.47 E0.39172
G1 X176.749 Y146.675 E0.03006
G1 X177.157 Y145.637 E0.0368
G1 X177.286 Y145.132 E0.01723
G1 X177.422 Y144.043 E0.03621
G1 X177.439 Y138.197 E0.19304
G1 X177.286 Y136.848 E0.04483
G1 X177.157 Y136.342 E0.01723
G1 X169.704 Y117.954 E0.65508
G1 X169.047 Y116.981 E0.03877
G1 X168.16 Y116.211 E0.03878
G1 X167.104 Y115.696 E0.03878
G1 X166.05 Y115.485 E0.03551
G1 X122.358 Y115.467 E1.4426
G1 X121.558 Y115.554 E0.02656
G1 X121.029 Y115.696 E0.01806
G1 X119.974 Y116.211 E0.03878
G1 X119.522 Y116.558 E0.01882
G1 X119.747 Y116.887 F12000
G1 F1860
G1 X119.716 Y116.909 E0.00127
G1 X119.019 Y117.722 E0.03536
G1 X118.797 Y118.106 E0.01464
G1 X118.441 Y119.117 E0.03536
G1 X118.357 Y119.865 E0.02485
G1 X118.357 Y154.861 E1.15549
G1 X118.556 Y156.037 E0.03938
G1 X118.797 Y156.619 E0.0208
G1 X119.402 Y157.503 E0.03537
G1 X120.215 Y158.2 E0.03536
G1 X120.599 Y158.422 E0.01464
G1 X121.61 Y158.778 E0.03536
G1 X122.358 Y158.861 E0.02485
G1 X165.776 Y158.861 E1.43357
G1 X166.952 Y158.663 E0.03938
G1 X167.918 Y158.2 E0.03536
G1 X168.418 Y157.817 E0.0208
G1 X169.157 Y156.946 E0.03769
G1 X175.982 Y147.242 E0.39172
G1 X176.379 Y146.529 E0.02694
G1 X176.787 Y145.492 E0.0368
G1 X177.028 Y143.994 E0.0501
G1 X177.041 Y138.197 E0.19141
G1 X176.787 Y136.487 E0.05707
G1 X169.337 Y118.106 E0.65484
G1 X168.732 Y117.223 E0.03536
G1 X167.918 Y116.526 E0.03537
G1 X166.952 Y116.063 E0.03536
G1 X165.998 Y115.879 E0.03209
G1 X122.358 Y115.864 E1.44089
G1 X121.181 Y116.063 E0.03938
G1 X120.599 Y116.304 E0.0208
G1 X119.797 Y116.853 E0.03211
G1 E-0.4 F2700
G1 Z0.7 F12000
G1 X121.278 Y118.681
G1 Z0.2
G1 E0.4 F2700
;WIDTH:0.604
G1 F1860
G1 X121.553 Y118.473 E0.0161
G1 X121.935 Y118.302 E0.01951
G1 X122.077 Y118.264 E0.00685
G1 X122.438 Y118.221 E0.01695
G1 X165.715 Y118.222 E2.01905
G1 X166.057 Y118.264 E0.0161
G1 X166.199 Y118.302 E0.00685
G1 X166.581 Y118.473 E0.01951
G1 X166.856 Y118.681 E0.0161
G1 X166.96 Y118.785 E0.00685
G1 X167.205 Y119.124 E0.01951
G1 X167.339 Y119.442 E0.0161
G1 X167.377 Y119.584 E0.00685
G1 X167.42 Y119.944 E0.01695
G1 X167.42 Y130.923 E0.5122
G1 X167.469 Y131.302 E0.01783
G1 X167.594 Y131.604 E0.01524
G1 X167.793 Y131.863 E0.01524
G1 X168.096 Y132.096 E0.01783
G1 X172.629 Y134.713 E0.24417
G1 X173.405 Y135.298 E0.04535
G1 X174.021 Y136.053 E0.04548
G1 X174.219 Y136.397 E0.01851
G1 X174.566 Y137.308 E0.04548
G1 X174.685 Y138.273 E0.04535
G1 X174.682 Y143.759 E0.25593
G1 X174.548 Y144.739 E0.04615
G1 X174.211 Y145.601 E0.0432
G1 X174.033 Y145.909 E0.01657
G1 X173.455 Y146.632 E0.0432
G1 X172.687 Y147.228 E0.04534
G1 X168.096 Y149.883 E0.24743
G1 X167.793 Y150.116 E0.01783
G1 X167.594 Y150.375 E0.01524
G1 X167.469 Y150.677 E0.01524
G1 X167.42 Y151.056 E0.01783
G1 X167.415 Y154.854 E0.17721
G1 X167.351 Y155.249 E0.01865
G1 X167.221 Y155.569 E0.0161
G1 X167.147 Y155.696 E0.00685
G1 X166.96 Y155.941 E0.01439
G1 X166.856 Y156.045 E0.00685
G1 X166.581 Y156.253 E0.0161
G1 X166.199 Y156.424 E0.01951
G1 X166.057 Y156.462 E0.00685
G1 X165.696 Y156.504 E0.01695
G1 X145.839 Y156.504 E0.92642
G1 X145.633 Y156.419 E0.01041
G1 X145.311 Y156.097 E0.02126
G1 X145.225 Y155.891 E0.01041
G1 X145.225 Y153.235 E0.12389
G1 X145.311 Y153.029 E0.01041
G1 X145.633 Y152.707 E0.02126
G1 X145.839 Y152.621 E0.01041
G1 X149.065 Y152.621 E0.15051
G1 X149.289 Y152.592 E0.01053
G1 X149.446 Y152.527 E0.00793
G1 X149.581 Y152.423 E0.00793
G1 X149.684 Y152.289 E0.00793
G1 X149.749 Y152.132 E0.00793
G1 X149.779 Y151.908 E0.01053
G1 X149.779 Y151.058 E0.03965
G1 X149.729 Y150.679 E0.01782
G1 X149.604 Y150.377 E0.01523
G1 X149.405 Y150.118 E0.01523
G1 X149.102 Y149.886 E0.01782
G1 X144.734 Y147.361 E0.23539
G1 X144.454 Y147.236 E0.01431
G1 X144.198 Y147.181 E0.01224
G1 X143.936 Y147.181 E0.01224
G1 X143.679 Y147.236 E0.01224
G1 X143.399 Y147.36 E0.01431
G1 X139.03 Y149.883 E0.23536
G1 X138.727 Y150.116 E0.01783
G1 X138.528 Y150.375 E0.01524
G1 X138.403 Y150.677 E0.01524
G1 X138.353 Y151.056 E0.01783
G1 X138.353 Y151.908 E0.03976
G1 X138.383 Y152.132 E0.01053
G1 X138.448 Y152.289 E0.00793
G1 X138.551 Y152.423 E0.00793
G1 X138.686 Y152.527 E0.00793
G1 X138.843 Y152.592 E0.00793
G1 X139.067 Y152.621 E0.01053
G1 X142.295 Y152.621 E0.15059
G1 X142.501 Y152.707 E0.01041
G1 X142.823 Y153.029 E0.02126
G1 X142.909 Y153.235 E0.01041
G1 X142.909 Y155.891 E0.12389
G1 X142.823 Y156.097 E0.01041
G1 X142.501 Y156.419 E0.02126
G1 X142.295 Y156.504 E0.01041
G1 X122.438 Y156.504 E0.92642
G1 X122.041 Y156.455 E0.01866
G1 X121.65 Y156.306 E0.01951
G1 X121.523 Y156.232 E0.00685
G1 X121.278 Y156.045 E0.01439
G1 X121.174 Y155.941 E0.00685
G1 X120.929 Y155.602 E0.01951
G1 X120.795 Y155.284 E0.0161
G1 X120.757 Y155.142 E0.00685
G1 X120.714 Y154.781 E0.01695
G1 X120.714 Y119.944 E1.62527
G1 X120.764 Y119.548 E0.01866
G1 X120.913 Y119.157 E0.01951
G1 X120.986 Y119.03 E0.00685
G1 X121.174 Y118.785 E0.01439
G1 X121.236 Y118.724 E0.00405
G1 X121.631 Y119.119 F12000
G1 F1860
G1 X121.85 Y118.95 E0.01291
G1 X121.882 Y118.931 E0.00172
G1 X122.133 Y118.827 E0.01268
G1 X122.168 Y118.818 E0.00172
G1 X122.428 Y118.783 E0.01225
G1 X122.447 Y118.782 E0.00086
G1 X165.687 Y118.782 E2.01733
G1 X165.705 Y118.783 E0.00086
G1 X165.966 Y118.818 E0.01225
G1 X166.001 Y118.827 E0.00172
G1 X166.252 Y118.931 E0.01268
G1 X166.284 Y118.95 E0.00172
G1 X166.5 Y119.115 E0.01268
G1 X166.526 Y119.141 E0.00172
G1 X166.691 Y119.357 E0.01268
G1 X166.709 Y119.388 E0.00172
G1 X166.813 Y119.64 E0.01268
G1 X166.823 Y119.675 E0.00172
G1 X166.857 Y119.935 E0.01225
G1 X166.858 Y119.954 E0.00086
G1 X166.858 Y130.96 E0.51349
G1 X166.923 Y131.449 E0.023
G1 X167.104 Y131.887 E0.02213
G1 X167.393 Y132.263 E0.02213
G1 X167.784 Y132.563 E0.023
G1 X172.341 Y135.194 E0.24547
G1 X172.355 Y135.204 E0.00082
G1 X173.026 Y135.712 E0.03923
G1 X173.051 Y135.736 E0.00164
G1 X173.575 Y136.395 E0.03929
G1 X173.587 Y136.412 E0.00098
G1 X173.692 Y136.593 E0.00975
G1 X173.701 Y136.612 E0.00098
G1 X174.009 Y137.396 E0.03929
G1 X174.018 Y137.43 E0.00164
G1 X174.122 Y138.264 E0.03923
G1 X174.123 Y138.282 E0.00082
G1 X174.123 Y143.697 E0.25267
G1 X174.122 Y143.715 E0.00082
G1 X174.018 Y144.549 E0.03923
G1 X174.009 Y144.583 E0.00164
G1 X173.701 Y145.367 E0.03929
G1 X173.692 Y145.386 E0.00098
G1 X173.587 Y145.567 E0.00975
G1 X173.575 Y145.584 E0.00098
G1 X173.051 Y146.243 E0.03929
G1 X173.026 Y146.268 E0.00164
G1 X172.355 Y146.775 E0.03923
G1 X172.341 Y146.785 E0.00082
G1 X167.784 Y149.416 E0.24547
G1 X167.393 Y149.716 E0.023
G1 X167.104 Y150.092 E0.02213
G1 X166.923 Y150.531 E0.02213
G1 X166.858 Y151.019 E0.023
G1 X166.858 Y154.772 E0.17508
G1 X166.857 Y154.79 E0.00086
G1 X166.823 Y155.051 E0.01225
G1 X166.813 Y155.086 E0.00172
G1 X166.709 Y155.337 E0.01268
G1 X166.691 Y155.369 E0.00172
G1 X166.526 Y155.585 E0.01268
G1 X166.5 Y155.611 E0.00172
G1 X166.284 Y155.776 E0.01268
G1 X166.252 Y155.794 E0.00172
G1 X166.001 Y155.898 E0.01268
G1 X165.966 Y155.908 E0.00172
G1 X165.705 Y155.942 E0.01225
G1 X165.687 Y155.943 E0.00086
G1 X145.951 Y155.943 E0.92078
G1 X145.786 Y155.779 E0.01084
G1 X145.786 Y153.347 E0.11347
G1 X145.951 Y153.182 E0.01084
G1 X149.102 Y153.182 E0.14702
G1 X149.435 Y153.139 E0.01569
G1 X149.729 Y153.017 E0.01482
G1 X149.981 Y152.824 E0.01482
G1 X150.174 Y152.572 E0.01482
G1 X150.296 Y152.278 E0.01482
G1 X150.34 Y151.945 E0.01569
G1 X150.34 Y151.021 E0.04308
G1 X150.276 Y150.533 E0.02298
G1 X150.094 Y150.095 E0.02212
G1 X149.806 Y149.718 E0.02212
G1 X149.415 Y149.418 E0.02298
G1 X144.99 Y146.86 E0.23847
G1 X144.629 Y146.699 E0.01843
G1 X144.257 Y146.62 E0.01774
G1 X143.877 Y146.62 E0.01774
G1 X143.505 Y146.699 E0.01774
G1 X143.144 Y146.86 E0.01843
G1 X138.718 Y149.415 E0.23845
G1 X138.327 Y149.716 E0.023
G1 X138.038 Y150.092 E0.02213
G1 X137.856 Y150.53 E0.02213
G1 X137.792 Y151.019 E0.023
G1 X137.792 Y151.945 E0.04319
G1 X137.836 Y152.278 E0.01569
G1 X137.958 Y152.572 E0.01482
G1 X138.151 Y152.824 E0.01482
G1 X138.403 Y153.017 E0.01482
G1 X138.697 Y153.139 E0.01482
G1 X139.03 Y153.182 E0.01569
G1 X142.183 Y153.182 E0.1471
G1 X142.347 Y153.347 E0.01084
G1 X142.347 Y155.779 E0.11347
G1 X142.183 Y155.943 E0.01084
G1 X122.447 Y155.943 E0.92078
G1 X122.428 Y155.942 E0.00086
G1 X122.168 Y155.908 E0.01225
G1 X122.133 Y155.898 E0.00172
G1 X121.882 Y155.794 E0.01268
G1 X121.85 Y155.776 E0.00172
G1 X121.634 Y155.611 E0.01268
G1 X121.608 Y155.585 E0.00172
G1 X121.443 Y155.369 E0.01268
G1 X121.424 Y155.337 E0.00172
G1 X121.32 Y155.086 E0.01268
G1 X121.311 Y155.051 E0.00172
G1 X121.277 Y154.79 E0.01225
G1 X121.275 Y154.772 E0.00086
G1 X121.275 Y119.954 E1.62441
G1 X121.277 Y119.935 E0.00086
G1 X121.311 Y119.675 E0.01225
G1 X121.32 Y119.64 E0.00172
G1 X121.424 Y119.388 E0.01268
G1 X121.443 Y119.357 E0.00172
G1 X121.591 Y119.163 E0.01136
M104 S245 ; set temperature
G1 E-0.4 F2700
G1 Z0.7 F12000
; printing object Front_Skirt_B_x1.stl id:0 copy 0
EXCLUDE_OBJECT_START NAME=Front_Skirt_B_x1_stl_id_0_copy_0
G1 X146.369 Y153.765
G1 Z0.2
G1 E0.4 F2700
;TYPE:External perimeter
G1 F3000
G1 X149.14 Y153.765 E0.12929
G1 X149.587 Y153.706 E0.02105
G1 X150.023 Y153.526 E0.02198
G1 X150.396 Y153.239 E0.02198
G1 X150.683 Y152.865 E0.02198
G1 X150.863 Y152.43 E0.02198
G1 X150.922 Y151.983 E0.02105
G1 X150.922 Y150.983 E0.04665
G1 X150.843 Y150.381 E0.02834
G1 X150.603 Y149.801 E0.02927
G1 X150.221 Y149.303 E0.02927
G1 X149.74 Y148.933 E0.02834
G1 X145.255 Y146.341 E0.24168
G1 X144.81 Y146.142 E0.02271
G1 X144.318 Y146.038 E0.02346
G1 X143.816 Y146.037 E0.02346
G1 X143.324 Y146.142 E0.02346
G1 X142.879 Y146.34 E0.02271
G1 X138.393 Y148.93 E0.24166
G1 X137.911 Y149.3 E0.02836
G1 X137.529 Y149.798 E0.02929
G1 X137.289 Y150.378 E0.02929
G1 X137.21 Y150.981 E0.02836
G1 X137.21 Y151.983 E0.04676
G1 X137.269 Y152.43 E0.02105
G1 X137.449 Y152.865 E0.02198
G1 X137.736 Y153.239 E0.02198
G1 X138.109 Y153.526 E0.02198
G1 X138.545 Y153.706 E0.02198
G1 X138.992 Y153.765 E0.02105
G1 X141.765 Y153.765 E0.12937
G1 X141.765 Y155.361 E0.07445
G1 X122.476 Y155.361 E0.89992
G1 X122.302 Y155.338 E0.00818
G1 X122.158 Y155.278 E0.00725
G1 X122.035 Y155.184 E0.00725
G1 X121.94 Y155.061 E0.00725
G1 X121.881 Y154.917 E0.00725
G1 X121.858 Y154.743 E0.00818
G1 X121.858 Y119.983 E1.62171
G1 X121.881 Y119.809 E0.00818
G1 X121.94 Y119.665 E0.00725
G1 X122.035 Y119.542 E0.00725
G1 X122.158 Y119.447 E0.00725
G1 X122.302 Y119.388 E0.00725
G1 X122.476 Y119.365 E0.00818
G1 X165.658 Y119.365 E2.01463
G1 X165.832 Y119.388 E0.00818
G1 X165.976 Y119.447 E0.00725
G1 X166.099 Y119.542 E0.00725
G1 X166.194 Y119.665 E0.00725
G1 X166.253 Y119.809 E0.00725
G1 X166.276 Y119.983 E0.00818
G1 X166.276 Y130.998 E0.51392
G1 X166.355 Y131.601 E0.02835
G1 X166.595 Y132.181 E0.02929
G1 X166.978 Y132.679 E0.02929
G1 X167.46 Y133.049 E0.02836
G1 X172.026 Y135.685 E0.24597
G1 X172.63 Y136.142 E0.03536
G1 X173.099 Y136.732 E0.03517
G1 X173.171 Y136.856 E0.00667
G1 X173.447 Y137.557 E0.03517
G1 X173.541 Y138.309 E0.03536
G1 X173.541 Y143.67 E0.25009
G1 X173.447 Y144.422 E0.03536
G1 X173.171 Y145.123 E0.03517
G1 X173.099 Y145.247 E0.00667
G1 X172.63 Y145.837 E0.03517
G1 X172.026 Y146.295 E0.03536
G1 X167.46 Y148.931 E0.24596
G1 X166.978 Y149.301 E0.02836
G1 X166.595 Y149.799 E0.02929
G1 X166.355 Y150.379 E0.02929
G1 X166.276 Y150.981 E0.02835
G1 X166.276 Y154.743 E0.17551
G1 X166.253 Y154.917 E0.00818
G1 X166.194 Y155.061 E0.00725
G1 X166.099 Y155.184 E0.00725
G1 X165.976 Y155.278 E0.00725
G1 X165.832 Y155.338 E0.00725
G1 X165.658 Y155.361 E0.00818
G1 X146.369 Y155.361 E0.89992
G1 X146.369 Y153.825 E0.07165
;WIPE_START
G1 X146.715 Y153.965 F12000
;WIPE_END
G1 E-0.4 F2700
G1 Z0.7 F12000
G1 X136.329 Y152.43
G1 Z0.2
G1 E0.4 F2700
G1 F3000
G1 X136.388 Y151.983 E0.02105
G1 X136.388 Y150.983 E0.04665
G1 X136.309 Y150.381 E0.02834
G1 X136.069 Y149.801 E0.02927
G1 X135.687 Y149.303 E0.02927
G1 X135.206 Y148.933 E0.02834
G1 X130.721 Y146.341 E0.24168
G1 X130.276 Y146.142 E0.02271
G1 X129.784 Y146.038 E0.02346
G1 X129.282 Y146.037 E0.02346
G1 X128.79 Y146.142 E0.02346
G1 X128.345 Y146.34 E0.02271
G1 X123.859 Y148.93 E0.24166
G1 X123.377 Y149.3 E0.02836
G1 X122.995 Y149.798 E0.02929
G1 X122.755 Y150.378 E0.02929
G1 X122.676 Y150.981 E0.02836
G1 X122.676 Y151.983 E0.04676
G1 X122.735 Y152.43 E0.02105
G1 X122.915 Y152.865 E0.02198
G1 X123.202 Y153.239 E0.02198
G1 X123.575 Y153.526 E0.02198
G1 X124.011 Y153.706 E0.02198
G1 X124.458 Y153.765 E0.02105
G1 X134.606 Y153.765 E0.47346
G1 X135.053 Y153.706 E0.02105
G1 X135.489 Y153.526 E0.02198
G1 X135.862 Y153.239 E0.02198
G1 X136.149 Y152.865 E0.02198
G1 X136.307 Y152.485 E0.01918
;WIPE_START
G1 X136.711 Y152.31 F12000
;WIPE_END
G1 E-0.4 F2700
G1 Z0.7 F12000
G1 X136.8 Y148.538
G1 Z0.2
G1 E0.4 F2700
G1 F3000
G1 X137.422 Y148.456 E0.02929
G1 X137.984 Y148.224 E0.02835
G1 X142.473 Y145.632 E0.24184
G1 X142.955 Y145.262 E0.02835
G1 X143.337 Y144.764 E0.02929
G1 X143.578 Y144.184 E0.02929
G1 X143.657 Y143.582 E0.02835
G1 X143.657 Y138.398 E0.24184
G1 X143.578 Y137.795 E0.02835
G1 X143.337 Y137.215 E0.02929
G1 X142.955 Y136.717 E0.02929
G1 X142.473 Y136.347 E0.02835
G1 X137.984 Y133.755 E0.24184
G1 X137.422 Y133.523 E0.02835
G1 X136.8 Y133.441 E0.02929
G1 X136.178 Y133.523 E0.02929
G1 X135.616 Y133.755 E0.02835
G1 X131.127 Y136.347 E0.24184
G1 X130.645 Y136.717 E0.02836
G1 X130.262 Y137.215 E0.02929
G1 X130.022 Y137.795 E0.02929
G1 X129.943 Y138.398 E0.02835
G1 X129.943 Y143.582 E0.24184
G1 X130.022 Y144.184 E0.02835
G1 X130.262 Y144.764 E0.02929
G1 X130.645 Y145.262 E0.02929
G1 X131.127 Y145.632 E0.02835
G1 X135.616 Y148.224 E0.24184
G1 X136.178 Y148.456 E0.02835
G1 X136.74 Y148.531 E0.02649
;WIPE_START
G1 X137.015 Y148.876 F12000
;WIPE_END
G1 E-0.4 F2700
G1 Z0.7 F12000
G1 X128.803 Y144.764
G1 Z0.2
G1 E0.4 F2700
G1 F3000
G1 X129.044 Y144.184 E0.02929
G1 X129.123 Y143.582 E0.02835
G1 X129.123 Y138.398 E0.24184
G1 X129.044 Y137.795 E0.02835
G1 X128.803 Y137.215 E0.02929
G1 X128.421 Y136.717 E0.02929
G1 X127.939 Y136.347 E0.02836
G1 X125.36 Y134.858 E0.13896
G1 X124.943 Y134.685 E0.02105
G1 X124.476 Y134.624 E0.02198
