; generated by SuperSlicer 2.5.59 on 2023-04-10 at 00:09:10 UTC


;
;

;
;
; 

; external perimeters extrusion width = 0.45mm
; perimeters extrusion width = 0.45mm
; infill extrusion width = 0.45mm
; solid infill extrusion width = 0.45mm
; top infill extrusion width = 0.43mm
; support material extrusion width = 0.42mm
; first layer extrusion width = 0.60mm

; object:{"name":"Front_Body","id":"Front_Body.stl id:0 copy 0","object_center":[150.000000,148.500000,0.000000],"boundingbox_center":[150.000000,148.500000,5.968735],"boundingbox_size":[51.306004,57.518230,11.937470]}
EXCLUDE_OBJECT_DEFINE NAME=Front_Body_stl_id_0_copy_0 CENTER=150.000000,148.500000 POLYGON=[[124.347000,128.721104],[124.351336,128.632888],[124.364288,128.545520],[124.415504,128.376696],[127.074008,121.353424],[127.454536,120.830168],[127.464432,120.827056],[127.474000,120.824048],[127.741624,120.741840],[128.010192,120.662800],[128.279696,120.586912],[128.530872,120.519272],[129.384672,120.311200],[129.610536,120.261720],[130.501600,120.088824],[130.701064,120.054944],[131.627928,119.920304],[131.800080,119.899400],[132.761032,119.806048],[132.905152,119.795440],[133.898312,119.746296],[134.013904,119.743288],[135.037168,119.741192],[164.910816,119.740888],[165.934512,119.742984],[166.049648,119.745984],[167.043344,119.795168],[167.186944,119.805744],[168.148528,119.899168],[168.320064,119.920000],[169.247648,120.054768],[169.446384,120.088520],[170.338288,120.261600],[170.563328,120.310896],[171.418032,120.519208],[171.668304,120.586608],[171.938128,120.662584],[172.207024,120.741744],[172.475008,120.824064],[172.494464,120.830184],[172.875008,121.353456],[175.584496,128.436216],[175.635712,128.605040],[175.648672,128.692416],[175.653008,128.780640],[175.653008,143.644512],[175.648672,143.732720],[172.866448,171.295648],[172.320320,172.241632],[169.423456,177.259120],[130.517016,177.259120],[127.620160,172.241632],[127.074008,171.295648],[124.351336,143.792256],[124.347000,143.704048],[124.347000,128.721104]]
; plater:{"center":[150.000000,148.500000,0.000000],"boundingbox_center":[150.000000,148.500000,5.968735],"boundingbox_size":[51.306004,57.518230,11.937470]}

;TYPE:Custom
SET_PRINT_STATS_INFO TOTAL_LAYER=60

M104 S0 ; Stops SuperSlicer from sending temp waits separately

M109 S0

M140 S0

print_start EXTRUDER=255 BED=105 CHAMBER=0
M107
G21 ; set units to millimeters
G90 ; use absolute coordinates
M82 ; use absolute distances for extrusion
G92 E0
; Filament gcode
;_TOOLCHANGE 0
M107
;LAYER_CHANGE
;Z:0.2
;HEIGHT:0.2
TIMELAPSE_TAKE_FRAME
;BEFORE_LAYER_CHANGE
;0.2


G1 Z0.2 F8700
SET_PRINT_STATS_INFO CURRENT_LAYER=1
;AFTER_LAYER_CHANGE
;0.2
G1 E-0.8 F3000
G1 Z0.7 F8700
G1 X121.878 Y115.237
G1 Z0.2
G1 E0 F3000
;TYPE:Skirt
;WIDTH:0.54
G1 F2250
G1 X119.848 Y118.919 E0.17383
G1 X117.228 Y125.421 E0.46355
G1 X116.717 Y127.196 E0.53989
G1 X116.604 Y128.423 E0.59081
G1 X116.613 Y144.17 E1.24166
G1 X119.641 Y173.005 E2.44007
G1 X119.865 Y173.694 E2.47001
G1 X125.717 Y183.83 E2.95377
G1 X126.129 Y184.313 E2.98001
G1 X127.226 Y184.702 E3.02811
G1 X172.714 Y184.702 E4.90825
G1 X173.339 Y184.586 E4.93449
G1 X174.224 Y183.83 E4.98259
G1 X180.075 Y173.695 E5.46633
G1 X180.299 Y173.009 E5.49613
G1 X183.387 Y144.115 E6.69721
G1 X183.396 Y128.486 E7.34319
G1 X183.217 Y126.923 E7.40821
G1 X182.77 Y125.475 E7.47085
G1 X180.19 Y119.107 E7.75481
G1 X178.071 Y115.237 E7.9372
G1 X177.034 Y114.406 E7.99212
G1 X172.027 Y113.011 E8.20697
G1 X169.047 Y112.51 E8.33185
G1 X167.584 Y112.371 E8.3926
G1 X165.035 Y112.299 E8.498
G1 X133.831 Y112.302 E9.78773
G1 X130.778 Y112.525 E9.91425
G1 X127.92 Y113.011 E10.03409
G1 X122.915 Y114.405 E10.24881
G1 X121.925 Y115.199 E10.30126
G1 X122.314 Y115.477 F8700
G1 F2250
G1 X120.283 Y119.159 E10.47508
G1 X117.653 Y125.708 E10.76675
G1 X117.26 Y127.006 E10.82283
G1 X117.101 Y128.423 E10.88175
G1 X117.107 Y144.121 E11.53059
G1 X120.135 Y172.953 E12.72885
G1 X120.295 Y173.446 E12.75025
G1 X126.147 Y183.582 E13.23401
G1 X127.226 Y184.205 E13.2855
G1 X172.714 Y184.205 E15.16563
G1 X173.793 Y183.582 E15.21712
G1 X179.645 Y173.446 E15.70086
G1 X179.805 Y172.956 E15.72216
G1 X182.892 Y144.066 E16.92307
G1 X182.899 Y128.486 E17.56703
G1 X182.741 Y127.067 E17.62603
G1 X182.309 Y125.661 E17.68681
G1 X179.73 Y119.294 E17.97077
G1 X177.635 Y115.477 E18.15072
G1 X176.894 Y114.883 E18.18998
G1 X171.852 Y113.481 E18.40628
G1 X169 Y113.004 E18.52582
G1 X167.56 Y112.867 E18.58561
G1 X165.034 Y112.796 E18.69004
G1 X133.832 Y112.799 E19.9797
G1 X130.853 Y113.016 E20.10314
G1 X128.037 Y113.495 E20.22122
G1 X123.055 Y114.883 E20.43498
G1 X122.361 Y115.439 E20.47175
G1 X122.749 Y115.717 F8700
G1 F2250
G1 X120.718 Y119.399 E20.64558
G1 X118.151 Y125.791 E20.93028
G1 X117.707 Y127.294 E20.99506
G1 X117.599 Y128.423 E21.04193
G1 X117.598 Y143.999 E21.68572
G1 X117.706 Y145.129 E21.73265
G1 X120.63 Y172.901 E22.88688
G1 X120.726 Y173.197 E22.89974
G1 X126.578 Y183.333 E23.38351
G1 X127.226 Y183.708 E23.41444
G1 X172.714 Y183.708 E25.29458
G1 X173.363 Y183.333 E25.32552
G1 X179.214 Y173.198 E25.80926
G1 X179.31 Y172.903 E25.82206
G1 X182.398 Y144.017 E27.02281
G1 X182.402 Y128.486 E27.66474
G1 X182.265 Y127.211 E27.71771
G1 X181.848 Y125.848 E27.77664
G1 X179.269 Y119.48 E28.0606
G1 X177.2 Y115.717 E28.23811
G1 X176.755 Y115.36 E28.2617
G1 X171.758 Y113.97 E28.47607
G1 X168.952 Y113.499 E28.59367
G1 X167.535 Y113.364 E28.65249
G1 X165.033 Y113.293 E28.75596
G1 X133.833 Y113.296 E30.04554
G1 X130.929 Y113.507 E30.1659
G1 X128.154 Y113.978 E30.28223
G1 X123.194 Y115.36 E30.49501
G1 X122.796 Y115.679 E30.51613
G92 E0
G1 E-0.8 F3000
G1 Z0.7 F8700
G1 X164.228 Y175.896
G1 Z0.2
G1 E0 F3000
;WIDTH:0.6
G1 F2250
G1 X166.054 Y177.238 E0.10495
G1 X169.411 Y177.238 E0.26046
G1 X172.054 Y172.66 E0.50532
G1 X172.9 Y173.309 E0.55472
G1 X173.721 Y174.378 E0.61714
G1 X174.236 Y175.623 E0.67956
G1 X174.412 Y176.959 E0.74198
G1 X174.286 Y177.917 E0.78673
G1 X174.236 Y178.295 E0.8044
G1 X173.721 Y179.54 E0.86682
G1 X172.9 Y180.609 E0.92924
G1 X171.831 Y181.43 E0.99166
G1 X170.586 Y181.945 E1.05409
G1 X169.25 Y182.121 E1.11651
G1 X168.293 Y181.995 E1.16125
G1 X167.914 Y181.945 E1.17893
G1 X166.669 Y181.43 E1.24135
G1 X165.6 Y180.609 E1.30377
G1 X164.78 Y179.54 E1.36619
G1 X164.264 Y178.295 E1.42861
G1 X164.214 Y177.917 E1.44628
G1 X164.088 Y176.959 E1.49103
G1 X164.22 Y175.955 E1.53792
G1 X165.463 Y176.838 F8700
G1 F2250
G1 X164.374 Y176.838 E1.58836
G1 X164.358 Y176.959 E1.59402
G1 X164.415 Y177.395 E1.61438
G1 X174.085 Y177.395 E2.0623
G1 X174.021 Y177.882 E2.08505
G1 X174.012 Y177.952 E2.08833
G1 X164.489 Y177.952 E2.52945
G1 X164.525 Y178.225 E2.54222
G1 X164.642 Y178.509 E2.55645
G1 X173.858 Y178.509 E2.98335
G1 X173.628 Y179.066 E3.01128
G1 X164.873 Y179.066 E3.4168
G1 X165.013 Y179.405 E3.4338
G1 X165.181 Y179.623 E3.44653
G1 X173.32 Y179.623 E3.82354
G1 X172.892 Y180.18 E3.85607
G1 X165.608 Y180.18 E4.19348
G1 X165.791 Y180.418 E4.20738
G1 X166.207 Y180.737 E4.23165
G1 X172.294 Y180.737 E4.51363
G1 X171.696 Y181.196 E4.54852
G1 X171.458 Y181.295 E4.56045
G1 X166.539 Y181.295 E4.78832
G92 E0
G1 E-0.8 F3000
G1 Z0.7 F8700
G1 X169.674 Y176.838
G1 Z0.2
G1 E0 F3000
G1 F2250
G1 X174.127 Y176.838 E0.20625
G1 X174.053 Y176.281 E0.23227
G1 X170.272 Y176.281 E0.40741
G1 X170.594 Y175.724 E0.43721
G1 X173.98 Y175.724 E0.59405
G1 X173.976 Y175.693 E0.59549
G1 X173.758 Y175.167 E0.62188
G1 X170.916 Y175.167 E0.75354
G1 X171.237 Y174.61 E0.78333
G1 X173.527 Y174.61 E0.88941
G1 X173.487 Y174.513 E0.89425
G1 X173.134 Y174.052 E0.92114
G1 X171.559 Y174.052 E0.99409
G1 X171.88 Y173.495 E1.02389
G1 X173.008 Y173.495 E1.07613
G92 E0
G1 E-0.8 F3000
G1 Z0.7 F8700
G1 X135.852 Y176.959
G1 Z0.2
G1 E0 F3000
G1 F2250
G1 X135.726 Y177.917 E0.04475
G1 X135.676 Y178.295 E0.06242
G1 X135.161 Y179.54 E0.12484
G1 X134.34 Y180.609 E0.18726
G1 X133.271 Y181.43 E0.24968
G1 X132.026 Y181.945 E0.3121
G1 X130.69 Y182.121 E0.37452
G1 X129.732 Y181.995 E0.41927
G1 X129.354 Y181.945 E0.43694
G1 X128.109 Y181.43 E0.49936
G1 X127.04 Y180.609 E0.56178
G1 X126.22 Y179.54 E0.6242
G1 X125.704 Y178.295 E0.68662
G1 X125.654 Y177.917 E0.7043
G1 X125.528 Y176.959 E0.74904
G1 X125.704 Y175.623 E0.81146
G1 X126.22 Y174.378 E0.87388
G1 X127.04 Y173.309 E0.9363
G1 X127.886 Y172.66 E0.98571
G1 X130.529 Y177.238 E1.23057
G1 X133.887 Y177.238 E1.38608
G1 X135.712 Y175.896 E1.49103
G1 X135.782 Y176.428 E1.51586
G1 X135.844 Y176.9 E1.53792
G1 X135.693 Y177.952 F8700
G1 F2250
G1 X125.929 Y177.952 E1.99023
G1 X125.965 Y178.225 E2.003
G1 X126.082 Y178.509 E2.01723
G1 X135.298 Y178.509 E2.44413
G1 X135.067 Y179.066 E2.47206
G1 X126.313 Y179.066 E2.87758
G1 X126.453 Y179.405 E2.89458
G1 X126.621 Y179.623 E2.90731
G1 X134.76 Y179.623 E3.28432
G1 X134.332 Y180.18 E3.31685
G1 X127.048 Y180.18 E3.65426
G1 X127.231 Y180.418 E3.66816
G1 X127.647 Y180.737 E3.69243
G1 X133.734 Y180.737 E3.97441
G1 X133.136 Y181.196 E4.0093
G1 X132.898 Y181.295 E4.02123
G1 X127.979 Y181.295 E4.2491
G92 E0
G1 E-0.8 F3000
G1 Z0.7 F8700
G1 X128.337 Y173.495
G1 Z0.2
G1 E0 F3000
G1 F2250
G1 X127.237 Y173.495 E0.05096
G1 X126.807 Y174.052 E0.08355
G1 X128.382 Y174.052 E0.1565
G1 X128.703 Y174.61 E0.1863
G1 X126.413 Y174.61 E0.29237
G1 X126.183 Y175.167 E0.3203
G1 X129.025 Y175.167 E0.45196
G1 X129.347 Y175.724 E0.48176
G1 X125.961 Y175.724 E0.6386
G1 X125.887 Y176.281 E0.66463
G1 X129.668 Y176.281 E0.83977
G1 X129.99 Y176.838 E0.86957
G1 X125.814 Y176.838 E1.063
G1 X125.798 Y176.959 E1.06866
G1 X125.855 Y177.395 E1.08903
G1 X135.525 Y177.395 E1.53694
G1 X135.582 Y176.959 E1.55731
G1 X135.567 Y176.838 E1.56297
G1 X134.478 Y176.838 E1.61341
G92 E0
G1 E-0.8 F3000
G1 Z0.7 F8700
G1 X127.095 Y126.255
G1 Z0.2
G1 E0 F3000
G1 F2250
G1 X126.33 Y126.154 E0.03577
G1 X126.128 Y126.128 E0.04519
G1 X124.883 Y125.612 E0.10761
G1 X123.814 Y124.792 E0.17003
G1 X122.994 Y123.723 E0.23245
G1 X122.478 Y122.478 E0.29487
G1 X122.428 Y122.1 E0.31255
G1 X122.302 Y121.142 E0.35729
G1 X122.434 Y120.138 E0.40419
G1 X122.478 Y119.806 E0.41971
G1 X122.994 Y118.561 E0.48213
G1 X123.814 Y117.492 E0.54455
G1 X124.883 Y116.671 E0.60697
G1 X126.128 Y116.156 E0.66939
G1 X127.464 Y115.98 E0.73181
G1 X128.8 Y116.156 E0.79423
G1 X130.045 Y116.671 E0.85666
G1 X131.114 Y117.492 E0.91908
G1 X131.935 Y118.561 E0.9815
G1 X132.45 Y119.806 E1.04392
G1 X132.457 Y119.859 E1.0464
G1 X131.749 Y119.927 E1.07935
G1 X131.127 Y120.022 E1.10852
G1 X130.37 Y120.138 E1.14398
G1 X129.876 Y120.234 E1.1673
G1 X129.546 Y120.297 E1.18284
G1 X128.46 Y120.56 E1.23461
G1 X127.276 Y120.907 E1.29177
G1 X127.095 Y121.234 E1.30906
G1 X127.095 Y126.195 E1.53889
G1 X127.068 Y125.729 F8700
G1 F2250
G1 X125.863 Y125.729 E1.59467
G1 X125.018 Y125.379 E1.63705
G1 X124.748 Y125.172 E1.6528
G1 X126.828 Y125.172 E1.74914
G1 X126.828 Y124.615 E1.77494
G1 X124.022 Y124.615 E1.9049
G1 X124.005 Y124.601 E1.90593
G1 X123.588 Y124.058 E1.93767
G1 X126.828 Y124.058 E2.08777
G1 X126.828 Y123.5 E2.11357
G1 X123.191 Y123.5 E2.28204
G1 X122.96 Y122.943 E2.30997
G1 X126.828 Y122.943 E2.48913
G1 X126.828 Y122.386 E2.51493
G1 X122.736 Y122.386 E2.70449
G1 X122.693 Y122.065 E2.71952
G1 X122.662 Y121.829 E2.73052
G1 X126.828 Y121.829 E2.92348
G1 X126.828 Y121.272 E2.94928
G1 X122.589 Y121.272 E3.14564
G1 X122.572 Y121.142 E3.15173
G1 X122.628 Y120.715 E3.17167
G1 X127.076 Y120.715 E3.3777
G1 X127.095 Y120.681 E3.3795
G1 X128.391 Y120.302 E3.44206
G1 X128.986 Y120.158 E3.4704
G1 X122.701 Y120.158 E3.76149
G1 X122.739 Y119.876 E3.77469
G1 X122.852 Y119.601 E3.78846
G1 X132.076 Y119.601 E4.21571
G1 X131.845 Y119.044 E4.24364
G1 X123.083 Y119.044 E4.64951
G1 X123.227 Y118.696 E4.66696
G1 X123.388 Y118.487 E4.67916
G1 X131.541 Y118.487 E5.05682
G1 X131.113 Y117.93 E5.08935
G1 X123.815 Y117.93 E5.42741
G1 X124.005 Y117.682 E5.44184
G1 X124.409 Y117.373 E5.46542
G1 X130.52 Y117.373 E5.74849
G1 X129.91 Y116.905 E5.78407
G1 X129.694 Y116.815 E5.7949
G1 X125.234 Y116.815 E6.0015
G1 X126.198 Y116.416 E6.04983
G1 X127.397 Y116.258 E6.10584
G1 X128.975 Y116.258 E6.17896
G92 E0
G1 E-0.8 F3000
G1 Z0.7 F8700
G1 X160.8 Y120.044
G1 Z0.2
G1 E0 F3000
G1 F2250
G1 X160.886 Y119.391 E0.03048
G1 X160.976 Y118.708 E0.06242
G1 X161.492 Y117.463 E0.12484
G1 X162.312 Y116.394 E0.18726
G1 X163.381 Y115.573 E0.24968
G1 X164.626 Y115.058 E0.3121
G1 X165.962 Y114.882 E0.37452
G1 X167.298 Y115.058 E0.43694
G1 X168.543 Y115.573 E0.49936
G1 X169.612 Y116.394 E0.56178
G1 X170.433 Y117.463 E0.6242
G1 X170.948 Y118.708 E0.68662
G1 X171.124 Y120.044 E0.74904
G1 X171.069 Y120.459 E0.76843
G1 X170.837 Y120.402 E0.77952
G1 X170.403 Y120.297 E0.80021
G1 X169.984 Y120.217 E0.81998
G1 X169.305 Y120.086 E0.852
G1 X168.198 Y119.927 E0.90378
G1 X168.05 Y119.912 E0.91069
G1 X167.086 Y119.82 E0.95556
G1 X166.238 Y119.778 E0.99485
G1 X165.969 Y119.765 E1.00733
G1 X165.13 Y119.764 E1.0462
G1 X164.116 Y119.801 E1.0932
G1 X163.736 Y119.814 E1.11083
G1 X162.622 Y119.918 E1.16267
G1 X162.19 Y119.979 E1.18285
G1 X161.502 Y120.076 E1.21505
G1 X161.294 Y120.136 E1.22505
G1 X160.846 Y120.389 E1.24893
G1 X160.808 Y120.103 E1.26229
G1 X160.884 Y119.617 F8700
G1 F2250
G1 X170.798 Y119.617 E1.72152
G1 X170.725 Y119.06 E1.74754
G1 X161.199 Y119.06 E2.18878
G1 X161.237 Y118.778 E2.20197
G1 X161.35 Y118.503 E2.21574
G1 X170.574 Y118.503 E2.64299
G1 X170.343 Y117.946 E2.67092
G1 X161.581 Y117.946 E3.07679
G1 X161.725 Y117.598 E3.09425
G1 X161.886 Y117.389 E3.10645
G1 X170.039 Y117.389 E3.48411
G1 X169.611 Y116.832 E3.51663
G1 X162.313 Y116.832 E3.85469
G1 X162.503 Y116.584 E3.86912
G1 X162.907 Y116.275 E3.8927
G1 X169.018 Y116.275 E4.17577
G1 X168.408 Y115.807 E4.21135
G1 X168.192 Y115.717 E4.22218
G1 X163.732 Y115.717 E4.42879
G1 X164.696 Y115.318 E4.47712
G1 X165.895 Y115.16 E4.53312
G1 X167.473 Y115.16 E4.60625
M104 S255 ; set temperature
G92 E0
G1 E-0.8 F3000
G1 Z0.7 F8700
; printing object Front_Body.stl id:0 copy 0
EXCLUDE_OBJECT_START NAME=Front_Body_stl_id_0_copy_0
G1 X172.229 Y129.941
G1 Z0.2
G1 E0 F3000
;TYPE:Thin wall
;WIDTH:0.038153
G1 F2400
G1 X172.242 Y130.08 E0.00039
;WIDTH:0.063472
G1 X172.27 Y130.783 E0.00386
G1 X172.257 Y131.648 E0.00811
;WIDTH:0.030687
G1 X172.216 Y131.782 E0.00842
;WIDTH:0.306871
G1 X172.208 Y131.882
;TYPE:External perimeter
;WIDTH:0.6
G1 X172.273 Y131.887 E0.01146
G1 X172.266 Y171.135 E1.82947
G1 X169.077 Y176.659 E2.12495
G1 X166.244 Y176.659 E2.2562
G1 X160.875 Y172.713 E2.56484
G1 X149.97 Y172.576 E3.06998
G1 X139.066 Y172.713 E3.57512
G1 X133.697 Y176.659 E3.88377
G1 X130.863 Y176.659 E4.01502
G1 X127.674 Y171.135 E4.31049
G1 X127.674 Y131.934 E6.12635
G1 X127.738 Y131.926 E6.12933
;TYPE:Thin wall
;WIDTH:0.039625
G1 X127.726 Y131.827
;WIDTH:0.356623
G1 X127.712 Y131.688 E6.13304
;WIDTH:0.573342
G1 X127.679 Y131.16 E6.15653
;WIDTH:0.542182
G1 X127.686 Y130.468 E6.18553
;WIDTH:0.574978
G1 X127.694 Y130.039 E6.20464
;WIDTH:0.321049
G1 X127.683 Y129.965 E6.2064
;WIDTH:0.035672
G1 X127.694 Y130.039 E6.2066
;WIDTH:0.063886
G1 X127.686 Y130.468 E6.20872
;WIDTH:0.060242
G1 X127.679 Y131.16 E6.21194
;WIDTH:0.063705
G1 X127.712 Y131.688 E6.21455
;WIDTH:0.039625
G1 X127.726 Y131.827 E6.21496
;WIDTH:0.396248
G1 X127.738 Y131.926
;TYPE:External perimeter
;WIDTH:0.6
G1 X127.775 Y131.922 E6.21668
G1 X127.888 Y132.403 E6.23957
G1 X128.034 Y132.841 E6.26095
G1 X128.205 Y133.233 E6.28079
G1 X128.409 Y133.605 E6.30042
G1 X128.781 Y134.14 E6.3306
G1 X129.243 Y134.612 E6.36119
G1 X129.571 Y134.859 E6.38022
G1 X129.878 Y135.043 E6.39682
G1 X130.241 Y135.203 E6.4152
G1 X130.568 Y135.307 E6.43107
G1 X130.945 Y135.373 E6.44879
G1 X131.276 Y135.395 E6.46417
G1 X131.693 Y135.363 E6.48356
G1 X132.103 Y135.27 E6.50303
G1 X132.499 Y135.12 E6.52262
G1 X132.875 Y134.918 E6.54243
G1 X133.229 Y134.667 E6.56253
G1 X133.557 Y134.371 E6.58296
G1 X133.853 Y134.034 E6.60375
G1 X134.113 Y133.663 E6.62476
G1 X134.26 Y133.408 E6.63836
G1 X134.453 Y132.995 E6.6595
G1 X134.598 Y132.603 E6.67884
G1 X134.748 Y132.032 E6.70621
G1 X134.825 Y131.558 E6.72843
G1 X134.868 Y130.857 E6.76098
G1 X134.818 Y130.108 E6.79572
G1 X134.751 Y129.705 E6.81464
G1 X134.604 Y129.154 E6.84106
G1 X134.414 Y128.664 E6.8654
