; generated by SuperSlicer 2.4 on 2023-01-25 at 12:43:27 UTC


;
;

;
;
; 

; external perimeters extrusion width = 0.42mm
; perimeters extrusion width = 0.45mm
; infill extrusion width = 0.45mm
; solid infill extrusion width = 0.45mm
; top infill extrusion width = 0.42mm
; first layer extrusion width = 0.62mm

; external perimeters extrusion width = 0.42mm
; perimeters extrusion width = 0.45mm
; infill extrusion width = 0.45mm
; solid infill extrusion width = 0.45mm
; top infill extrusion width = 0.42mm
; first layer extrusion width = 0.62mm

; object:{"name":"FS_Hotend_Mount_Dragonfly_BMO","id":"FS_Hotend_Mount_Dragonfly_BMO.stl id:0 copy 0","object_center":[150.000000,138.126744,0.000000],"boundingbox_center":[150.000000,138.126744,11.094934],"boundingbox_size":[42.400002,30.799999,22.189869]}
; object:{"name":"Hotend_Mount_Dragonfly_BMO","id":"Hotend_Mount_Dragonfly_BMO.stl id:1 copy 0","object_center":[150.000000,166.900000,0.000000],"boundingbox_center":[150.000000,166.900000,11.094934],"boundingbox_size":[30.799999,14.746513,22.189868]}
; plater:{"center":[150.000000,148.500001,0.000000],"boundingbox_center":[150.000000,148.500001,11.094934],"boundingbox_size":[42.400002,51.546512,22.189869]}

;TYPE:Custom
M104 S0 ; Stops SuperSlicer from sending temp waits separately


; Pre-Processed for Cancel-Object support by preprocess_cancellation v0.2.0
; 2 known objects
EXCLUDE_OBJECT_DEFINE NAME=FS_Hotend_Mount_Dragonfly_BMO_stl_id_0_copy_0 CENTER=145.334,138.151 POLYGON=[[129.01,122.937],[129.01,153.317],[170.99,153.317],[170.99,122.937]]
EXCLUDE_OBJECT_DEFINE NAME=Hotend_Mount_Dragonfly_BMO_stl_id_1_copy_0 CENTER=149.969,169.460 POLYGON=[[134.81,159.737],[134.81,174.063],[165.19,174.063],[165.19,159.737]]

M140 S0

print_start EXTRUDER=248 BED=105 CHAMBER=0
G21 ; set units to millimeters
G90 ; use absolute coordinates
M83 ; use relative distances for extrusion
; Filament gcode
;_TOOLCHANGE 0
M107
;LAYER_CHANGE
;Z:0.2
;HEIGHT:0.2
TIMELAPSE_TAKE_FRAME
;BEFORE_LAYER_CHANGE
;0.2


G1 E-0.8 F3000
G1 Z0.3 F9000
;AFTER_LAYER_CHANGE
;0.2
G92 E0
G1 Z0.5
G1 X126.189 Y120.845
G1 Z0.2
G1 E0.8 F1800
;TYPE:Skirt
;WIDTH:0.52
G1 F1950
G1 X125.407 Y122.524 E0.07345
G1 X125.407 Y152.683 E1.19639
G1 X125.488 Y153.274 E0.02368
G1 X131.202 Y173.671 E0.84027
G1 X131.626 Y174.48 E0.03623
G1 X133.85 Y176.965 E0.13232
G1 X135.401 Y177.661 E0.06741
G1 X165.635 Y177.666 E1.19938
G1 X167.28 Y176.885 E0.07222
G1 X168.272 Y175.708 E0.06107
G1 X168.759 Y174.643 E0.04645
G1 X172.062 Y153.89 E0.83363
G1 X172.062 Y122.364 E1.25061
G1 X171.259 Y120.668 E0.07445
G1 X170.237 Y119.83 E0.0524
G1 X168.862 Y119.334 E0.058
G1 X153.604 Y119.234 E0.60529
G1 X130.671 Y119.236 E0.90974
G1 X128.662 Y119.342 E0.07981
G1 X127.369 Y119.853 E0.05512
G1 X126.235 Y120.806 E0.05878
G1 X126.542 Y121.172 F9000
G1 F1950
G1 X126.496 Y121.21 E0.00238
G1 X125.884 Y122.524 E0.05747
G1 X125.884 Y152.683 E1.19639
G1 X125.948 Y153.145 E0.01853
G1 X131.661 Y173.542 E0.84027
G1 X131.993 Y174.175 E0.02834
G1 X134.199 Y176.639 E0.13121
G1 X135.412 Y177.184 E0.05275
G1 X165.628 Y177.189 E1.19864
G1 X166.915 Y176.578 E0.05651
G1 X167.907 Y175.4 E0.06107
G1 X168.288 Y174.567 E0.03634
G1 X171.585 Y153.89 E0.83063
G1 X171.585 Y122.364 E1.25061
G1 X170.956 Y121.037 E0.05825
G1 X169.934 Y120.2 E0.0524
G1 X168.859 Y119.811 E0.04538
G1 X153.601 Y119.711 E0.60529
G1 X130.672 Y119.713 E0.90956
G1 X128.687 Y119.818 E0.07884
G1 X127.676 Y120.218 E0.04313
G1 X126.588 Y121.133 E0.0564
G1 X126.895 Y121.498 F9000
G1 F1950
G1 X126.803 Y121.575 E0.00476
G1 X126.361 Y122.524 E0.04149
G1 X126.407 Y153.017 E1.20964
G1 X132.121 Y173.413 E0.84027
G1 X132.36 Y173.87 E0.02046
G1 X132.972 Y174.607 E0.038
G1 X134.548 Y176.314 E0.09214
G1 X135.424 Y176.707 E0.03808
G1 X165.621 Y176.712 E1.19791
G1 X166.55 Y176.271 E0.0408
G1 X167.542 Y175.093 E0.06107
G1 X167.817 Y174.492 E0.02624
G1 X171.108 Y153.89 E0.82763
G1 X171.108 Y122.364 E1.25061
G1 X170.654 Y121.406 E0.04205
G1 X169.632 Y120.569 E0.0524
G1 X168.855 Y120.288 E0.03276
G1 X153.597 Y120.188 E0.60529
G1 X130.674 Y120.19 E0.90937
G1 X128.713 Y120.295 E0.07788
G1 X127.983 Y120.583 E0.03114
G1 X126.941 Y121.46 E0.05402
G1 E-0.8 F3000
G1 Z0.5 F9000
G1 X134.668 Y158.958
G1 Z0.2
G1 E0.8 F1800
;WIDTH:0.62
G1 F1950
G1 X135.449 Y158.963 E0.0375
G1 X135.575 Y158.993 E0.00621
G1 X135.81 Y159.107 E0.0125
G1 X135.911 Y159.188 E0.00621
G1 X136.349 Y159.739 E0.03379
G1 X136.642 Y160.015 E0.01933
G1 X136.742 Y160.162 E0.00854
G1 X136.836 Y160.373 E0.01107
G1 X137.164 Y160.807 E0.02612
G1 X162.834 Y160.807 E1.23174
G1 X163.163 Y160.372 E0.02619
G1 X163.257 Y160.161 E0.01107
G1 X163.356 Y160.013 E0.00854
G1 X163.65 Y159.737 E0.01936
G1 X164.089 Y159.185 E0.03385
G1 X164.19 Y159.104 E0.00621
G1 X164.424 Y158.99 E0.01251
G1 X164.55 Y158.96 E0.00621
G1 X165.332 Y158.955 E0.03752
G1 X165.539 Y159.036 E0.01065
G1 X165.868 Y159.346 E0.02171
G1 X165.962 Y159.547 E0.01065
G1 X165.995 Y160.127 E0.02788
G1 X166.065 Y160.642 E0.02491
G1 X165.98 Y161.714 E0.0516
G1 X165.968 Y162.161 E0.02145
G1 X165.966 Y167.469 E0.25472
G1 X165.986 Y168.403 E0.04481
G1 X166.065 Y169.393 E0.04766
G1 X166.066 Y172.342 E0.14152
G1 X165.998 Y172.89 E0.0265
G1 X165.972 Y173.323 E0.02082
G1 X165.965 Y173.851 E0.0253
G1 X165.947 Y173.948 E0.00477
G1 X165.878 Y174.135 E0.00957
G1 X165.828 Y174.221 E0.00477
G1 X165.486 Y174.627 E0.02547
G1 X165.386 Y174.703 E0.00601
G1 X165.158 Y174.81 E0.01208
G1 X165.036 Y174.838 E0.00601
G1 X163.477 Y174.849 E0.07483
G1 X162.473 Y174.885 E0.04819
G1 X161.448 Y174.847 E0.0492
G1 X160.47 Y174.839 E0.04697
G1 X139.579 Y174.839 E1.00241
G1 X138.601 Y174.846 E0.04695
G1 X137.581 Y174.885 E0.04898
G1 X135.994 Y174.84 E0.0762
G1 X135.878 Y174.813 E0.00568
G1 X135.663 Y174.712 E0.01143
G1 X135.568 Y174.641 E0.00568
G1 X135.268 Y174.303 E0.02166
G1 X134.688 Y173.718 E0.03954
G1 X134.083 Y173.017 E0.04445
G1 X134.031 Y172.928 E0.00492
G1 X133.959 Y172.735 E0.00988
G1 X133.941 Y172.634 E0.00492
G1 X133.934 Y169.067 E0.17117
G1 X134.004 Y168.51 E0.02694
G1 X134.029 Y168.072 E0.02108
G1 X134.034 Y167.604 E0.02246
G1 X134.034 Y162.69 E0.23577
G1 X134.021 Y161.743 E0.04544
G1 X133.935 Y160.662 E0.05204
G1 X134.004 Y160.14 E0.02529
G1 X134.038 Y159.551 E0.02829
G1 X134.131 Y159.35 E0.01066
G1 X134.461 Y159.04 E0.02172
G1 X134.612 Y158.98 E0.00778
G1 X134.776 Y159.536 F9000
G1 F1950
G1 X135.381 Y159.54 E0.02906
G1 X135.499 Y159.597 E0.00629
G1 X135.926 Y160.134 E0.03291
G1 X136.192 Y160.377 E0.0173
G1 X136.227 Y160.425 E0.00286
G1 X136.336 Y160.668 E0.01278
G1 X136.706 Y161.159 E0.0295
G1 X136.896 Y161.384 E0.01413
G1 X163.102 Y161.384 E1.25747
G1 X163.292 Y161.159 E0.01416
G1 X163.663 Y160.667 E0.02955
G1 X163.772 Y160.424 E0.01279
G1 X163.806 Y160.376 E0.00286
G1 X164.073 Y160.132 E0.01733
G1 X164.5 Y159.594 E0.03296
G1 X164.618 Y159.537 E0.00629
G1 X165.224 Y159.533 E0.02909
G1 X165.392 Y159.691 E0.01106
G1 X165.421 Y160.183 E0.02367
G1 X165.488 Y160.672 E0.02369
G1 X165.489 Y160.705 E0.00156
G1 X165.403 Y161.681 E0.04703
G1 X165.391 Y162.153 E0.02265
G1 X165.389 Y167.475 E0.25539
G1 X165.41 Y168.433 E0.04594
G1 X165.489 Y169.41 E0.04708
G1 X165.489 Y172.333 E0.14022
G1 X165.487 Y172.352 E0.00091
G1 X165.423 Y172.835 E0.02341
G1 X165.395 Y173.303 E0.02247
G1 X165.389 Y173.794 E0.02356
G1 X165.354 Y173.887 E0.0048
G1 X165.085 Y174.208 E0.02009
G1 X164.97 Y174.261 E0.00608
G1 X163.465 Y174.272 E0.07223
G1 X162.468 Y174.307 E0.04783
G1 X161.462 Y174.27 E0.04834
G1 X160.472 Y174.262 E0.04749
G1 X139.577 Y174.262 E1.00262
G1 X138.588 Y174.269 E0.04748
G1 X137.583 Y174.307 E0.04826
G1 X136.069 Y174.265 E0.07266
G1 X135.961 Y174.214 E0.00574
G1 X135.689 Y173.908 E0.01963
G1 X135.115 Y173.33 E0.0391
G1 X134.554 Y172.679 E0.04124
G1 X134.518 Y172.582 E0.00496
G1 X134.511 Y169.076 E0.16823
G1 X134.513 Y169.056 E0.00095
G1 X134.579 Y168.565 E0.02377
G1 X134.606 Y168.091 E0.0228
G1 X134.611 Y167.607 E0.02324
G1 X134.611 Y162.686 E0.2361
G1 X134.598 Y161.714 E0.04666
G1 X134.511 Y160.724 E0.04769
G1 X134.512 Y160.692 E0.00154
G1 X134.579 Y160.195 E0.02407
G1 X134.608 Y159.694 E0.02406
G1 X134.732 Y159.577 E0.00819
G1 E-0.8 F3000
G1 Z0.5 F9000
G1 X134.277 Y154.131
G1 Z0.2
G1 E0.8 F1800
G1 F1950
G1 X133.55 Y154.192 E0.03498
G1 X131.015 Y154.192 E0.12164
G1 X130.393 Y154.143 E0.02994
G1 X130.301 Y154.12 E0.00456
G1 X130.126 Y154.044 E0.00916
G1 X130.046 Y153.992 E0.00456
G1 X129.099 Y153.131 E0.06145
G1 X128.439 Y152.56 E0.04185
G1 X128.365 Y152.461 E0.00596
G1 X128.261 Y152.234 E0.01199
G1 X128.234 Y152.112 E0.00596
G1 X128.234 Y123.095 E1.39236
G1 X128.262 Y122.972 E0.00606
G1 X128.369 Y122.742 E0.01219
G1 X128.446 Y122.641 E0.00606
G1 X128.853 Y122.299 E0.02553
G1 X128.939 Y122.249 E0.00478
G1 X129.127 Y122.18 E0.0096
G1 X129.225 Y122.161 E0.00478
G1 X129.763 Y122.156 E0.02582
G1 X130.204 Y122.132 E0.02122
G1 X130.76 Y122.063 E0.02688
G1 X133.784 Y122.062 E0.14509
G1 X134.322 Y122.131 E0.02604
G1 X134.763 Y122.156 E0.02118
G1 X135.233 Y122.161 E0.02256
G1 X145.107 Y122.161 E0.47382
G1 X146.06 Y122.145 E0.0457
G1 X147.08 Y122.061 E0.04912
G1 X153.53 Y122.061 E0.30951
G1 X154.555 Y122.145 E0.04936
G1 X155.013 Y122.158 E0.02199
G1 X168.411 Y122.161 E0.64289
G1 X168.509 Y122.178 E0.00476
G1 X168.697 Y122.245 E0.00956
G1 X168.783 Y122.294 E0.00476
G1 X169.017 Y122.486 E0.01455
G1 X169.096 Y122.587 E0.00615
G1 X169.207 Y122.82 E0.01237
G1 X169.235 Y122.945 E0.00615
G1 X169.235 Y125.805 E0.13721
G1 X169.214 Y125.913 E0.00531
G1 X169.131 Y126.12 E0.01068
G1 X169.071 Y126.213 E0.00531
G1 X168.593 Y126.71 E0.03306
G1 X168.286 Y127.094 E0.02361
G1 X168.007 Y127.504 E0.0238
G1 X167.763 Y127.935 E0.0238
G1 X167.553 Y128.385 E0.0238
G1 X167.379 Y128.849 E0.0238
G1 X167.243 Y129.327 E0.02384
G1 X167.145 Y129.811 E0.02369
G1 X167.086 Y130.308 E0.024
G1 X167.066 Y130.816 E0.02441
G1 X167.066 Y145.437 E0.70159
G1 X167.086 Y145.952 E0.02472
G1 X167.145 Y146.442 E0.02369
G1 X167.243 Y146.927 E0.02374
G1 X167.379 Y147.404 E0.0238
G1 X167.553 Y147.869 E0.0238
G1 X167.763 Y148.318 E0.0238
G1 X168.007 Y148.749 E0.0238
G1 X168.286 Y149.16 E0.0238
G1 X168.593 Y149.544 E0.02361
G1 X169.071 Y150.041 E0.03306
G1 X169.131 Y150.134 E0.00531
G1 X169.214 Y150.34 E0.01068
G1 X169.235 Y150.449 E0.00531
G1 X169.235 Y153.308 E0.13721
G1 X169.207 Y153.433 E0.00615
G1 X169.096 Y153.666 E0.01237
G1 X169.017 Y153.767 E0.00615
G1 X168.783 Y153.959 E0.01455
G1 X168.697 Y154.008 E0.00476
G1 X168.509 Y154.075 E0.00956
G1 X168.411 Y154.092 E0.00476
G1 X154.931 Y154.096 E0.64685
G1 X154.468 Y154.111 E0.02222
G1 X153.435 Y154.192 E0.0497
G1 X147.442 Y154.192 E0.28757
G1 X146.906 Y154.181 E0.02574
G1 X145.923 Y154.104 E0.04731
G1 X144.962 Y154.092 E0.04612
G1 X135.03 Y154.095 E0.47659
G1 X134.569 Y154.107 E0.02213
G1 X134.337 Y154.126 E0.01118
G1 X134.288 Y153.552 F9000
G1 F1950
G1 X133.532 Y153.615 E0.0364
G1 X131.033 Y153.615 E0.11992
G1 X130.487 Y153.572 E0.02627
G1 X130.399 Y153.534 E0.00459
G1 X129.482 Y152.699 E0.05952
G1 X128.864 Y152.164 E0.03922
G1 X128.811 Y152.05 E0.00603
G1 X128.811 Y123.158 E1.38635
G1 X128.865 Y123.042 E0.00613
G1 X129.186 Y122.773 E0.02011
G1 X129.28 Y122.738 E0.00482
G1 X129.782 Y122.733 E0.02405
G1 X130.258 Y122.707 E0.02291
G1 X130.751 Y122.641 E0.02385
G1 X130.77 Y122.64 E0.00091
G1 X133.755 Y122.638 E0.14324
G1 X133.774 Y122.639 E0.00093
G1 X134.267 Y122.706 E0.02386
G1 X134.744 Y122.733 E0.0229
G1 X135.23 Y122.738 E0.02333
G1 X145.112 Y122.738 E0.4742
G1 X146.089 Y122.722 E0.04686
G1 X147.086 Y122.638 E0.04801
G1 X153.524 Y122.638 E0.30893
G1 X154.523 Y122.722 E0.04809
G1 X155.005 Y122.735 E0.02315
G1 X168.361 Y122.738 E0.6409
G1 X168.456 Y122.772 E0.0048
G1 X168.602 Y122.892 E0.0091
G1 X168.658 Y123.009 E0.00622
G1 X168.658 Y125.749 E0.13148
G1 X168.616 Y125.853 E0.00536
G1 X168.159 Y126.329 E0.03164
G1 X167.821 Y126.751 E0.02595
G1 X167.517 Y127.199 E0.026
G1 X167.383 Y127.435 E0.013
G1 X167.249 Y127.67 E0.013
G1 X167.02 Y128.161 E0.026
G1 X166.83 Y128.669 E0.026
G1 X166.681 Y129.191 E0.02605
G1 X166.575 Y129.72 E0.02589
G1 X166.51 Y130.262 E0.0262
G1 X166.489 Y130.805 E0.02606
G1 X166.489 Y145.449 E0.7027
G1 X166.511 Y145.998 E0.02638
G1 X166.575 Y146.534 E0.02588
G1 X166.682 Y147.064 E0.02594
G1 X166.83 Y147.585 E0.026
G1 X167.02 Y148.092 E0.026
G1 X167.249 Y148.583 E0.026
G1 X167.517 Y149.054 E0.026
G1 X167.821 Y149.503 E0.026
G1 X168.159 Y149.925 E0.02595
G1 X168.616 Y150.4 E0.03164
G1 X168.658 Y150.504 E0.00536
G1 X168.658 Y153.244 E0.13148
G1 X168.602 Y153.362 E0.00622
G1 X168.456 Y153.482 E0.0091
G1 X168.361 Y153.515 E0.0048
G1 X154.921 Y153.519 E0.64493
G1 X154.435 Y153.535 E0.02333
G1 X153.43 Y153.615 E0.0484
G1 X147.45 Y153.615 E0.28693
G1 X146.939 Y153.604 E0.02454
G1 X145.949 Y153.527 E0.04763
G1 X144.965 Y153.515 E0.04721
G1 X135.022 Y153.518 E0.47712
G1 X134.537 Y153.531 E0.0233
G1 X134.348 Y153.547 E0.00911
M104 S248 ; set temperature
; printing object FS_Hotend_Mount_Dragonfly_BMO.stl id:0 copy 0
EXCLUDE_OBJECT_START NAME=FS_Hotend_Mount_Dragonfly_BMO_stl_id_0_copy_0
G1 X135.22 Y151.571 F9000
;TYPE:Solid infill
;WIDTH:0.612519
G1 F3000
G1 X135.558 Y151.909 E0.02269
G1 X136.374 Y151.909 E0.03868
G1 X135.584 Y151.119 E0.05299
G1 X135.597 Y151.064 E0.00267
G1 X135.596 Y150.314 E0.03553
G1 X137.19 Y151.909 E0.1069
G1 X138.006 Y151.909 E0.03868
G1 X130.42 Y144.322 E0.5086
G1 X130.42 Y143.506 E0.03869
G1 X138.822 Y151.908 E0.5633
G1 X139.638 Y151.908 E0.03868
G1 X130.42 Y142.69 E0.618
G1 X130.42 Y141.874 E0.03869
G1 X140.454 Y151.908 E0.6727
G1 X141.27 Y151.908 E0.03868
G1 X130.42 Y141.058 E0.7274
G1 X130.42 Y140.242 E0.03869
G1 X142.086 Y151.908 E0.7821
G1 X142.675 Y151.908 E0.02793
G1 X142.524 Y151.827 E0.00809
G1 X142.067 Y151.494 E0.02682
G1 X141.652 Y151.123 E0.02638
G1 X141.276 Y150.714 E0.02638
G1 X140.942 Y150.268 E0.02638
G1 X140.654 Y149.792 E0.02638
G1 X140.532 Y149.538 E0.01339
G1 X130.42 Y139.426 E0.67792
G1 X130.42 Y138.609 E0.03869
G1 X140.105 Y148.295 E0.64933
G1 X140.086 Y148.217 E0.0038
G1 X140.001 Y147.375 E0.04015
G1 X130.42 Y137.793 E0.64233
G1 X130.42 Y136.977 E0.03869
G1 X139.981 Y146.538 E0.64099
G1 X139.982 Y145.723 E0.03864
G1 X130.42 Y136.161 E0.64106
G1 X130.42 Y135.345 E0.03869
G1 X139.983 Y144.908 E0.64113
G1 X139.984 Y144.093 E0.03864
G1 X130.42 Y134.529 E0.6412
G1 X130.42 Y133.713 E0.03869
G1 X139.985 Y143.278 E0.64128
G1 X139.986 Y142.463 E0.03864
G1 X130.42 Y132.897 E0.64135
G1 X130.42 Y132.081 E0.03869
G1 X139.987 Y141.648 E0.64142
G1 X139.988 Y140.833 E0.03864
G1 X130.42 Y131.264 E0.64149
G1 X130.42 Y130.448 E0.03869
G1 X139.989 Y140.018 E0.64156
G1 X139.991 Y139.203 E0.03864
G1 X130.42 Y129.632 E0.64163
G1 X130.42 Y128.816 E0.03869
G1 X139.992 Y138.388 E0.6417
G1 X139.993 Y137.573 E0.03864
G1 X131.159 Y128.739 E0.59224
G1 X131.624 Y128.878 E0.02303
G1 X132.017 Y128.937 E0.01883
G1 X132.175 Y128.939 E0.00752
G1 X139.994 Y136.758 E0.52416
G1 X139.995 Y135.943 E0.03864
G1 X132.936 Y128.884 E0.47323
G1 X133.052 Y128.867 E0.00556
G1 X133.542 Y128.674 E0.02499
G1 X139.996 Y135.128 E0.43265
G1 X139.997 Y134.313 E0.03864
G1 X134.097 Y128.413 E0.39553
G1 X134.382 Y128.218 E0.01634
G1 X134.556 Y128.055 E0.0113
G1 X139.998 Y133.498 E0.36487
G1 X139.999 Y132.683 E0.03864
G1 X134.943 Y127.627 E0.33895
G1 X135.066 Y127.47 E0.00943
G1 X135.259 Y127.126 E0.0187
G1 X140 Y131.868 E0.31787
G1 X140.001 Y131.052 E0.03864
G1 X135.485 Y126.536 E0.30278
G1 X135.597 Y126.061 E0.02313
G1 X135.597 Y125.832 E0.01087
G1 X140.002 Y130.237 E0.29535
G1 X140.003 Y129.422 E0.03864
G1 X135.546 Y124.965 E0.2988
G1 X135.49 Y124.695 E0.0131
G1 X135.355 Y124.346 E0.01772
G1 X135.743 Y124.346 E0.01841
G1 X140.004 Y128.607 E0.28567
G1 X140.004 Y128.584 E0.00113
G1 X140.088 Y128.023 E0.02688
G1 X140.118 Y127.905 E0.00577
G1 X136.559 Y124.346 E0.23858
G1 X137.376 Y124.346 E0.03869
G1 X140.301 Y127.272 E0.19613
G1 X140.417 Y126.951 E0.01619
G1 X140.549 Y126.704 E0.01327
G1 X138.192 Y124.346 E0.15805
G1 X139.008 Y124.346 E0.03869
G1 X140.834 Y126.172 E0.12242
G1 X140.898 Y126.052 E0.00648
G1 X141.165 Y125.687 E0.02141
G1 X139.824 Y124.346 E0.0899
G1 X140.64 Y124.346 E0.03869
