; generated by SuperSlicer 2.4 on 2023-01-27 at 12:58:14 UTC


;
;

;
;
; 

; external perimeters extrusion width = 0.42mm
; perimeters extrusion width = 0.45mm
; infill extrusion width = 0.45mm
; solid infill extrusion width = 0.45mm
; top infill extrusion width = 0.42mm
; support material extrusion width = 0.36mm
; first layer extrusion width = 0.62mm

; object:{"name":"H2_Pinda8mm_Holder_HeatInsertM3","id":"H2_Pinda8mm_Holder_HeatInsertM3.stl id:0 copy 0","object_center":[132.815696,169.511772,0.000000],"boundingbox_center":[132.815696,169.511772,6.099996],"boundingbox_size":[48.768364,23.204445,12.199992]}
; plater:{"center":[132.815696,169.511772,0.000000],"boundingbox_center":[132.815696,169.511772,6.099996],"boundingbox_size":[48.768364,23.204445,12.199992]}

;TYPE:Custom
M104 S0 ; Stops SuperSlicer from sending temp waits separately


; Pre-Processed for Cancel-Object support by preprocess_cancellation v0.2.0
; 1 known objects
EXCLUDE_OBJECT_DEFINE NAME=H2_Pinda8mm_Holder_HeatInsertM3_stl_id_0_copy_0 CENTER=130.554,169.995 POLYGON=[[107.085,153.049],[107.085,180.904],[156.99,180.904],[156.99,153.049]]

M140 S0

print_start EXTRUDER=240 BED=72 CHAMBER=0
G21 ; set units to millimeters
G90 ; use absolute coordinates
M83 ; use relative distances for extrusion
; Filament gcode
;_TOOLCHANGE 0
M107
;LAYER_CHANGE
;Z:0.2
;HEIGHT:0.2
TIMELAPSE_TAKE_FRAME
;BEFORE_LAYER_CHANGE
;0.2


G1 E-0.8 F3000
G1 Z0.3 F9000
;AFTER_LAYER_CHANGE
;0.2
G92 E0
G1 Z0.5
G1 X109.947 Y150.692
G1 Z0.2
G1 E0.8 F1800
;TYPE:Skirt
;WIDTH:0.52
G1 F1950
G1 X104.728 Y155.912 E0.32213
G1 X104.165 Y157.269 E0.06412
G1 X104.171 Y161.996 E0.20624
G1 X104.625 Y167.691 E0.24929
G1 X104.93 Y168.584 E0.04119
G1 X106.615 Y171.169 E0.13465
G1 X115.633 Y183.167 E0.65496
G1 X117.168 Y183.934 E0.07485
G1 X153.698 Y183.932 E1.59405
G1 X154.778 Y183.824 E0.04735
G1 X155.898 Y183.506 E0.05081
G1 X156.598 Y183.189 E0.03354
G1 X157.395 Y182.69 E0.04101
G1 X158.226 Y181.963 E0.0482
G1 X159.011 Y180.966 E0.05537
G1 X159.621 Y179.739 E0.05978
G1 X159.915 Y178.665 E0.04862
G1 X160.017 Y177.298 E0.05978
G1 X159.884 Y176.192 E0.04862
G1 X159.462 Y174.889 E0.05978
G1 X158.891 Y173.873 E0.05083
G1 X158.074 Y172.901 E0.0554
G1 X134.799 Y150.661 E1.40474
G1 X133.473 Y150.13 E0.06235
G1 X111.305 Y150.13 E0.96732
G1 X110.003 Y150.669 E0.0615
G1 X110.285 Y151.029 F9000
G1 F1950
G1 X105.065 Y156.249 E0.32213
G1 X104.642 Y157.269 E0.04818
G1 X104.647 Y161.958 E0.20459
G1 X105.101 Y167.653 E0.24929
G1 X105.33 Y168.324 E0.03096
G1 X106.996 Y170.882 E0.13323
G1 X116.014 Y182.881 E0.65496
G1 X117.168 Y183.457 E0.05625
G1 X153.677 Y183.455 E1.59316
G1 X154.676 Y183.358 E0.04377
G1 X155.747 Y183.053 E0.04857
G1 X157.124 Y182.297 E0.06858
G1 X157.892 Y181.622 E0.04462
G1 X158.601 Y180.721 E0.05001
G1 X159.112 Y179.732 E0.04857
G1 X159.444 Y178.593 E0.05178
G1 X159.542 Y177.484 E0.04857
G1 X159.42 Y176.304 E0.05178
G1 X159.032 Y175.097 E0.05531
G1 X158.51 Y174.16 E0.04681
G1 X157.744 Y173.246 E0.05202
G1 X134.469 Y151.006 E1.40474
G1 X133.473 Y150.607 E0.04686
G1 X111.305 Y150.607 E0.96732
G1 X110.34 Y151.006 E0.04556
G1 X110.622 Y151.367 F9000
G1 F1950
G1 X105.402 Y156.587 E0.32213
G1 X105.119 Y157.269 E0.03225
G1 X105.122 Y161.92 E0.20293
G1 X105.577 Y167.615 E0.24929
G1 X105.73 Y168.064 E0.02072
G1 X107.378 Y170.596 E0.13182
G1 X116.396 Y182.594 E0.65496
G1 X117.168 Y182.98 E0.03765
G1 X153.657 Y182.979 E1.59226
G1 X154.574 Y182.892 E0.0402
G1 X155.595 Y182.601 E0.04633
G1 X156.854 Y181.904 E0.06278
G1 X157.558 Y181.281 E0.04104
G1 X158.192 Y180.477 E0.04465
G1 X158.678 Y179.533 E0.04634
G1 X158.972 Y178.521 E0.04597
G1 X159.066 Y177.464 E0.04634
G1 X158.956 Y176.416 E0.04597
G1 X158.643 Y175.401 E0.04634
G1 X158.129 Y174.447 E0.04729
G1 X157.415 Y173.591 E0.04864
G1 X134.14 Y151.351 E1.40474
G1 X133.473 Y151.084 E0.03136
G1 X111.305 Y151.084 E0.96732
G1 X110.678 Y151.344 E0.02963
G1 X110.959 Y151.704 F9000
G1 F1950
G1 X105.74 Y156.924 E0.32213
G1 X105.596 Y157.269 E0.01632
G1 X105.596 Y161.843 E0.19958
G1 X106.052 Y167.577 E0.25098
G1 X106.13 Y167.804 E0.01048
G1 X107.759 Y170.309 E0.1304
G1 X116.777 Y182.308 E0.65496
G1 X117.168 Y182.503 E0.01905
G1 X153.615 Y182.503 E1.59045
G1 X154.472 Y182.426 E0.03753
G1 X155.444 Y182.148 E0.0441
G1 X156.617 Y181.485 E0.0588
G1 X157.506 Y180.615 E0.05429
G1 X157.985 Y179.891 E0.03789
G1 X158.39 Y178.908 E0.04638
G1 X158.56 Y178.057 E0.03789
G1 X158.563 Y176.994 E0.04638
G1 X158.384 Y176.091 E0.04017
G1 X158 Y175.156 E0.0441
G1 X157.409 Y174.285 E0.04592
G1 X133.81 Y151.696 E1.42551
G1 X133.473 Y151.561 E0.01587
G1 X111.305 Y151.561 E0.96732
G1 X111.015 Y151.681 E0.0137
G1 E-0.8 F3000
G1 Z0.5 F9000
G1 X111.015 Y166.622
G1 Z0.2
G1 E0.8 F1800
;WIDTH:0.62
G1 F1950
G1 X136.651 Y166.621 E1.35313
G1 X136.82 Y166.79 E0.01262
G1 X136.82 Y173.616 E0.36028
G1 X153.601 Y173.616 E0.88573
G1 X154.087 Y173.647 E0.0257
G1 X154.433 Y173.707 E0.01858
G1 X154.762 Y173.795 E0.01793
G1 X155.21 Y173.967 E0.02537
G1 X155.513 Y174.121 E0.01793
G1 X155.807 Y174.305 E0.01834
G1 X156.075 Y174.507 E0.01768
G1 X156.315 Y174.723 E0.01703
G1 X156.545 Y174.968 E0.01776
G1 X156.844 Y175.364 E0.02618
G1 X157.019 Y175.655 E0.01793
G1 X157.173 Y175.972 E0.01858
G1 X157.335 Y176.424 E0.02537
G1 X157.415 Y176.754 E0.01793
G1 X157.466 Y177.085 E0.01768
G1 X157.488 Y177.436 E0.01858
G1 X157.468 Y177.917 E0.02537
G1 X157.418 Y178.253 E0.01793
G1 X157.34 Y178.578 E0.01768
G1 X157.228 Y178.912 E0.01858
G1 X157.027 Y179.349 E0.02537
G1 X156.854 Y179.641 E0.01793
G1 X156.659 Y179.913 E0.01768
G1 X156.441 Y180.167 E0.01768
G1 X156.192 Y180.41 E0.01834
G1 X155.933 Y180.623 E0.01768
G1 X155.657 Y180.812 E0.01768
G1 X155.365 Y180.977 E0.01768
G1 X155.071 Y181.112 E0.01711
G1 X154.586 Y181.275 E0.027
G1 X154.257 Y181.346 E0.01776
G1 X153.925 Y181.389 E0.01768
G1 X153.599 Y181.403 E0.01719
G1 X117.565 Y181.403 E1.902
G1 X117.44 Y181.338 E0.00744
G1 X109.053 Y169.397 E0.7702
G1 X108.825 Y169.398 E0.01202
G1 X108.661 Y169.257 E0.01146
G1 X108.588 Y168.734 E0.02787
G1 X108.17 Y168.139 E0.03837
G1 X108.143 Y168.054 E0.0047
G1 X108.143 Y166.791 E0.06667
G1 X108.312 Y166.622 E0.01262
G1 X110.955 Y166.622 E0.13951
G1 X110.955 Y165.28 F9000
G1 F1950
G1 X109.102 Y165.282 E0.0978
G1 X108.623 Y165.649 E0.03186
G1 X107.884 Y167.145 E0.08806
G1 X107.702 Y167.231 E0.01062
G1 X106.906 Y167.045 E0.04316
G1 X106.781 Y166.887 E0.01062
G1 X106.781 Y162.472 E0.23304
G1 X106.79 Y162.449 E0.00133
G1 X106.761 Y162.437 E0.0017
G1 X106.452 Y162.128 E0.02305
G1 X106.408 Y162.022 E0.00606
G1 X106.408 Y157.465 E0.24051
G1 X106.452 Y157.359 E0.00606
G1 X106.761 Y157.05 E0.02305
G1 X106.867 Y157.006 E0.00606
G1 X108.725 Y157.006 E0.09808
G1 X108.725 Y155.148 E0.09808
G1 X108.769 Y155.042 E0.00606
G1 X109.078 Y154.733 E0.02305
G1 X109.184 Y154.689 E0.00606
G1 X111.042 Y154.689 E0.09808
G1 X111.042 Y152.831 E0.09808
G1 X111.086 Y152.725 E0.00606
G1 X111.395 Y152.416 E0.02305
G1 X111.501 Y152.372 E0.00606
G1 X133.277 Y152.372 E1.1494
G1 X133.383 Y152.416 E0.00606
G1 X133.692 Y152.725 E0.02305
G1 X133.736 Y152.831 E0.00606
G1 X133.736 Y154.689 E0.09808
G1 X135.594 Y154.689 E0.09808
G1 X135.7 Y154.733 E0.00606
G1 X136.009 Y155.042 E0.02305
G1 X136.053 Y155.148 E0.00606
G1 X136.053 Y157.006 E0.09808
G1 X137.911 Y157.006 E0.09808
G1 X138.017 Y157.05 E0.00606
G1 X138.326 Y157.359 E0.02305
G1 X138.37 Y157.465 E0.00606
G1 X138.37 Y162.022 E0.24051
G1 X138.326 Y162.128 E0.00606
G1 X138.017 Y162.437 E0.02305
G1 X137.987 Y162.449 E0.0017
G1 X137.997 Y162.472 E0.00133
G1 X137.997 Y164.822 E0.12405
G1 X137.828 Y164.991 E0.01262
G1 X137.708 Y164.991 E0.00631
G1 X137.708 Y165.111 E0.00631
G1 X137.539 Y165.28 E0.01262
G1 X111.015 Y165.28 E1.40002
M104 S240 ; set temperature
; printing object H2_Pinda8mm_Holder_HeatInsertM3.stl id:0 copy 0
EXCLUDE_OBJECT_START NAME=H2_Pinda8mm_Holder_HeatInsertM3_stl_id_0_copy_0
G1 X111.015 Y164.603 F9000
;TYPE:Support material interface
G1 F2880
G1 X108.998 Y164.603 E0.10647
G1 X108.779 Y164.677 E0.01218
G1 X108.086 Y165.207 E0.04609
G1 X107.458 Y166.478 E0.07483
G1 X107.458 Y162.691 E0.19993
G1 X137.32 Y162.691 E1.5762
G1 X137.32 Y164.603 E0.10093
G1 X137.012 Y164.603 E0.01626
G1 X111.075 Y164.603 E1.36901
G1 E-0.8 F3000
G1 Z0.5 F9000
G1 X137.176 Y163.741
G1 Z0.2
G1 E0.8 F1800
G1 F2880
G1 X107.85 Y163.741 E1.54787
G1 X107.85 Y164.703 E0.05077
G1 X108.508 Y164.703 E0.03472
G1 X108.508 Y161.803 F9000
;TYPE:Support material
G1 F2880
G1 X107.085 Y161.803 E0.07511
G1 X107.085 Y157.684 E0.21745
G1 X109.402 Y157.684 E0.1223
G1 X109.402 Y155.366 E0.1223
G1 X111.719 Y155.366 E0.1223
G1 X111.719 Y153.049 E0.1223
G1 X133.058 Y153.049 E1.12635
G1 X133.058 Y155.366 E0.1223
G1 X135.376 Y155.366 E0.1223
G1 X135.376 Y157.684 E0.1223
G1 X137.693 Y157.684 E0.1223
G1 X137.693 Y161.803 E0.21745
G1 X108.568 Y161.803 E1.53728
G1 X136.663 Y161.659 F9000
G1 F2880
G1 X136.663 Y158.076 E0.18913
G1 X135.701 Y158.076 E0.05077
G1 X135.701 Y161.411 E0.17603
G1 X134.739 Y161.411 E0.05077
G1 X134.739 Y155.759 E0.29833
G1 X133.777 Y155.759 E0.05077
G1 X133.777 Y161.411 E0.29833
G1 X132.816 Y161.411 E0.05077
G1 X132.816 Y155.759 E0.29833
G1 X132.666 Y155.759 E0.0079
G1 X132.666 Y153.442 E0.1223
G1 X131.854 Y153.442 E0.04287
G1 X131.854 Y161.411 E0.42063
G1 X130.892 Y161.411 E0.05077
G1 X130.892 Y153.442 E0.42063
G1 X129.93 Y153.442 E0.05077
G1 X129.93 Y161.411 E0.42063
G1 X128.969 Y161.411 E0.05077
G1 X128.969 Y153.442 E0.42063
G1 X128.007 Y153.442 E0.05077
G1 X128.007 Y161.411 E0.42063
G1 X127.045 Y161.411 E0.05077
G1 X127.045 Y153.442 E0.42063
G1 X126.083 Y153.442 E0.05077
G1 X126.083 Y161.411 E0.42063
G1 X125.121 Y161.411 E0.05077
G1 X125.121 Y153.442 E0.42063
G1 X124.16 Y153.442 E0.05077
G1 X124.16 Y161.411 E0.42063
G1 X123.198 Y161.411 E0.05077
G1 X123.198 Y153.442 E0.42063
G1 X122.236 Y153.442 E0.05077
G1 X122.236 Y161.411 E0.42063
G1 X121.274 Y161.411 E0.05077
G1 X121.274 Y153.442 E0.42063
G1 X120.312 Y153.442 E0.05077
G1 X120.312 Y161.411 E0.42063
G1 X119.351 Y161.411 E0.05077
G1 X119.351 Y153.442 E0.42063
G1 X118.389 Y153.442 E0.05077
G1 X118.389 Y161.411 E0.42063
G1 X117.427 Y161.411 E0.05077
G1 X117.427 Y153.442 E0.42063
G1 X116.465 Y153.442 E0.05077
G1 X116.465 Y161.411 E0.42063
G1 X115.503 Y161.411 E0.05077
G1 X115.503 Y153.442 E0.42063
G1 X114.542 Y153.442 E0.05077
G1 X114.542 Y161.411 E0.42063
G1 X113.58 Y161.411 E0.05077
G1 X113.58 Y153.442 E0.42063
G1 X112.618 Y153.442 E0.05077
G1 X112.618 Y161.411 E0.42063
G1 X111.656 Y161.411 E0.05077
G1 X111.656 Y155.759 E0.29833
G1 X110.694 Y155.759 E0.05077
G1 X110.694 Y161.411 E0.29833
G1 X109.733 Y161.411 E0.05077
G1 X109.733 Y158.076 E0.17603
G1 X108.771 Y158.076 E0.05077
G1 X108.771 Y161.411 E0.17603
G1 X107.809 Y161.411 E0.05077
G1 X107.809 Y157.828 E0.18913
G1 E-0.8 F3000
G1 Z0.5 F9000
G1 X119.07 Y179.925
G1 Z0.2
G1 E0.8 F1800
;TYPE:Solid infill
;WIDTH:0.617164
G1 F2400
G1 X117.344 Y178.199 E0.12823
G1 X115.418 Y175.457 E0.17604
G1 X119.638 Y179.676 E0.3135
G1 X120.453 Y179.676 E0.04287
G1 X113.493 Y172.715 E0.51721
G1 X111.567 Y169.974 E0.17604
G1 X121.269 Y179.676 E0.72091
G1 X122.085 Y179.675 E0.04287
G1 X110.757 Y168.348 E0.84171
G1 X111.573 Y168.348 E0.04288
G1 X122.901 Y179.675 E0.84169
G1 X123.717 Y179.675 E0.04287
G1 X112.389 Y168.348 E0.84167
G1 X113.206 Y168.347 E0.04288
G1 X124.533 Y179.675 E0.84165
G1 X125.348 Y179.674 E0.04287
G1 X114.022 Y168.347 E0.84163
G1 X114.838 Y168.347 E0.04288
G1 X126.164 Y179.674 E0.84162
G1 X126.98 Y179.674 E0.04287
G1 X115.654 Y168.347 E0.8416
G1 X116.47 Y168.347 E0.04288
G1 X127.796 Y179.673 E0.84158
G1 X128.612 Y179.673 E0.04287
G1 X117.286 Y168.347 E0.84156
G1 X118.102 Y168.347 E0.04288
G1 X129.428 Y179.673 E0.84154
G1 X130.243 Y179.673 E0.04287
G1 X118.918 Y168.347 E0.84152
G1 X119.734 Y168.347 E0.04288
G1 X131.059 Y179.672 E0.8415
G1 X131.875 Y179.672 E0.04287
G1 X120.55 Y168.347 E0.84148
G1 X121.367 Y168.347 E0.04288
G1 X132.691 Y179.672 E0.84146
G1 X132.735 Y179.672 E0.00231
G1 X132.408 Y179.3 E0.02602
G1 X132.13 Y178.82 E0.02916
G1 X131.94 Y178.298 E0.02915
G1 X131.904 Y178.069 E0.0122
G1 X122.183 Y168.347 E0.72235
G1 X122.999 Y168.347 E0.04288
G1 X131.867 Y177.215 E0.65894
G1 X131.881 Y176.991 E0.01181
G1 X132.003 Y176.535 E0.02479
G1 X123.815 Y168.347 E0.60841
G1 X124.631 Y168.347 E0.04288
G1 X132.257 Y175.974 E0.56669
G1 X132.312 Y175.863 E0.00647
G1 X132.594 Y175.494 E0.02441
G1 X125.447 Y168.347 E0.53107
G1 X126.263 Y168.347 E0.04288
G1 X133.014 Y175.098 E0.50161
G1 X133.141 Y174.986 E0.00891
G1 X133.507 Y174.775 E0.02218
G1 X127.079 Y168.347 E0.47758
G1 X127.895 Y168.347 E0.04288
G1 X134.092 Y174.544 E0.46048
G1 X134.243 Y174.493 E0.00837
G1 X134.785 Y174.421 E0.02873
G1 X128.711 Y168.347 E0.45132
G1 X129.528 Y168.347 E0.04288
G1 X135.094 Y173.914 E0.41364
G1 X135.094 Y173.098 E0.04288
G1 X130.344 Y168.347 E0.353
G1 X131.16 Y168.347 E0.04288
G1 X135.094 Y172.282 E0.29236
G1 X135.094 Y171.466 E0.04288
G1 X131.976 Y168.347 E0.23172
G1 X132.792 Y168.347 E0.04288
G1 X135.094 Y170.65 E0.17108
G1 X135.094 Y169.833 E0.04288
G1 X133.608 Y168.347 E0.11044
G1 X134.424 Y168.347 E0.04288
G1 X135.342 Y169.266 E0.06824
G1 E-0.8 F3000
G1 Z0.5 F9000
G1 X136.961 Y179.492
G1 Z0.2
G1 E0.8 F1800
;WIDTH:0.616159
G1 F2400
G1 X137.139 Y179.67 E0.01321
G1 X137.955 Y179.67 E0.0428
G1 X137.498 Y179.213 E0.0339
G1 X137.605 Y179.067 E0.00947
G1 X137.784 Y178.682 E0.02226
G1 X138.771 Y179.67 E0.07324
G1 X139.587 Y179.669 E0.0428
G1 X137.974 Y178.057 E0.11964
G1 X137.982 Y178.028 E0.00156
G1 X138.024 Y177.371 E0.03453
G1 X138.009 Y177.276 E0.00506
G1 X140.403 Y179.669 E0.17755
G1 X141.219 Y179.669 E0.0428
G1 X137.711 Y176.161 E0.26022
G1 X137.455 Y175.719 E0.02678
G1 X137.123 Y175.342 E0.02635
G1 X137.708 Y175.342 E0.03065
G1 X142.034 Y179.669 E0.32097
G1 X142.85 Y179.668 E0.0428
G1 X138.524 Y175.342 E0.32095
G1 X139.34 Y175.342 E0.04281
G1 X143.666 Y179.668 E0.32093
G1 X144.482 Y179.668 E0.0428
G1 X140.156 Y175.342 E0.32091
G1 X140.972 Y175.342 E0.04281
G1 X145.298 Y179.668 E0.32089
G1 X146.114 Y179.667 E0.0428
G1 X141.788 Y175.342 E0.32087
G1 X142.604 Y175.342 E0.04281
G1 X146.929 Y179.667 E0.32085
G1 X147.73 Y179.667 E0.04202
G1 X147.623 Y179.545 E0.00851
G1 X143.42 Y175.342 E0.31179
G1 X144.237 Y175.342 E0.04281
G1 X146.893 Y177.999 E0.19708
G1 X146.841 Y177.664 E0.01778
G1 X146.863 Y177.152 E0.02684
G1 X145.053 Y175.342 E0.1343
G1 X145.869 Y175.342 E0.04281
G1 X147.013 Y176.487 E0.08491
G1 X147.018 Y176.469 E0.00093
G1 X147.258 Y175.952 E0.02994
G1 X147.274 Y175.931 E0.00137
G1 X146.685 Y175.342 E0.04368
G1 X147.501 Y175.342 E0.04281
G1 X147.796 Y175.637 E0.02189
G1 X148.842 Y175.016 F9000
;TYPE:Gap fill
;WIDTH:0.894908
G1 F2880
G1 X148.928 Y174.996 E0.0069
;WIDTH:0.846854
G1 X149.015 Y174.975 E0.00651
;WIDTH:0.7988
G1 X149.101 Y174.955 E0.00612
;WIDTH:0.750746
G1 X149.187 Y174.935 E0.00573
G1 X149.281 Y174.922 E0.00615
G1 X149.531 Y174.902 E0.01623
;WIDTH:0.647184
G1 X149.781 Y174.883 E0.01386
G1 X149.847 Y174.882 E0.00363
G1 X150.347 Y174.898 E0.02764
;WIDTH:0.681539
G1 X150.409 Y174.903 E0.00367
G1 X150.545 Y174.921 E0.00801
;WIDTH:0.757988
G1 X150.681 Y174.938 E0.00897
G1 X150.759 Y174.952 E0.00513
G1 X150.836 Y174.965 E0.00513
G1 X150.87 Y174.971 E0.00227
G1 X150.953 Y174.989 E0.00554
;WIDTH:0.829493
G1 X151.036 Y175.007 E0.00609
G1 E-0.8 F3000
G1 Z0.5 F9000
G1 X152.026 Y179.432
G1 Z0.2
G1 E0.8 F1800
;TYPE:Solid infill
;WIDTH:0.610931
G1 F2400
G1 X152.26 Y179.665 E0.01716
G1 X153.075 Y179.665 E0.04243
G1 X152.556 Y179.146 E0.03819
G1 X152.825 Y178.599 E0.03171
G1 X153.875 Y179.649 E0.07722
G1 X154.155 Y179.6 E0.01479
G1 X154.407 Y179.516 E0.01381
G1 X154.507 Y179.464 E0.00585
G1 X152.992 Y177.949 E0.11146
G1 X152.997 Y177.926 E0.00125
G1 X153.022 Y177.355 E0.02968
G1 X152.986 Y177.128 E0.012
G1 X155.005 Y179.146 E0.14849
G1 X155.041 Y179.119 E0.00235
G1 X155.296 Y178.848 E0.01935
G1 X155.386 Y178.711 E0.00852
G1 X152.522 Y175.847 E0.2106
G1 X152.394 Y175.636 E0.01288
G1 X152.131 Y175.349 E0.02024
G1 X152.847 Y175.356 E0.03727
G1 X155.652 Y178.161 E0.20628
G1 X155.721 Y177.919 E0.01305
G1 X155.758 Y177.45 E0.02446
