; generated by SuperSlicer 2.5.59 on 2023-05-07 at 01:34:38 UTC


;
;

;
;
; 

; external perimeters extrusion width = 0.43mm
; perimeters extrusion width = 0.45mm
; infill extrusion width = 0.45mm
; solid infill extrusion width = 0.45mm
; top infill extrusion width = 0.42mm
; support material extrusion width = 0.42mm
; first layer extrusion width = 0.57mm

; object:{"name":"handle_b (1)","id":"handle_b (1).stl id:0 copy 0","object_center":[150.000000,148.500000,0.000000],"boundingbox_center":[150.000000,148.500000,3.750000],"boundingbox_size":[77.000000,25.000000,7.500000]}
EXCLUDE_OBJECT_DEFINE NAME=handle_b_1_stl_id_0_copy_0 CENTER=150.000000,148.500000 POLYGON=[[111.500000,139.000000],[111.545576,138.479056],[111.680920,137.973936],[111.901928,137.500000],[112.201864,137.071648],[112.571640,136.701872],[113.000000,136.401920],[113.473936,136.180928],[113.979056,136.045584],[114.500000,136.000000],[185.500000,136.000000],[186.020928,136.045584],[186.526064,136.180928],[187.000000,136.401920],[187.428368,136.701872],[187.798128,137.071648],[188.098080,137.500000],[188.319072,137.973936],[188.454416,138.479056],[188.500000,139.000000],[188.500000,142.757360],[188.463072,143.226672],[188.353184,143.684416],[188.173024,144.119328],[187.927056,144.520720],[187.621328,144.878672],[172.964464,159.535536],[172.518000,159.931632],[172.472752,159.966768],[172.027520,160.271696],[171.928928,160.330128],[171.500000,160.550896],[171.342352,160.619408],[170.833376,160.798704],[170.723024,160.829632],[170.138336,160.949424],[170.081552,160.957232],[169.428928,161.000000],[113.500000,161.000000],[113.054960,160.949856],[112.632232,160.801936],[112.253024,160.563664],[111.936344,160.246976],[111.698056,159.867760],[111.550144,159.445040],[111.500000,159.000000],[111.500000,139.000000]]
; plater:{"center":[150.000000,148.500000,0.000000],"boundingbox_center":[150.000000,148.500000,3.750000],"boundingbox_size":[77.000000,25.000000,7.500000]}

;TYPE:Custom
SET_PRINT_STATS_INFO TOTAL_LAYER=37

M104 S0 ; Stops SuperSlicer from sending temp waits separately

M109 S0

M140 S0

print_start EXTRUDER=255 BED=110 CHAMBER=0
M107
G21 ; set units to millimeters
G90 ; use absolute coordinates
M82 ; use absolute distances for extrusion
G92 E0
; Filament gcode
;_TOOLCHANGE 0
M107
;LAYER_CHANGE
;Z:0.2
;HEIGHT:0.2
TIMELAPSE_TAKE_FRAME
;BEFORE_LAYER_CHANGE
;0.2


G1 Z0.2 F12000
SET_PRINT_STATS_INFO CURRENT_LAYER=1
;AFTER_LAYER_CHANGE
;0.2
G1 E-0.7 F3300
G1 Z0.5 F12000
M204 S2000
G1 X111.745 Y134.846
G1 Z0.2
G1 E0 F3000
;TYPE:Skirt
;WIDTH:0.52
G1 F3600
G1 X110.812 Y135.645 E0.0487
G1 X110.019 Y136.805 E0.10445
G1 X109.571 Y138.253 E0.16459
G1 X109.507 Y139 E0.19433
G1 X109.507 Y159 E0.98772
G1 X109.727 Y160.286 E1.03947
G1 X110.336 Y161.422 E1.09062
G1 X111.078 Y162.164 E1.1322
G1 X111.859 Y162.635 E1.1684
G1 X112.296 Y162.803 E1.18697
G1 X113.5 Y162.993 E1.23532
G1 X169.429 Y162.993 E3.45398
G1 X170.66 Y162.878 E3.50301
G1 X171.662 Y162.62 E3.54409
G1 X172.885 Y162.073 E3.59722
G1 X173.745 Y161.496 E3.63831
G1 X174.373 Y160.945 E3.67147
G1 X189.03 Y146.288 E4.49374
G1 X189.462 Y145.786 E4.51999
G1 X190.037 Y144.817 E4.56469
G1 X190.354 Y143.901 E4.60313
G1 X190.493 Y142.757 E4.64884
G1 X190.478 Y138.721 E4.80897
G1 X190.314 Y137.707 E4.84973
G1 X190.047 Y136.947 E4.88167
G1 X189.54 Y136.078 E4.92157
G1 X189.188 Y135.645 E4.94373
G1 X188.422 Y134.96 E4.98448
G1 X187.241 Y134.33 E5.03758
G1 X186.269 Y134.073 E5.07745
G1 X185.735 Y134.018 E5.09877
G1 X114.5 Y134.007 E7.9246
G1 X113.753 Y134.071 E7.95434
G1 X112.907 Y134.279 E7.98889
G1 X111.798 Y134.82 E8.03784
G1 X112.006 Y135.246 F12000
G1 F3600
G1 X111.149 Y135.982 E8.08263
G1 X110.451 Y137.006 E8.13181
G1 X110.045 Y138.302 E8.18569
G1 X109.984 Y139 E8.21347
G1 X109.984 Y159 E9.00685
G1 X110.172 Y160.114 E9.05166
G1 X110.726 Y161.147 E9.09817
G1 X111.353 Y161.774 E9.13333
G1 X112.454 Y162.352 E9.18266
G1 X113.5 Y162.516 E9.22467
G1 X169.429 Y162.516 E11.44333
G1 X170.554 Y162.413 E11.48814
G1 X171.489 Y162.176 E11.52641
G1 X172.631 Y161.669 E11.57596
G1 X173.434 Y161.134 E11.61423
G1 X174.036 Y160.607 E11.64599
G1 X188.693 Y145.95 E12.46825
G1 X189.095 Y145.481 E12.49278
G1 X189.614 Y144.596 E12.53346
G1 X189.895 Y143.772 E12.568
G1 X190.016 Y142.757 E12.60853
G1 X190.004 Y138.77 E12.7667
G1 X189.716 Y137.405 E12.82204
G1 X189.14 Y136.339 E12.87012
G1 X188.161 Y135.36 E12.92504
G1 X187.095 Y134.784 E12.97312
G1 X186.216 Y134.547 E13.00922
G1 X185.693 Y134.493 E13.03007
G1 X114.5 Y134.484 E15.85426
G1 X113.802 Y134.545 E15.88203
G1 X113.08 Y134.724 E15.91156
G1 X112.06 Y135.22 E15.95655
G1 X112.267 Y135.647 F12000
G1 F3600
G1 X112.252 Y135.654 E15.95722
G1 X111.487 Y136.319 E15.99745
G1 X110.884 Y137.208 E16.04005
G1 X110.52 Y138.352 E16.08768
G1 X110.461 Y139 E16.11349
G1 X110.461 Y159 E16.90688
G1 X110.617 Y159.942 E16.94474
G1 X110.933 Y160.613 E16.97418
G1 X111.628 Y161.384 E17.01535
G1 X112.611 Y161.902 E17.05943
G1 X113.5 Y162.039 E17.0951
G1 X169.429 Y162.039 E19.31377
G1 X170.448 Y161.948 E19.35436
G1 X171.315 Y161.731 E19.38981
G1 X172.376 Y161.265 E19.43579
G1 X173.122 Y160.773 E19.47125
G1 X173.699 Y160.27 E19.50159
G1 X188.356 Y145.613 E20.32386
G1 X188.933 Y144.868 E20.36124
G1 X189.323 Y144.043 E20.39747
G1 X189.539 Y142.757 E20.44916
G1 X189.529 Y138.82 E20.60536
G1 X189.262 Y137.552 E20.65677
G1 X188.74 Y136.599 E20.69984
G1 X187.901 Y135.76 E20.74696
G1 X186.948 Y135.238 E20.79003
G1 X186.162 Y135.021 E20.82237
G1 X185.652 Y134.968 E20.84275
G1 X114.5 Y134.961 E23.66528
G1 X113.252 Y135.168 E23.71545
G1 X112.321 Y135.62 E23.75651
M104 S255 ; set temperature
G92 E0
G1 E-0.7 F3300
M204 S6000
G1 Z0.5 F12000
; printing object handle_b (1).stl id:0 copy 0
EXCLUDE_OBJECT_START NAME=handle_b_1_stl_id_0_copy_0
; acceleration to travel
M204 S7000
G1 X113.523 Y137.156
; decel to extrusion
M204 S1000
G1 X113.694 Y137.375
; end travel
G1 Z0.2
G1 E0 F3000
;TYPE:External perimeter
;WIDTH:0.568
G1 F3600
G1 X114.064 Y137.241 E0.01716
G1 X114.518 Y137.184 E0.03713
G1 X185.536 Y137.189 E3.13785
G1 X185.89 Y137.228 E3.15339
G1 X186.262 Y137.355 E3.17052
G1 X186.638 Y137.587 E3.18982
G1 X186.914 Y137.864 E3.2069
G1 X187.125 Y138.194 E3.224
G1 X187.272 Y138.611 E3.24329
G1 X187.316 Y139.016 E3.26107
G1 X187.316 Y142.744 E3.42384
G1 X187.282 Y143.101 E3.43952
G1 X187.184 Y143.431 E3.45454
G1 X187.002 Y143.775 E3.47155
G1 X186.774 Y144.051 E3.48715
G1 X172.135 Y158.691 E4.39107
G1 X171.681 Y159.079 E4.41715
G1 X171.183 Y159.387 E4.44271
G1 X170.583 Y159.636 E4.47107
G1 X170.014 Y159.77 E4.49663
G1 X169.418 Y159.816 E4.52271
G1 X113.522 Y159.816 E6.96314
G1 X113.258 Y159.774 E6.97483
G1 X113.104 Y159.711 E6.98208
G1 X112.94 Y159.588 E6.99106
G1 X112.789 Y159.394 E7.00178
G1 X112.713 Y159.205 E7.01068
G1 X112.684 Y158.982 E7.0205
G1 X112.684 Y139.016 E7.89224
G1 X112.729 Y138.609 E7.91008
G1 X112.855 Y138.238 E7.92719
G1 X113.086 Y137.864 E7.94638
G1 X113.404 Y137.558 E7.96567
G1 X113.644 Y137.407 E7.97804
;WIPE_START
M204 S6000
G1 X114.018 Y137.61 F12000
;WIPE_END
G92 E0
G1 E-0.7 F3300
G1 Z0.5 F12000
; acceleration to travel
M204 S7000
G1 X166.22 Y153.863
; decel to extrusion
M204 S1000
G1 X173.677 Y156.185
; end travel
G1 Z0.2
G1 E0 F3000
G1 F3600
G1 X174.033 Y155.898 E0.01997
G1 X178.398 Y151.533 E0.28948
G1 X178.685 Y151.177 E0.30945
G1 X178.894 Y150.754 E0.33005
G1 X179.004 Y150.324 E0.34945
G1 X179.024 Y149.853 E0.37003
G1 X178.941 Y149.387 E0.39068
G1 X178.76 Y148.95 E0.41132
G1 X178.489 Y148.562 E0.43197
G1 X178.142 Y148.243 E0.45255
G1 X177.76 Y148.017 E0.47195
G1 X177.313 Y147.866 E0.49255
G1 X176.859 Y147.816 E0.51251
G1 X172.484 Y147.816 E0.70351
G1 X172.009 Y147.87 E0.72437
G1 X171.544 Y148.035 E0.74593
G1 X171.128 Y148.299 E0.76743
G1 X170.798 Y148.629 E0.78782
G1 X170.524 Y149.07 E0.81047
G1 X170.37 Y149.51 E0.83083
G1 X170.316 Y149.984 E0.85166
G1 X170.316 Y154.359 E1.04266
G1 X170.366 Y154.813 E1.06263
G1 X170.517 Y155.26 E1.08322
G1 X170.743 Y155.642 E1.10262
G1 X171.062 Y155.989 E1.12321
G1 X171.45 Y156.26 E1.14385
G1 X171.887 Y156.441 E1.1645
G1 X172.353 Y156.524 E1.18514
G1 X172.824 Y156.504 E1.20572
G1 X173.254 Y156.394 E1.22513
G1 X173.623 Y156.211 E1.2431
;WIPE_START
M204 S6000
G1 X174.038 Y156.356 F12000
;WIPE_END
G92 E0
G1 E-0.7 F3300
G1 Z0.5 F12000
; acceleration to travel
M204 S7000
G1 X126.861 Y158.616
; decel to extrusion
M204 S2000
G1 X113.381 Y159.262
; end travel
G1 Z0.2
G1 E0 F3000
;TYPE:Internal perimeter
G1 F3600
G1 X113.31 Y159.21 E0.00385
G1 X113.225 Y159.071 E0.01096
G1 X113.209 Y158.948 E0.01636
G1 X113.209 Y139.044 E0.88538
G1 X113.244 Y138.724 E0.89945
G1 X113.333 Y138.464 E0.91145
G1 X113.498 Y138.197 E0.92516
G1 X113.729 Y137.973 E0.9392
G1 X113.926 Y137.85 E0.94936
G1 X114.188 Y137.755 E0.9615
G1 X114.551 Y137.709 E0.97747
G1 X185.507 Y137.714 E4.07546
G1 X185.775 Y137.744 E4.08724
G1 X186.036 Y137.833 E4.09929
G1 X186.31 Y138.002 E4.11332
G1 X186.502 Y138.194 E4.12521
G1 X186.649 Y138.425 E4.13717
G1 X186.756 Y138.728 E4.15121
G1 X186.791 Y139.044 E4.16508
G1 X186.791 Y142.719 E4.3255
G1 X186.764 Y143.001 E4.33787
G1 X186.695 Y143.232 E4.3484
G1 X186.563 Y143.483 E4.36078
G1 X186.385 Y143.698 E4.37295
G1 X179.519 Y150.564 E4.79689
G1 X179.551 Y149.817 E4.82951
G1 X179.448 Y149.239 E4.85515
G1 X179.223 Y148.696 E4.8808
G1 X178.887 Y148.215 E4.90644
G1 X178.457 Y147.82 E4.93192
G1 X177.981 Y147.537 E4.95613
G1 X177.427 Y147.35 E4.98163
G1 X176.887 Y147.291 E5.00535
G1 X172.454 Y147.291 E5.1989
G1 X171.891 Y147.355 E5.22366
G1 X171.312 Y147.56 E5.25044
G1 X170.798 Y147.887 E5.27707
G1 X170.384 Y148.301 E5.3026
G1 X170.048 Y148.842 E5.33042
G1 X169.855 Y149.392 E5.35588
G1 X169.791 Y149.954 E5.38058
G1 X169.791 Y154.387 E5.57413
G1 X169.85 Y154.927 E5.59784
G1 X170.037 Y155.481 E5.62335
G1 X170.32 Y155.957 E5.64756
G1 X170.715 Y156.387 E5.67304
G1 X171.196 Y156.723 E5.69868
G1 X171.739 Y156.948 E5.72433
G1 X172.317 Y157.051 E5.74997
G1 X173.064 Y157.019 E5.78259
G1 X171.778 Y158.305 E5.86196
G1 X171.371 Y158.654 E5.88538
G1 X170.943 Y158.918 E5.90732
G1 X170.422 Y159.134 E5.93197
G1 X169.933 Y159.25 E5.95391
G1 X169.398 Y159.291 E5.97733
G1 X113.563 Y159.291 E8.41508
G1 X113.44 Y159.271 E8.42052
G1 X113.734 Y158.766 F12000
G1 F3600
G1 X113.734 Y139.073 E9.28032
G1 X113.76 Y138.839 E9.29062
G1 X113.811 Y138.689 E9.29751
G1 X113.91 Y138.529 E9.30575
G1 X114.055 Y138.389 E9.31453
G1 X114.158 Y138.324 E9.31986
G1 X114.311 Y138.268 E9.32699
G1 X114.583 Y138.234 E9.33895
G1 X185.477 Y138.239 E12.43422
G1 X185.66 Y138.259 E12.44223
G1 X185.811 Y138.311 E12.44921
G1 X185.982 Y138.416 E12.45797
G1 X186.09 Y138.525 E12.46467
G1 X186.174 Y138.657 E12.4715
G1 X186.241 Y138.846 E12.48027
G1 X186.266 Y139.073 E12.49023
G1 X186.266 Y142.693 E12.6483
G1 X186.246 Y142.9 E12.65737
G1 X186.207 Y143.033 E12.6634
G1 X186.124 Y143.19 E12.67116
G1 X185.996 Y143.344 E12.6799
G1 X180.041 Y149.299 E13.04759
G1 X179.687 Y148.442 E13.08808
G1 X179.284 Y147.867 E13.11872
G1 X178.772 Y147.396 E13.14909
G1 X178.201 Y147.057 E13.17811
G1 X177.541 Y146.834 E13.20853
G1 X176.916 Y146.766 E13.23599
G1 X172.424 Y146.766 E13.43208
G1 X171.772 Y146.84 E13.46075
G1 X171.081 Y147.085 E13.49275
G1 X170.467 Y147.475 E13.52451
G1 X169.97 Y147.972 E13.55519
G1 X169.571 Y148.613 E13.58818
G1 X169.34 Y149.274 E13.61874
G1 X169.266 Y149.924 E13.64731
G1 X169.266 Y154.416 E13.84341
G1 X169.334 Y155.041 E13.87087
G1 X169.557 Y155.701 E13.90129
G1 X169.896 Y156.272 E13.9303
G1 X170.367 Y156.784 E13.96067
G1 X170.942 Y157.186 E13.99132
G1 X171.799 Y157.541 E14.0318
G1 X171.421 Y157.919 E14.05514
G1 X171.06 Y158.229 E14.07591
G1 X170.703 Y158.449 E14.09422
G1 X170.26 Y158.633 E14.11517
G1 X169.852 Y158.729 E14.13348
G1 X169.377 Y158.766 E14.15425
G1 X113.794 Y158.766 E16.58104
; acceleration to travel
M204 S7000
G1 X113.87 Y157.765 F12000
; decel to extrusion
M204 S2000
G1 X113.892 Y157.48
; end travel
;TYPE:Solid infill
G1 F3600
G1 X114.795 Y158.383 E16.6368
G1 X115.537 Y158.383 E16.66922
G1 X114.117 Y156.963 E16.75688
G1 X114.117 Y156.22 E16.7893
G1 X116.28 Y158.383 E16.92281
G1 X117.022 Y158.383 E16.95523
G1 X114.117 Y155.478 E17.1346
G1 X114.117 Y154.735 E17.16702
G1 X117.765 Y158.383 E17.39223
G1 X118.507 Y158.383 E17.42466
G1 X114.117 Y153.993 E17.69572
G1 X114.117 Y153.25 E17.72814
G1 X119.25 Y158.383 E18.04506
G1 X119.993 Y158.383 E18.07748
G1 X114.117 Y152.507 E18.44024
G1 X114.117 Y151.765 E18.47266
G1 X120.735 Y158.383 E18.88128
G1 X121.478 Y158.383 E18.9137
G1 X114.117 Y151.022 E19.36817
G1 X114.117 Y150.28 E19.40059
G1 X122.22 Y158.383 E19.90091
G1 X122.963 Y158.383 E19.93333
G1 X114.117 Y149.537 E20.47949
G1 X114.117 Y148.794 E20.51192
G1 X123.706 Y158.383 E21.10393
G1 X124.448 Y158.383 E21.13635
G1 X114.117 Y148.052 E21.77422
G1 X114.117 Y147.309 E21.80664
G1 X125.191 Y158.383 E22.49036
G1 X125.933 Y158.383 E22.52278
G1 X114.117 Y146.567 E23.25235
G1 X114.117 Y145.824 E23.28477
G1 X126.676 Y158.383 E24.06019
G1 X127.418 Y158.383 E24.09262
G1 X114.117 Y145.082 E24.91389
G1 X114.117 Y144.339 E24.94631
G1 X128.161 Y158.383 E25.81343
G1 X128.904 Y158.383 E25.84585
G1 X114.117 Y143.596 E26.75882
G1 X114.117 Y142.854 E26.79124
G1 X129.646 Y158.383 E27.75006
G1 X130.389 Y158.383 E27.78248
G1 X114.117 Y142.111 E28.78716
G1 X114.117 Y141.369 E28.81958
G1 X131.131 Y158.383 E29.8701
G1 X131.874 Y158.383 E29.90252
G1 X114.117 Y140.626 E30.99889
G1 X114.117 Y139.884 E31.03132
G1 X132.616 Y158.383 E32.17354
G1 X133.359 Y158.383 E32.20596
G1 X114.117 Y139.141 E33.39403
G1 X114.134 Y138.946 E33.40258
G1 X114.225 Y138.757 E33.41174
G1 X114.275 Y138.709 E33.41477
G1 X114.379 Y138.66 E33.41979
G1 X134.102 Y158.383 E34.63756
G1 X134.844 Y158.383 E34.66998
G1 X115.079 Y138.617 E35.89038
G1 X115.822 Y138.618 E35.92281
G1 X135.587 Y158.383 E37.14321
G1 X136.329 Y158.383 E37.17563
G1 X116.564 Y138.618 E38.39602
G1 X117.307 Y138.618 E38.42844
G1 X137.072 Y158.383 E39.64884
G1 X137.814 Y158.383 E39.68126
G1 X118.05 Y138.618 E40.90165
G1 X118.792 Y138.618 E40.93407
G1 X138.557 Y158.383 E42.15446
G1 X139.3 Y158.383 E42.18688
G1 X119.535 Y138.618 E43.40726
G1 X120.277 Y138.618 E43.43969
G1 X140.042 Y158.383 E44.66007
G1 X140.785 Y158.383 E44.69249
G1 X121.02 Y138.618 E45.91287
G1 X121.763 Y138.618 E45.94529
G1 X141.527 Y158.383 E47.16566
G1 X142.27 Y158.383 E47.19808
G1 X122.505 Y138.618 E48.41846
G1 X123.248 Y138.618 E48.45088
G1 X143.012 Y158.383 E49.67125
G1 X143.755 Y158.383 E49.70367
G1 X123.99 Y138.618 E50.92404
G1 X124.733 Y138.618 E50.95646
G1 X144.498 Y158.383 E52.17682
G1 X145.24 Y158.383 E52.20924
G1 X125.476 Y138.618 E53.4296
G1 X126.218 Y138.618 E53.46203
G1 X145.983 Y158.383 E54.68238
G1 X146.725 Y158.383 E54.71481
G1 X126.961 Y138.618 E55.93516
G1 X127.704 Y138.618 E55.96758
G1 X147.468 Y158.383 E57.18793
G1 X148.21 Y158.383 E57.22035
G1 X128.446 Y138.618 E58.4407
G1 X129.189 Y138.618 E58.47313
G1 X148.953 Y158.383 E59.69347
G1 X149.696 Y158.383 E59.72589
G1 X129.931 Y138.618 E60.94624
G1 X130.674 Y138.618 E60.97866
G1 X150.438 Y158.383 E62.199
G1 X151.181 Y158.383 E62.23142
G1 X131.417 Y138.619 E63.45176
G1 X132.159 Y138.619 E63.48418
G1 X151.923 Y158.383 E64.70451
G1 X152.666 Y158.383 E64.73693
G1 X132.902 Y138.619 E65.95726
G1 X133.645 Y138.619 E65.98969
G1 X153.408 Y158.383 E67.21002
G1 X154.151 Y158.383 E67.24244
G1 X134.387 Y138.619 E68.46276
G1 X135.13 Y138.619 E68.49519
G1 X154.894 Y158.383 E69.71551
G1 X155.636 Y158.383 E69.74793
G1 X135.872 Y138.619 E70.96825
G1 X136.615 Y138.619 E71.00067
G1 X156.379 Y158.383 E72.22099
G1 X157.121 Y158.383 E72.25341
G1 X137.358 Y138.619 E73.47372
G1 X138.1 Y138.619 E73.50614
G1 X157.864 Y158.383 E74.72645
G1 X158.606 Y158.383 E74.75888
G1 X138.843 Y138.619 E75.97918
G1 X139.586 Y138.619 E76.01161
G1 X159.349 Y158.383 E77.23191
G1 X160.092 Y158.383 E77.26433
G1 X140.328 Y138.619 E78.48463
G1 X141.071 Y138.619 E78.51706
G1 X160.834 Y158.383 E79.73735
G1 X161.577 Y158.383 E79.76978
G1 X141.813 Y138.619 E80.99007
G1 X142.556 Y138.619 E81.02249
G1 X162.319 Y158.383 E82.24279
G1 X163.062 Y158.383 E82.27521
G1 X143.299 Y138.619 E83.4955
