; generated by SuperSlicer 2.4 on 2023-02-07 at 08:44:53 UTC


;
;

;
;
; 

; external perimeters extrusion width = 0.42mm
; perimeters extrusion width = 0.46mm
; infill extrusion width = 0.44mm
; solid infill extrusion width = 0.46mm
; top infill extrusion width = 0.44mm
; support material extrusion width = 0.40mm
; first layer extrusion width = 0.60mm

; object:{"name":"Heatset_Practice","id":"Heatset_Practice.stl id:0 copy 0","object_center":[142.511147,155.101409,0.000000],"boundingbox_center":[142.511147,155.101409,5.000000],"boundingbox_size":[30.000000,30.000000,10.000000]}
; plater:{"center":[142.511147,155.101409,0.000000],"boundingbox_center":[142.511147,155.101409,5.000000],"boundingbox_size":[30.000000,30.000000,10.000000]}

;TYPE:Custom
M104 S0 ; Stops SuperSlicer from sending temp waits separately


; Pre-Processed for Cancel-Object support by preprocess_cancellation v0.2.0
; 1 known objects
EXCLUDE_OBJECT_DEFINE NAME=Heatset_Practice_stl_id_0_copy_0 CENTER=142.287,153.943 POLYGON=[[127.721,140.311],[127.721,169.891],[157.301,169.891],[157.301,140.311]]

M140 S0

print_start EXTRUDER=245 BED=105 CHAMBER=0
M107
G21 ; set units to millimeters
G90 ; use absolute coordinates
M83 ; use relative distances for extrusion
; Filament gcode
;_TOOLCHANGE 0
M107
;LAYER_CHANGE
;Z:0.2
;HEIGHT:0.2
TIMELAPSE_TAKE_FRAME
;BEFORE_LAYER_CHANGE
;0.2


G1 E-0.8 F3000
G1 Z0.2 F8400
;AFTER_LAYER_CHANGE
;0.2
G92 E0
G1 X126.93 Y138.676
G1 E0.8 F1800
;TYPE:Skirt
;WIDTH:0.44
G1 X126.268 Y139.292 E0.02988
G1 X125.789 Y139.967 E0.0273
G1 X125.449 Y140.72 E0.0273
G1 X125.259 Y141.525 E0.02731
G1 X125.216 Y142.101 E0.01908
G1 X125.216 Y168.101 E0.85845
G1 X125.355 Y169.169 E0.03554
G1 X125.637 Y169.946 E0.02731
G1 X126.085 Y170.682 E0.02845
G1 X126.702 Y171.345 E0.02988
G1 X127.376 Y171.823 E0.0273
G1 X128.13 Y172.164 E0.0273
G1 X128.935 Y172.353 E0.02731
G1 X129.511 Y172.397 E0.01908
G1 X155.511 Y172.397 E0.85845
G1 X156.578 Y172.257 E0.03554
G1 X157.356 Y171.975 E0.02731
G1 X158.092 Y171.527 E0.02845
G1 X158.754 Y170.91 E0.02988
G1 X159.233 Y170.236 E0.0273
G1 X159.574 Y169.483 E0.0273
G1 X159.763 Y168.678 E0.02731
G1 X159.807 Y168.101 E0.01908
G1 X159.795 Y141.851 E0.86671
G1 X159.667 Y141.034 E0.02731
G1 X159.385 Y140.257 E0.02731
G1 X158.959 Y139.548 E0.0273
G1 X158.475 Y138.995 E0.02427
G1 X157.995 Y138.603 E0.02047
G1 X157.277 Y138.191 E0.0273
G1 X156.494 Y137.925 E0.02731
G1 X155.676 Y137.814 E0.02728
G1 X129.261 Y137.818 E0.87214
G1 X128.444 Y137.945 E0.02731
G1 X127.666 Y138.228 E0.02731
G1 X126.982 Y138.644 E0.02647
G1 X127.185 Y138.981 F8400
G1 F1800
G1 X126.578 Y139.541 E0.02726
G1 X126.141 Y140.151 E0.02478
G1 X125.829 Y140.834 E0.02478
G1 X125.654 Y141.563 E0.02478
G1 X125.613 Y142.101 E0.01781
G1 X125.613 Y168.101 E0.85845
G1 X125.736 Y169.055 E0.03176
G1 X125.989 Y169.762 E0.02478
G1 X126.392 Y170.43 E0.02575
G1 X126.951 Y171.035 E0.02719
G1 X127.561 Y171.472 E0.02478
G1 X128.243 Y171.783 E0.02478
G1 X128.973 Y171.958 E0.02478
G1 X129.511 Y172 E0.01781
G1 X155.511 Y172 E0.85845
G1 X156.465 Y171.877 E0.03176
G1 X157.172 Y171.624 E0.02478
G1 X157.839 Y171.221 E0.02575
G1 X158.444 Y170.662 E0.02719
G1 X158.881 Y170.052 E0.02478
G1 X159.193 Y169.369 E0.02478
G1 X159.368 Y168.639 E0.02478
G1 X159.41 Y168.101 E0.01781
G1 X159.399 Y141.889 E0.86545
G1 X159.287 Y141.147 E0.02478
G1 X159.033 Y140.441 E0.02478
G1 X158.649 Y139.796 E0.02478
G1 X158.208 Y139.289 E0.02221
G1 X157.777 Y138.935 E0.0184
G1 X157.128 Y138.559 E0.02478
G1 X156.418 Y138.314 E0.02478
G1 X155.676 Y138.211 E0.02476
G1 X129.512 Y138.203 E0.86386
G1 X128.557 Y138.326 E0.03178
G1 X127.851 Y138.579 E0.02478
G1 X127.236 Y138.95 E0.0237
M104 S245 ; set temperature
;WIPE_START
G1 F6720
G1 X127.183 Y138.982 E-0.02629
G1 X126.578 Y139.541 E-0.34928
G1 X126.141 Y140.151 E-0.31826
G1 X126.076 Y140.293 E-0.06617
;WIPE_END
G1 E-0.04 F3000
; printing object Heatset_Practice.stl id:0 copy 0
EXCLUDE_OBJECT_START NAME=Heatset_Practice_stl_id_0_copy_0
G1 X129.796 Y142.387 F8400
G1 E0.8 F1800
;TYPE:Internal perimeter
;WIDTH:0.604
G1 X142.583 Y142.391 E0.59059
G1 X155.226 Y142.394 E0.58394
G1 X155.226 Y167.816 E1.17417
G1 X129.796 Y167.816 E1.17452
G1 X129.796 Y142.447 E1.17175
G1 X129.296 Y141.935 F8400
G1 F1800
G1 X129.389 Y141.858 E0.00557
G1 X129.46 Y141.837 E0.00341
G1 X129.58 Y141.826 E0.00557
G1 X142.583 Y141.83 E0.6006
G1 X155.537 Y141.833 E0.59829
G1 X155.588 Y141.843 E0.0024
G1 X155.66 Y141.873 E0.00363
G1 X155.754 Y141.98 E0.00657
G1 X155.775 Y142.05 E0.00339
G1 X155.787 Y142.17 E0.00558
G1 X155.787 Y168.033 E1.19452
G1 X155.775 Y168.153 E0.00558
G1 X155.761 Y168.202 E0.00239
G1 X155.726 Y168.268 E0.00342
G1 X155.633 Y168.345 E0.00557
G1 X155.563 Y168.366 E0.00341
G1 X155.442 Y168.377 E0.00558
G1 X129.58 Y168.377 E1.19452
G1 X129.46 Y168.366 E0.00558
G1 X129.41 Y168.351 E0.00239
G1 X129.345 Y168.316 E0.00342
G1 X129.268 Y168.223 E0.00557
G1 X129.247 Y168.153 E0.00341
G1 X129.235 Y168.033 E0.00558
G1 X129.235 Y142.17 E1.19452
G1 X129.247 Y142.05 E0.00558
G1 X129.268 Y141.988 E0.00302
G1 X129.061 Y141.401 F8400
G1 F1800
G1 X129.198 Y141.33 E0.00713
G1 X129.352 Y141.284 E0.00741
G1 X129.553 Y141.264 E0.00933
G1 X142.584 Y141.268 E0.60186
G1 X155.591 Y141.272 E0.60079
G1 X155.749 Y141.303 E0.00741
G1 X155.897 Y141.364 E0.00741
G1 X156.044 Y141.46 E0.0081
G1 X156.098 Y141.509 E0.0034
G1 X156.208 Y141.646 E0.00812
G1 X156.283 Y141.788 E0.0074
G1 X156.329 Y141.942 E0.00741
G1 X156.348 Y142.143 E0.00934
G1 X156.348 Y168.06 E1.19702
G1 X156.329 Y168.261 E0.00934
G1 X156.283 Y168.415 E0.0074
G1 X156.208 Y168.557 E0.0074
G1 X156.112 Y168.677 E0.00715
G1 X155.961 Y168.801 E0.009
G1 X155.824 Y168.873 E0.00713
G1 X155.671 Y168.919 E0.0074
G1 X155.469 Y168.938 E0.00934
G1 X129.553 Y168.938 E1.19702
G1 X129.352 Y168.919 E0.00934
G1 X129.198 Y168.873 E0.0074
G1 X129.056 Y168.799 E0.0074
G1 X128.935 Y168.702 E0.00715
G1 X128.811 Y168.551 E0.009
G1 X128.74 Y168.415 E0.00713
G1 X128.694 Y168.261 E0.00741
G1 X128.674 Y168.06 E0.00934
G1 X128.674 Y142.143 E1.19702
G1 X128.694 Y141.942 E0.00934
G1 X128.74 Y141.788 E0.0074
G1 X128.814 Y141.646 E0.0074
G1 X128.911 Y141.525 E0.00715
G1 X129.015 Y141.44 E0.00623
G1 X128.749 Y140.931 F8400
;TYPE:External perimeter
G1 F1800
G1 X128.986 Y140.808 E0.01233
G1 X129.243 Y140.731 E0.01242
G1 X129.526 Y140.703 E0.0131
G1 X142.584 Y140.707 E0.60311
G1 X155.646 Y140.711 E0.6033
G1 X155.91 Y140.763 E0.01243
G1 X156.159 Y140.864 E0.01242
G1 X156.388 Y141.014 E0.01267
G1 X156.508 Y141.124 E0.0075
G1 X156.68 Y141.338 E0.01267
G1 X156.805 Y141.576 E0.01242
G1 X156.882 Y141.834 E0.01242
G1 X156.909 Y142.116 E0.0131
G1 X156.909 Y168.087 E1.19953
G1 X156.882 Y168.369 E0.0131
G1 X156.805 Y168.627 E0.01242
G1 X156.68 Y168.865 E0.01242
G1 X156.513 Y169.074 E0.01233
G1 X156.273 Y169.271 E0.01436
G1 X156.037 Y169.395 E0.01233
G1 X155.779 Y169.472 E0.01242
G1 X155.497 Y169.499 E0.0131
G1 X129.526 Y169.499 E1.19953
G1 X129.243 Y169.472 E0.0131
G1 X128.986 Y169.395 E0.01242
G1 X128.747 Y169.27 E0.01242
G1 X128.539 Y169.103 E0.01233
G1 X128.341 Y168.863 E0.01436
G1 X128.217 Y168.627 E0.01233
G1 X128.14 Y168.369 E0.01242
G1 X128.113 Y168.087 E0.0131
G1 X128.113 Y142.116 E1.19953
G1 X128.14 Y141.834 E0.0131
G1 X128.217 Y141.576 E0.01242
G1 X128.342 Y141.338 E0.01242
G1 X128.509 Y141.129 E0.01233
G1 X128.703 Y140.97 E0.01159
;WIPE_START
G1 X129.101 Y141.122 F8400
;WIPE_END
G1 X155.058 Y143.697
;TYPE:Solid infill
;WIDTH:0.603709
G1 F1800
G1 X153.923 Y142.562 E0.07407
G1 X153.129 Y142.562 F8400
G1 F1800
G1 X155.058 Y144.49 E0.12589
G1 X155.058 Y145.284 F8400
G1 F1800
G1 X152.336 Y142.562 E0.17771
G1 X151.542 Y142.562 F8400
G1 F1800
G1 X155.058 Y146.077 E0.22953
G1 X155.058 Y146.871 F8400
G1 F1800
G1 X150.748 Y142.561 E0.28135
G1 X149.954 Y142.561 F8400
G1 F1800
G1 X155.058 Y147.664 E0.33317
G1 X155.058 Y148.458 F8400
G1 F1800
G1 X149.161 Y142.561 E0.38499
G1 X148.367 Y142.561 F8400
G1 F1800
G1 X155.058 Y149.251 E0.43681
G1 X155.058 Y150.045 F8400
G1 F1800
G1 X147.573 Y142.56 E0.48863
G1 X146.78 Y142.56 F8400
G1 F1800
G1 X155.058 Y150.838 E0.54045
G1 X155.058 Y151.632 F8400
G1 F1800
G1 X145.986 Y142.56 E0.59227
G1 X145.192 Y142.56 F8400
G1 F1800
G1 X155.058 Y152.425 E0.6441
G1 X155.058 Y153.219 F8400
G1 F1800
G1 X144.398 Y142.559 E0.69592
G1 X143.605 Y142.559 F8400
G1 F1800
G1 X155.058 Y154.012 E0.74774
G1 X155.058 Y154.806 F8400
G1 F1800
G1 X142.811 Y142.559 E0.79956
G1 X142.017 Y142.559 F8400
G1 F1800
G1 X155.058 Y155.599 E0.85138
G1 X155.058 Y156.393 F8400
G1 F1800
G1 X141.223 Y142.558 E0.9032
G1 X140.43 Y142.558 F8400
G1 F1800
G1 X155.058 Y157.186 E0.95502
G1 X155.058 Y157.98 F8400
G1 F1800
G1 X139.636 Y142.558 E1.00684
G1 X138.842 Y142.558 F8400
G1 F1800
G1 X155.058 Y158.773 E1.05866
G1 X155.058 Y159.567 F8400
G1 F1800
G1 X138.049 Y142.558 E1.11048
G1 X137.255 Y142.557 F8400
G1 F1800
G1 X155.058 Y160.36 E1.1623
G1 X155.058 Y161.154 F8400
G1 F1800
G1 X136.461 Y142.557 E1.21412
G1 X135.667 Y142.557 F8400
G1 F1800
G1 X155.058 Y161.947 E1.26594
G1 X155.058 Y162.741 F8400
G1 F1800
G1 X134.874 Y142.557 E1.31776
G1 X134.08 Y142.556 F8400
G1 F1800
G1 X155.058 Y163.534 E1.36958
G1 X155.058 Y164.327 F8400
G1 F1800
G1 X133.286 Y142.556 E1.4214
G1 X132.492 Y142.556 F8400
G1 F1800
G1 X155.058 Y165.121 E1.47322
G1 X155.058 Y165.914 F8400
G1 F1800
G1 X131.699 Y142.556 E1.52504
G1 X130.905 Y142.555 F8400
G1 F1800
G1 X155.058 Y166.708 E1.57686
G1 X155.058 Y167.501 F8400
G1 F1800
G1 X130.111 Y142.555 E1.62868
G1 X129.965 Y143.202 F8400
G1 F1800
G1 X154.411 Y167.648 E1.59601
G1 X153.617 Y167.648 F8400
G1 F1800
G1 X129.965 Y143.995 E1.5442
G1 X129.965 Y144.789 F8400
G1 F1800
G1 X152.824 Y167.648 E1.4924
G1 X152.03 Y167.648 F8400
G1 F1800
G1 X129.965 Y145.582 E1.44059
G1 X129.965 Y146.376 F8400
G1 F1800
G1 X151.237 Y167.648 E1.38879
G1 X150.443 Y167.648 F8400
G1 F1800
G1 X129.965 Y147.169 E1.33699
G1 X129.965 Y147.963 F8400
G1 F1800
G1 X149.65 Y167.648 E1.28518
G1 X148.856 Y167.648 F8400
G1 F1800
G1 X129.965 Y148.756 E1.23338
G1 X129.965 Y149.55 F8400
G1 F1800
G1 X148.063 Y167.648 E1.18157
G1 X147.269 Y167.648 F8400
G1 F1800
G1 X129.965 Y150.343 E1.12977
G1 X129.965 Y151.137 F8400
G1 F1800
G1 X146.476 Y167.648 E1.07796
G1 X145.682 Y167.648 F8400
G1 F1800
G1 X129.965 Y151.93 E1.02616
G1 X129.965 Y152.724 F8400
G1 F1800
G1 X144.889 Y167.648 E0.97435
G1 X144.095 Y167.648 F8400
G1 F1800
G1 X129.965 Y153.517 E0.92255
G1 X129.965 Y154.311 F8400
G1 F1800
G1 X143.302 Y167.648 E0.87074
G1 X142.508 Y167.648 F8400
G1 F1800
G1 X129.965 Y155.104 E0.81894
G1 X129.965 Y155.898 F8400
G1 F1800
G1 X141.715 Y167.648 E0.76713
G1 X140.921 Y167.648 F8400
G1 F1800
G1 X129.965 Y156.691 E0.71533
G1 X129.965 Y157.485 F8400
G1 F1800
G1 X140.128 Y167.648 E0.66352
G1 X139.334 Y167.648 F8400
G1 F1800
G1 X129.965 Y158.278 E0.61172
G1 X129.965 Y159.072 F8400
G1 F1800
G1 X138.541 Y167.648 E0.55992
G1 X137.747 Y167.648 F8400
G1 F1800
G1 X129.965 Y159.865 E0.50811
G1 X129.965 Y160.659 F8400
G1 F1800
G1 X136.954 Y167.648 E0.45631
G1 X136.16 Y167.648 F8400
G1 F1800
G1 X129.965 Y161.452 E0.4045
G1 X129.965 Y162.246 F8400
G1 F1800
G1 X135.367 Y167.648 E0.3527
G1 X134.573 Y167.648 F8400
G1 F1800
G1 X129.965 Y163.039 E0.30089
G1 X129.965 Y163.833 F8400
G1 F1800
G1 X133.78 Y167.648 E0.24909
G1 X132.986 Y167.648 F8400
G1 F1800
G1 X129.965 Y164.626 E0.19728
G1 X129.965 Y165.42 F8400
G1 F1800
G1 X132.193 Y167.648 E0.14548
G1 X131.399 Y167.648 F8400
G1 F1800
G1 X129.965 Y166.213 E0.09367
G1 X129.965 Y167.007 F8400
G1 F1800
G1 X130.606 Y167.648 E0.04187
;LAYER_CHANGE
;Z:0.4
;HEIGHT:0.2
TIMELAPSE_TAKE_FRAME
;BEFORE_LAYER_CHANGE
;0.4


;WIPE_START
G1 F6720
G1 X129.965 Y167.007 E-0.38464
;WIPE_END
G1 E-0.41536 F3000
; stop printing object Heatset_Practice.stl id:0 copy 0
EXCLUDE_OBJECT_END NAME=Heatset_Practice_stl_id_0_copy_0
G1 Z0.4 F8400
;AFTER_LAYER_CHANGE
;0.4
G92 E0
M140 S105 ; set bed temperature
; printing object Heatset_Practice.stl id:0 copy 0
EXCLUDE_OBJECT_START NAME=Heatset_Practice_stl_id_0_copy_0
G1 X129.076 Y168.184
G1 E0.8 F1800
;TYPE:Internal perimeter
;WIDTH:0.464
G1 F3600
G1 X129.062 Y168.033 E0.00528
G1 X129.062 Y142.169 E0.90557
G1 X129.076 Y142.019 E0.00528
G1 X129.099 Y141.94 E0.00289
G1 X129.137 Y141.866 E0.00289
G1 X129.182 Y141.808 E0.00259
G1 X129.28 Y141.725 E0.0045
G1 X129.35 Y141.69 E0.00273
G1 X129.429 Y141.667 E0.00289
G1 X129.579 Y141.653 E0.00527
G1 X155.541 Y141.661 E0.90902
G1 X155.639 Y141.678 E0.00347
G1 X155.71 Y141.707 E0.00269
G1 X155.787 Y141.755 E0.00316
G1 X155.83 Y141.795 E0.00207
G1 X155.886 Y141.866 E0.00317
G1 X155.923 Y141.94 E0.00289
G1 X155.946 Y142.019 E0.00289
G1 X155.96 Y142.169 E0.00528
G1 X155.96 Y168.033 E0.90557
G1 X155.946 Y168.184 E0.00528
G1 X155.923 Y168.263 E0.00289
G1 X155.886 Y168.336 E0.00289
G1 X155.841 Y168.395 E0.00259
G1 X155.742 Y168.478 E0.0045
G1 X155.673 Y168.513 E0.00273
G1 X155.593 Y168.536 E0.00289
G1 X155.443 Y168.55 E0.00528
G1 X129.579 Y168.55 E0.90557
G1 X129.429 Y168.536 E0.00528
G1 X129.35 Y168.513 E0.00289
G1 X129.276 Y168.476 E0.00289
G1 X129.217 Y168.431 E0.00259
G1 X129.135 Y168.333 E0.0045
G1 X129.099 Y168.263 E0.00273
G1 X129.093 Y168.241 E0.00079
G1 X128.641 Y167.007 F8400
G1 F3600
G1 X128.641 Y142.15 E0.87031
G1 X128.661 Y141.94 E0.00736
G1 X128.706 Y141.785 E0.00566
G1 X128.779 Y141.641 E0.00566
G1 X128.876 Y141.515 E0.00557
G1 X129.046 Y141.371 E0.0078
G1 X129.195 Y141.296 E0.00583
G1 X129.35 Y141.251 E0.00566
G1 X129.559 Y141.232 E0.00735
G1 X155.579 Y141.24 E0.91103
G1 X155.754 Y141.271 E0.00624
G1 X155.901 Y141.329 E0.00552
G1 X156.043 Y141.418 E0.00585
G1 X156.141 Y141.508 E0.00468
G1 X156.244 Y141.641 E0.00586
G1 X156.316 Y141.785 E0.00566
G1 X156.361 Y141.94 E0.00566
G1 X156.381 Y142.15 E0.00736
G1 X156.381 Y168.053 E0.90696
G1 X156.361 Y168.262 E0.00736
G1 X156.317 Y168.418 E0.00566
G1 X156.244 Y168.562 E0.00566
G1 X156.147 Y168.688 E0.00557
G1 X155.976 Y168.832 E0.0078
G1 X155.827 Y168.907 E0.00583
G1 X155.672 Y168.952 E0.00566
G1 X155.463 Y168.971 E0.00736
G1 X129.559 Y168.971 E0.90696
G1 X129.35 Y168.952 E0.00736
G1 X129.195 Y168.907 E0.00566
G1 X129.051 Y168.834 E0.00566
G1 X128.925 Y168.737 E0.00557
G1 X128.781 Y168.566 E0.0078
G1 X128.706 Y168.418 E0.00583
G1 X128.661 Y168.262 E0.00566
G1 X128.641 Y168.053 E0.00736
G1 X128.641 Y167.067 E0.03454
G1 X128.22 Y167.007 F8400
G1 F3600
G1 X128.22 Y142.13 E0.871
G1 X128.245 Y141.862 E0.00943
G1 X128.312 Y141.63 E0.00843
G1 X128.421 Y141.416 E0.00843
G1 X128.57 Y141.222 E0.00855
G1 X128.734 Y141.072 E0.00779
G1 X128.812 Y141.018 E0.00334
G1 X129.04 Y140.902 E0.00893
G1 X129.271 Y140.836 E0.00843
G1 X129.54 Y140.81 E0.00943
G1 X155.617 Y140.819 E0.91304
G1 X155.87 Y140.864 E0.00901
G1 X156.092 Y140.952 E0.00836
G1 X156.299 Y141.082 E0.00854
G1 X156.453 Y141.222 E0.00729
G1 X156.601 Y141.416 E0.00855
G1 X156.71 Y141.63 E0.00843
G1 X156.777 Y141.862 E0.00843
G1 X156.802 Y142.13 E0.00943
G1 X156.802 Y168.073 E0.90834
G1 X156.777 Y168.341 E0.00943
G1 X156.71 Y168.572 E0.00843
G1 X156.601 Y168.787 E0.00843
G1 X156.453 Y168.981 E0.00855
G1 X156.288 Y169.131 E0.0078
G1 X156.21 Y169.185 E0.00334
G1 X155.982 Y169.3 E0.00893
G1 X155.751 Y169.367 E0.00843
G1 X155.483 Y169.392 E0.00943
G1 X129.54 Y169.392 E0.90834
G1 X129.271 Y169.367 E0.00943
G1 X129.04 Y169.3 E0.00843
G1 X128.825 Y169.192 E0.00843
G1 X128.632 Y169.043 E0.00855
G1 X128.482 Y168.878 E0.0078
G1 X128.427 Y168.8 E0.00334
G1 X128.312 Y168.572 E0.00893
G1 X128.245 Y168.341 E0.00843
G1 X128.22 Y168.073 E0.00943
G1 X128.22 Y167.067 E0.03523
G1 X127.821 Y167.007 F8400
;TYPE:External perimeter
;WIDTH:0.42
G1 F1980
G1 X127.821 Y142.111 E0.78058
G1 X127.852 Y141.787 E0.01021
G1 X127.939 Y141.484 E0.0099
G1 X128.082 Y141.202 E0.0099
G1 X128.275 Y140.951 E0.00994
G1 X128.485 Y140.76 E0.0089
G1 X128.607 Y140.674 E0.00468
G1 X128.893 Y140.529 E0.01006
G1 X129.197 Y140.442 E0.0099
G1 X129.521 Y140.411 E0.01021
G1 X155.652 Y140.42 E0.81933
G1 X155.979 Y140.479 E0.01041
G1 X156.273 Y140.594 E0.0099
G1 X156.541 Y140.763 E0.00993
G1 X156.747 Y140.951 E0.00874
G1 X156.941 Y141.202 E0.00994
G1 X157.083 Y141.484 E0.0099
