; generated by SuperSlicer 2.5.59 on 2023-04-13 at 01:25:24 UTC


;
;

;
;
; 

; external perimeters extrusion width = 0.45mm
; perimeters extrusion width = 0.45mm
; infill extrusion width = 0.45mm
; solid infill extrusion width = 0.45mm
; top infill extrusion width = 0.43mm
; support material extrusion width = 0.42mm
; first layer extrusion width = 0.60mm

; object:{"name":"Hexagon_grid","id":"Hexagon_grid.stl id:0 copy 0","object_center":[150.000000,148.500000,0.000000],"boundingbox_center":[150.000000,148.500000,0.200000],"boundingbox_size":[50.891220,103.003525,0.400000]}
EXCLUDE_OBJECT_DEFINE NAME=Hexagon_grid_stl_id_0_copy_0 CENTER=150.000000,148.500000 POLYGON=[[124.554392,186.945584],[127.235408,114.324576],[127.359040,111.199920],[127.417712,109.717208],[131.261016,103.060416],[134.761024,96.998240],[165.238976,96.998240],[172.582288,109.717216],[172.764608,114.324576],[175.445616,186.945584],[174.002304,193.555056],[172.595408,199.362096],[171.168336,200.001776],[128.831664,200.001776],[127.404584,199.362096],[125.997696,193.555056],[124.554392,186.945584]]
; plater:{"center":[150.000000,148.500000,0.000000],"boundingbox_center":[150.000000,148.500000,0.200000],"boundingbox_size":[50.891220,103.003525,0.400000]}

;TYPE:Custom
SET_PRINT_STATS_INFO TOTAL_LAYER=2

M104 S0 ; Stops SuperSlicer from sending temp waits separately

M109 S0

M140 S0

print_start EXTRUDER=255 BED=105 CHAMBER=0
M107
G21 ; set units to millimeters
G90 ; use absolute coordinates
M82 ; use absolute distances for extrusion
G92 E0
; Filament gcode
;_TOOLCHANGE 0
M107
;LAYER_CHANGE
;Z:0.21875
;HEIGHT:0.21875
TIMELAPSE_TAKE_FRAME
;BEFORE_LAYER_CHANGE
;0.21875


G1 Z0.21875 F8700
SET_PRINT_STATS_INFO CURRENT_LAYER=1
;AFTER_LAYER_CHANGE
;0.21875
G1 E-0.9 F3000
G1 Z0.71875 F8700
G1 X133.261 Y96.132
G1 Z0.21875
G1 E0 F60
;TYPE:Skirt
;WIDTH:0.54
G1 F2250
G1 X125.918 Y108.851 E0.65857
G1 X125.687 Y109.649 E0.69579
G1 X122.824 Y186.882 E4.1614
G1 X124.306 Y193.925 E4.48413
G1 X125.721 Y199.77 E4.75382
G1 X126.696 Y200.943 E4.8222
G1 X128.123 Y201.582 E4.89232
G1 X128.832 Y201.734 E4.92481
G1 X171.168 Y201.734 E6.82324
G1 X171.877 Y201.582 E6.85573
G1 X173.304 Y200.943 E6.92585
G1 X174.279 Y199.77 E6.99423
G1 X175.694 Y193.925 E7.26392
G1 X177.176 Y186.882 E7.58665
G1 X174.313 Y109.649 E11.05226
G1 X174.082 Y108.851 E11.08948
G1 X166.739 Y96.132 E11.74805
G1 X166.332 Y95.655 E11.77618
G1 X165.239 Y95.266 E11.8282
G1 X134.761 Y95.266 E13.19487
G1 X134.144 Y95.38 E13.223
G1 X133.307 Y96.093 E13.27233
G1 X133.688 Y96.379 F8700
G1 F2250
G1 X126.345 Y109.098 E13.93089
G1 X126.18 Y109.668 E13.95753
G1 X125.997 Y114.276 E14.16429
G1 X123.316 Y186.9 E17.42308
G1 X124.787 Y193.819 E17.74029
G1 X126.2 Y199.654 E18.00948
G1 X126.898 Y200.493 E18.05841
G1 X128.325 Y201.133 E18.12853
G1 X128.832 Y201.241 E18.15178
G1 X171.168 Y201.241 E20.05021
G1 X171.675 Y201.133 E20.07345
G1 X173.102 Y200.493 E20.14358
G1 X173.8 Y199.654 E20.1925
G1 X175.213 Y193.819 E20.46169
G1 X176.684 Y186.9 E20.77891
G1 X173.821 Y109.668 E24.24445
G1 X173.655 Y109.098 E24.27109
G1 X166.312 Y96.379 E24.92965
G1 X165.239 Y95.759 E24.98522
G1 X134.761 Y95.759 E26.35189
G1 X133.74 Y96.349 E26.40477
G1 X134.115 Y96.625 F8700
G1 F2250
G1 X126.771 Y109.344 E27.06334
G1 X126.672 Y109.688 E27.07938
G1 X126.49 Y114.297 E27.28623
G1 X123.809 Y186.918 E30.54487
G1 X125.268 Y193.714 E30.85657
G1 X126.679 Y199.538 E31.12526
G1 X127.099 Y200.043 E31.15473
G1 X128.526 Y200.683 E31.22486
G1 X128.832 Y200.748 E31.23886
G1 X171.168 Y200.748 E33.13729
G1 X171.474 Y200.683 E33.15129
G1 X172.901 Y200.043 E33.22141
G1 X173.321 Y199.538 E33.25088
G1 X174.732 Y193.714 E33.51957
G1 X176.191 Y186.918 E33.83127
G1 X173.328 Y109.688 E37.29676
G1 X173.229 Y109.344 E37.31281
G1 X165.885 Y96.625 E37.97137
G1 X165.239 Y96.252 E38.00484
G1 X134.761 Y96.252 E39.37151
G1 X134.167 Y96.595 E39.40229
M104 S255 ; set temperature
G92 E0
G1 E-0.9 F3000
G1 Z0.71875 F8700
; printing object Hexagon_grid.stl id:0 copy 0
EXCLUDE_OBJECT_START NAME=Hexagon_grid_stl_id_0_copy_0
G1 X172.705 Y195.288
G1 Z0.21875
G1 E0 F60
;TYPE:Internal perimeter
;WIDTH:0.6
G1 F2400
G1 X171.865 Y198.755 E0.17942
G1 X171.353 Y198.984 E0.20763
G1 X171.353 Y196.067 E0.35434
G1 X172.653 Y195.318 E0.4298
G1 X173.546 Y194.164 F8700
;TYPE:External perimeter
G1 F2400
G1 X173.162 Y195.748 E0.51174
G1 X172.338 Y199.149 E0.68774
G1 X171.186 Y199.665 E0.75129
G1 X170.8 Y199.443 E0.77368
G1 X170.8 Y195.748 E0.95953
G1 X173.494 Y194.194 E1.11595
;WIPE_START
G1 X173.352 Y194.514 F8700
;WIPE_END
G92 E0
G1 E-0.9 F3000
G1 Z0.71875 F8700
G1 X171.979 Y196
G1 Z0.21875
G1 E0 F60
;TYPE:Gap fill
;WIDTH:0.572846
G1 F2400
G1 X171.934 Y196.189 E0.00926
;WIDTH:0.60941
G1 X171.864 Y196.585 E0.02985
;WIDTH:0.553502
G1 X171.84 Y196.793 E0.0395
;WIDTH:0.497594
G1 X171.815 Y197.001 E0.04809
;WIDTH:0.441685
G1 X171.79 Y197.209 E0.05562
;WIDTH:0.385777
G1 X171.765 Y197.417 E0.06207
;WIDTH:0.329869
G1 X171.74 Y197.626 E0.06747
;WIDTH:0.273961
G1 X171.715 Y197.834 E0.07179
;WIDTH:0.218052
G1 X171.69 Y198.042 E0.07506
;WIDTH:0.162144
G1 X171.659 Y198.307 E0.07785
G92 E0
G1 E-0.9 F3000
G1 Z0.71875 F8700
G1 X171.738 Y191.889
G1 Z0.21875
G1 E0 F60
;TYPE:Internal perimeter
;WIDTH:0.6
G1 F2400
G1 X171.437 Y191.164 E0.0395
G1 X170.99 Y190.42 E0.08316
G1 X170.436 Y189.751 E0.12682
G1 X169.789 Y189.173 E0.17048
G1 X169.139 Y188.746 E0.2096
G1 X170 Y188.249 E0.25962
G1 X172.094 Y189.458 E0.38123
G1 X172.094 Y191.819 E0.49996
G1 X171.797 Y191.878 E0.51521
G1 X171.43 Y192.898 F8700
G1 F2400
G1 X171.242 Y192.139 E0.55452
G1 X170.942 Y191.413 E0.59401
G1 X170.537 Y190.741 E0.6335
G1 X170.036 Y190.136 E0.67299
G1 X169.451 Y189.613 E0.71248
G1 X168.795 Y189.182 E0.75197
G1 X167.95 Y188.794 E0.79873
G1 X170 Y187.611 E0.9178
G1 X172.647 Y189.139 E1.07153
G1 X172.647 Y192.195 E1.22526
G1 X171.482 Y192.868 E1.2929
G1 X170.943 Y193.818 F8700
;TYPE:External perimeter
G1 F2400
G1 X170.95 Y193.693 E1.29918
G1 X170.885 Y192.994 E1.3345
G1 X170.716 Y192.312 E1.36982
G1 X170.447 Y191.663 E1.40514
G1 X170.085 Y191.062 E1.44047
G1 X169.637 Y190.521 E1.47579
G1 X169.113 Y190.052 E1.51111
G1 X168.526 Y189.668 E1.54643
G1 X167.888 Y189.374 E1.58176
G1 X167.213 Y189.179 E1.61708
G1 X166.8 Y189.125 E1.63805
G1 X166.8 Y188.819 E1.65341
G1 X170 Y186.972 E1.83926
G1 X173.2 Y188.819 E2.02511
G1 X173.2 Y192.514 E2.21097
G1 X170.995 Y193.788 E2.33903
;WIPE_START
G1 X171.094 Y193.447 F8700
;WIPE_END
G92 E0
G1 E-0.9 F3000
G1 Z0.71875 F8700
G1 X171.793 Y191.234
G1 Z0.21875
G1 E0 F60
;TYPE:Gap fill
;WIDTH:0.162144
G1 F2400
G1 X171.765 Y191.096 E0.00148
;WIDTH:0.233716
G1 X171.72 Y190.91 E0.00473
;WIDTH:0.289665
G1 X171.695 Y190.819 E0.0068
;WIDTH:0.345613
G1 X171.67 Y190.728 E0.00936
;WIDTH:0.401562
G1 X171.645 Y190.638 E0.01239
;WIDTH:0.45751
G1 X171.62 Y190.547 E0.0159
;WIDTH:0.513459
G1 X171.595 Y190.457 E0.01989
;WIDTH:0.569407
G1 X171.569 Y190.366 E0.02436
;WIDTH:0.625356
G1 X171.544 Y190.275 E0.02931
;WIDTH:0.681305
G1 X171.519 Y190.185 E0.03474
;WIDTH:0.7541
G1 X171.477 Y190.041 E0.04435
;WIDTH:0.793522
G1 X171.443 Y189.947 E0.05113
;WIDTH:0.906396
G1 X171.409 Y189.853 E0.05894
G1 X171.316 Y189.775 E0.06845
;WIDTH:0.854765
G1 X171.223 Y189.696 E0.07738
;WIDTH:0.803133
G1 X171.131 Y189.618 E0.08575
;WIDTH:0.751501
G1 X171.038 Y189.539 E0.09354
;WIDTH:0.69987
G1 X170.945 Y189.461 E0.10076
;WIDTH:0.635653
G1 X170.669 Y189.248 E0.11942
;WIDTH:0.588787
G1 X170.521 Y189.141 E0.1284
;WIDTH:0.541921
G1 X170.374 Y189.034 E0.1366
;WIDTH:0.495055
G1 X170.226 Y188.927 E0.14402
;WIDTH:0.440687
G1 X169.896 Y188.717 E0.15804
;WIDTH:0.346907
G1 X169.792 Y188.664 E0.16124
G92 E0
G1 E-0.9 F3000
G1 Z0.71875 F8700
G1 X172.98 Y185.568
G1 Z0.21875
G1 E0 F60
;TYPE:Internal perimeter
;WIDTH:0.6
G1 F2400
G1 X171.906 Y184.948 E0.06236
G1 X171.906 Y182.53 E0.18397
G1 X172.468 Y182.205 E0.21661
G1 X172.624 Y183.99 E0.30673
G1 X173.219 Y185.354 E0.38156
G1 X173.025 Y185.528 E0.39465
G1 X174 Y186.795 F8700
G1 F2400
G1 X171.353 Y185.267 E0.54838
G1 X171.353 Y182.211 E0.70211
G1 X172.943 Y181.292 E0.79447
G1 X173.167 Y183.852 E0.92372
G1 X174.359 Y186.588 E1.07381
G1 X174.052 Y186.765 E1.09165
G1 X174 Y187.434 F8700
;TYPE:External perimeter
G1 F2400
G1 X170.8 Y185.586 E1.2775
G1 X170.8 Y181.891 E1.46336
G1 X173.419 Y180.379 E1.61545
G1 X173.71 Y183.714 E1.78381
G1 X175.064 Y186.82 E1.95421
G1 X174.052 Y187.404 E2.01296
;WIPE_START
G1 X173.863 Y187.058 F8700
;WIPE_END
G92 E0
G1 E-0.9 F3000
G1 Z0.71875 F8700
G1 X172.619 Y185.065
G1 Z0.21875
G1 E0 F60
;TYPE:Gap fill
;WIDTH:0.362295
G1 F2400
G1 X172.527 Y184.906 E0.00526
;WIDTH:0.409176
G1 X172.482 Y184.826 E0.00827
;WIDTH:0.457789
G1 X172.436 Y184.747 E0.01169
;WIDTH:0.506401
G1 X172.391 Y184.668 E0.01551
G1 X172.367 Y184.554 E0.02038
;WIDTH:0.44706
G1 X172.343 Y184.44 E0.02461
;WIDTH:0.387719
G1 X172.32 Y184.326 E0.02821
;WIDTH:0.328377
G1 X172.296 Y184.212 E0.03119
;WIDTH:0.269036
G1 X172.268 Y184.063 E0.03426
G1 X172.243 Y183.502 E0.04561
;WIDTH:0.162144
G1 X172.216 Y182.883 E0.0521
G92 E0
G1 E-0.9 F3000
G1 Z0.71875 F8700
G1 X167.428 Y182.145
G1 Z0.21875
G1 E0 F60
;TYPE:Internal perimeter
;WIDTH:0.6
G1 F2400
G1 X168.094 Y182.53 E0.03867
G1 X168.094 Y184.948 E0.16028
G1 X166 Y186.157 E0.28189
G1 X164.629 Y185.365 E0.3615
G1 X165.525 Y184.476 E0.425
G1 X166.488 Y183.377 E0.49848
G1 X167.392 Y182.193 E0.57339
G1 X167.248 Y181.403 F8700
G1 F2400
G1 X168.647 Y182.211 E0.65464
G1 X168.647 Y185.267 E0.80837
G1 X166 Y186.795 E0.9621
G1 X163.692 Y185.463 E1.09614
G1 X164.112 Y185.099 E1.12407
G1 X165.122 Y184.097 E1.19564
G1 X166.06 Y183.027 E1.26722
G1 X166.923 Y181.895 E1.33879
G1 X167.215 Y181.453 E1.36545
G1 X167.073 Y180.663 F8700
;TYPE:External perimeter
G1 F2400
G1 X169.2 Y181.891 E1.48897
G1 X169.2 Y185.586 E1.67482
G1 X166 Y187.434 E1.86068
G1 X162.8 Y185.586 E2.04653
G1 X162.8 Y185.504 E2.05069
G1 X163.736 Y184.694 E2.11294
G1 X164.719 Y183.718 E2.18261
G1 X165.632 Y182.676 E2.25227
G1 X166.472 Y181.575 E2.32194
G1 X167.04 Y180.713 E2.37385
;WIPE_START
G1 X167.266 Y181.014 F8700
;WIPE_END
G92 E0
G1 E-0.9 F3000
G1 Z0.71875 F8700
G1 X167.928 Y183.755
G1 Z0.21875
G1 E0 F60
;TYPE:Solid infill
G1 F2400
G1 X167.236 Y183.063 E0.04923
G1 X166.897 Y183.507 E0.0773
G1 X167.69 Y184.3 E0.13369
G1 X167.69 Y184.715 E0.15456
G1 X167.457 Y184.849 E0.16808
G1 X166.54 Y183.931 E0.23337
G1 X166.174 Y184.348 E0.26124
G1 X166.962 Y185.135 E0.31726
G1 X166.466 Y185.422 E0.34606
G1 X165.808 Y184.764 E0.39286
G1 X165.415 Y185.153 E0.42068
G1 X166.144 Y185.882 E0.4725
G92 E0
G1 E-0.9 F3000
G1 Z0.71875 F8700
G1 X169.334 Y178.844
G1 Z0.21875
G1 E0 F60
;TYPE:Internal perimeter
G1 F2400
G1 X169.931 Y177.414 E0.07793
G1 X170.401 Y176.031 E0.15141
G1 X170.723 Y174.81 E0.21491
G1 X171.879 Y175.478 E0.28207
G1 X172.101 Y178.015 E0.41017
G1 X170 Y179.228 E0.53222
G1 X169.386 Y178.874 E0.56787
G92 E0
G1 E-0.9 F3000
G1 Z0.71875 F8700
G1 X170.339 Y173.95
G1 Z0.21875
G1 E0 F60
G1 F2400
G1 X172.405 Y175.143 E0.12
G1 X172.647 Y177.905 E0.25944
G1 X172.647 Y178.339 E0.28128
G1 X170 Y179.867 E0.43501
G1 X168.601 Y179.059 E0.51626
G1 X168.865 Y178.532 E0.54593
G1 X169.414 Y177.219 E0.61751
G1 X169.871 Y175.871 E0.68908
G1 X170.234 Y174.495 E0.76066
G1 X170.328 Y174.009 E0.78557
G1 X170 Y173.116 F8700
;TYPE:External perimeter
G1 F2400
G1 X172.931 Y174.808 E0.95581
G1 X173.2 Y177.88 E1.11095
G1 X173.2 Y178.658 E1.15006
G1 X170 Y180.506 E1.33592
G1 X167.873 Y179.278 E1.45943
G1 X168.362 Y178.301 E1.51436
G1 X168.896 Y177.023 E1.58403
G1 X169.341 Y175.711 E1.6537
G1 X169.695 Y174.372 E1.72337
G1 X169.928 Y173.157 E1.78562
G1 X169.948 Y173.146 E1.78676
;WIPE_START
G1 X170.137 Y173.491 F8700
;WIPE_END
G92 E0
G1 E-0.9 F3000
G1 Z0.71875 F8700
G1 X171.83 Y176.817
G1 Z0.21875
G1 E0 F60
;TYPE:Solid infill
G1 F2400
G1 X170.865 Y175.852 E0.06863
G1 X170.684 Y176.453 E0.10018
G1 X171.643 Y177.412 E0.16845
G1 X171.677 Y177.794 E0.18772
G1 X171.402 Y177.953 E0.2037
G1 X170.486 Y177.037 E0.26887
G1 X170.284 Y177.617 E0.29978
G1 X170.906 Y178.239 E0.34402
G1 X170.41 Y178.525 E0.37281
G1 X169.872 Y177.987 E0.4111
G92 E0
G1 E-0.9 F3000
G1 Z0.71875 F8700
G1 X172.117 Y171.852
G1 Z0.21875
G1 E0 F60
;TYPE:Internal perimeter
G1 F2400
G1 X171.353 Y171.411 E0.04439
G1 X171.353 Y168.354 E0.19813
G1 X171.789 Y168.102 E0.22347
G1 X172.112 Y171.792 E0.40977
G1 X172.761 Y172.862 F8700
;TYPE:External perimeter
G1 F2400
G1 X170.8 Y171.73 E0.52366
G1 X170.8 Y168.035 E0.70951
G1 X172.265 Y167.189 E0.79458
G1 X172.756 Y172.802 E1.07798
;WIPE_START
G1 X172.495 Y172.563 F8700
;WIPE_END
G92 E0
G1 E-0.9 F3000
G1 Z0.71875 F8700
G1 X170.521 Y164.189
G1 Z0.21875
G1 E0 F60
;TYPE:Internal perimeter
G1 F2400
G1 X170.401 Y163.734 E0.02368
G1 X169.931 Y162.35 E0.09716
G1 X169.334 Y160.921 E0.17509
G1 X170 Y160.536 E0.21376
G1 X170.852 Y161.028 E0.26325
G1 X171.087 Y161.962 E0.31167
G1 X170.891 Y164.158 E0.42256
G1 X170.581 Y164.184 E0.43823
G1 X170.339 Y165.815 F8700
G1 F2400
G1 X170.234 Y165.269 E0.46616
G1 X169.871 Y163.894 E0.53774
G1 X169.414 Y162.546 E0.60931
G1 X168.865 Y161.233 E0.68089
G1 X168.601 Y160.705 E0.71056
G1 X170 Y159.898 E0.79181
G1 X171.331 Y160.666 E0.86912
G1 X171.647 Y161.918 E0.93402
G1 X171.445 Y164.169 E1.04774
G1 X171.529 Y165.128 E1.09613
G1 X170.391 Y165.785 E1.16222
G1 X169.928 Y166.608 F8700
;TYPE:External perimeter
G1 F2400
G1 X169.695 Y165.392 E1.22447
G1 X169.341 Y164.053 E1.29414
G1 X168.896 Y162.742 E1.36381
G1 X168.362 Y161.464 E1.43348
G1 X167.873 Y160.487 E1.48841
G1 X170 Y159.259 E1.61192
G1 X171.81 Y160.304 E1.71706
G1 X172.206 Y161.873 E1.79845
G1 X172 Y164.17 E1.91443
G1 X172.111 Y165.431 E1.97808
G1 X170 Y166.649 E2.10067
G1 X169.98 Y166.638 E2.10181
;WIPE_START
G1 X170.145 Y166.271 F8700
;WIPE_END
G92 E0
G1 E-0.9 F3000
G1 Z0.71875 F8700
G1 X170.646 Y163.522
G1 Z0.21875
G1 E0 F60
;TYPE:Gap fill
;WIDTH:0.151251
G1 F2400
G1 X170.625 Y163.346 E0.00168
;WIDTH:0.216681
G1 X170.611 Y163.226 E0.00354
;WIDTH:0.271218
G1 X170.597 Y163.107 E0.00598
;WIDTH:0.325756
G1 X170.582 Y162.988 E0.00903
;WIDTH:0.380294
G1 X170.568 Y162.869 E0.01266
;WIDTH:0.434831
G1 X170.554 Y162.75 E0.0169
;WIDTH:0.489369
G1 X170.54 Y162.631 E0.02173
;WIDTH:0.543906
G1 X170.525 Y162.512 E0.02715
;WIDTH:0.598444
G1 X170.511 Y162.392 E0.03317
;WIDTH:0.652982
G1 X170.497 Y162.273 E0.03978
;WIDTH:0.707519
G1 X170.47 Y162.071 E0.05203
;WIDTH:0.776113
G1 X170.37 Y161.737 E0.0752
;WIDTH:0.862082
G1 X170.278 Y161.462 E0.09666
G1 X170.231 Y161.382 E0.10355
;WIDTH:0.717808
G1 X170.183 Y161.302 E0.10923
;WIDTH:0.602389
G1 X170.136 Y161.222 E0.11393
;WIDTH:0.515824
G1 X170.051 Y161.093 E0.12051
;WIDTH:0.43625
G1 X169.908 Y160.884 E0.12948
G92 E0
G1 E-0.9 F3000
G1 Z0.71875 F8700
G1 X167.428 Y157.619
G1 Z0.21875
G1 E0 F60
;TYPE:Internal perimeter
;WIDTH:0.6
G1 F2400
G1 X166.488 Y156.387 E0.07793
G1 X165.525 Y155.289 E0.15141
G1 X164.629 Y154.4 E0.21491
G1 X166 Y153.608 E0.29452
G1 X168.094 Y154.817 E0.41613
G1 X168.094 Y157.235 E0.53774
G1 X167.48 Y157.589 E0.57339
G1 X167.248 Y158.362 F8700
G1 F2400
G1 X166.923 Y157.869 E0.60307
G1 X166.06 Y156.738 E0.67464
G1 X165.122 Y155.668 E0.74622
G1 X164.112 Y154.665 E0.81779
G1 X163.692 Y154.302 E0.84572
G1 X166 Y152.97 E0.97976
G1 X168.647 Y154.498 E1.13349
G1 X168.647 Y157.554 E1.28722
G1 X167.3 Y158.332 E1.36545
G1 X167.073 Y159.101 F8700
;TYPE:External perimeter
G1 F2400
G1 X166.472 Y158.19 E1.42038
G1 X165.632 Y157.088 E1.49005
G1 X164.719 Y156.047 E1.55972
G1 X163.736 Y155.071 E1.62938
G1 X162.8 Y154.261 E1.69164
G1 X162.8 Y154.178 E1.69579
G1 X166 Y152.331 E1.88165
G1 X169.2 Y154.178 E2.0675
G1 X169.2 Y157.873 E2.25335
G1 X167.125 Y159.071 E2.37385
;WIPE_START
G1 X167.057 Y158.702 F8700
;WIPE_END
G92 E0
G1 E-0.9 F3000
G1 Z0.71875 F8700
G1 X167.928 Y156.825
G1 Z0.21875
G1 E0 F60
;TYPE:Solid infill
G1 F2400
G1 X165.479 Y154.375 E0.17423
G1 X165.975 Y154.089 E0.20303
G1 X167.928 Y156.042 E0.34198
G92 E0
G1 E-0.9 F3000
G1 Z0.71875 F8700
G1 X162 Y151.516
G1 Z0.21875
G1 E0 F60
;TYPE:Internal perimeter
G1 F2400
G1 X159.906 Y150.307 E0.12161
G1 X159.906 Y147.889 E0.24322
G1 X162 Y146.68 E0.36483
G1 X164.094 Y147.889 E0.48645
