; HEADER_BLOCK_START
; generated by OrcaSlicer 1.6.3 on 2023-06-17 at 17:40:20
; total layer number: 67
; HEADER_BLOCK_END

; THUMBNAIL_BLOCK_START
; THUMBNAIL_BLOCK_END

; external perimeters extrusion width = 0.40mm
; perimeters extrusion width = 0.45mm
; infill extrusion width = 0.45mm
; solid infill extrusion width = 0.40mm
; top infill extrusion width = 0.40mm
; first layer extrusion width = 0.50mm

; EXECUTABLE_BLOCK_START
EXCLUDE_OBJECT_DEFINE NAME=Kenny_2_Mod__Knomi_Display_Hoody_V1_1.stl_id_0_copy_0 CENTER=150,150 POLYGON=[[129.518,145.835],[129.534,145.105],[129.576,144.375],[129.644,143.648],[129.738,142.923],[129.858,142.202],[130.003,141.486],[130.174,140.776],[130.37,140.072],[130.591,139.376],[130.837,138.688],[131.107,138.009],[131.401,137.34],[131.719,136.682],[132.06,136.036],[132.424,135.402],[132.81,134.782],[133.218,134.176],[133.648,133.585],[134.098,133.01],[134.568,132.451],[135.058,131.909],[135.568,131.385],[136.095,130.88],[136.64,130.393],[137.203,129.927],[137.781,129.48],[138.375,129.055],[138.984,128.651],[139.607,128.269],[140.243,127.91],[140.891,127.573],[141.552,127.26],[142.222,126.971],[142.903,126.705],[143.593,126.464],[148.599,124.727],[148.625,124.726],[148.716,124.721],[148.808,124.717],[148.9,124.713],[148.991,124.709],[149.083,124.706],[149.267,124.7],[149.45,124.696],[149.633,124.693],[150,124.69],[150.184,124.691],[150.367,124.693],[150.734,124.7],[151.101,124.713],[151.401,124.728],[156.392,126.459],[157.08,126.699],[157.759,126.963],[158.428,127.251],[159.086,127.562],[159.733,127.897],[160.368,128.254],[160.989,128.634],[161.597,129.035],[162.19,129.458],[162.767,129.902],[163.329,130.366],[163.873,130.85],[164.4,131.353],[164.909,131.874],[165.399,132.413],[165.869,132.969],[166.32,133.541],[166.749,134.129],[167.158,134.732],[167.545,135.349],[167.91,135.98],[168.252,136.623],[168.571,137.277],[168.866,137.943],[169.138,138.619],[169.385,139.304],[169.608,139.997],[169.806,140.698],[169.979,141.405],[170.127,142.119],[170.249,142.837],[170.346,143.558],[170.417,144.283],[170.463,145.01],[170.482,145.738],[170.475,146.467],[170.443,147.194],[170.385,147.92],[170.301,148.644],[166.798,173.917],[166.134,175.31],[133.341,175.31],[132.677,173.917],[129.626,148.023],[129.564,147.295],[129.528,146.566],[129.518,145.835]]
M73 P0 R7
;TYPE:Custom
M190 S105
M109 S260
PRINT_START EXTRUDER=260 BED=105
; You can use following code instead if your PRINT_START macro support Chamber and print area bedmesh
; PRINT_START EXTRUDER=260 BED=105 Chamber=0 PRINT_MIN=128.312,124.229 PRINT_MAX=171.688,173.846
G90
G21
M83 ; use relative distances for extrusion
; Filament gcode
M106 S0
;LAYER_CHANGE
;Z:0.2
;HEIGHT:0.2
;BEFORE_LAYER_CHANGE
;0.2
G92 E0

G1 E-.8 F1800
G1 Z.4 F21000
;AFTER_LAYER_CHANGE
;0.2
M204 S500
G1 X134.353 Y131.249
G1 Z.2
G1 E.8 F1800
;TYPE:Skirt
;WIDTH:0.5
G1 F4200
G1 X135.265 Y130.315 E.04595
G1 X136.482 Y129.25 E.05695
G1 X137.777 Y128.279 E.05695
G1 X139.14 Y127.408 E.05694
G1 X140.566 Y126.642 E.05695
G1 X142.045 Y125.986 E.05694
G1 X143.644 Y125.421 E.05967
G1 X145.814 Y124.87 E.0788
G1 X147.411 Y124.614 E.05694
G1 X149.024 Y124.48 E.05694
G1 X150.642 Y124.467 E.05694
G1 X153.253 Y124.705 E.09227
G1 X154.842 Y125.011 E.05695
G1 X156.403 Y125.435 E.05694
G1 X157.928 Y125.975 E.05695
G1 X159.408 Y126.629 E.05694
G1 X160.835 Y127.393 E.05695
G1 X162.2 Y128.262 E.05694
G1 X163.495 Y129.231 E.05695
G1 X164.714 Y130.295 E.05695
G1 X165.849 Y131.448 E.05694
G1 X166.895 Y132.683 E.05694
G1 X167.844 Y133.994 E.05694
G1 X168.691 Y135.372 E.05695
G1 X169.435 Y136.815 E.05714
G1 X170.094 Y138.381 E.05977
G1 X170.817 Y140.697 E.08539
G1 X171.258 Y142.971 E.08153
G1 X171.452 Y145.313 E.08271
G1 X171.378 Y147.814 E.08808
G1 X167.911 Y171.018 E.8257
G1 X167.66 Y171.838 E.03018
G1 X166.618 Y173.108 E.05781
G1 X164.972 Y173.617 E.06063
G1 X134.503 Y173.617 E1.07234
G1 X133.041 Y173.224 E.05327
G1 X131.873 Y171.958 E.06063
G1 X131.555 Y170.951 E.03716
G1 X128.629 Y147.878 E.81855
G1 X128.543 Y145.52 E.08304
G1 X128.724 Y143.109 E.08509
G1 X129.177 Y140.725 E.08539
G1 X129.858 Y138.511 E.08153
G1 X130.507 Y136.942 E.05977
G1 X131.241 Y135.494 E.05715
G1 X132.08 Y134.11 E.05695
G1 X133.021 Y132.793 E.05694
G1 X134.058 Y131.551 E.05695
G1 X134.311 Y131.292 E.01275
G1 X134.637 Y131.611 F21000
G1 F4200
G1 X135.573 Y130.653 E.04715
G1 X136.765 Y129.609 E.05573
G1 X138.031 Y128.658 E.05573
G1 X139.365 Y127.806 E.05573
G1 X140.76 Y127.056 E.05573
G1 X142.207 Y126.413 E.05573
G1 X143.773 Y125.859 E.05844
G1 X145.91 Y125.317 E.07761
G1 X147.474 Y125.067 E.05573
G1 X149.052 Y124.936 E.05573
G1 X150.636 Y124.924 E.05573
G1 X152.299 Y125.041 E.05869
G1 X153.866 Y125.273 E.05573
G1 X155.41 Y125.623 E.05573
G1 X156.924 Y126.088 E.05573
G1 X158.398 Y126.666 E.05573
G1 X159.825 Y127.354 E.05573
G1 X161.196 Y128.146 E.05573
G1 X162.503 Y129.04 E.05573
G1 X163.739 Y130.03 E.05573
G1 X164.897 Y131.111 E.05573
G1 X165.97 Y132.275 E.05573
G1 X166.952 Y133.517 E.05573
M73 P1 R7
G1 X167.838 Y134.829 E.05573
G1 X168.623 Y136.205 E.05573
G1 X169.333 Y137.708 E.05852
G1 X169.898 Y139.193 E.0559
G1 X170.531 Y141.482 E.08357
G1 X170.819 Y143.133 E.05899
G1 X170.998 Y145.419 E.08068
G1 X170.922 Y147.782 E.08321
G1 X167.459 Y170.95 E.82445
G1 X167.247 Y171.641 E.02544
G1 X166.263 Y172.794 E.05335
G1 X164.972 Y173.16 E.04722
G1 X134.503 Y173.16 E1.07234
G1 X133.171 Y172.769 E.04884
G1 X132.285 Y171.761 E.04722
G1 X132.008 Y170.894 E.03206
G1 X129.085 Y147.842 E.81777
G1 X129 Y145.537 E.08118
G1 X129.176 Y143.176 E.08331
G1 X129.619 Y140.843 E.08357
G1 X130.29 Y138.662 E.08032
G1 X130.926 Y137.126 E.05852
G1 X131.644 Y135.709 E.0559
G1 X132.466 Y134.355 E.05573
G1 X133.387 Y133.067 E.05573
G1 X134.402 Y131.852 E.05573
G1 X134.595 Y131.654 E.00973
; printing object Kenny 2 Mod_ Knomi Display Hoody V1_1.stl id:0 copy 0
EXCLUDE_OBJECT_START NAME=Kenny_2_Mod__Knomi_Display_Hoody_V1_1.stl_id_0_copy_0
G1 E-.56 F1800
;WIPE_START
G1 F4200
G1 X135.573 Y130.653 E-.15956
G1 X136.025 Y130.257 E-.06844
;WIPE_END
G1 E-.012 F1800
G1 Z.6 F21000
G1 X159.992 Y161.734 Z.2
G1 E.8 F1800
;TYPE:Inner wall
G1 F4200
G1 X160.587 Y161.346 E.02499
G2 X161.322 Y160.816 I-10.583 J-15.453 E.03191
G1 X163.511 Y169.496 E.31504
G1 X161.822 Y169.496 E.05944
G1 X160.917 Y166.12 E.12302
G1 X138.558 Y166.12 E.78691
G1 X137.653 Y169.496 E.12302
G1 X135.964 Y169.496 E.05944
G1 X138.241 Y160.466 E.32776
G1 X138.87 Y160.954 E.02804
G2 X159.943 Y161.768 I11.134 J-15.061 E.78833
M73 P2 R7
G1 X159.741 Y161.352 F21000
G1 F4200
G1 X160.328 Y160.969 E.02467
G2 X161.593 Y160.019 I-10.324 J-15.068 E.05568
G1 X164.097 Y169.953 E.36056
G1 X161.471 Y169.953 E.09242
G1 X160.566 Y166.577 E.12302
G1 X138.909 Y166.577 E.76223
G1 X138.004 Y169.953 E.12302
G1 X135.378 Y169.953 E.09242
G1 X137.976 Y159.649 E.374
G1 X138.493 Y160.083 E.02376
G2 X159.692 Y161.386 I11.511 J-14.182 E.79767
G1 X159.284 Y161.044 F21000
;TYPE:Outer wall
G1 F4200
G1 X158.876 Y161.292 E.01679
G3 X149.743 Y128.172 I-8.867 J-15.374 E2.27965
G3 X151.696 Y128.25 I.182 J19.858 E.06882
G3 X159.467 Y160.935 I-1.686 J17.668 E1.5518
G1 X159.335 Y161.013 E.0054
G1 X159.286 Y161.124
G1 E-.56 F1800
;WIPE_START
G1 F4200
G1 X158.876 Y161.292 E-.06123
G1 X158.373 Y161.568 E-.06541
G1 X157.654 Y161.934 E-.09202
G1 X157.579 Y161.968 E-.00934
;WIPE_END
G1 E-.012 F1800
G1 Z.6 F21000
G1 X160.183 Y167.077 Z.2
G1 E.8 F1800
G1 F4200
G1 X139.292 Y167.077 E.73522
M73 P3 R7
G1 X138.387 Y170.453 E.12302
G1 X134.736 Y170.453 E.12851
G1 X137.542 Y159.324 E.40393
G3 X150.594 Y127.631 I12.465 J-13.401 E1.56161
G3 X162.03 Y159.71 I-.599 J18.291 E1.54016
G1 X164.739 Y170.453 E.38994
G1 X161.088 Y170.453 E.12851
G1 X160.198 Y167.135 E.12091
G1 X160.158 Y167.001
G1 E-.56 F1800
;WIPE_START
G1 F4200
G1 X158.198 Y167.129 E-.228
;WIPE_END
G1 E-.012 F1800
G1 Z.6 F21000
G1 X160.694 Y161.434 Z.2
G1 E.8 F1800
;TYPE:Bottom surface
;WIDTH:0.507625
G1 F6300
G1 X161.27 Y162.01 E.02913
G1 X161.491 Y162.888 E.03243
G1 X160.447 Y161.845 E.05283
G3 X160.047 Y162.102 I-3.503 J-5.01 E.01702
G1 X161.713 Y163.767 E.08428
G1 X161.934 Y164.646 E.03243
G1 X159.637 Y162.349 E.11623
G3 X159.218 Y162.586 I-3.258 J-5.272 E.01726
G1 X162.156 Y165.525 E.14868
G1 X162.377 Y166.403 E.03243
G1 X158.791 Y162.817 E.18146
G1 X158.354 Y163.037 E.01752
G1 X162.599 Y167.282 E.21482
G1 X162.821 Y168.161 E.03243
G1 X161.452 Y166.793 E.06923
G1 X161.693 Y167.691 E.03326
G1 X163.042 Y169.04 E.06827
G1 X163.071 Y169.153 E.0042
G1 X162.499 Y169.153 E.02047
G1 X161.643 Y168.297 E.04331
G1 E-.56 F1800
;WIPE_START
G1 F6300
G1 X162.499 Y169.153 E-.138
M73 P4 R7
G1 X163.071 Y169.153 E-.06522
G1 X163.042 Y169.04 E-.01337
G1 X162.971 Y168.969 E-.01141
;WIPE_END
G1 E-.012 F1800
G1 Z.6 F21000
G1 X160.642 Y165.983 Z.2
G1 E.8 F1800
G1 F6300
G1 X157.906 Y163.247 E.13844
G3 X157.452 Y163.449 I-2.829 J-5.742 E.01781
G1 X159.779 Y165.777 E.11779
G1 X159.122 Y165.777 E.02351
G1 X156.985 Y163.64 E.10815
G3 X156.507 Y163.819 I-2.544 J-6.046 E.01826
G1 X158.465 Y165.777 E.09907
G1 X157.808 Y165.777 E.02351
G1 X156.021 Y163.99 E.09042
G1 X155.523 Y164.149 E.01871
G1 X157.151 Y165.777 E.08237
G1 X156.493 Y165.777 E.02351
G1 X155.011 Y164.294 E.07502
G3 X154.488 Y164.429 I-1.991 J-6.644 E.01931
G1 X155.836 Y165.777 E.0682
G1 X155.179 Y165.777 E.02351
G1 X153.955 Y164.553 E.06195
G1 X153.405 Y164.66 E.02004
G1 X154.522 Y165.777 E.05652
G1 X153.865 Y165.777 E.02351
G1 X152.84 Y164.752 E.05185
G3 X152.261 Y164.831 I-1.289 J-7.367 E.02091
G1 X153.207 Y165.777 E.04789
G1 X152.55 Y165.777 E.02351
G1 X151.667 Y164.893 E.04472
G3 X151.055 Y164.939 I-.893 J-7.834 E.02195
G1 X151.893 Y165.777 E.0424
G1 X151.236 Y165.777 E.02352
G1 X150.422 Y164.963 E.04121
G3 X149.766 Y164.965 I-.354 J-8.414 E.02345
G1 X150.579 Y165.777 E.0411
G1 X149.922 Y165.777 E.02351
G1 X149.088 Y164.944 E.04216
G3 X148.384 Y164.896 I.251 J-9.016 E.02527
G1 X149.264 Y165.777 E.04456
G1 X148.607 Y165.777 E.02351
G1 X147.65 Y164.82 E.04844
G3 X146.881 Y164.708 I1.046 J-9.927 E.02779
G1 X147.95 Y165.777 E.05407
G1 X147.293 Y165.777 E.02351
G1 X146.073 Y164.557 E.06174
G3 X145.216 Y164.358 I2.128 J-11.096 E.03146
G1 X146.636 Y165.777 E.07181
G1 X145.978 Y165.777 E.02351
G1 X144.291 Y164.09 E.08537
G3 X143.288 Y163.743 I3.947 J-13.065 E.038
G1 X145.321 Y165.777 E.1029
G1 X144.664 Y165.777 E.02351
G1 X142.168 Y163.281 E.12631
G3 X140.846 Y162.616 I7.692 J-16.943 E.05296
G1 X144.007 Y165.777 E.15995
G1 X143.35 Y165.777 E.02351
G1 X139.137 Y161.564 E.21318
G3 X138.445 Y161.058 I5.606 J-8.391 E.03066
G1 X138.35 Y161.435 E.01389
G1 X142.692 Y165.777 E.21972
G1 X142.035 Y165.777 E.02351
M73 P5 R7
G1 X138.218 Y161.96 E.19316
G1 X138.086 Y162.485 E.01937
G1 X141.378 Y165.777 E.1666
G1 X140.721 Y165.777 E.02351
G1 X137.953 Y163.009 E.14004
G1 X137.821 Y163.534 E.01937
G1 X140.064 Y165.777 E.11348
G1 X139.406 Y165.777 E.02352
G1 X137.689 Y164.059 E.08692
G1 X137.556 Y164.584 E.01937
G1 X138.749 Y165.777 E.06037
G1 X138.295 Y165.777 E.01626
G1 X138.252 Y165.937 E.00592
G1 X137.424 Y165.109 E.0419
G1 X137.292 Y165.634 E.01937
G1 X138.113 Y166.455 E.04156
G1 X137.974 Y166.973 E.0192
G1 X137.159 Y166.159 E.04123
G1 X137.027 Y166.683 E.01937
G1 X137.835 Y167.492 E.0409
G1 X137.696 Y168.01 E.0192
G1 X136.895 Y167.208 E.04057
G1 X136.762 Y167.733 E.01937
G1 X137.558 Y168.528 E.04024
G1 X137.419 Y169.047 E.0192
G1 X136.63 Y168.258 E.03991
G1 X136.498 Y168.783 E.01937
G1 X137.074 Y169.359 E.02916
; stop printing object Kenny 2 Mod_ Knomi Display Hoody V1_1.stl id:0 copy 0
EXCLUDE_OBJECT_END NAME=Kenny_2_Mod__Knomi_Display_Hoody_V1_1.stl_id_0_copy_0
;LAYER_CHANGE
;Z:0.4
;HEIGHT:0.2
;BEFORE_LAYER_CHANGE
;0.4
G92 E0

G1 E-.56 F1800
;WIPE_START
G1 F6300
G1 X136.498 Y168.783 E-.09289
G1 X136.63 Y168.258 E-.06171
G1 X137.085 Y168.713 E-.0734
;WIPE_END
G1 E-.012 F1800
G1 Z.6 F21000
;AFTER_LAYER_CHANGE
;0.4
M204 S5000
M140 S105 ; set bed temperature
; printing object Kenny 2 Mod_ Knomi Display Hoody V1_1.stl id:0 copy 0
EXCLUDE_OBJECT_START NAME=Kenny_2_Mod__Knomi_Display_Hoody_V1_1.stl_id_0_copy_0
M204 S7000
G1 X159.566 Y161.553
G1 Z.4
G1 E.8 F1800
M204 S5000
;TYPE:Inner wall
;WIDTH:0.45
G1 F8843.479
G1 X159.781 Y161.424 E.00786
G1 X160.38 Y161.029 E.02249
G1 X160.963 Y160.612 E.02247
G1 X161.544 Y160.161 E.02305
G1 X163.992 Y169.871 E.31387
G1 X161.622 Y169.871 E.07429
G1 X160.694 Y166.41 E.11231
G1 X138.781 Y166.41 E.68684
G1 X137.853 Y169.871 E.11231
G1 X135.483 Y169.871 E.07429
G1 X138.023 Y159.797 E.32564
G1 X138.334 Y160.058 E.01273
G1 X139.181 Y160.717 E.03364
G1 X139.768 Y161.129 E.02248
G1 X140.371 Y161.517 E.02248
G1 X140.989 Y161.882 E.0225
G1 X141.944 Y162.385 E.03383
G1 X142.595 Y162.688 E.02251
G1 X143.257 Y162.965 E.02249
G1 X143.929 Y163.216 E.02248
G1 X144.61 Y163.44 E.02247
G1 X145.304 Y163.639 E.02263
G1 X145.997 Y163.808 E.02236
G1 X146.7 Y163.951 E.02249
G1 X147.408 Y164.066 E.02248
G1 X148.475 Y164.186 E.03365
G1 X149.552 Y164.245 E.03381
G1 X150.27 Y164.249 E.02251
G1 X150.987 Y164.224 E.02249
G1 X151.701 Y164.172 E.02244
G1 X152.418 Y164.091 E.02262
G1 X153.125 Y163.983 E.02242
G1 X153.83 Y163.846 E.02251
G1 X154.528 Y163.683 E.02247
G1 X155.559 Y163.385 E.03364
G1 X156.579 Y163.03 E.03385
G1 X157.243 Y162.759 E.02248
G1 X157.897 Y162.463 E.0225
G1 X158.538 Y162.141 E.02248
G1 X159.166 Y161.794 E.02249
G1 X159.515 Y161.584 E.01277
M204 S7000
G1 X159.346 Y161.207 F21000
M204 S5000
G1 F8843.479
G1 X158.653 Y161.613 E.02517
G1 X157.721 Y162.096 E.0329
G1 X157.082 Y162.385 E.02198
G1 X156.432 Y162.65 E.022
G1 X155.436 Y162.997 E.03306
G1 X154.428 Y163.288 E.03288
G1 X153.745 Y163.448 E.02199
G1 X153.056 Y163.581 E.02199
G1 X152.011 Y163.728 E.03308
G1 X150.965 Y163.818 E.03291
G1 X150.264 Y163.842 E.02199
G1 X149.562 Y163.838 E.022
G1 X148.863 Y163.807 E.02193
G1 X148.161 Y163.749 E.02208
G1 X147.466 Y163.663 E.02195
G1 X146.773 Y163.551 E.022
G1 X146.086 Y163.411 E.02198
G1 X145.407 Y163.245 E.02191
G1 X144.73 Y163.051 E.02207
G1 X144.064 Y162.831 E.02198
G1 X143.079 Y162.452 E.03308
G1 X142.123 Y162.019 E.0329
G1 X141.499 Y161.699 E.02198
G1 X140.585 Y161.171 E.03309
G1 X139.995 Y160.791 E.022
G1 X139.421 Y160.388 E.02198
G1 X138.863 Y159.963 E.02199
G1 X138.322 Y159.516 E.022
G1 X137.546 Y158.809 E.0329
G1 X136.809 Y158.055 E.03305
G1 X136.345 Y157.531 E.02194
G1 X135.899 Y156.984 E.02212
G1 X135.478 Y156.425 E.02193
G1 X135.078 Y155.849 E.02198
G1 X134.7 Y155.258 E.02199
G1 X134.182 Y154.345 E.0329
G1 X133.712 Y153.401 E.03305
G1 X133.431 Y152.757 E.02202
G1 X133.176 Y152.104 E.02197
G1 X132.947 Y151.442 E.02196
G1 X132.744 Y150.768 E.02206
G1 X132.567 Y150.09 E.02196
G1 X132.417 Y149.405 E.02198
G1 X132.294 Y148.714 E.022
G1 X132.199 Y148.019 E.02199
G1 X132.13 Y147.32 E.02202
G1 X132.089 Y146.62 E.02198
G1 X132.075 Y145.919 E.02198
G1 X132.089 Y145.217 E.02201
G1 X132.13 Y144.517 E.02198
G1 X132.199 Y143.818 E.02202
G1 X132.294 Y143.123 E.02199
G1 X132.417 Y142.433 E.02197
G1 X132.567 Y141.747 E.02201
G1 X132.845 Y140.729 E.03308
G1 X133.176 Y139.733 E.0329
G1 X133.431 Y139.08 E.02197
G1 X133.712 Y138.437 E.02199
G1 X134.016 Y137.806 E.02195
G1 X134.347 Y137.184 E.02208
G1 X134.7 Y136.58 E.02193
G1 X135.078 Y135.988 E.02202
G1 X135.478 Y135.412 E.02198
G1 X135.899 Y134.853 E.02193
G1 X136.345 Y134.307 E.0221
G1 X136.809 Y133.783 E.02194
G1 X137.546 Y133.028 E.03307
G1 X138.322 Y132.321 E.0329
G1 X138.863 Y131.874 E.022
G1 X139.421 Y131.449 E.02199
G1 X140.291 Y130.852 E.03307
G1 X141.189 Y130.31 E.03288
G1 X141.807 Y129.977 E.022
G1 X142.759 Y129.522 E.03307
G1 X143.406 Y129.251 E.02199
G1 X144.064 Y129.006 E.02201
G1 X145.064 Y128.688 E.03289
G1 X146.084 Y128.427 E.033
G1 X146.776 Y128.286 E.02214
G1 X147.466 Y128.174 E.02191
G1 X148.162 Y128.088 E.02198
G1 X148.862 Y128.03 E.02202
G1 X149.911 Y127.996 E.0329
G1 X150.965 Y128.02 E.03305
G1 X151.665 Y128.071 E.022
G1 X152.362 Y128.15 E.02199
G1 X153.398 Y128.321 E.03291
G1 X154.428 Y128.549 E.03307
G1 X155.104 Y128.736 E.02198
G1 X155.773 Y128.948 E.022
G1 X156.432 Y129.187 E.02197
G1 X157.083 Y129.452 E.02203
G1 X157.721 Y129.742 E.02197
G1 X158.348 Y130.056 E.02198
