; generated by SuperSlicer 2.4 on 2023-02-01 at 14:05:29 UTC


;
;

;
;
; 

; external perimeters extrusion width = 0.38mm
; perimeters extrusion width = 0.38mm
; infill extrusion width = 0.45mm
; solid infill extrusion width = 0.45mm
; top infill extrusion width = 0.44mm
; support material extrusion width = 0.40mm
; first layer extrusion width = 0.40mm


;TYPE:Custom
M104 S0 ; Stops SuperSlicer from sending temp waits separately

M140 S0

print_start EXTRUDER=248 BED=105 CHAMBER=0
M107
G21 ; set units to millimeters
G90 ; use absolute coordinates
M83 ; use relative distances for extrusion
; Filament gcode
;_TOOLCHANGE 0
M107
;LAYER_CHANGE
;Z:0.18125
;HEIGHT:0.18125
TIMELAPSE_TAKE_FRAME
;BEFORE_LAYER_CHANGE
;0.18125


G1 E-0.4 F2400
G1 Z0.3 F18000
TIMELAPSE_TAKE_FRAME
;BEFORE_LAYER_CHANGE
;0.18125
G92 E0
M204 S1500
G1 Z0.48125
G1 X78.694 Y155.661
G1 Z0.18125
G1 E0.4 F2280
;TYPE:Skirt
;WIDTH:0.52
G1 F1500
G1 X77.711 Y156.31 E0.04268
G1 X69.806 Y162.272 E0.35896
G1 X68.774 Y163.315 E0.05319
G1 X67.787 Y164.692 E0.06143
G1 X67.258 Y165.727 E0.04214
G1 X66.862 Y166.814 E0.04196
G1 X66.538 Y168.473 E0.06126
G1 X66.493 Y178.521 E0.36429
G1 X66.686 Y180.204 E0.0614
G1 X67.108 Y181.561 E0.05153
G1 X67.7 Y182.744 E0.04798
G1 X68.917 Y184.326 E0.07234
G1 X69.887 Y185.196 E0.04725
G1 X71.202 Y186.061 E0.05705
G1 X72.858 Y186.784 E0.06551
G1 X74.401 Y187.176 E0.05772
G1 X76.056 Y187.338 E0.06029
G1 X206.228 Y187.343 E4.71921
G1 X208.149 Y187.164 E0.06991
G1 X209.264 Y186.897 E0.04158
G1 X210.225 Y186.564 E0.03687
G1 X211.226 Y186.093 E0.04012
G1 X212.282 Y185.433 E0.04515
G1 X213.168 Y184.718 E0.04129
G1 X214.04 Y183.799 E0.04591
G1 X215.098 Y182.18 E0.07011
G1 X215.616 Y180.898 E0.05014
G1 X215.8 Y180.204 E0.02604
G1 X215.991 Y178.552 E0.06029
G1 X215.993 Y169.302 E0.33531
G1 X215.878 Y167.937 E0.04969
G1 X215.429 Y166.226 E0.06412
G1 X214.975 Y165.191 E0.041
G1 X214.38 Y164.19 E0.0422
G1 X213.711 Y163.313 E0.03997
G1 X212.986 Y162.551 E0.03814
G1 X212.085 Y161.786 E0.04283
G1 X204.622 Y156.201 E0.33795
G1 X202.979 Y155.226 E0.06927
G1 X201.451 Y154.614 E0.05965
G1 X199.593 Y154.169 E0.06929
G1 X197.646 Y154.008 E0.07082
G1 X84.882 Y154.007 E4.08812
G1 X83.828 Y154.054 E0.03823
G1 X82.276 Y154.283 E0.05688
G1 X81.035 Y154.614 E0.04655
G1 X80.076 Y154.969 E0.03709
G1 X78.748 Y155.635 E0.05385
G1 X78.963 Y156.065 F18000
G1 F1500
G1 X78.928 Y156.082 E0.00143
G1 X78 Y156.695 E0.04031
G1 X70.113 Y162.643 E0.35813
G1 X69.15 Y163.616 E0.04965
G1 X68.193 Y164.95 E0.05951
G1 X67.692 Y165.935 E0.04004
G1 X67.319 Y166.966 E0.03974
G1 X67.019 Y168.504 E0.05682
G1 X66.975 Y178.521 E0.36316
G1 X67.151 Y180.08 E0.05688
G1 X67.546 Y181.362 E0.04862
G1 X68.103 Y182.48 E0.0453
G1 X69.276 Y184.006 E0.06977
G1 X70.196 Y184.827 E0.04471
G1 X71.419 Y185.632 E0.05305
G1 X73.026 Y186.333 E0.06359
G1 X74.47 Y186.699 E0.05401
G1 X76.079 Y186.857 E0.0586
G1 X206.228 Y186.862 E4.71837
G1 X208.078 Y186.688 E0.06733
G1 X210.058 Y186.112 E0.07477
G1 X211.012 Y185.662 E0.03826
G1 X212.017 Y185.032 E0.04299
G1 X212.856 Y184.352 E0.03915
G1 X213.681 Y183.478 E0.04355
G1 X214.659 Y181.98 E0.06487
G1 X215.151 Y180.774 E0.04722
G1 X215.335 Y180.08 E0.02604
G1 X215.51 Y178.551 E0.05578
G1 X215.512 Y169.302 E0.33531
G1 X215.406 Y168.029 E0.04631
G1 X214.973 Y166.377 E0.06192
G1 X214.539 Y165.396 E0.03889
G1 X213.973 Y164.446 E0.04009
G1 X213.336 Y163.615 E0.03796
G1 X212.645 Y162.89 E0.03632
G1 X211.797 Y162.172 E0.04029
G1 X204.352 Y156.599 E0.33715
G1 X202.781 Y155.665 E0.06626
G1 X201.291 Y155.068 E0.05819
G1 X199.505 Y154.642 E0.06657
G1 X197.646 Y154.49 E0.06761
G1 X84.882 Y154.489 E4.08812
G1 X83.881 Y154.533 E0.03632
G1 X82.364 Y154.757 E0.05559
G1 X80.274 Y155.408 E0.07937
G1 X79.017 Y156.038 E0.05097
G1 X79.232 Y156.468 F18000
G1 F1500
G1 X79.162 Y156.503 E0.00286
G1 X78.289 Y157.08 E0.03794
G1 X70.419 Y163.014 E0.3573
G1 X69.525 Y163.918 E0.04611
G1 X68.599 Y165.209 E0.05759
G1 X68.126 Y166.143 E0.03795
G1 X67.776 Y167.117 E0.03753
G1 X67.499 Y168.535 E0.05239
G1 X67.456 Y178.521 E0.36203
G1 X67.617 Y179.956 E0.05236
G1 X67.984 Y181.162 E0.04571
G1 X68.505 Y182.216 E0.04263
G1 X69.636 Y183.685 E0.06719
G1 X70.505 Y184.458 E0.04218
G1 X71.636 Y185.202 E0.04905
G1 X73.195 Y185.882 E0.06168
G1 X74.54 Y186.223 E0.0503
G1 X76.102 Y186.376 E0.05691
G1 X206.228 Y186.38 E4.71754
G1 X208.007 Y186.212 E0.06475
G1 X209.891 Y185.661 E0.07118
G1 X210.798 Y185.231 E0.0364
G1 X211.751 Y184.63 E0.04083
G1 X212.543 Y183.986 E0.03702
G1 X213.321 Y183.158 E0.04119
G1 X214.221 Y181.781 E0.05963
G1 X214.686 Y180.651 E0.0443
G1 X214.87 Y179.957 E0.02604
G1 X215.029 Y178.551 E0.05127
G1 X215.03 Y169.302 E0.33531
G1 X214.934 Y168.122 E0.04293
G1 X214.516 Y166.529 E0.05971
G1 X214.104 Y165.602 E0.03677
G1 X213.566 Y164.703 E0.03799
G1 X212.961 Y163.917 E0.03595
G1 X212.303 Y163.229 E0.0345
G1 X211.508 Y162.557 E0.03774
G1 X204.081 Y156.997 E0.33634
G1 X202.583 Y156.103 E0.06325
G1 X201.131 Y155.522 E0.05672
G1 X199.417 Y155.115 E0.06385
G1 X197.646 Y154.971 E0.06441
G1 X84.882 Y154.97 E4.08812
G1 X83.933 Y155.011 E0.03441
G1 X82.452 Y155.23 E0.05429
G1 X80.472 Y155.847 E0.07518
G1 X79.286 Y156.441 E0.04809
G1 E-0.4 F2400
G1 Z0.48125 F18000
G1 X81.056 Y159.587
G1 Z0.18125
G1 E0.4 F2280
;WIDTH:0.4
;HEIGHT:0.18
G1 F1500
G1 X81.371 Y159.41 E0.00977
G1 X81.961 Y159.143 E0.01752
G1 X82.584 Y158.925 E0.01785
G1 X83.127 Y158.782 E0.01519
G1 X83.689 Y158.676 E0.01546
G1 X84.287 Y158.609 E0.01627
G1 X84.904 Y158.584 E0.01671
G1 X197.623 Y158.586 E3.04829
G1 X198.2 Y158.609 E0.0156
G1 X198.784 Y158.674 E0.01591
G1 X199.346 Y158.779 E0.01547
G1 X199.903 Y158.925 E0.01557
G1 X200.578 Y159.164 E0.01936
G1 X201.111 Y159.408 E0.01586
G1 X201.628 Y159.7 E0.01604
G1 X202.059 Y159.994 E0.01413
G1 X209.35 Y165.457 E0.24636
G1 X209.779 Y165.817 E0.01516
G1 X210.184 Y166.231 E0.01564
G1 X210.544 Y166.688 E0.01573
G1 X210.866 Y167.209 E0.01656
G1 X211.097 Y167.709 E0.0149
G1 X211.268 Y168.23 E0.01484
G1 X211.375 Y168.767 E0.01479
G1 X211.414 Y169.285 E0.01406
G1 X211.414 Y178.494 E0.24903
G1 X211.375 Y178.979 E0.01316
G1 X211.166 Y179.77 E0.02215
G1 X210.909 Y180.309 E0.01613
G1 X210.587 Y180.789 E0.01565
G1 X210.195 Y181.23 E0.01596
G1 X209.766 Y181.603 E0.01536
G1 X209.18 Y181.994 E0.01904
G1 X208.656 Y182.259 E0.01587
G1 X208.077 Y182.475 E0.01671
G1 X207.447 Y182.639 E0.01763
G1 X206.82 Y182.734 E0.01714
G1 X206.198 Y182.766 E0.01683
G1 X76.284 Y182.766 E3.51331
G1 X75.71 Y182.738 E0.01556
G1 X75.129 Y182.656 E0.01585
G1 X74.463 Y182.493 E0.01853
G1 X73.782 Y182.237 E0.01969
G1 X73.305 Y181.994 E0.01448
G1 X72.857 Y181.705 E0.01443
G1 X72.277 Y181.216 E0.02052
G1 X71.89 Y180.776 E0.01584
G1 X71.576 Y180.307 E0.01525
G1 X71.288 Y179.677 E0.01873
G1 X71.113 Y178.994 E0.01908
G1 X71.071 Y178.466 E0.01433
G1 X71.073 Y169.284 E0.24829
G1 X71.115 Y168.741 E0.01473
G1 X71.231 Y168.181 E0.01547
G1 X71.42 Y167.635 E0.01563
G1 X71.693 Y167.08 E0.01671
G1 X71.985 Y166.628 E0.01455
G1 X72.318 Y166.214 E0.01439
G1 X72.708 Y165.817 E0.01505
G1 X73.137 Y165.457 E0.01513
G1 X80.464 Y159.968 E0.24758
G1 X80.905 Y159.672 E0.01438
G1 X81.004 Y159.617 E0.00305
G1 X81.18 Y159.932 F18000
G1 F1500
G1 X81.541 Y159.729 E0.01119
G1 X82.103 Y159.475 E0.01667
G1 X82.683 Y159.272 E0.01662
G1 X83.213 Y159.133 E0.01482
G1 X83.749 Y159.033 E0.01475
G1 X84.321 Y158.968 E0.01556
G1 X84.908 Y158.946 E0.01589
G1 X197.619 Y158.947 E3.0481
G1 X198.166 Y158.968 E0.01479
G1 X198.724 Y159.031 E0.0152
G1 X199.274 Y159.133 E0.01511
G1 X199.804 Y159.272 E0.01483
G1 X200.435 Y159.496 E0.01811
G1 X200.941 Y159.726 E0.01502
G1 X201.43 Y160.003 E0.01521
G1 X201.846 Y160.286 E0.0136
G1 X209.122 Y165.738 E0.24586
G1 X209.528 Y166.077 E0.01431
G1 X209.906 Y166.463 E0.01463
G1 X210.242 Y166.887 E0.01463
G1 X210.543 Y167.372 E0.01541
G1 X210.757 Y167.832 E0.01373
G1 X210.921 Y168.332 E0.01425
G1 X211.018 Y168.826 E0.01359
G1 X211.053 Y169.305 E0.01299
G1 X211.053 Y178.486 E0.2483
G1 X211.017 Y178.933 E0.01213
G1 X210.832 Y179.631 E0.01951
G1 X210.601 Y180.12 E0.01461
G1 X210.309 Y180.559 E0.01427
G1 X209.933 Y180.981 E0.0153
G1 X209.538 Y181.322 E0.01409
G1 X208.989 Y181.687 E0.01783
G1 X208.503 Y181.931 E0.01472
G1 X207.977 Y182.127 E0.01518
G1 X207.383 Y182.283 E0.01662
G1 X206.792 Y182.373 E0.01615
G1 X206.194 Y182.404 E0.01621
G1 X76.289 Y182.404 E3.51307
G1 X75.735 Y182.377 E0.01498
G1 X75.189 Y182.3 E0.01494
G1 X74.58 Y182.151 E0.01694
G1 X73.936 Y181.91 E0.01859
G1 X73.493 Y181.685 E0.01344
G1 X73.063 Y181.407 E0.01386
G1 X72.539 Y180.967 E0.01851
G1 X72.169 Y180.546 E0.01515
G1 X71.885 Y180.119 E0.01389
G1 X71.633 Y179.571 E0.01629
G1 X71.472 Y178.949 E0.01739
G1 X71.432 Y178.458 E0.01331
G1 X71.433 Y169.305 E0.24755
G1 X71.471 Y168.803 E0.01361
G1 X71.577 Y168.287 E0.01423
G1 X71.749 Y167.784 E0.01439
G1 X72.002 Y167.267 E0.01555
G1 X72.273 Y166.847 E0.0135
G1 X72.594 Y166.447 E0.01388
G1 X72.959 Y166.077 E0.01407
G1 X73.365 Y165.738 E0.01429
G1 X80.669 Y160.266 E0.24681
G1 X81.101 Y159.976 E0.01406
G1 X81.128 Y159.961 E0.00085
G1 X81.304 Y160.276 F18000
G1 F1500
G1 X81.711 Y160.048 E0.0126
G1 X82.23 Y159.813 E0.0154
G1 X82.782 Y159.62 E0.01582
G1 X83.286 Y159.487 E0.01409
G1 X83.809 Y159.389 E0.01439
G1 X84.354 Y159.328 E0.01484
G1 X84.911 Y159.307 E0.01507
G1 X197.616 Y159.308 E3.04792
G1 X198.132 Y159.328 E0.01397
G1 X198.678 Y159.389 E0.01484
G1 X199.201 Y159.487 E0.0144
G1 X199.705 Y159.62 E0.0141
G1 X200.293 Y159.828 E0.01687
G1 X200.77 Y160.045 E0.01418
G1 X201.233 Y160.306 E0.01437
G1 X201.633 Y160.578 E0.01306
G1 X208.894 Y166.018 E0.24538
G1 X209.276 Y166.337 E0.01346
G1 X209.63 Y166.696 E0.01361
G1 X209.941 Y167.087 E0.01353
G1 X210.22 Y167.535 E0.01426
G1 X210.417 Y167.956 E0.01258
G1 X210.569 Y168.414 E0.01306
G1 X210.659 Y168.863 E0.01238
G1 X210.692 Y169.324 E0.01251
G1 X210.691 Y178.479 E0.24757
G1 X210.658 Y178.888 E0.0111
G1 X210.498 Y179.492 E0.01691
G1 X210.292 Y179.931 E0.0131
G1 X210.03 Y180.329 E0.01288
G1 X209.687 Y180.716 E0.014
G1 X209.328 Y181.027 E0.01283
G1 X208.798 Y181.38 E0.01721
G1 X208.35 Y181.604 E0.01356
G1 X207.876 Y181.78 E0.01368
G1 X207.319 Y181.927 E0.01559
G1 X206.747 Y182.015 E0.01565
G1 X206.189 Y182.043 E0.0151
G1 X76.293 Y182.043 E3.51283
G1 X75.778 Y182.018 E0.01395
G1 X75.248 Y181.943 E0.01446
G1 X74.677 Y181.803 E0.01592
G1 X74.091 Y181.583 E0.01693
G1 X73.665 Y181.367 E0.01291
G1 X73.269 Y181.11 E0.01277
G1 X72.801 Y180.718 E0.0165
G1 X72.449 Y180.317 E0.01444
G1 X72.194 Y179.931 E0.01251
G1 X71.979 Y179.464 E0.01391
G1 X71.831 Y178.903 E0.01568
G1 X71.793 Y178.451 E0.01228
G1 X71.794 Y169.324 E0.24681
G1 X71.828 Y168.863 E0.0125
G1 X71.923 Y168.392 E0.013
G1 X72.079 Y167.932 E0.01314
G1 X72.312 Y167.454 E0.01437
G1 X72.571 Y167.051 E0.01295
G1 X72.87 Y166.681 E0.01285
G1 X73.21 Y166.337 E0.0131
G1 X73.593 Y166.018 E0.01346
G1 X80.874 Y160.563 E0.24605
G1 X81.254 Y160.309 E0.01237
G1 X81.455 Y160.609 F18000
G1 F1500
G1 X81.491 Y160.585 E0.00117
G1 X81.88 Y160.368 E0.01205
G1 X82.357 Y160.152 E0.01415
G1 X82.881 Y159.968 E0.01502
G1 X83.372 Y159.838 E0.01372
G1 X83.868 Y159.746 E0.01367
G1 X84.388 Y159.688 E0.01413
G1 X84.915 Y159.669 E0.01426
G1 X197.613 Y159.67 E3.04773
G1 X198.099 Y159.688 E0.01316
G1 X198.618 Y159.746 E0.01413
G1 X199.115 Y159.838 E0.01367
G1 X199.605 Y159.968 E0.01371
G1 X200.151 Y160.16 E0.01564
G1 X200.6 Y160.364 E0.01335
G1 X201.037 Y160.609 E0.01353
G1 X201.419 Y160.869 E0.01252
G1 X208.667 Y166.299 E0.2449
G1 X209.026 Y166.597 E0.01262
G1 X209.353 Y166.929 E0.0126
G1 X209.64 Y167.288 E0.01243
G1 X209.898 Y167.699 E0.01312
G1 X210.078 Y168.081 E0.01142
G1 X210.217 Y168.496 E0.01184
G1 X210.302 Y168.922 E0.01176
G1 X210.331 Y169.343 E0.0114
G1 X210.33 Y178.471 E0.24686
G1 X210.299 Y178.842 E0.01006
G1 X210.163 Y179.355 E0.01435
G1 X209.983 Y179.744 E0.0116
G1 X209.75 Y180.099 E0.01147
G1 X209.424 Y180.468 E0.01332
G1 X209.101 Y180.746 E0.01153
G1 X208.608 Y181.072 E0.01597
G1 X208.198 Y181.276 E0.01239
G1 X207.775 Y181.433 E0.01221
G1 X207.254 Y181.572 E0.01456
G1 X206.701 Y181.656 E0.01513
G1 X206.185 Y181.682 E0.01399
G1 X76.297 Y181.682 E3.51259
G1 X75.804 Y181.658 E0.01336
G1 X75.309 Y181.587 E0.01352
G1 X74.774 Y181.454 E0.01491
G1 X74.245 Y181.256 E0.01527
G1 X73.837 Y181.049 E0.01237
G1 X73.475 Y180.813 E0.01168
G1 X73.064 Y180.469 E0.01451
G1 X72.729 Y180.088 E0.01372
G1 X72.504 Y179.744 E0.01111
G1 X72.324 Y179.355 E0.01159
G1 X72.19 Y178.857 E0.01395
G1 X72.155 Y178.443 E0.01123
G1 X72.155 Y169.343 E0.2461
G1 X72.184 Y168.922 E0.0114
G1 X72.269 Y168.496 E0.01176
G1 X72.409 Y168.079 E0.0119
G1 X72.622 Y167.64 E0.01319
G1 X72.859 Y167.27 E0.01188
G1 X73.133 Y166.929 E0.01184
G1 X73.461 Y166.597 E0.01261
G1 X73.82 Y166.299 E0.01262
G1 X81.079 Y160.861 E0.2453
G1 X81.405 Y160.642 E0.01062
G1 X81.607 Y160.942 F18000
G1 F1500
G1 X81.689 Y160.887 E0.00269
G1 X82.059 Y160.682 E0.01144
G1 X82.488 Y160.488 E0.01272
G1 X82.977 Y160.316 E0.01403
G1 X83.448 Y160.191 E0.01316
G1 X83.931 Y160.102 E0.0133
G1 X84.424 Y160.048 E0.0134
G1 X84.916 Y160.03 E0.01333
G1 X197.611 Y160.031 E3.04764
G1 X198.069 Y160.048 E0.0124
G1 X198.555 Y160.102 E0.01322
G1 X199.039 Y160.191 E0.01331
G1 X199.509 Y160.316 E0.01315
G1 X199.998 Y160.488 E0.01402
G1 X200.434 Y160.685 E0.01294
G1 X200.83 Y160.906 E0.01225
G1 X201.201 Y161.157 E0.01212
G1 X208.441 Y166.582 E0.24467
G1 X208.779 Y166.861 E0.01184
G1 X209.081 Y167.166 E0.01161
G1 X209.343 Y167.493 E0.01134
G1 X209.573 Y167.858 E0.01166
G1 X209.745 Y168.22 E0.01083
G1 X209.869 Y168.593 E0.01064
G1 X209.945 Y168.975 E0.01052
G1 X209.97 Y169.358 E0.01038
G1 X209.969 Y178.467 E0.24636
G1 X209.94 Y178.803 E0.00911
G1 X209.836 Y179.198 E0.01105
G1 X209.67 Y179.564 E0.01086
G1 X209.451 Y179.895 E0.01073
G1 X209.167 Y180.214 E0.01156
G1 X208.862 Y180.475 E0.01086
G1 X208.443 Y180.751 E0.01357
G1 X208.05 Y180.946 E0.01185
G1 X207.654 Y181.093 E0.01144
G1 X207.158 Y181.223 E0.01386
G1 X206.661 Y181.297 E0.01357
G1 X206.183 Y181.32 E0.01297
G1 X76.304 Y181.32 E3.51235
G1 X75.834 Y181.298 E0.01271
G1 X75.366 Y181.23 E0.01281
G1 X74.866 Y181.105 E0.01391
G1 X74.413 Y180.935 E0.01311
G1 X74.013 Y180.734 E0.01209
G1 X73.669 Y180.508 E0.01113
G1 X73.32 Y180.214 E0.01235
G1 X73.035 Y179.895 E0.01157
G1 X72.81 Y179.551 E0.0111
G1 X72.651 Y179.198 E0.01049
G1 X72.547 Y178.803 E0.01106
G1 X72.516 Y178.439 E0.00986
G1 X72.516 Y169.363 E0.24544
G1 X72.542 Y168.975 E0.01054
G1 X72.618 Y168.593 E0.01052
G1 X72.738 Y168.23 E0.01035
G1 X72.924 Y167.839 E0.01172
G1 X73.15 Y167.485 E0.01135
G1 X73.412 Y167.159 E0.01131
G1 X73.714 Y166.855 E0.01159
G1 X74.045 Y166.582 E0.0116
G1 X81.283 Y161.16 E0.24457
G1 X81.557 Y160.976 E0.00893
M104 S248 ; set temperature
G1 X81.769 Y161.292 F18000
;TYPE:External perimeter
;HEIGHT:0.18125
G1 F1500
G1 X81.885 Y161.214 E0.0038
G1 X82.227 Y161.024 E0.01065
G1 X82.627 Y160.843 E0.01193
G1 X83.086 Y160.681 E0.01326
G1 X83.528 Y160.564 E0.01244
G1 X83.984 Y160.479 E0.01261
G1 X84.448 Y160.428 E0.01272
G1 X84.922 Y160.411 E0.01289
G1 X197.606 Y160.412 E3.06624
G1 X198.038 Y160.428 E0.01178
G1 X198.503 Y160.479 E0.01273
G1 X198.959 Y160.564 E0.01261
G1 X199.4 Y160.681 E0.01243
G1 X199.86 Y160.843 E0.01326
G1 X200.26 Y161.024 E0.01194
G1 X200.633 Y161.232 E0.01164
G1 X200.981 Y161.468 E0.01144
G1 X208.204 Y166.88 E0.24559
G1 X208.519 Y167.14 E0.01109
G1 X208.794 Y167.416 E0.01062
G1 X209.03 Y167.71 E0.01026
G1 X209.242 Y168.046 E0.0108
G1 X209.393 Y168.367 E0.00964
G1 X209.502 Y168.695 E0.00943
G1 X209.567 Y169.03 E0.00927
G1 X209.59 Y169.373 E0.00936
G1 X209.588 Y178.455 E0.24712
G1 X209.562 Y178.745 E0.00792
G1 X209.474 Y179.077 E0.00935
G1 X209.339 Y179.373 E0.00887
G1 X209.153 Y179.657 E0.00924
G1 X208.896 Y179.946 E0.01051
G1 X208.637 Y180.167 E0.00927
G1 X208.257 Y180.418 E0.01238
G1 X207.895 Y180.598 E0.01101
G1 X207.535 Y180.731 E0.01044
G1 X207.086 Y180.849 E0.01263
G1 X206.62 Y180.918 E0.01283
G1 X206.176 Y180.94 E0.0121
G1 X76.311 Y180.94 E3.53374
G1 X75.867 Y180.918 E0.0121
G1 X75.435 Y180.855 E0.01187
G1 X74.985 Y180.742 E0.01263
G1 X74.561 Y180.584 E0.01231
G1 X74.2 Y180.402 E0.01101
