; generated by SuperSlicer 2.4 on 2023-03-02 at 07:09:50 UTC


;
;

;
;
; 

; external perimeters extrusion width = 0.42mm
; perimeters extrusion width = 0.46mm
; infill extrusion width = 0.44mm
; solid infill extrusion width = 0.46mm
; top infill extrusion width = 0.44mm
; support material extrusion width = 0.40mm
; first layer extrusion width = 0.60mm

; external perimeters extrusion width = 0.42mm
; perimeters extrusion width = 0.46mm
; infill extrusion width = 0.44mm
; solid infill extrusion width = 0.46mm
; top infill extrusion width = 0.44mm
; support material extrusion width = 0.40mm
; first layer extrusion width = 0.60mm

; object:{"name":"ldo_bestagon_insert 2","id":"ldo_bestagon_insert 2.4.stl id:0 copy 0","object_center":[152.654439,133.500001,0.000000],"boundingbox_center":[152.654439,133.500001,4.500000],"boundingbox_size":[26.475208,24.000000,9.000000]}
; object:{"name":"ldo_bestagon_insert 2","id":"ldo_bestagon_insert 2.4.stl id:0 copy 1","object_center":[152.654439,163.500001,0.000000],"boundingbox_center":[152.654439,163.500001,4.500000],"boundingbox_size":[26.475208,24.000000,9.000000]}
; object:{"name":"ldo_bestagon_insert 2","id":"ldo_bestagon_insert 2.4.stl id:0 copy 2","object_center":[185.129647,133.500001,0.000000],"boundingbox_center":[185.129647,133.500001,4.500000],"boundingbox_size":[26.475208,24.000000,9.000000]}
; object:{"name":"ldo_bestagon_insert 2","id":"ldo_bestagon_insert 2.4.stl id:0 copy 3","object_center":[185.129647,163.500001,0.000000],"boundingbox_center":[185.129647,163.500001,4.500000],"boundingbox_size":[26.475208,24.000000,9.000000]}
; object:{"name":"z_rail_stop_x4 2","id":"z_rail_stop_x4 2.4.stl id:1 copy 0","object_center":[131.632750,150.402675,0.000000],"boundingbox_center":[131.632750,150.402675,11.000000],"boundingbox_size":[16.000000,9.200000,22.000000]}
; object:{"name":"z_rail_stop_x4 2","id":"z_rail_stop_x4 2.4.stl id:1 copy 1","object_center":[109.632750,150.402675,0.000000],"boundingbox_center":[109.632750,150.402675,11.000000],"boundingbox_size":[16.000000,9.200000,22.000000]}
; object:{"name":"z_rail_stop_x4 2","id":"z_rail_stop_x4 2.4.stl id:1 copy 2","object_center":[124.805585,134.950478,0.000000],"boundingbox_center":[124.805585,134.950478,11.000000],"boundingbox_size":[16.000000,9.200000,22.000000]}
; object:{"name":"z_rail_stop_x4 2","id":"z_rail_stop_x4 2.4.stl id:1 copy 3","object_center":[125.416835,165.503801,0.000000],"boundingbox_center":[125.416835,165.503801,11.000000],"boundingbox_size":[16.000000,9.200000,22.000000]}
; plater:{"center":[150.000001,148.500001,0.000000],"boundingbox_center":[150.000001,148.500001,11.000000],"boundingbox_size":[96.734501,54.000000,22.000000]}

;TYPE:Custom
M104 S0 ; Stops SuperSlicer from sending temp waits separately


; Pre-Processed for Cancel-Object support by preprocess_cancellation v0.2.0
; 8 known objects
EXCLUDE_OBJECT_DEFINE NAME=ldo_bestagon_insert_2_4_stl_id_0_copy_0 CENTER=152.652,133.540 POLYGON=[[139.627,121.71],[139.627,145.29],[165.682,145.29],[165.682,121.71]]
EXCLUDE_OBJECT_DEFINE NAME=z_rail_stop_x4_2_4_stl_id_1_copy_0 CENTER=131.531,149.238 POLYGON=[[123.843,146.013],[123.843,154.793],[139.423,154.793],[139.423,146.013]]
EXCLUDE_OBJECT_DEFINE NAME=z_rail_stop_x4_2_4_stl_id_1_copy_3 CENTER=125.347,164.342 POLYGON=[[117.627,161.114],[117.627,169.894],[133.207,169.894],[133.207,161.114]]
EXCLUDE_OBJECT_DEFINE NAME=z_rail_stop_x4_2_4_stl_id_1_copy_1 CENTER=109.529,149.237 POLYGON=[[101.843,146.013],[101.843,154.793],[117.423,154.793],[117.423,146.013]]
EXCLUDE_OBJECT_DEFINE NAME=z_rail_stop_x4_2_4_stl_id_1_copy_2 CENTER=124.818,133.796 POLYGON=[[117.016,130.56],[117.016,139.34],[132.596,139.34],[132.596,130.56]]
EXCLUDE_OBJECT_DEFINE NAME=ldo_bestagon_insert_2_4_stl_id_0_copy_1 CENTER=152.644,163.539 POLYGON=[[139.627,151.71],[139.627,175.29],[165.682,175.29],[165.682,151.71]]
EXCLUDE_OBJECT_DEFINE NAME=ldo_bestagon_insert_2_4_stl_id_0_copy_3 CENTER=185.131,163.534 POLYGON=[[172.102,151.71],[172.102,175.29],[198.157,175.29],[198.157,151.71]]
EXCLUDE_OBJECT_DEFINE NAME=ldo_bestagon_insert_2_4_stl_id_0_copy_2 CENTER=185.131,133.536 POLYGON=[[172.102,121.71],[172.102,145.29],[198.157,145.29],[198.157,121.71]]

M140 S0

print_start EXTRUDER=250 BED=105 CHAMBER=0
M107
G21 ; set units to millimeters
G90 ; use absolute coordinates
M83 ; use relative distances for extrusion
; Filament gcode
;_TOOLCHANGE 0
M107
;LAYER_CHANGE
;Z:0.2
;HEIGHT:0.2
TIMELAPSE_TAKE_FRAME
;BEFORE_LAYER_CHANGE
;0.2


G1 Z0.2 F10500
;AFTER_LAYER_CHANGE
;0.2
G92 E0
G1 E-1 F3000
G1 Z0.4 F10500
G1 X113.81 Y128.582
G1 Z0.2
G1 E1 F3000
;TYPE:Skirt
;WIDTH:0.44
G1 F1860
G1 X98.637 Y144.034 E0.71503
G1 X98.037 Y145.503 E0.05237
G1 X98.037 Y151.473 E0.19712
G1 X98.684 Y152.987 E0.05437
G1 X114.468 Y168.088 E0.72125
G1 X119.206 Y172.44 E0.21239
G1 X120.177 Y173.049 E0.03786
G1 X121.454 Y173.522 E0.04497
G1 X146.535 Y178.642 E0.84519
G1 X147.382 Y178.766 E0.02826
G1 X189.788 Y178.796 E1.40012
G1 X191.158 Y178.658 E0.04546
G1 X192.107 Y178.404 E0.03244
G1 X193.301 Y177.872 E0.04315
G1 X194.125 Y177.337 E0.03244
G1 X195.096 Y176.463 E0.04315
G1 X195.715 Y175.699 E0.03244
G1 X200.757 Y167.017 E0.33149
G1 X201.271 Y165.859 E0.04185
G1 X201.525 Y164.909 E0.03244
G1 X201.665 Y163.5 E0.04676
G1 X201.662 Y133.39 E0.99414
G1 X201.48 Y131.876 E0.05036
G1 X200.987 Y130.433 E0.05036
G1 X196.047 Y121.818 E0.32787
G1 X195.586 Y121.123 E0.02754
G1 X194.548 Y120.006 E0.05036
G1 X193.301 Y119.128 E0.05036
G1 X191.898 Y118.528 E0.05036
G1 X191.158 Y118.342 E0.02521
G1 X189.897 Y118.207 E0.04185
G1 X147.996 Y118.204 E1.38346
G1 X147.164 Y118.257 E0.02753
G1 X145.816 Y118.548 E0.04552
G1 X114.694 Y128.046 E1.07437
G1 X113.862 Y128.551 E0.03214
G1 X114.094 Y128.86 F10500
G1 F1860
G1 X98.921 Y144.313 E0.71503
G1 X98.434 Y145.503 E0.04245
G1 X98.434 Y151.473 E0.19712
G1 X98.959 Y152.7 E0.04407
G1 X114.763 Y167.82 E0.72217
G1 X119.436 Y172.116 E0.20956
G1 X120.369 Y172.701 E0.03637
G1 X121.564 Y173.14 E0.04203
G1 X147.403 Y178.37 E0.87045
G1 X189.788 Y178.399 E1.39943
G1 X191.096 Y178.266 E0.04341
G1 X191.965 Y178.033 E0.0297
G1 X193.121 Y177.519 E0.04178
G1 X193.875 Y177.029 E0.0297
G1 X194.815 Y176.182 E0.04178
G1 X195.382 Y175.483 E0.0297
G1 X200.404 Y166.837 E0.33012
G1 X200.9 Y165.716 E0.04048
G1 X201.133 Y164.847 E0.0297
G1 X201.268 Y163.5 E0.0447
G1 X201.266 Y133.411 E0.99345
G1 X201.096 Y131.979 E0.04762
G1 X200.633 Y130.613 E0.04762
G1 X195.703 Y122.017 E0.32719
G1 X195.277 Y121.373 E0.02548
G1 X194.298 Y120.314 E0.04762
G1 X193.121 Y119.481 E0.04762
G1 X191.796 Y118.912 E0.04762
G1 X191.096 Y118.734 E0.02384
G1 X189.877 Y118.604 E0.04048
G1 X147.996 Y118.601 E1.38277
G1 X147.226 Y118.649 E0.02548
G1 X145.932 Y118.928 E0.0437
G1 X114.81 Y128.426 E1.07437
G1 X114.145 Y128.829 E0.02568
G1 E-1 F3000
G1 Z0.4 F10500
G1 X171.955 Y161.236
G1 Z0.2
G1 E1 F3000
;WIDTH:0.604
G1 F1860
G1 X176.597 Y153.198 E0.43303
G1 X176.845 Y152.819 E0.02115
G1 X177.116 Y152.483 E0.02012
G1 X177.45 Y152.145 E0.02218
G1 X177.829 Y151.834 E0.02286
G1 X178.227 Y151.574 E0.02218
G1 X178.65 Y151.357 E0.02218
G1 X179.121 Y151.176 E0.02355
G1 X179.581 Y151.055 E0.02218
G1 X180.065 Y150.981 E0.02286
G1 X180.504 Y150.958 E0.02047
G1 X189.763 Y150.958 E0.432
G1 X190.238 Y150.985 E0.02218
G1 X190.721 Y151.064 E0.02286
G1 X191.166 Y151.185 E0.02149
G1 X191.569 Y151.339 E0.02012
G1 X192.007 Y151.559 E0.02286
G1 X192.43 Y151.834 E0.02355
G1 X192.809 Y152.145 E0.02286
G1 X193.133 Y152.472 E0.02149
G1 X193.405 Y152.807 E0.02012
G1 X193.674 Y153.217 E0.02286
G1 X198.304 Y161.236 E0.432
G1 X198.528 Y161.68 E0.0232
G1 X198.691 Y162.111 E0.02149
G1 X198.813 Y162.57 E0.02218
G1 X198.886 Y163.04 E0.02218
G1 X198.909 Y163.515 E0.02218
G1 X198.882 Y163.989 E0.02218
G1 X198.807 Y164.459 E0.02218
G1 X198.682 Y164.917 E0.02218
G1 X198.51 Y165.361 E0.02218
G1 X198.304 Y165.764 E0.02115
G1 X193.663 Y173.802 E0.43303
G1 X193.414 Y174.181 E0.02115
G1 X193.143 Y174.517 E0.02012
G1 X192.809 Y174.855 E0.02218
G1 X192.406 Y175.183 E0.02423
G1 X191.994 Y175.448 E0.02286
G1 X191.609 Y175.643 E0.02013
G1 X191.18 Y175.81 E0.02149
G1 X190.721 Y175.936 E0.02218
G1 X190.238 Y176.015 E0.02286
G1 X189.763 Y176.042 E0.02218
G1 X180.481 Y176.041 E0.43303
G1 X180.022 Y176.015 E0.02149
G1 X179.552 Y175.939 E0.02218
G1 X179.093 Y175.815 E0.02218
G1 X178.65 Y175.643 E0.02218
G1 X178.215 Y175.418 E0.02286
G1 X177.853 Y175.183 E0.02012
G1 X177.494 Y174.894 E0.02149
G1 X177.126 Y174.528 E0.02423
G1 X176.82 Y174.146 E0.02286
G1 X176.581 Y173.777 E0.02047
G1 X171.955 Y165.764 E0.43166
G1 X171.755 Y165.374 E0.02047
G1 X171.577 Y164.917 E0.02286
G1 X171.453 Y164.459 E0.02218
G1 X171.377 Y163.989 E0.02218
G1 X171.35 Y163.515 E0.02218
G1 X171.374 Y163.04 E0.02218
G1 X171.447 Y162.57 E0.02218
G1 X171.577 Y162.083 E0.02355
G1 X171.749 Y161.639 E0.02218
G1 X171.928 Y161.289 E0.01835
G1 X172.427 Y161.543 F10500
G1 F1860
G1 X172.443 Y161.513 E0.0016
G1 X177.069 Y153.5 E0.43166
G1 X177.295 Y153.154 E0.01927
G1 X177.548 Y152.842 E0.01875
G1 X177.842 Y152.547 E0.01944
G1 X178.177 Y152.275 E0.02012
G1 X178.527 Y152.049 E0.01944
G1 X178.899 Y151.861 E0.01944
G1 X179.288 Y151.712 E0.01944
G1 X179.69 Y151.605 E0.01944
G1 X180.087 Y151.542 E0.01875
G1 X180.5 Y151.52 E0.01927
G1 X189.752 Y151.519 E0.43166
G1 X190.157 Y151.54 E0.01893
G1 X190.569 Y151.605 E0.01944
G1 X190.972 Y151.712 E0.01944
G1 X191.361 Y151.861 E0.01944
G1 X191.732 Y152.049 E0.01944
G1 X192.082 Y152.275 E0.01944
G1 X192.417 Y152.547 E0.02012
G1 X192.711 Y152.842 E0.01944
G1 X192.973 Y153.166 E0.01944
G1 X193.194 Y153.507 E0.01893
G1 X197.816 Y161.513 E0.43131
G1 X198.001 Y161.874 E0.01892
G1 X198.151 Y162.263 E0.01944
G1 X198.262 Y162.68 E0.02012
G1 X198.325 Y163.077 E0.01875
G1 X198.348 Y163.493 E0.01944
G1 X198.327 Y163.909 E0.01944
G1 X198.262 Y164.32 E0.01944
G1 X198.155 Y164.723 E0.01944
G1 X198.007 Y165.112 E0.01944
G1 X197.82 Y165.481 E0.01927
G1 X193.194 Y173.493 E0.43166
G1 X192.964 Y173.846 E0.01961
G1 X192.702 Y174.169 E0.01944
G1 X192.406 Y174.463 E0.01944
G1 X192.082 Y174.725 E0.01944
G1 X191.745 Y174.944 E0.01875
G1 X191.374 Y175.133 E0.01944
G1 X190.972 Y175.288 E0.02012
G1 X190.569 Y175.395 E0.01944
G1 X190.172 Y175.458 E0.01875
G1 X189.759 Y175.48 E0.01927
G1 X180.507 Y175.481 E0.43166
G1 X180.102 Y175.46 E0.01893
G1 X179.69 Y175.395 E0.01944
G1 X179.288 Y175.288 E0.01944
G1 X178.899 Y175.139 E0.01944
G1 X178.527 Y174.951 E0.01944
G1 X178.177 Y174.725 E0.01944
G1 X177.853 Y174.463 E0.01944
G1 X177.558 Y174.169 E0.01944
G1 X177.295 Y173.846 E0.01944
G1 X177.065 Y173.493 E0.01961
G1 X172.443 Y165.487 E0.43131
G1 X172.253 Y165.112 E0.01961
G1 X172.104 Y164.723 E0.01944
G1 X171.997 Y164.32 E0.01944
G1 X171.934 Y163.923 E0.01875
G1 X171.911 Y163.507 E0.01944
G1 X171.934 Y163.077 E0.02012
G1 X172 Y162.665 E0.01944
G1 X172.109 Y162.263 E0.01944
G1 X172.253 Y161.888 E0.01875
G1 X172.4 Y161.597 E0.01521
G1 E-1 F3000
G1 Z0.4 F10500
G1 X166.337 Y162.57
G1 Z0.2
G1 E1 F3000
G1 F1860
G1 X166.41 Y163.04 E0.02218
G1 X166.434 Y163.515 E0.02218
G1 X166.407 Y163.989 E0.02218
G1 X166.331 Y164.459 E0.02218
G1 X166.207 Y164.917 E0.02218
G1 X166.035 Y165.361 E0.02218
G1 X165.829 Y165.764 E0.02115
G1 X161.187 Y173.802 E0.43303
G1 X160.939 Y174.181 E0.02115
G1 X160.668 Y174.517 E0.02012
G1 X160.334 Y174.855 E0.02218
G1 X159.931 Y175.183 E0.02423
G1 X159.518 Y175.448 E0.02286
G1 X159.134 Y175.643 E0.02013
G1 X158.704 Y175.81 E0.02149
G1 X158.246 Y175.936 E0.02218
G1 X157.763 Y176.015 E0.02286
G1 X157.288 Y176.042 E0.02218
G1 X148.006 Y176.041 E0.43303
G1 X147.546 Y176.015 E0.02149
G1 X147.077 Y175.939 E0.02218
G1 X146.618 Y175.815 E0.02218
G1 X146.175 Y175.643 E0.02218
G1 X145.74 Y175.418 E0.02286
G1 X145.378 Y175.183 E0.02012
G1 X145.019 Y174.894 E0.02149
G1 X144.651 Y174.528 E0.02423
G1 X144.344 Y174.146 E0.02286
G1 X144.106 Y173.777 E0.02047
G1 X139.48 Y165.764 E0.43166
G1 X139.28 Y165.374 E0.02047
G1 X139.102 Y164.917 E0.02286
G1 X138.978 Y164.459 E0.02218
G1 X138.902 Y163.989 E0.02218
G1 X138.875 Y163.515 E0.02218
G1 X138.899 Y163.04 E0.02218
G1 X138.971 Y162.57 E0.02218
G1 X139.102 Y162.083 E0.02355
G1 X139.274 Y161.639 E0.02218
G1 X139.48 Y161.236 E0.02115
G1 X144.121 Y153.198 E0.43303
G1 X144.37 Y152.819 E0.02115
G1 X144.641 Y152.483 E0.02012
G1 X144.975 Y152.145 E0.02218
G1 X145.354 Y151.834 E0.02286
G1 X145.752 Y151.574 E0.02218
G1 X146.175 Y151.357 E0.02218
G1 X146.646 Y151.176 E0.02355
G1 X147.106 Y151.055 E0.02218
G1 X147.59 Y150.981 E0.02286
G1 X148.028 Y150.958 E0.02047
G1 X157.288 Y150.958 E0.432
G1 X157.763 Y150.985 E0.02218
G1 X158.246 Y151.064 E0.02286
G1 X158.691 Y151.185 E0.02149
G1 X159.093 Y151.339 E0.02012
G1 X159.531 Y151.559 E0.02286
G1 X159.955 Y151.834 E0.02355
G1 X160.334 Y152.145 E0.02286
G1 X160.658 Y152.472 E0.02149
G1 X160.93 Y152.807 E0.02012
G1 X161.199 Y153.217 E0.02286
G1 X165.829 Y161.236 E0.432
G1 X166.053 Y161.68 E0.0232
G1 X166.216 Y162.111 E0.02149
G1 X166.322 Y162.512 E0.01938
G1 X165.782 Y162.657 F10500
G1 F1860
G1 X165.787 Y162.68 E0.00109
G1 X165.852 Y163.091 E0.01944
G1 X165.873 Y163.493 E0.01875
G1 X165.852 Y163.909 E0.01944
G1 X165.784 Y164.335 E0.02012
G1 X165.676 Y164.737 E0.01944
G1 X165.525 Y165.126 E0.01944
G1 X165.341 Y165.487 E0.01892
G1 X160.719 Y173.493 E0.43131
G1 X160.498 Y173.834 E0.01893
G1 X160.236 Y174.158 E0.01944
G1 X159.942 Y174.453 E0.01944
G1 X159.607 Y174.725 E0.02012
G1 X159.257 Y174.951 E0.01944
G1 X158.886 Y175.139 E0.01944
G1 X158.496 Y175.288 E0.01944
G1 X158.094 Y175.395 E0.01944
G1 X157.697 Y175.458 E0.01875
G1 X157.284 Y175.48 E0.01927
G1 X148.032 Y175.481 E0.43166
G1 X147.627 Y175.46 E0.01893
G1 X147.215 Y175.395 E0.01944
G1 X146.799 Y175.283 E0.02012
G1 X146.41 Y175.133 E0.01944
G1 X146.052 Y174.951 E0.01875
G1 X145.702 Y174.725 E0.01944
G1 X145.378 Y174.463 E0.01944
G1 X145.082 Y174.169 E0.01944
G1 X144.82 Y173.846 E0.01944
G1 X144.594 Y173.5 E0.01927
G1 X139.968 Y165.487 E0.43166
G1 X139.777 Y165.112 E0.01961
G1 X139.629 Y164.723 E0.01944
G1 X139.522 Y164.32 E0.01944
G1 X139.459 Y163.923 E0.01875
G1 X139.436 Y163.507 E0.01944
G1 X139.459 Y163.077 E0.02012
G1 X139.525 Y162.665 E0.01944
G1 X139.633 Y162.263 E0.01944
G1 X139.777 Y161.888 E0.01875
G1 X139.964 Y161.519 E0.01927
G1 X144.59 Y153.507 E0.43166
G1 X144.811 Y153.166 E0.01893
G1 X145.073 Y152.842 E0.01944
G1 X145.367 Y152.547 E0.01944
G1 X145.702 Y152.275 E0.02012
G1 X146.052 Y152.049 E0.01944
G1 X146.423 Y151.861 E0.01944
G1 X146.813 Y151.712 E0.01944
G1 X147.215 Y151.605 E0.01944
G1 X147.612 Y151.542 E0.01875
G1 X148.025 Y151.52 E0.01927
G1 X157.284 Y151.52 E0.432
G1 X157.697 Y151.542 E0.01927
G1 X158.094 Y151.605 E0.01875
G1 X158.496 Y151.712 E0.01944
G1 X158.899 Y151.867 E0.02012
G1 X159.27 Y152.056 E0.01944
G1 X159.619 Y152.284 E0.01944
G1 X159.942 Y152.547 E0.01944
G1 X160.236 Y152.842 E0.01944
G1 X160.489 Y153.154 E0.01875
G1 X160.715 Y153.5 E0.01927
G1 X165.341 Y161.513 E0.43166
G1 X165.531 Y161.888 E0.01961
G1 X165.676 Y162.263 E0.01875
G1 X165.766 Y162.599 E0.01624
G1 E-1 F3000
G1 Z0.4 F10500
G1 X134.258 Y162.599
G1 Z0.2
G1 E1 F3000
G1 F1860
G1 X134.258 Y165.329 E0.12735
G1 X134.175 Y165.532 E0.01028
G1 X133.861 Y165.853 E0.02097
G1 X133.658 Y165.941 E0.01028
G1 X132.717 Y165.96 E0.04394
G1 X132.549 Y165.988 E0.00794
G1 X132.371 Y166.039 E0.00863
G1 X132.196 Y166.112 E0.00885
G1 X132.034 Y166.201 E0.00863
G1 X131.883 Y166.309 E0.00865
G1 X131.745 Y166.432 E0.00864
G1 X131.622 Y166.57 E0.00864
G1 X131.514 Y166.721 E0.00864
G1 X131.425 Y166.883 E0.00864
G1 X131.354 Y167.054 E0.00862
G1 X131.301 Y167.237 E0.00889
G1 X131.27 Y167.419 E0.00861
G1 X131.239 Y167.961 E0.02533
G1 X131.172 Y168.361 E0.01892
G1 X131.058 Y168.743 E0.01858
G1 X130.932 Y169.044 E0.01522
G1 X130.766 Y169.349 E0.01622
G1 X130.539 Y169.675 E0.01854
G1 X130.257 Y169.989 E0.01965
G1 X129.975 Y170.236 E0.01749
G1 X129.7 Y170.43 E0.01572
G1 X129.386 Y170.605 E0.0168
G1 X129.043 Y170.75 E0.01736
G1 X128.673 Y170.859 E0.018
G1 X128.304 Y170.923 E0.01745
G1 X127.933 Y170.945 E0.01738
G1 X122.886 Y170.945 E0.23546
G1 X122.561 Y170.926 E0.01519
