; generated by SuperSlicer 2.4 on 2023-03-03 at 01:46:35 UTC


;
;

;
;
; 

; external perimeters extrusion width = 0.42mm
; perimeters extrusion width = 0.47mm
; infill extrusion width = 0.45mm
; solid infill extrusion width = 0.47mm
; top infill extrusion width = 0.45mm
; support material extrusion width = 0.40mm
; first layer extrusion width = 0.61mm

; object:{"name":"LED_Bar_Clip_Misumi_version2 2","id":"LED_Bar_Clip_Misumi_version2 2.4.stl id:0 copy 0","object_center":[150.000000,135.053203,0.000000],"boundingbox_center":[150.000000,135.053203,8.250000],"boundingbox_size":[18.000000,20.893596,16.500000]}
; object:{"name":"LED_Bar_Clip_Misumi_version2 2","id":"LED_Bar_Clip_Misumi_version2 2.4.stl id:0 copy 1","object_center":[174.000000,135.053203,0.000000],"boundingbox_center":[174.000000,135.053203,8.250000],"boundingbox_size":[18.000000,20.893596,16.500000]}
; object:{"name":"LED_Bar_Clip_Misumi_version2 2","id":"LED_Bar_Clip_Misumi_version2 2.4.stl id:0 copy 2","object_center":[150.000000,161.946797,0.000000],"boundingbox_center":[150.000000,161.946797,8.250000],"boundingbox_size":[18.000000,20.893596,16.500000]}
; object:{"name":"LED_Bar_Clip_Misumi_version2 2","id":"LED_Bar_Clip_Misumi_version2 2.4.stl id:0 copy 3","object_center":[174.000000,161.946797,0.000000],"boundingbox_center":[174.000000,161.946797,8.250000],"boundingbox_size":[18.000000,20.893596,16.500000]}
; object:{"name":"LED_Bar_Clip_Misumi_version2 2","id":"LED_Bar_Clip_Misumi_version2 2.4.stl id:0 copy 4","object_center":[126.000000,135.053203,0.000000],"boundingbox_center":[126.000000,135.053203,8.250000],"boundingbox_size":[18.000000,20.893596,16.500000]}
; object:{"name":"LED_Bar_Clip_Misumi_version2 2","id":"LED_Bar_Clip_Misumi_version2 2.4.stl id:0 copy 5","object_center":[126.000000,161.946798,0.000000],"boundingbox_center":[126.000000,161.946798,8.250000],"boundingbox_size":[18.000000,20.893596,16.500000]}
; plater:{"center":[150.000000,148.500000,0.000000],"boundingbox_center":[150.000000,148.500000,8.250000],"boundingbox_size":[66.000000,47.787191,16.500000]}

;TYPE:Custom
M104 S0 ; Stops SuperSlicer from sending temp waits separately


; Pre-Processed for Cancel-Object support by preprocess_cancellation v0.2.0
; 6 known objects
EXCLUDE_OBJECT_DEFINE NAME=LED_Bar_Clip_Misumi_version2_2_4_stl_id_0_copy_0 CENTER=148.796,137.115 POLYGON=[[141.212,124.818],[141.212,145.288],[158.788,145.288],[158.788,124.818]]
EXCLUDE_OBJECT_DEFINE NAME=LED_Bar_Clip_Misumi_version2_2_4_stl_id_0_copy_4 CENTER=124.785,137.104 POLYGON=[[117.212,124.818],[117.212,145.288],[134.788,145.288],[134.788,124.818]]
EXCLUDE_OBJECT_DEFINE NAME=LED_Bar_Clip_Misumi_version2_2_4_stl_id_0_copy_5 CENTER=124.810,164.035 POLYGON=[[117.212,151.712],[117.212,172.182],[134.788,172.182],[134.788,151.712]]
EXCLUDE_OBJECT_DEFINE NAME=LED_Bar_Clip_Misumi_version2_2_4_stl_id_0_copy_2 CENTER=148.774,164.037 POLYGON=[[141.212,151.712],[141.212,172.182],[158.788,172.182],[158.788,151.712]]
EXCLUDE_OBJECT_DEFINE NAME=LED_Bar_Clip_Misumi_version2_2_4_stl_id_0_copy_3 CENTER=172.809,164.016 POLYGON=[[165.212,151.712],[165.212,172.182],[182.788,172.182],[182.788,151.712]]
EXCLUDE_OBJECT_DEFINE NAME=LED_Bar_Clip_Misumi_version2_2_4_stl_id_0_copy_1 CENTER=172.837,137.185 POLYGON=[[165.212,124.818],[165.212,145.288],[182.788,145.288],[182.788,124.818]]

M140 S0

print_start EXTRUDER=250 BED=105 CHAMBER=0
M107
G21 ; set units to millimeters
G90 ; use absolute coordinates
M83 ; use relative distances for extrusion
; Filament gcode
;_TOOLCHANGE 0
M107
;LAYER_CHANGE
;Z:0.21875
;HEIGHT:0.21875
TIMELAPSE_TAKE_FRAME
;BEFORE_LAYER_CHANGE
;0.21875


G1 Z0.21875 F10500
;AFTER_LAYER_CHANGE
;0.21875
G92 E0
G1 E-0.5 F2400
G1 Z0.41875 F10500
G1 X114.092 Y122.18
G1 Z0.21875
G1 E0.5 F2400
;TYPE:Skirt
;WIDTH:0.44
G1 F1860
G1 X113.701 Y123.396 E0.04566
G1 X113.701 Y170.709 E1.6913
G1 X113.943 Y171.684 E0.03591
G1 X114.856 Y172.578 E0.04566
G1 X121.221 Y175.762 E0.2544
G1 X122.155 Y175.983 E0.03433
G1 X177.845 Y175.983 E1.99071
G1 X178.779 Y175.762 E0.03433
G1 X185.144 Y172.578 E0.2544
G1 X185.908 Y171.925 E0.03591
G1 X186.299 Y170.709 E0.04566
G1 X186.299 Y134.574 E1.29171
G1 X186.242 Y133.402 E0.04195
G1 X186.068 Y132.142 E0.04546
G1 X185.577 Y130.287 E0.06862
G1 X185.104 Y129.1 E0.04564
G1 X184.573 Y128.056 E0.04187
G1 X183.983 Y127.109 E0.0399
G1 X183.217 Y126.094 E0.04543
G1 X181.888 Y124.714 E0.06851
G1 X180.891 Y123.903 E0.04593
G1 X179.965 Y123.279 E0.03991
G1 X178.942 Y122.71 E0.04186
G1 X177.773 Y122.195 E0.04566
G1 X175.76 Y121.598 E0.07507
G1 X174.684 Y121.417 E0.03898
G1 X173.577 Y121.321 E0.03973
G1 X163.792 Y121.307 E0.34977
G1 X115.791 Y121.307 E1.7159
G1 X115.117 Y121.418 E0.0244
G1 X114.14 Y122.144 E0.04351
G1 X114.482 Y122.316 F10500
G1 F1860
G1 X114.094 Y123.396 E0.04102
G1 X114.094 Y170.709 E1.6913
G1 X114.239 Y171.396 E0.02509
G1 X115.032 Y172.226 E0.04102
G1 X121.396 Y175.411 E0.2544
G1 X122.155 Y175.59 E0.02788
G1 X177.845 Y175.59 E1.99071
G1 X178.604 Y175.411 E0.02788
G1 X184.968 Y172.227 E0.2544
G1 X185.518 Y171.789 E0.02509
G1 X185.906 Y170.709 E0.04102
G1 X185.906 Y134.574 E1.29171
G1 X185.853 Y133.453 E0.04012
G1 X185.685 Y132.227 E0.04424
G1 X185.201 Y130.401 E0.06751
G1 X184.74 Y129.248 E0.04439
G1 X184.238 Y128.262 E0.03957
G1 X183.668 Y127.344 E0.03863
G1 X182.924 Y126.355 E0.04423
G1 X181.615 Y124.997 E0.06742
G1 X180.645 Y124.21 E0.04466
G1 X179.748 Y123.606 E0.03865
G1 X178.781 Y123.068 E0.03955
G1 X177.645 Y122.566 E0.04441
G1 X175.694 Y121.985 E0.07275
G1 X174.619 Y121.804 E0.03898
G1 X173.546 Y121.712 E0.03849
G1 X163.792 Y121.699 E0.34868
G1 X115.791 Y121.699 E1.71589
G1 X114.537 Y122.29 E0.04955
G1 E-0.5 F2400
G1 Z0.41875 F10500
G1 X117.063 Y150.949
G1 Z0.21875
G1 E0.5 F2400
;WIDTH:0.608
;HEIGHT:0.22
G1 F1860
G1 X125.364 Y150.956 E0.42576
G1 X126.268 Y151.027 E0.04649
G1 X127.262 Y151.195 E0.05171
G1 X128.034 Y151.395 E0.0409
G1 X128.859 Y151.682 E0.04484
G1 X129.78 Y152.094 E0.05173
G1 X130.476 Y152.482 E0.04087
G1 X131.204 Y152.967 E0.04486
G1 X131.991 Y153.599 E0.05181
G1 X132.622 Y154.205 E0.04488
G1 X133.151 Y154.801 E0.04085
G1 X133.753 Y155.61 E0.05174
G1 X134.211 Y156.355 E0.04485
G1 X134.573 Y157.065 E0.04088
G1 X134.952 Y157.999 E0.05173
G1 X135.208 Y158.835 E0.04484
G1 X135.38 Y159.614 E0.0409
G1 X135.512 Y160.613 E0.05171
G1 X135.551 Y161.494 E0.04522
G1 X135.551 Y169.437 E0.40742
G1 X135.465 Y169.643 E0.01144
G1 X135.143 Y169.965 E0.02336
G1 X134.937 Y170.051 E0.01144
G1 X129.741 Y170.051 E0.26651
G1 X129.741 Y170.532 E0.02469
G1 X129.952 Y170.649 E0.01237
G1 X130.271 Y171.155 E0.0307
G1 X130.288 Y171.444 E0.01482
G1 X129.589 Y172.902 E0.08293
G1 X129.484 Y173.02 E0.00814
G1 X129.213 Y173.191 E0.01644
G1 X129.06 Y173.235 E0.00814
G1 X127.672 Y173.235 E0.07119
G1 X127.466 Y173.149 E0.01144
G1 X127.144 Y172.827 E0.02336
G1 X127.059 Y172.621 E0.01144
G1 X127.059 Y170.051 E0.13186
G1 X124.941 Y170.051 E0.10862
G1 X124.941 Y172.621 E0.13186
G1 X124.856 Y172.827 E0.01144
G1 X124.534 Y173.149 E0.02336
G1 X124.328 Y173.235 E0.01144
G1 X122.94 Y173.235 E0.07119
G1 X122.787 Y173.191 E0.00814
G1 X122.516 Y173.02 E0.01644
G1 X122.411 Y172.902 E0.00814
G1 X121.712 Y171.444 E0.08293
G1 X121.729 Y171.155 E0.01482
G1 X122.048 Y170.648 E0.0307
G1 X122.259 Y170.532 E0.01237
G1 X122.259 Y170.051 E0.02469
G1 X117.063 Y170.051 E0.26651
G1 X116.857 Y169.965 E0.01144
G1 X116.535 Y169.643 E0.02336
G1 X116.449 Y169.437 E0.01144
G1 X116.449 Y151.563 E0.91682
G1 X116.535 Y151.357 E0.01145
G1 X116.857 Y151.035 E0.02337
G1 X117.008 Y150.972 E0.00837
G1 X117.175 Y151.51 F10500
G1 F1860
G1 X125.358 Y151.517 E0.41975
G1 X126.193 Y151.583 E0.04294
G1 X127.15 Y151.745 E0.04983
G1 X127.866 Y151.93 E0.03793
G1 X128.647 Y152.201 E0.04239
G1 X129.534 Y152.598 E0.04983
G1 X130.17 Y152.952 E0.03736
G1 X130.868 Y153.416 E0.04296
G1 X131.626 Y154.024 E0.04985
G1 X132.221 Y154.598 E0.0424
G1 X132.712 Y155.15 E0.03791
G1 X133.292 Y155.93 E0.04984
G1 X133.724 Y156.634 E0.04239
G1 X134.055 Y157.281 E0.0373
G1 X134.43 Y158.204 E0.05109
G1 X134.667 Y158.983 E0.04175
G1 X134.827 Y159.705 E0.03793
G1 X134.954 Y160.668 E0.04982
G1 X134.99 Y161.497 E0.04256
G1 X134.99 Y169.326 E0.40155
G1 X134.826 Y169.49 E0.01191
G1 X129.18 Y169.49 E0.28955
G1 X129.18 Y171.07 E0.08103
G1 X129.555 Y171.07 E0.0192
G1 X129.72 Y171.332 E0.01588
G1 X129.118 Y172.588 E0.07145
G1 X128.981 Y172.674 E0.0083
G1 X127.784 Y172.674 E0.0614
G1 X127.62 Y172.51 E0.01191
G1 X127.62 Y169.49 E0.1549
G1 X124.38 Y169.49 E0.16615
G1 X124.38 Y172.51 E0.1549
G1 X124.216 Y172.674 E0.01191
G1 X123.019 Y172.674 E0.0614
G1 X122.882 Y172.588 E0.0083
G1 X122.28 Y171.332 E0.07145
G1 X122.445 Y171.07 E0.01588
G1 X122.82 Y171.07 E0.0192
G1 X122.82 Y169.49 E0.08103
G1 X117.174 Y169.49 E0.28955
G1 X117.01 Y169.326 E0.01191
G1 X117.01 Y151.674 E0.90537
G1 X117.132 Y151.553 E0.00884
G1 E-0.5 F2400
G1 Z0.41875 F10500
G1 X164.449 Y151.563
G1 Z0.21875
G1 E0.5 F2400
G1 F1860
G1 X164.535 Y151.357 E0.01145
G1 X164.857 Y151.035 E0.02337
G1 X165.063 Y150.949 E0.01145
G1 X173.364 Y150.956 E0.42576
G1 X174.268 Y151.027 E0.04649
G1 X175.262 Y151.195 E0.05171
G1 X176.034 Y151.395 E0.0409
G1 X176.859 Y151.682 E0.04484
G1 X177.78 Y152.094 E0.05173
G1 X178.476 Y152.482 E0.04087
G1 X179.204 Y152.967 E0.04486
G1 X179.991 Y153.599 E0.05181
G1 X180.622 Y154.205 E0.04488
G1 X181.151 Y154.801 E0.04085
G1 X181.753 Y155.61 E0.05174
G1 X182.211 Y156.355 E0.04485
G1 X182.573 Y157.065 E0.04088
G1 X182.952 Y157.999 E0.05173
G1 X183.208 Y158.835 E0.04484
G1 X183.38 Y159.614 E0.0409
G1 X183.512 Y160.613 E0.05171
G1 X183.551 Y161.494 E0.04522
G1 X183.551 Y169.437 E0.40742
G1 X183.465 Y169.643 E0.01144
G1 X183.143 Y169.965 E0.02336
G1 X182.937 Y170.051 E0.01144
G1 X177.741 Y170.051 E0.26651
G1 X177.741 Y170.532 E0.02469
G1 X177.952 Y170.648 E0.01237
G1 X178.271 Y171.155 E0.0307
G1 X178.288 Y171.444 E0.01482
G1 X177.589 Y172.902 E0.08293
G1 X177.484 Y173.02 E0.00814
G1 X177.213 Y173.191 E0.01644
G1 X177.06 Y173.235 E0.00814
G1 X175.672 Y173.235 E0.07119
G1 X175.466 Y173.149 E0.01144
G1 X175.144 Y172.827 E0.02336
G1 X175.059 Y172.621 E0.01144
G1 X175.059 Y170.051 E0.13186
G1 X172.941 Y170.051 E0.10862
G1 X172.941 Y172.621 E0.13186
G1 X172.856 Y172.827 E0.01144
G1 X172.534 Y173.149 E0.02336
G1 X172.328 Y173.235 E0.01144
G1 X170.94 Y173.235 E0.07119
G1 X170.787 Y173.191 E0.00814
G1 X170.516 Y173.02 E0.01644
G1 X170.411 Y172.902 E0.00814
G1 X169.712 Y171.444 E0.08293
G1 X169.729 Y171.155 E0.01482
G1 X170.048 Y170.648 E0.0307
G1 X170.259 Y170.532 E0.01237
G1 X170.259 Y170.051 E0.02469
G1 X165.063 Y170.051 E0.26651
G1 X164.857 Y169.965 E0.01144
G1 X164.535 Y169.643 E0.02336
G1 X164.449 Y169.437 E0.01144
G1 X164.449 Y151.623 E0.91374
G1 X165.01 Y151.674 F10500
G1 F1860
G1 X165.175 Y151.51 E0.01192
G1 X173.358 Y151.517 E0.41975
G1 X174.193 Y151.583 E0.04294
G1 X175.15 Y151.745 E0.04983
G1 X175.866 Y151.93 E0.03793
G1 X176.647 Y152.201 E0.04239
G1 X177.534 Y152.598 E0.04983
G1 X178.17 Y152.952 E0.03736
G1 X178.868 Y153.416 E0.04296
G1 X179.626 Y154.024 E0.04985
G1 X180.221 Y154.598 E0.0424
G1 X180.712 Y155.15 E0.03791
G1 X181.292 Y155.93 E0.04984
G1 X181.73 Y156.644 E0.04296
G1 X182.06 Y157.292 E0.03736
G1 X182.426 Y158.193 E0.04983
G1 X182.667 Y158.983 E0.04239
G1 X182.825 Y159.693 E0.03731
G1 X182.954 Y160.668 E0.05045
G1 X182.99 Y161.497 E0.04256
G1 X182.99 Y169.326 E0.40155
G1 X182.826 Y169.49 E0.01191
G1 X177.18 Y169.49 E0.28955
G1 X177.18 Y171.07 E0.08103
G1 X177.555 Y171.07 E0.0192
G1 X177.72 Y171.332 E0.01588
G1 X177.118 Y172.588 E0.07145
G1 X176.981 Y172.674 E0.0083
G1 X175.784 Y172.674 E0.0614
G1 X175.62 Y172.51 E0.01191
G1 X175.62 Y169.49 E0.1549
G1 X172.38 Y169.49 E0.16615
G1 X172.38 Y172.51 E0.1549
G1 X172.216 Y172.674 E0.01191
G1 X171.019 Y172.674 E0.0614
G1 X170.882 Y172.588 E0.0083
G1 X170.28 Y171.332 E0.07145
G1 X170.445 Y171.07 E0.01588
G1 X170.82 Y171.07 E0.0192
G1 X170.82 Y169.49 E0.08103
G1 X165.174 Y169.49 E0.28955
G1 X165.01 Y169.326 E0.01191
G1 X165.01 Y151.734 E0.9023
G1 E-0.5 F2400
G1 Z0.41875 F10500
G1 X158.015 Y156.036
G1 Z0.21875
G1 E0.5 F2400
G1 F1860
G1 X158.211 Y156.355 E0.01921
G1 X158.573 Y157.065 E0.04088
G1 X158.952 Y157.999 E0.05173
G1 X159.208 Y158.835 E0.04484
G1 X159.38 Y159.614 E0.0409
G1 X159.512 Y160.613 E0.05171
G1 X159.551 Y161.494 E0.04522
G1 X159.551 Y169.437 E0.40742
G1 X159.465 Y169.643 E0.01144
G1 X159.143 Y169.965 E0.02336
G1 X158.937 Y170.051 E0.01144
G1 X153.741 Y170.051 E0.26651
G1 X153.741 Y170.532 E0.02469
G1 X153.952 Y170.648 E0.01237
G1 X154.271 Y171.155 E0.0307
G1 X154.288 Y171.444 E0.01482
G1 X153.589 Y172.902 E0.08293
G1 X153.484 Y173.02 E0.00814
G1 X153.213 Y173.191 E0.01644
G1 X153.06 Y173.235 E0.00814
G1 X151.672 Y173.235 E0.07119
G1 X151.466 Y173.149 E0.01144
G1 X151.144 Y172.827 E0.02336
G1 X151.059 Y172.621 E0.01144
G1 X151.059 Y170.051 E0.13186
G1 X148.941 Y170.051 E0.10862
G1 X148.941 Y172.621 E0.13186
G1 X148.856 Y172.827 E0.01144
G1 X148.534 Y173.149 E0.02336
G1 X148.328 Y173.235 E0.01144
G1 X146.94 Y173.235 E0.07119
G1 X146.787 Y173.191 E0.00814
G1 X146.516 Y173.02 E0.01644
G1 X146.411 Y172.902 E0.00814
G1 X145.712 Y171.444 E0.08293
G1 X145.729 Y171.155 E0.01482
G1 X146.048 Y170.648 E0.0307
G1 X146.259 Y170.532 E0.01237
G1 X146.259 Y170.051 E0.02469
G1 X141.063 Y170.051 E0.26651
G1 X140.857 Y169.965 E0.01144
G1 X140.535 Y169.643 E0.02336
G1 X140.449 Y169.437 E0.01144
G1 X140.449 Y151.563 E0.91682
G1 X140.535 Y151.357 E0.01145
G1 X140.857 Y151.035 E0.02337
G1 X141.063 Y150.949 E0.01145
G1 X149.364 Y150.956 E0.42576
G1 X150.268 Y151.027 E0.04649
G1 X151.262 Y151.195 E0.05171
G1 X152.034 Y151.395 E0.0409
G1 X152.859 Y151.682 E0.04484
G1 X153.78 Y152.094 E0.05173
G1 X154.476 Y152.482 E0.04087
G1 X155.204 Y152.967 E0.04486
G1 X155.991 Y153.599 E0.05181
G1 X156.622 Y154.205 E0.04488
G1 X157.151 Y154.801 E0.04085
G1 X157.753 Y155.61 E0.05174
G1 X157.983 Y155.985 E0.02256
G1 X157.506 Y156.277 F10500
G1 F1860
G1 X157.73 Y156.644 E0.02201
G1 X158.055 Y157.281 E0.03674
G1 X158.43 Y158.204 E0.05109
G1 X158.667 Y158.983 E0.04175
G1 X158.825 Y159.693 E0.03731
G1 X158.954 Y160.668 E0.05045
G1 X158.99 Y161.497 E0.04256
G1 X158.99 Y169.326 E0.40155
G1 X158.826 Y169.49 E0.01191
G1 X153.18 Y169.49 E0.28955
G1 X153.18 Y171.07 E0.08103
G1 X153.555 Y171.07 E0.0192
G1 X153.72 Y171.332 E0.01588
G1 X153.118 Y172.588 E0.07145
G1 X152.981 Y172.674 E0.0083
G1 X151.784 Y172.674 E0.0614
G1 X151.62 Y172.51 E0.01191
G1 X151.62 Y169.49 E0.1549
G1 X148.38 Y169.49 E0.16615
G1 X148.38 Y172.51 E0.1549
G1 X148.216 Y172.674 E0.01191
G1 X147.019 Y172.674 E0.0614
G1 X146.882 Y172.588 E0.0083
G1 X146.28 Y171.332 E0.07145
G1 X146.445 Y171.07 E0.01588
G1 X146.82 Y171.07 E0.0192
G1 X146.82 Y169.49 E0.08103
G1 X141.174 Y169.49 E0.28955
G1 X141.01 Y169.326 E0.01191
G1 X141.01 Y151.674 E0.90537
G1 X141.175 Y151.51 E0.01192
G1 X149.358 Y151.517 E0.41975
G1 X150.193 Y151.583 E0.04294
G1 X151.15 Y151.745 E0.04983
G1 X151.856 Y151.927 E0.03736
G1 X152.647 Y152.201 E0.04295
G1 X153.534 Y152.598 E0.04983
G1 X154.179 Y152.958 E0.03792
G1 X154.868 Y153.416 E0.0424
G1 X155.626 Y154.024 E0.04985
G1 X156.229 Y154.605 E0.04296
G1 X156.712 Y155.15 E0.03735
G1 X157.292 Y155.93 E0.04984
G1 X157.474 Y156.226 E0.01787
G1 E-0.5 F2400
G1 Z0.41875 F10500
G1 X135.465 Y142.75
G1 Z0.21875
G1 E0.5 F2400
G1 F1860
G1 X135.143 Y143.072 E0.02336
G1 X134.937 Y143.157 E0.01144
G1 X129.741 Y143.157 E0.26651
G1 X129.741 Y143.638 E0.02469
G1 X129.952 Y143.755 E0.01237
G1 X130.271 Y144.261 E0.0307
G1 X130.288 Y144.55 E0.01482
G1 X129.589 Y146.008 E0.08293
G1 X129.484 Y146.126 E0.00814
G1 X129.213 Y146.297 E0.01644
G1 X129.06 Y146.341 E0.00814
G1 X127.672 Y146.341 E0.07119
G1 X127.466 Y146.256 E0.01144
G1 X127.144 Y145.934 E0.02336
G1 X127.059 Y145.728 E0.01144
G1 X127.059 Y143.157 E0.13186
G1 X124.941 Y143.157 E0.10862
G1 X124.941 Y145.728 E0.13186
G1 X124.856 Y145.934 E0.01144
G1 X124.534 Y146.256 E0.02336
G1 X124.328 Y146.341 E0.01144
G1 X122.94 Y146.341 E0.07119
G1 X122.787 Y146.297 E0.00814
G1 X122.516 Y146.126 E0.01644
G1 X122.411 Y146.008 E0.00814
G1 X121.712 Y144.55 E0.08293
