; generated by SuperSlicer 2.4 on 2023-01-18 at 20:43:43 UTC


;
;

;
;
; 

; external perimeters extrusion width = 0.42mm
; perimeters extrusion width = 0.45mm
; infill extrusion width = 0.45mm
; solid infill extrusion width = 0.45mm
; top infill extrusion width = 0.42mm
; first layer extrusion width = 0.62mm

; object:{"name":"light_bar_400","id":"light_bar_400.stl id:0 copy 0","object_center":[129.836457,163.773084,0.000000],"boundingbox_center":[129.836457,163.773084,11.500000],"boundingbox_size":[181.514768,203.646889,23.000000]}
; plater:{"center":[129.836457,163.773084,0.000000],"boundingbox_center":[129.836457,163.773084,11.500000],"boundingbox_size":[181.514768,203.646889,23.000000]}

;TYPE:Custom
M104 S0 ; Stops SuperSlicer from sending temp waits separately

M140 S0

print_start EXTRUDER=248 BED=105 CHAMBER=0
G21 ; set units to millimeters
G90 ; use absolute coordinates
M83 ; use relative distances for extrusion
; Filament gcode
;_TOOLCHANGE 0
M107
;LAYER_CHANGE
;Z:0.2
;HEIGHT:0.2
TIMELAPSE_TAKE_FRAME
;BEFORE_LAYER_CHANGE
;0.2


G1 E-0.8 F3000
G1 Z0.3 F9000
;AFTER_LAYER_CHANGE
;0.2
G92 E0
G1 X53.113 Y60.998
G1 Z0.2
G1 E0.8 F1800
;TYPE:Skirt
;WIDTH:0.52
G1 F1950
G1 X36.124 Y75.791 E0.89361
G1 X35.611 Y76.887 E0.048
G1 X35.978 Y77.897 E0.04262
G1 X201.986 Y268.552 E10.02841
G1 X203.082 Y269.064 E0.048
G1 X204.092 Y268.697 E0.04262
G1 X223.549 Y251.755 E1.02347
G1 X224.061 Y250.659 E0.048
G1 X223.695 Y249.649 E0.04262
G1 X57.687 Y58.994 E10.02841
G1 X56.591 Y58.482 E0.048
G1 X55.581 Y58.849 E0.04262
G1 X53.158 Y60.959 E0.12748
G1 X53.471 Y61.319 F9000
G1 F1950
G1 X36.437 Y76.151 E0.89599
G1 X36.104 Y76.736 E0.02671
G1 X36.338 Y77.584 E0.03487
G1 X202.345 Y268.239 E10.02841
G1 X202.931 Y268.571 E0.02671
G1 X203.778 Y268.338 E0.03487
G1 X223.236 Y251.395 E1.02347
G1 X223.568 Y250.81 E0.02671
G1 X223.335 Y249.963 E0.03487
G1 X57.328 Y59.308 E10.02841
G1 X56.742 Y58.975 E0.02671
G1 X55.895 Y59.208 E0.03487
G1 X53.516 Y61.279 E0.1251
G1 X53.83 Y61.639 F9000
G1 F1950
G1 X36.75 Y76.511 E0.89837
G1 X36.698 Y77.27 E0.03021
G1 X202.705 Y267.925 E10.02841
G1 X203.465 Y267.978 E0.03021
G1 X222.923 Y251.036 E1.02347
G1 X222.975 Y250.276 E0.03021
G1 X56.968 Y59.621 E10.02841
G1 X56.208 Y59.568 E0.03021
G1 X53.875 Y61.6 E0.12272
G1 X54.645 Y62.484 F9000
;WIDTH:0.62
G1 F1950
G1 X56.024 Y61.284 E0.08771
G1 X56.241 Y61.211 E0.01102
G1 X56.709 Y61.243 E0.02249
G1 X56.914 Y61.346 E0.01102
G1 X221.259 Y250.092 E12.00898
G1 X221.332 Y250.309 E0.01102
G1 X221.3 Y250.777 E0.02249
G1 X221.198 Y250.982 E0.01102
G1 X203.649 Y266.262 E1.11653
G1 X203.432 Y266.335 E0.01102
G1 X202.964 Y266.303 E0.02249
G1 X202.759 Y266.201 E0.01102
G1 X38.413 Y77.455 E12.00898
G1 X38.34 Y77.237 E0.01102
G1 X38.373 Y76.769 E0.02249
G1 X38.475 Y76.564 E0.01102
G1 X54.6 Y62.524 E1.02594
G1 X54.979 Y62.959 F9000
G1 F1950
G1 X56.316 Y61.795 E0.08508
G1 X56.554 Y61.811 E0.01147
G1 X57.224 Y62.58 E0.04892
G1 X220.749 Y250.384 E11.94904
G1 X220.732 Y250.622 E0.01147
G1 X203.357 Y265.752 E1.10551
G1 X203.118 Y265.735 E0.01147
G1 X38.924 Y77.162 E11.99796
G1 X38.941 Y76.924 E0.01147
G1 X54.934 Y62.998 E1.01756
M104 S248 ; set temperature
G1 E-0.8 F3000
G1 Z0.5 F9000
; printing object light_bar_400.stl id:0 copy 0
G1 X64.263 Y72.736
G1 Z0.2
G1 E0.8 F1800
;TYPE:Solid infill
;WIDTH:0.617745
G1 F3000
G1 X55.856 Y64.328 E0.56847
G1 X55.419 Y64.708 E0.02766
G1 X67.215 Y76.504 E0.79754
G1 X72.712 Y82.816 E0.40019
G1 X54.983 Y65.088 E1.19868
G1 X54.547 Y65.468 E0.02766
G1 X78.208 Y89.129 E1.59983
G1 X83.705 Y95.442 E0.40019
G1 X54.111 Y65.848 E2.00098
G1 X53.674 Y66.227 E0.02766
G1 X89.202 Y101.755 E2.40212
G1 X94.698 Y108.068 E0.40019
G1 X53.238 Y66.607 E2.80327
G1 X52.802 Y66.987 E0.02766
G1 X100.195 Y114.381 E3.20442
G1 X105.692 Y120.693 E0.40019
G1 X52.365 Y67.367 E3.60557
G1 X51.929 Y67.747 E0.02766
G1 X111.188 Y127.006 E4.00671
G1 X116.685 Y133.319 E0.40019
G1 X51.493 Y68.127 E4.40786
G1 X51.057 Y68.507 E0.02766
G1 X122.182 Y139.632 E4.80901
G1 X127.679 Y145.945 E0.40019
G1 X50.62 Y68.886 E5.21016
G1 X50.184 Y69.266 E0.02766
G1 X133.175 Y152.257 E5.6113
G1 X138.672 Y158.57 E0.40019
G1 X49.748 Y69.646 E6.01245
G1 X49.312 Y70.026 E0.02766
G1 X144.169 Y164.883 E6.4136
G1 X149.665 Y171.196 E0.40019
G1 X48.875 Y70.406 E6.81475
G1 X48.439 Y70.786 E0.02766
G1 X155.162 Y177.509 E7.21589
G1 X160.659 Y183.822 E0.40019
G1 X48.003 Y71.166 E7.61704
G1 X47.567 Y71.545 E0.02766
G1 X166.156 Y190.134 E8.01819
G1 X171.652 Y196.447 E0.40019
G1 X47.13 Y71.925 E8.41933
G1 X46.694 Y72.305 E0.02766
G1 X177.149 Y202.76 E8.82048
G1 X182.646 Y209.073 E0.40019
G1 X46.258 Y72.685 E9.22163
G1 X45.822 Y73.065 E0.02766
G1 X188.142 Y215.386 E9.62278
G1 X193.639 Y221.698 E0.40019
G1 X45.385 Y73.445 E10.02392
G1 X44.949 Y73.825 E0.02766
G1 X199.136 Y228.011 E10.42507
G1 X204.632 Y234.324 E0.40019
G1 X44.513 Y74.204 E10.82622
G1 X44.077 Y74.584 E0.02766
G1 X210.129 Y240.637 E11.22737
G1 X215.626 Y246.95 E0.40019
G1 X43.64 Y74.964 E11.62851
G1 X43.204 Y75.344 E0.02766
G1 X218.39 Y250.53 E11.84488
G1 X217.953 Y250.909 E0.02766
G1 X42.768 Y75.724 E11.84488
G1 X42.332 Y76.104 E0.02766
G1 X217.517 Y251.289 E11.84488
G1 X217.081 Y251.669 E0.02766
G1 X41.895 Y76.484 E11.84488
G1 X41.459 Y76.863 E0.02766
G1 X216.645 Y252.049 E11.84488
G1 X216.208 Y252.429 E0.02766
G1 X41.831 Y78.052 E11.79021
G1 X47.328 Y84.365 E0.40019
G1 X215.772 Y252.809 E11.38907
G1 X215.336 Y253.189 E0.02766
G1 X52.825 Y90.677 E10.98792
G1 X58.321 Y96.99 E0.40019
G1 X214.9 Y253.568 E10.58677
G1 X214.463 Y253.948 E0.02766
G1 X63.818 Y103.303 E10.18562
G1 X69.315 Y109.616 E0.40019
G1 X214.027 Y254.328 E9.78448
G1 X213.591 Y254.708 E0.02766
G1 X74.812 Y115.929 E9.38333
G1 X80.308 Y122.242 E0.40019
G1 X213.155 Y255.088 E8.98218
G1 X212.718 Y255.468 E0.02766
G1 X85.805 Y128.554 E8.58103
G1 X91.302 Y134.867 E0.40019
G1 X212.282 Y255.848 E8.17988
G1 X211.846 Y256.227 E0.02766
G1 X96.798 Y141.18 E7.77874
G1 X102.295 Y147.493 E0.40019
G1 X211.41 Y256.607 E7.37759
G1 X210.973 Y256.987 E0.02766
G1 X107.792 Y153.806 E6.97644
G1 X113.289 Y160.119 E0.40019
G1 X210.537 Y257.367 E6.57529
G1 X210.101 Y257.747 E0.02766
G1 X118.785 Y166.431 E6.17414
G1 X124.282 Y172.744 E0.40019
G1 X209.665 Y258.127 E5.773
G1 X209.228 Y258.507 E0.02766
G1 X129.779 Y179.057 E5.37185
G1 X135.275 Y185.37 E0.40019
G1 X208.792 Y258.886 E4.9707
G1 X208.356 Y259.266 E0.02766
G1 X140.772 Y191.683 E4.56955
G1 X146.269 Y197.995 E0.40019
G1 X207.919 Y259.646 E4.16841
G1 X207.483 Y260.026 E0.02766
G1 X151.766 Y204.308 E3.76726
G1 X157.262 Y210.621 E0.40019
G1 X207.047 Y260.406 E3.36611
G1 X206.611 Y260.786 E0.02766
G1 X162.759 Y216.934 E2.96496
G1 X168.256 Y223.247 E0.40019
G1 X206.174 Y261.166 E2.56381
G1 X205.738 Y261.545 E0.02766
G1 X173.752 Y229.56 E2.16267
G1 X179.249 Y235.872 E0.40019
G1 X205.302 Y261.925 E1.76152
G1 X204.866 Y262.305 E0.02766
G1 X184.746 Y242.185 E1.36037
G1 X190.243 Y248.498 E0.40019
G1 X204.429 Y262.685 E0.95922
G1 X203.993 Y263.065 E0.02766
G1 X195.739 Y254.811 E0.55808
G1 X201.236 Y261.124 E0.40019
G1 X203.733 Y263.621 E0.16882
G1 X203.288 Y265.018 F9000
;TYPE:External perimeter
;WIDTH:0.62
G1 F2880
G1 X39.658 Y77.093 E11.95674
G1 X56.385 Y62.528 E1.06429
G1 X56.773 Y62.973 E0.02831
G1 X220.015 Y250.453 E11.92843
G1 X203.333 Y264.979 E1.06141
;WIPE_START
G1 X203.211 Y264.625 F9000
;WIPE_END
G1 X203.344 Y264.204
;TYPE:Internal perimeter
G1 F2880
G1 X40.472 Y77.149 E11.90136
G1 X56.329 Y63.342 E1.00891
G1 X219.201 Y250.397 E11.90136
G1 X203.389 Y264.165 E1.00603
;LAYER_CHANGE
;Z:0.4
;HEIGHT:0.2
TIMELAPSE_TAKE_FRAME
;BEFORE_LAYER_CHANGE
;0.4


G1 E-0.8 F3000
; stop printing object light_bar_400.stl id:0 copy 0
G1 Z0.4 F9000
;AFTER_LAYER_CHANGE
;0.4
G92 E0
M140 S101 ; set bed temperature
G1 X205.311 Y266.371
G1 E0.8 F1800
;TYPE:Skirt
;WIDTH:0.52
G1 F2437.5
G1 X222.923 Y251.036 E0.92639
G1 X222.975 Y250.276 E0.03021
G1 X56.968 Y59.621 E10.02841
G1 X56.208 Y59.568 E0.03021
G1 X36.75 Y76.511 E1.02347
G1 X36.698 Y77.27 E0.03021
G1 X202.705 Y267.925 E10.02841
G1 X203.465 Y267.978 E0.03021
G1 X205.265 Y266.41 E0.09469
G1 E-0.8 F3000
G1 Z0.7 F9000
; printing object light_bar_400.stl id:0 copy 0
G1 X213.118 Y256.032
G1 Z0.4
G1 E0.8 F1800
;TYPE:Solid infill
;WIDTH:0.450436
G1 F3000
G1 X219.049 Y250.1 E0.28419
G1 X218.781 Y249.793 E0.01383
G1 X210.46 Y258.114 E0.3987
G1 X206.007 Y261.991 E0.20006
G1 X218.513 Y249.485 E0.59924
G1 X218.245 Y249.177 E0.01383
G1 X203.229 Y264.193 E0.7195
G1 X202.961 Y263.885 E0.01383
G1 X217.977 Y248.869 E0.7195
G1 X217.709 Y248.562 E0.01383
G1 X202.693 Y263.578 E0.7195
G1 X202.425 Y263.27 E0.01383
G1 X217.441 Y248.254 E0.7195
G1 X217.173 Y247.946 E0.01383
G1 X202.157 Y262.962 E0.7195
G1 X201.889 Y262.654 E0.01383
G1 X216.905 Y247.639 E0.7195
G1 X216.637 Y247.331 E0.01383
G1 X201.621 Y262.347 E0.7195
G1 X201.353 Y262.039 E0.01383
G1 X216.369 Y247.023 E0.7195
G1 X216.101 Y246.715 E0.01383
G1 X201.085 Y261.731 E0.7195
G1 X200.817 Y261.424 E0.01383
G1 X215.833 Y246.408 E0.7195
G1 X215.565 Y246.1 E0.01383
G1 X200.549 Y261.116 E0.7195
G1 X200.282 Y260.808 E0.01383
G1 X215.297 Y245.792 E0.7195
G1 X215.03 Y245.484 E0.01383
G1 X200.014 Y260.5 E0.7195
G1 X199.746 Y260.193 E0.01383
G1 X214.762 Y245.177 E0.7195
G1 X214.494 Y244.869 E0.01383
G1 X199.478 Y259.885 E0.7195
G1 X199.21 Y259.577 E0.01383
G1 X214.226 Y244.561 E0.7195
G1 X213.958 Y244.253 E0.01383
G1 X198.942 Y259.269 E0.7195
G1 X198.674 Y258.962 E0.01383
G1 X213.69 Y243.946 E0.7195
G1 X213.422 Y243.638 E0.01383
G1 X198.406 Y258.654 E0.7195
G1 X198.138 Y258.346 E0.01383
G1 X213.154 Y243.33 E0.7195
G1 X212.886 Y243.022 E0.01383
G1 X197.87 Y258.038 E0.7195
G1 X197.602 Y257.731 E0.01383
G1 X212.618 Y242.715 E0.7195
G1 X212.35 Y242.407 E0.01383
G1 X197.334 Y257.423 E0.7195
G1 X197.066 Y257.115 E0.01383
G1 X212.082 Y242.099 E0.7195
G1 X211.814 Y241.791 E0.01383
G1 X196.798 Y256.807 E0.7195
G1 X196.53 Y256.5 E0.01383
G1 X211.546 Y241.484 E0.7195
G1 X211.278 Y241.176 E0.01383
G1 X196.262 Y256.192 E0.7195
G1 X195.994 Y255.884 E0.01383
G1 X211.01 Y240.868 E0.7195
G1 X210.742 Y240.561 E0.01383
G1 X195.726 Y255.576 E0.7195
G1 X195.458 Y255.269 E0.01383
G1 X210.474 Y240.253 E0.7195
G1 X210.206 Y239.945 E0.01383
G1 X195.19 Y254.961 E0.7195
G1 X194.922 Y254.653 E0.01383
G1 X209.938 Y239.637 E0.7195
G1 X209.67 Y239.33 E0.01383
G1 X194.654 Y254.345 E0.7195
G1 X194.386 Y254.038 E0.01383
G1 X209.402 Y239.022 E0.7195
G1 X209.134 Y238.714 E0.01383
G1 X194.119 Y253.73 E0.7195
G1 X193.851 Y253.422 E0.01383
G1 X208.867 Y238.406 E0.7195
G1 X208.599 Y238.099 E0.01383
G1 X193.583 Y253.115 E0.7195
G1 X193.315 Y252.807 E0.01383
G1 X208.331 Y237.791 E0.7195
G1 X208.063 Y237.483 E0.01383
G1 X193.047 Y252.499 E0.7195
G1 X192.779 Y252.191 E0.01383
G1 X207.795 Y237.175 E0.7195
G1 X207.527 Y236.868 E0.01383
G1 X192.511 Y251.884 E0.7195
G1 X192.243 Y251.576 E0.01383
G1 X207.259 Y236.56 E0.7195
G1 X206.991 Y236.252 E0.01383
G1 X191.975 Y251.268 E0.7195
G1 X191.707 Y250.96 E0.01383
G1 X206.723 Y235.944 E0.7195
G1 X206.455 Y235.637 E0.01383
G1 X191.439 Y250.653 E0.7195
G1 X191.171 Y250.345 E0.01383
G1 X206.187 Y235.329 E0.7195
G1 X205.919 Y235.021 E0.01383
G1 X190.903 Y250.037 E0.7195
G1 X190.635 Y249.729 E0.01383
G1 X205.651 Y234.713 E0.7195
G1 X205.383 Y234.406 E0.01383
G1 X190.367 Y249.422 E0.7195
G1 X190.099 Y249.114 E0.01383
G1 X205.115 Y234.098 E0.7195
G1 X204.847 Y233.79 E0.01383
G1 X189.831 Y248.806 E0.7195
G1 X189.563 Y248.498 E0.01383
G1 X204.579 Y233.482 E0.7195
G1 X204.311 Y233.175 E0.01383
G1 X189.295 Y248.191 E0.7195
G1 X189.027 Y247.883 E0.01383
G1 X204.043 Y232.867 E0.7195
G1 X203.775 Y232.559 E0.01383
G1 X188.759 Y247.575 E0.7195
G1 X188.491 Y247.267 E0.01383
G1 X203.507 Y232.252 E0.7195
G1 X203.239 Y231.944 E0.01383
G1 X188.223 Y246.96 E0.7195
G1 X187.956 Y246.652 E0.01383
G1 X202.971 Y231.636 E0.7195
G1 X202.704 Y231.328 E0.01383
G1 X187.688 Y246.344 E0.7195
G1 X187.42 Y246.036 E0.01383
G1 X202.436 Y231.021 E0.7195
G1 X202.168 Y230.713 E0.01383
G1 X187.152 Y245.729 E0.7195
G1 X186.884 Y245.421 E0.01383
G1 X201.9 Y230.405 E0.7195
G1 X201.632 Y230.097 E0.01383
G1 X186.616 Y245.113 E0.7195
G1 X186.348 Y244.806 E0.01383
G1 X201.364 Y229.79 E0.7195
G1 X201.096 Y229.482 E0.01383
G1 X186.08 Y244.498 E0.7195
G1 X185.812 Y244.19 E0.01383
G1 X200.828 Y229.174 E0.7195
G1 X200.56 Y228.866 E0.01383
G1 X185.544 Y243.882 E0.7195
G1 X185.276 Y243.575 E0.01383
G1 X200.292 Y228.559 E0.7195
G1 X200.024 Y228.251 E0.01383
G1 X185.008 Y243.267 E0.7195
G1 X184.74 Y242.959 E0.01383
G1 X199.756 Y227.943 E0.7195
G1 X199.488 Y227.635 E0.01383
G1 X184.472 Y242.651 E0.7195
G1 X184.204 Y242.344 E0.01383
G1 X199.22 Y227.328 E0.7195
G1 X198.952 Y227.02 E0.01383
G1 X183.936 Y242.036 E0.7195
G1 X183.668 Y241.728 E0.01383
G1 X198.684 Y226.712 E0.7195
G1 X198.416 Y226.404 E0.01383
G1 X183.4 Y241.42 E0.7195
G1 X183.132 Y241.113 E0.01383
G1 X198.148 Y226.097 E0.7195
G1 X197.88 Y225.789 E0.01383
G1 X182.864 Y240.805 E0.7195
G1 X182.596 Y240.497 E0.01383
G1 X197.612 Y225.481 E0.7195
G1 X197.344 Y225.173 E0.01383
G1 X182.328 Y240.189 E0.7195
G1 X182.061 Y239.882 E0.01383
G1 X197.076 Y224.866 E0.7195
G1 X196.808 Y224.558 E0.01383
G1 X181.793 Y239.574 E0.7195
G1 X181.525 Y239.266 E0.01383
G1 X196.541 Y224.25 E0.7195
G1 X196.273 Y223.943 E0.01383
G1 X181.257 Y238.958 E0.7195
G1 X180.989 Y238.651 E0.01383
G1 X196.005 Y223.635 E0.7195
G1 X195.737 Y223.327 E0.01383
G1 X180.721 Y238.343 E0.7195
G1 X180.453 Y238.035 E0.01383
G1 X195.469 Y223.019 E0.7195
G1 X195.201 Y222.712 E0.01383
G1 X180.185 Y237.727 E0.7195
G1 X179.917 Y237.42 E0.01383
G1 X194.933 Y222.404 E0.7195
G1 X194.665 Y222.096 E0.01383
G1 X179.649 Y237.112 E0.7195
G1 X179.381 Y236.804 E0.01383
G1 X194.397 Y221.788 E0.7195
G1 X194.129 Y221.481 E0.01383
G1 X179.113 Y236.497 E0.7195
G1 X178.845 Y236.189 E0.01383
G1 X193.861 Y221.173 E0.7195
G1 X193.593 Y220.865 E0.01383
G1 X178.577 Y235.881 E0.7195
G1 X178.309 Y235.573 E0.01383
G1 X193.325 Y220.557 E0.7195
G1 X193.057 Y220.25 E0.01383
G1 X178.041 Y235.266 E0.7195
G1 X177.773 Y234.958 E0.01383
G1 X192.789 Y219.942 E0.7195
G1 X192.521 Y219.634 E0.01383
G1 X177.505 Y234.65 E0.7195
G1 X177.237 Y234.342 E0.01383
G1 X192.253 Y219.326 E0.7195
G1 X191.985 Y219.019 E0.01383
G1 X176.969 Y234.035 E0.7195
G1 X176.701 Y233.727 E0.01383
G1 X191.717 Y218.711 E0.7195
G1 X191.449 Y218.403 E0.01383
G1 X176.433 Y233.419 E0.7195
G1 X176.165 Y233.111 E0.01383
G1 X191.181 Y218.095 E0.7195
G1 X190.913 Y217.788 E0.01383
G1 X175.898 Y232.804 E0.7195
G1 X175.63 Y232.496 E0.01383
G1 X190.645 Y217.48 E0.7195
G1 X190.378 Y217.172 E0.01383
G1 X175.362 Y232.188 E0.7195
G1 X175.094 Y231.88 E0.01383
G1 X190.11 Y216.864 E0.7195
G1 X189.842 Y216.557 E0.01383
G1 X174.826 Y231.573 E0.7195
G1 X174.558 Y231.265 E0.01383
G1 X189.574 Y216.249 E0.7195
G1 X189.306 Y215.941 E0.01383
G1 X174.29 Y230.957 E0.7195
G1 X174.022 Y230.649 E0.01383
G1 X189.038 Y215.634 E0.7195
G1 X188.77 Y215.326 E0.01383
G1 X173.754 Y230.342 E0.7195
G1 X173.486 Y230.034 E0.01383
G1 X188.502 Y215.018 E0.7195
G1 X188.234 Y214.71 E0.01383
G1 X173.218 Y229.726 E0.7195
G1 X172.95 Y229.418 E0.01383
G1 X187.966 Y214.403 E0.7195
G1 X187.698 Y214.095 E0.01383
G1 X172.682 Y229.111 E0.7195
G1 X172.414 Y228.803 E0.01383
G1 X187.43 Y213.787 E0.7195
G1 X187.162 Y213.479 E0.01383
G1 X172.146 Y228.495 E0.7195
G1 X171.878 Y228.188 E0.01383
G1 X186.894 Y213.172 E0.7195
G1 X186.626 Y212.864 E0.01383
G1 X171.61 Y227.88 E0.7195
G1 X171.342 Y227.572 E0.01383
G1 X186.358 Y212.556 E0.7195
G1 X186.09 Y212.248 E0.01383
G1 X171.074 Y227.264 E0.7195
G1 X170.806 Y226.957 E0.01383
G1 X185.822 Y211.941 E0.7195
G1 X185.554 Y211.633 E0.01383
G1 X170.538 Y226.649 E0.7195
G1 X170.27 Y226.341 E0.01383
G1 X185.286 Y211.325 E0.7195
G1 X185.018 Y211.017 E0.01383
G1 X170.002 Y226.033 E0.7195
G1 X169.735 Y225.726 E0.01383
G1 X184.75 Y210.71 E0.7195
G1 X184.483 Y210.402 E0.01383
G1 X169.467 Y225.418 E0.7195
G1 X169.199 Y225.11 E0.01383
G1 X184.215 Y210.094 E0.7195
G1 X183.947 Y209.786 E0.01383
G1 X168.931 Y224.802 E0.7195
G1 X168.663 Y224.495 E0.01383
G1 X183.679 Y209.479 E0.7195
G1 X183.411 Y209.171 E0.01383
