; generated by SuperSlicer 2.5.59 on 2023-04-13 at 15:42:04 UTC


;
;

;
;
; 

; external perimeters extrusion width = 0.46mm
; perimeters extrusion width = 0.46mm
; infill extrusion width = 0.46mm
; solid infill extrusion width = 0.46mm
; top infill extrusion width = 0.46mm
; support material extrusion width = 0.46mm
; first layer extrusion width = 0.58mm

; object:{"name":"M12_Cable_Gland_Mount_for_CAN_bus_and_USB_c","id":"M12_Cable_Gland_Mount_for_CAN_bus_and_USB_c.stl id:0 copy 0","object_center":[149.947150,148.503614,0.000000],"boundingbox_center":[149.947150,148.503614,22.677401],"boundingbox_size":[31.663925,18.579147,45.354801]}
EXCLUDE_OBJECT_DEFINE NAME=M12_Cable_Gland_Mount_for_CAN_bus_and_USB_c_stl_id_0_copy_0 CENTER=149.947150,148.503614 POLYGON=[[134.115192,153.656352],[134.115208,144.359152],[134.145464,144.092112],[134.234688,143.838480],[134.378448,143.610960],[134.569504,143.420960],[134.798272,143.278000],[135.053296,143.189248],[154.045488,139.333840],[154.839504,139.239248],[155.638704,139.214032],[156.992048,139.226400],[157.805808,139.302656],[158.609664,139.450928],[159.397344,139.670064],[160.162688,139.958320],[160.899696,140.313472],[161.602592,140.732720],[162.265888,141.212800],[162.884384,141.749952],[163.453248,142.339952],[163.968032,142.978208],[164.424688,143.659712],[164.819664,144.379136],[165.149856,145.130832],[165.412672,145.908928],[165.606080,146.707360],[165.728544,147.519840],[165.779120,148.340032],[165.757408,149.161504],[165.663552,149.977824],[165.498320,150.782624],[165.263008,151.569600],[164.959440,152.332560],[164.590000,153.065584],[164.157568,153.762896],[163.665520,154.419072],[163.117760,155.028928],[162.518512,155.587744],[161.872496,156.091104],[161.184768,156.535104],[160.460704,156.916240],[159.705984,157.231552],[158.926480,157.478560],[158.128320,157.655328],[157.317760,157.760480],[156.501152,157.793184],[155.324080,157.789856],[155.062896,157.780016],[154.737792,157.763040],[154.150816,157.701760],[135.053280,154.826272],[134.798256,154.737536],[134.569472,154.594560],[134.378416,154.404544],[134.234688,154.177024],[134.145448,153.923392],[134.115192,153.656352]]
; plater:{"center":[149.947150,148.503614,0.000000],"boundingbox_center":[149.947150,148.503614,22.677401],"boundingbox_size":[31.663925,18.579147,45.354801]}

;TYPE:Custom
SET_PRINT_STATS_INFO TOTAL_LAYER=227

M104 S0 ; Stops SuperSlicer from sending temp waits separately

M109 S0

M140 S0

print_start EXTRUDER=250 BED=105 CHAMBER=0
M107
G21 ; set units to millimeters
G90 ; use absolute coordinates
M82 ; use absolute distances for extrusion
G92 E0
; Filament gcode
;_TOOLCHANGE 0
M107
;LAYER_CHANGE
;Z:0.2
;HEIGHT:0.2
TIMELAPSE_TAKE_FRAME
;BEFORE_LAYER_CHANGE
;0.2


G1 Z0.2 F12000
SET_PRINT_STATS_INFO CURRENT_LAYER=1
;AFTER_LAYER_CHANGE
;0.2
G1 E-0.7 F2400
G1 Z0.4 F12000
M204 S3000
G1 X129.313 Y137.096
G1 Z0.2
G1 E0 F2400
;TYPE:Skirt
;WIDTH:0.54
G1 F3600
G1 X128.097 Y138.244 E0.06914
G1 X127.782 Y138.636 E0.08993
G1 X126.695 Y140.463 E0.17779
G1 X126.042 Y142.489 E0.26577
G1 X125.883 Y144.02 E0.3294
G1 X125.897 Y154.248 E0.75212
G1 X126.155 Y156.018 E0.82608
G1 X126.914 Y158.006 E0.91403
G1 X128.096 Y159.772 E1.00185
G1 X129.639 Y161.227 E1.0895
G1 X131.463 Y162.301 E1.177
G1 X133.477 Y162.943 E1.26436
G1 X134.997 Y163.099 E1.32751
G1 X162.827 Y163.1 E2.4778
G1 X163.641 Y162.947 E2.51202
G1 X164.678 Y162.123 E2.56676
G1 X165.07 Y160.858 E2.62151
G1 X165.028 Y142.506 E3.38005
G1 X164.76 Y141.487 E3.42359
G1 X163.271 Y138.725 E3.55326
G1 X162.534 Y137.919 E3.59843
G1 X159.879 Y136.163 E3.73
G1 X158.857 Y135.801 E3.77481
G1 X149.568 Y134.918 E4.16045
G1 X134.998 Y134.916 E4.76267
G1 X133.478 Y135.073 E4.82585
G1 X131.463 Y135.715 E4.91322
G1 X129.639 Y136.789 E5.00071
G1 X129.357 Y137.055 E5.01675
G1 X129.706 Y137.406 F12000
G1 F3600
G1 X128.202 Y138.902 E5.10442
G1 X127.164 Y140.628 E5.18769
G1 X126.536 Y142.545 E5.27106
G1 X126.38 Y144.02 E5.33238
G1 X126.391 Y154.192 E5.75279
G1 X126.624 Y155.853 E5.82214
G1 X127.335 Y157.741 E5.90549
G1 X128.447 Y159.419 E5.98873
G1 X129.903 Y160.805 E6.0718
G1 X131.627 Y161.831 E6.15473
G1 X133.153 Y162.363 E6.22154
G1 X134.997 Y162.602 E6.29838
G1 X162.827 Y162.603 E7.44867
G1 X164.184 Y161.956 E7.51079
G1 X164.573 Y160.858 E7.55893
G1 X164.531 Y142.516 E8.31705
G1 X164.322 Y141.723 E8.35093
G1 X162.834 Y138.961 E8.48061
G1 X162.26 Y138.333 E8.51577
G1 X159.605 Y136.578 E8.64733
G1 X158.809 Y136.296 E8.68221
G1 X149.568 Y135.415 E9.06588
G1 X134.998 Y135.414 E9.66811
G1 X133.533 Y135.567 E9.72899
G1 X131.627 Y136.184 E9.8118
G1 X129.903 Y137.21 E9.89473
G1 X129.749 Y137.363 E9.90371
G1 X130.009 Y137.765 F12000
G1 F3600
G1 X129.947 Y137.805 E9.90675
G1 X128.798 Y138.949 E9.97377
G1 X127.633 Y140.793 E10.06393
G1 X127.03 Y142.601 E10.1427
G1 X126.877 Y144.02 E10.2017
G1 X126.877 Y153.995 E10.61399
G1 X127.093 Y155.688 E10.68454
G1 X127.755 Y157.475 E10.7633
G1 X128.622 Y158.848 E10.83044
G1 X129.947 Y160.21 E10.90896
G1 X131.79 Y161.362 E10.99878
G1 X133.317 Y161.893 E11.06559
G1 X134.997 Y162.105 E11.13559
G1 X162.827 Y162.106 E12.28588
G1 X163.691 Y161.758 E12.32437
G1 X164.076 Y160.858 E12.36485
G1 X164.034 Y142.526 E13.12254
G1 X163.884 Y141.959 E13.14678
G1 X162.396 Y139.197 E13.27645
G1 X161.986 Y138.748 E13.3016
G1 X159.33 Y136.992 E13.43316
G1 X158.761 Y136.791 E13.45811
G1 X149.568 Y135.913 E13.83982
G1 X134.998 Y135.911 E14.44205
G1 X133.588 Y136.061 E14.50064
G1 X131.539 Y136.774 E14.59032
G1 X130.059 Y137.733 E14.66319
G92 E0
G1 E-0.7 F2400
M204 S7000
G1 Z0.4 F12000
; acceleration to travel
M204 S8000
G1 X146.427 Y148.077
; decel to extrusion
M204 S3000
G1 X152.564 Y151.956
; end travel
G1 Z0.2
G1 E0 F2400
;WIDTH:0.58
G1 F3600
G1 X152.829 Y151.611 E0.01943
G1 X153.156 Y151.186 E0.04339
G1 X154.231 Y150.36 E0.10392
G1 X155.483 Y149.842 E0.16445
G1 X156.827 Y149.665 E0.22498
G1 X158.171 Y149.842 E0.28551
G1 X159.423 Y150.36 E0.34604
G1 X160.498 Y151.186 E0.40657
G1 X161.324 Y152.261 E0.4671
G1 X161.842 Y153.513 E0.52763
G1 X162.019 Y154.857 E0.58816
G1 X161.842 Y156.201 E0.64869
G1 X161.324 Y157.453 E0.70922
G1 X161.097 Y157.748 E0.7258
G1 X160.498 Y158.528 E0.76975
G1 X159.423 Y159.353 E0.83028
G1 X158.171 Y159.872 E0.89081
G1 X156.827 Y160.049 E0.95134
G1 X155.483 Y159.872 E1.01187
G1 X154.231 Y159.353 E1.0724
G1 X153.156 Y158.528 E1.13293
G1 X152.331 Y157.453 E1.19346
G1 X151.812 Y156.201 E1.25399
G1 X151.67 Y155.125 E1.30242
G1 X157.096 Y155.125 E1.5447
G1 X157.096 Y153.207 E1.63037
G1 X157.054 Y152.896 E1.6444
G1 X156.927 Y152.589 E1.65924
G1 X156.724 Y152.326 E1.67408
G1 X156.639 Y152.261 E1.67886
G1 X156.459 Y152.124 E1.68893
G1 X156.152 Y151.997 E1.70379
G1 X155.839 Y151.956 E1.71787
G1 X154.202 Y151.956 E1.79097
G1 X152.624 Y151.956 E1.86144
G92 E0
G1 E-0.7 F2400
M204 S7000
G1 Z0.4 F12000
; acceleration to travel
M204 S8000
G1 X156.768 Y150.485
; decel to extrusion
M204 S3000
G1 X158.322 Y149.933
; end travel
G1 Z0.2
G1 E0 F2400
G1 F3600
G1 X156.762 Y149.933 E0.06967
G1 X155.551 Y150.093 E0.12424
G1 X154.639 Y150.47 E0.1683
G1 X159.015 Y150.47 E0.36373
G1 X159.293 Y150.586 E0.37717
G1 X159.843 Y151.008 E0.40812
G1 X153.811 Y151.008 E0.67749
G1 X153.34 Y151.369 E0.70404
G1 X153.205 Y151.545 E0.7139
G1 X160.449 Y151.545 E1.0374
G1 X160.861 Y152.082 E1.06764
G1 X156.829 Y152.082 E1.24772
G1 X156.907 Y152.141 E1.25211
G1 X157.152 Y152.458 E1.26999
G1 X157.218 Y152.619 E1.27775
G1 X161.193 Y152.619 E1.45524
G1 X161.415 Y153.156 E1.4812
G1 X157.349 Y153.156 E1.6628
G1 X157.354 Y153.19 E1.66435
G1 X157.354 Y153.693 E1.6868
G1 X161.606 Y153.693 E1.87671
G1 X161.677 Y154.23 E1.9009
G1 X157.354 Y154.23 E2.09396
G1 X157.353 Y154.767 E2.11795
G1 X161.747 Y154.767 E2.31417
G1 X161.759 Y154.857 E2.31822
G1 X161.7 Y155.304 E2.33836
G1 X157.353 Y155.304 E2.53249
G1 X157.353 Y155.383 E2.53602
G1 X151.964 Y155.383 E2.77668
G1 X152.025 Y155.841 E2.79732
G1 X161.63 Y155.841 E3.22625
G1 X161.591 Y156.133 E3.23941
G1 X161.49 Y156.378 E3.25125
G1 X152.165 Y156.378 E3.66769
G1 X152.387 Y156.915 E3.69366
G1 X161.267 Y156.915 E4.09023
G1 X161.098 Y157.323 E4.10992
G1 X160.999 Y157.452 E4.11722
G1 X152.655 Y157.452 E4.48983
G1 X153.067 Y157.99 E4.52006
G1 X160.587 Y157.99 E4.85587
G1 X160.315 Y158.344 E4.87584
G1 X160.077 Y158.527 E4.88921
G1 X153.577 Y158.527 E5.17948
G1 X154.277 Y159.064 E5.21888
G1 X159.377 Y159.064 E5.44663
G1 X159.293 Y159.128 E5.45136
G1 X158.152 Y159.601 E5.50652
G1 X154.899 Y159.601 E5.6518
G92 E0
G1 E-0.7 F2400
M204 S7000
G1 Z0.4 F12000
; acceleration to travel
M204 S8000
G1 X143.63 Y156.799
; decel to extrusion
M204 S3000
G1 X139.404 Y155.748
; end travel
G1 Z0.2
G1 E0 F2400
G1 F3600
G1 X138.885 Y157.001 E0.06053
G1 X138.659 Y157.295 E0.07712
G1 X138.06 Y158.076 E0.12106
G1 X136.985 Y158.901 E0.18159
G1 X135.733 Y159.42 E0.24212
G1 X134.389 Y159.597 E0.30265
G1 X133.045 Y159.42 E0.36318
G1 X131.793 Y158.901 E0.42371
G1 X130.718 Y158.076 E0.48424
G1 X129.892 Y157.001 E0.54477
G1 X129.374 Y155.748 E0.6053
G1 X129.197 Y154.405 E0.66583
G1 X129.374 Y153.061 E0.72636
G1 X129.892 Y151.809 E0.78689
G1 X130.119 Y151.514 E0.80348
G1 X130.718 Y150.733 E0.84742
G1 X131.793 Y149.908 E0.90795
G1 X133.045 Y149.389 E0.96848
G1 X133.857 Y149.283 E1.00506
G1 X133.857 Y153.672 E1.20106
G1 X133.893 Y153.984 E1.2151
G1 X134.002 Y154.295 E1.22982
G1 X134.178 Y154.574 E1.24455
G1 X134.412 Y154.806 E1.25928
G1 X134.692 Y154.981 E1.27403
G1 X135.004 Y155.09 E1.28878
G1 X135.317 Y155.125 E1.30286
G1 X139.486 Y155.125 E1.48903
G1 X139.412 Y155.689 E1.51443
G92 E0
G1 E-0.7 F2400
M204 S7000
G1 Z0.4 F12000
; acceleration to travel
M204 S8000
G1 X137.038 Y158.256
; decel to extrusion
M204 S3000
G1 X136.148 Y159.219
; end travel
G1 Z0.2
G1 E0 F2400
G1 F3600
G1 X133.492 Y159.219 E0.11863
G1 X133.112 Y159.169 E0.13572
G1 X131.936 Y158.681 E0.19257
G1 X136.841 Y158.681 E0.41161
G1 X137.548 Y158.144 E0.45124
G1 X131.23 Y158.144 E0.73336
G1 X130.901 Y157.892 E0.75187
G1 X130.683 Y157.607 E0.76789
G1 X138.095 Y157.607 E1.0989
G1 X138.455 Y157.138 E1.1253
G1 X138.507 Y157.07 E1.12913
G1 X130.271 Y157.07 E1.49695
G1 X130.118 Y156.871 E1.50819
G1 X129.978 Y156.533 E1.5245
G1 X138.8 Y156.533 E1.91848
G1 X139.022 Y155.996 E1.94444
G1 X129.755 Y155.996 E2.35829
G1 X129.625 Y155.681 E2.37352
G1 X129.596 Y155.459 E2.38352
G1 X139.182 Y155.459 E2.81163
G1 X139.192 Y155.383 E2.81506
G1 X135.303 Y155.383 E2.98876
G1 X134.947 Y155.343 E3.00477
G1 X134.58 Y155.215 E3.0221
G1 X134.251 Y155.01 E3.03943
G1 X134.163 Y154.922 E3.04499
G1 X129.525 Y154.922 E3.2521
G1 X129.457 Y154.405 E3.2754
G1 X129.459 Y154.385 E3.27629
G1 X133.76 Y154.385 E3.46836
G1 X133.64 Y154.042 E3.48459
G1 X133.618 Y153.848 E3.49332
G1 X129.53 Y153.848 E3.67586
G1 X129.601 Y153.311 E3.70005
G1 X133.599 Y153.311 E3.87861
G1 X133.599 Y152.774 E3.9026
G1 X129.772 Y152.774 E4.07353
G1 X129.994 Y152.236 E4.09949
G1 X133.599 Y152.236 E4.26049
G1 X133.599 Y151.699 E4.28447
G1 X130.301 Y151.699 E4.43177
G1 X130.323 Y151.671 E4.43338
G1 X130.713 Y151.162 E4.462
G1 X133.599 Y151.162 E4.59089
G1 X133.599 Y150.625 E4.61487
G1 X131.282 Y150.625 E4.71837
G1 X131.923 Y150.133 E4.75446
G1 X132.032 Y150.088 E4.75973
G1 X133.83 Y150.088 E4.84004
; acceleration to travel
M204 S8000
G1 X133.85 Y148.946 F12000
; decel to extrusion
M204 S3000
G1 X133.857 Y148.518
; end travel
G1 F3600
G1 X133.566 Y148.48 E4.85316
G1 X133.236 Y148.436 E4.86801
G1 X131.984 Y147.917 E4.92854
G1 X130.909 Y147.092 E4.98907
G1 X130.084 Y146.017 E5.0496
G1 X129.565 Y144.765 E5.11013
G1 X129.388 Y143.421 E5.17066
G1 X129.565 Y142.077 E5.23119
G1 X130.084 Y140.825 E5.29172
G1 X130.31 Y140.53 E5.30831
G1 X130.909 Y139.75 E5.35225
G1 X131.984 Y138.925 E5.41278
G1 X133.236 Y138.406 E5.47331
G1 X134.58 Y138.229 E5.53384
G1 X135.924 Y138.406 E5.59437
G1 X137.176 Y138.925 E5.6549
G1 X138.251 Y139.75 E5.71543
G1 X139.076 Y140.825 E5.77596
G1 X139.595 Y142.077 E5.83649
G1 X139.702 Y142.891 E5.87316
G1 X135.317 Y142.891 E6.06899
G1 X135.129 Y142.912 E6.07744
G1 X135.004 Y142.926 E6.08307
G1 X134.692 Y143.034 E6.09782
G1 X134.412 Y143.209 E6.11256
G1 X134.295 Y143.326 E6.11993
G1 X134.178 Y143.442 E6.1273
G1 X134.097 Y143.571 E6.1341
G1 X134.002 Y143.721 E6.14203
G1 X133.893 Y144.032 E6.15675
G1 X133.857 Y144.344 E6.17078
G1 X133.857 Y148.458 E6.3545
; acceleration to travel
M204 S8000
G1 X132.98 Y148.245 F12000
; decel to extrusion
M204 S3000
G1 X132.652 Y148.165
; end travel
G1 F3600
G1 X133.599 Y148.165 E6.39683
G1 X133.599 Y147.628 E6.42081
G1 X132.03 Y147.628 E6.49089
G1 X131.33 Y147.091 E6.53029
G1 X133.599 Y147.091 E6.63163
G1 X133.599 Y146.554 E6.65562
G1 X130.82 Y146.554 E6.77973
G1 X130.408 Y146.017 E6.80996
G1 X133.599 Y146.017 E6.95247
G1 X133.599 Y145.48 E6.97646
G1 X130.14 Y145.48 E7.13095
G1 X129.917 Y144.942 E7.15691
G1 X133.599 Y144.942 E7.32134
G1 X133.599 Y144.405 E7.34532
G1 X129.778 Y144.405 E7.516
G1 X129.707 Y143.868 E7.54019
G1 X133.677 Y143.868 E7.71748
G1 X133.768 Y143.608 E7.72982
G1 X133.879 Y143.433 E7.73905
G1 X133.943 Y143.331 E7.74442
G1 X129.66 Y143.331 E7.93571
G1 X129.73 Y142.794 E7.9599
G1 X134.598 Y142.794 E8.17727
G1 X134.947 Y142.673 E8.19376
G1 X135.101 Y142.656 E8.20068
G1 X135.303 Y142.633 E8.20977
G1 X139.408 Y142.633 E8.39311
G1 X139.359 Y142.257 E8.41006
G1 X129.801 Y142.257 E8.83689
G1 X129.816 Y142.144 E8.84196
G1 X129.992 Y141.72 E8.86248
G1 X139.168 Y141.72 E9.27228
G1 X138.946 Y141.183 E9.29824
G1 X130.214 Y141.183 E9.68817
G1 X130.309 Y140.955 E9.69919
G1 X130.514 Y140.687 E9.71426
G1 X130.546 Y140.646 E9.71659
G1 X138.614 Y140.646 E10.0769
G1 X138.202 Y140.109 E10.10713
G1 X130.958 Y140.109 E10.43063
G1 X131.092 Y139.933 E10.4405
G1 X131.564 Y139.572 E10.46704
G1 X137.596 Y139.572 E10.73641
G1 X137.046 Y139.15 E10.76737
G1 X136.768 Y139.035 E10.7808
G1 X132.392 Y139.035 E10.97624
G1 X133.303 Y138.657 E11.0203
G1 X134.515 Y138.498 E11.07487
G1 X136.075 Y138.498 E11.14454
G92 E0
G1 E-0.7 F2400
M204 S7000
G1 Z0.4 F12000
; acceleration to travel
M204 S8000
G1 X143.708 Y144.663
; decel to extrusion
M204 S3000
G1 X146.571 Y146.975
; end travel
G1 Z0.2
G1 E0 F2400
G1 F3600
G1 X146.884 Y146.676 E0.01935
G1 X147.239 Y146.419 E0.03892
G1 X147.627 Y146.214 E0.0585
G1 X148.039 Y146.065 E0.0781
G1 X148.469 Y145.974 E0.09771
G1 X148.916 Y145.943 E0.11773
G1 X153.633 Y145.943 E0.32837
G1 X152.951 Y146.832 E0.37841
G1 X152.313 Y147.322 E0.41435
G1 X151.876 Y147.658 E0.43894
G1 X150.623 Y148.176 E0.49947
G1 X149.28 Y148.353 E0.56
G1 X147.936 Y148.176 E0.62053
G1 X146.684 Y147.658 E0.68106
G1 X146.282 Y147.349 E0.70368
G1 X146.297 Y147.322 E0.70507
G1 X146.534 Y147.022 E0.72212
G92 E0
G1 E-0.7 F2400
M204 S7000
G1 Z0.4 F12000
; acceleration to travel
M204 S8000
G1 X150.077 Y147.605
; decel to extrusion
M204 S3000
G1 X151.406 Y147.823
; end travel
G1 Z0.2
G1 E0 F2400
G1 F3600
G1 X147.757 Y147.823 E0.16293
G1 X146.814 Y147.432 E0.20854
G1 X146.642 Y147.301 E0.21818
G1 X146.654 Y147.286 E0.21903
G1 X151.936 Y147.286 E0.45491
G1 X152.156 Y147.118 E0.46726
G1 X152.636 Y146.749 E0.49431
G1 X147.223 Y146.749 E0.73607
G1 X147.375 Y146.639 E0.74449
G1 X147.731 Y146.451 E0.76247
G1 X148.11 Y146.314 E0.78047
G1 X148.505 Y146.23 E0.79847
G1 X148.77 Y146.212 E0.81035
G1 X153.393 Y146.212 E1.01681
G92 E0
G1 E-0.7 F2400
M204 S7000
G1 Z0.4 F12000
; acceleration to travel
M204 S8000
G1 X153.596 Y144.104
; decel to extrusion
M204 S3000
G1 X153.672 Y143.314
; end travel
G1 Z0.2
G1 E0 F2400
G1 F3600
G1 X149.293 Y142.892 E0.19648
G1 X144.123 Y142.892 E0.42734
G1 X144.264 Y141.817 E0.47575
G1 X144.783 Y140.565 E0.53628
G1 X145.009 Y140.27 E0.55287
G1 X145.608 Y139.49 E0.59681
G1 X146.684 Y138.665 E0.65734
G1 X147.936 Y138.146 E0.71787
G1 X149.28 Y137.969 E0.7784
G1 X150.623 Y138.146 E0.83893
G1 X151.876 Y138.665 E0.89946
G1 X152.951 Y139.49 E0.95999
G1 X153.776 Y140.565 E1.02052
G1 X154.295 Y141.817 E1.08105
G1 X154.435 Y142.882 E1.12899
G1 X154.472 Y143.161 E1.14158
G1 X154.442 Y143.388 E1.15179
G1 X153.732 Y143.319 E1.18365
; acceleration to travel
M204 S8000
G1 X154.242 Y143.139 F12000
; decel to extrusion
M204 S3000
G1 X154.433 Y143.071
