; generated by SuperSlicer 2.4 on 2023-02-01 at 09:11:37 UTC


;
;

;
;
; 

; external perimeters extrusion width = 0.42mm
; perimeters extrusion width = 0.45mm
; infill extrusion width = 0.45mm
; solid infill extrusion width = 0.45mm
; top infill extrusion width = 0.42mm
; first layer extrusion width = 0.62mm

; external perimeters extrusion width = 0.42mm
; perimeters extrusion width = 0.45mm
; infill extrusion width = 0.45mm
; solid infill extrusion width = 0.45mm
; top infill extrusion width = 0.42mm
; first layer extrusion width = 0.62mm

; external perimeters extrusion width = 0.42mm
; perimeters extrusion width = 0.45mm
; infill extrusion width = 0.45mm
; solid infill extrusion width = 0.45mm
; top infill extrusion width = 0.42mm
; first layer extrusion width = 0.62mm

; external perimeters extrusion width = 0.42mm
; perimeters extrusion width = 0.45mm
; infill extrusion width = 0.45mm
; solid infill extrusion width = 0.45mm
; top infill extrusion width = 0.42mm
; first layer extrusion width = 0.62mm

; external perimeters extrusion width = 0.42mm
; perimeters extrusion width = 0.45mm
; infill extrusion width = 0.45mm
; solid infill extrusion width = 0.45mm
; top infill extrusion width = 0.42mm
; first layer extrusion width = 0.62mm

; external perimeters extrusion width = 0.42mm
; perimeters extrusion width = 0.45mm
; infill extrusion width = 0.45mm
; solid infill extrusion width = 0.45mm
; top infill extrusion width = 0.42mm
; first layer extrusion width = 0.62mm

; external perimeters extrusion width = 0.42mm
; perimeters extrusion width = 0.45mm
; infill extrusion width = 0.45mm
; solid infill extrusion width = 0.45mm
; top infill extrusion width = 0.42mm
; first layer extrusion width = 0.62mm

; object:{"name":"Middle_Clip_x9","id":"Middle_Clip_x9.stl id:0 copy 0","object_center":[139.174753,107.970254,0.000000],"boundingbox_center":[139.174753,107.970254,2.199997],"boundingbox_size":[25.000008,15.000000,4.399994]}
; object:{"name":"Middle_Clip_x9","id":"Middle_Clip_x9.stl id:0 copy 1","object_center":[98.733993,165.711446,0.000000],"boundingbox_center":[98.733993,165.711446,2.199997],"boundingbox_size":[25.000008,15.000000,4.399994]}
; object:{"name":"Middle_Clip_x9","id":"Middle_Clip_x9.stl id:0 copy 2","object_center":[169.174766,105.573367,0.000000],"boundingbox_center":[169.174766,105.573367,2.199997],"boundingbox_size":[25.000008,15.000000,4.399994]}
; object:{"name":"Middle_Clip_x9","id":"Middle_Clip_x9.stl id:0 copy 3","object_center":[127.931663,205.871165,0.000000],"boundingbox_center":[127.931663,205.871165,2.199997],"boundingbox_size":[25.000008,15.000000,4.399994]}
; object:{"name":"Middle_Clip_x9","id":"Middle_Clip_x9.stl id:0 copy 4","object_center":[109.174745,114.221999,0.000000],"boundingbox_center":[109.174745,114.221999,2.199997],"boundingbox_size":[25.000008,15.000000,4.399994]}
; object:{"name":"Middle_Clip_x9","id":"Middle_Clip_x9.stl id:0 copy 5","object_center":[98.752540,185.711446,0.000000],"boundingbox_center":[98.752540,185.711446,2.199997],"boundingbox_size":[25.000008,15.000000,4.399994]}
; object:{"name":"Middle_Clip_x9","id":"Middle_Clip_x9.stl id:0 copy 6","object_center":[192.842377,203.163528,0.000000],"boundingbox_center":[192.842377,203.163528,2.199997],"boundingbox_size":[25.000008,15.000000,4.399994]}
; object:{"name":"Middle_Clip_x9","id":"Middle_Clip_x9.stl id:0 copy 7","object_center":[199.174774,110.661022,0.000000],"boundingbox_center":[199.174774,110.661022,2.199997],"boundingbox_size":[25.000008,15.000000,4.399994]}
; object:{"name":"Middle_Clip_x9","id":"Middle_Clip_x9.stl id:0 copy 8","object_center":[145.603415,87.970254,0.000000],"boundingbox_center":[145.603415,87.970254,2.199997],"boundingbox_size":[25.000008,15.000000,4.399994]}
; object:{"name":"Rear_Bottom_Left_Clip_x1","id":"Rear_Bottom_Left_Clip_x1.stl id:1 copy 0","object_center":[160.387079,201.521731,0.000000],"boundingbox_center":[160.387079,201.521731,2.212067],"boundingbox_size":[29.927307,30.015884,4.424133]}
; object:{"name":"Rear_Bottom_Right_Clip_x1","id":"Rear_Bottom_Right_Clip_x1.stl id:2 copy 0","object_center":[201.508523,138.159240,0.000000],"boundingbox_center":[201.508523,138.159240,2.212067],"boundingbox_size":[29.927307,30.015884,4.424133]}
; object:{"name":"Right_Bottom_Front_Hinge_x1","id":"Right_Bottom_Front_Hinge_x1.stl id:3 copy 0","object_center":[131.242704,175.770423,0.000000],"boundingbox_center":[131.242704,175.770423,2.709015],"boundingbox_size":[30.018227,35.200676,5.418030]}
; object:{"name":"Right_Bottom_Rear_Panel_Clip_x1","id":"Right_Bottom_Rear_Panel_Clip_x1.stl id:4 copy 0","object_center":[166.545589,134.008613,0.000000],"boundingbox_center":[166.545589,134.008613,2.212067],"boundingbox_size":[30.015884,32.718231,4.424133]}
; object:{"name":"Right_Top_Left_Hinge_x1","id":"Right_Top_Left_Hinge_x1.stl id:5 copy 0","object_center":[182.751189,173.068322,0.000000],"boundingbox_center":[182.751189,173.068322,2.700715],"boundingbox_size":[63.009453,35.457329,5.401430]}
; object:{"name":"Right_Top_Rear_Panel_Clip_x1","id":"Right_Top_Rear_Panel_Clip_x1.stl id:6 copy 0","object_center":[115.033328,136.842016,0.000000],"boundingbox_center":[115.033328,136.842016,2.214259],"boundingbox_size":[63.012009,32.744598,4.428518]}
; plater:{"center":[149.999750,148.499964,0.000000],"boundingbox_center":[149.999750,148.499964,2.709015],"boundingbox_size":[132.944853,136.059419,5.418030]}

;TYPE:Custom
M104 S0 ; Stops SuperSlicer from sending temp waits separately


; Pre-Processed for Cancel-Object support by preprocess_cancellation v0.2.0
; 15 known objects
EXCLUDE_OBJECT_DEFINE NAME=Middle_Clip_x9_stl_id_0_copy_0 CENTER=139.360,107.191 POLYGON=[[126.885,100.694],[126.885,115.26],[151.465,115.26],[151.465,100.694]]
EXCLUDE_OBJECT_DEFINE NAME=Middle_Clip_x9_stl_id_0_copy_8 CENTER=145.711,87.182 POLYGON=[[133.313,80.694],[133.313,95.26],[157.893,95.26],[157.893,80.694]]
EXCLUDE_OBJECT_DEFINE NAME=Middle_Clip_x9_stl_id_0_copy_2 CENTER=169.364,104.792 POLYGON=[[156.885,98.297],[156.885,112.863],[181.465,112.863],[181.465,98.297]]
EXCLUDE_OBJECT_DEFINE NAME=Right_Bottom_Rear_Panel_Clip_x1_stl_id_4_copy_0 CENTER=165.113,134.918 POLYGON=[[151.748,117.915],[151.748,150.13],[181.344,150.13],[181.344,117.915]]
EXCLUDE_OBJECT_DEFINE NAME=Rear_Bottom_Right_Clip_x1_stl_id_2_copy_0 CENTER=205.973,140.412 POLYGON=[[186.854,123.362],[186.854,152.957],[216.236,152.957],[216.236,123.362]]
EXCLUDE_OBJECT_DEFINE NAME=Middle_Clip_x9_stl_id_0_copy_7 CENTER=199.260,109.859 POLYGON=[[186.885,103.385],[186.885,117.951],[211.465,117.951],[211.465,103.385]]
EXCLUDE_OBJECT_DEFINE NAME=Right_Top_Left_Hinge_x1_stl_id_5_copy_0 CENTER=182.636,168.948 POLYGON=[[151.457,155.553],[151.457,190.448],[214.046,190.448],[214.046,155.553]]
EXCLUDE_OBJECT_DEFINE NAME=Middle_Clip_x9_stl_id_0_copy_6 CENTER=193.012,202.384 POLYGON=[[180.552,195.888],[180.552,210.454],[205.132,210.454],[205.132,195.888]]
EXCLUDE_OBJECT_DEFINE NAME=Rear_Bottom_Left_Clip_x1_stl_id_1_copy_0 CENTER=156.126,203.852 POLYGON=[[145.662,186.724],[145.662,216.32],[175.042,216.32],[175.042,186.724]]
EXCLUDE_OBJECT_DEFINE NAME=Middle_Clip_x9_stl_id_0_copy_3 CENTER=128.004,205.080 POLYGON=[[115.642,198.595],[115.642,213.161],[140.222,213.161],[140.222,198.595]]
EXCLUDE_OBJECT_DEFINE NAME=Right_Bottom_Front_Hinge_x1_stl_id_3_copy_0 CENTER=129.117,173.758 POLYGON=[[116.444,158.384],[116.444,193.113],[146.042,193.113],[146.042,158.384]]
EXCLUDE_OBJECT_DEFINE NAME=Middle_Clip_x9_stl_id_0_copy_5 CENTER=98.826,184.931 POLYGON=[[86.463,178.435],[86.463,193.001],[111.043,193.001],[111.043,178.435]]
EXCLUDE_OBJECT_DEFINE NAME=Middle_Clip_x9_stl_id_0_copy_1 CENTER=98.873,164.910 POLYGON=[[86.444,158.435],[86.444,173.001],[111.024,173.001],[111.024,158.435]]
EXCLUDE_OBJECT_DEFINE NAME=Right_Top_Rear_Panel_Clip_x1_stl_id_6_copy_0 CENTER=118.213,139.422 POLYGON=[[83.737,120.715],[83.737,153.002],[146.329,153.002],[146.329,120.715]]
EXCLUDE_OBJECT_DEFINE NAME=Middle_Clip_x9_stl_id_0_copy_4 CENTER=109.283,113.424 POLYGON=[[96.885,106.946],[96.885,121.512],[121.465,121.512],[121.465,106.946]]

M140 S0

print_start EXTRUDER=248 BED=105 CHAMBER=0
M107
G21 ; set units to millimeters
G90 ; use absolute coordinates
M83 ; use relative distances for extrusion
; Filament gcode
;_TOOLCHANGE 0
M107
;LAYER_CHANGE
;Z:0.2
;HEIGHT:0.2
TIMELAPSE_TAKE_FRAME
;BEFORE_LAYER_CHANGE
;0.2


G1 E-0.4 F2400
G1 Z0.3 F9000
TIMELAPSE_TAKE_FRAME
;BEFORE_LAYER_CHANGE
;0.2
G92 E0
G1 Z0.5
G1 X95.219 Y105.187
G1 Z0.2
G1 E0.4 F2280
;TYPE:Skirt
;WIDTH:0.52
G1 F1950
G1 X94.675 Y105.736 E0.03066
G1 X92.903 Y108.345 E0.1251
G1 X80.366 Y138.91 E1.31055
G1 X80.191 Y139.801 E0.03601
G1 X80.195 Y153.459 E0.54178
G1 X82.31 Y187.652 E1.35904
G1 X82.433 Y188.625 E0.0389
G1 X82.952 Y190.089 E0.06163
G1 X83.259 Y190.62 E0.0243
G1 X83.959 Y191.5 E0.04463
G1 X87.964 Y195.505 E0.22466
G1 X88.844 Y196.205 E0.04463
G1 X118.118 Y216.434 E1.41156
G1 X119.426 Y217.033 E0.05707
G1 X120.018 Y217.191 E0.0243
G1 X145.045 Y220.415 E1.00103
G1 X162.711 Y220.466 E0.70079
G1 X200.818 Y214.475 E1.53023
G1 X201.348 Y214.325 E0.02186
G1 X202.751 Y213.657 E0.06163
G1 X203.631 Y212.957 E0.04463
G1 X207.635 Y208.952 E0.22466
G1 X208.336 Y208.072 E0.04463
G1 X208.632 Y207.565 E0.02328
G1 X216.438 Y189.296 E0.78812
G1 X216.622 Y188.532 E0.03117
G1 X218.892 Y154.883 E1.33788
G1 X218.868 Y123.097 E1.26092
G1 X215.582 Y105.245 E0.72008
G1 X215.191 Y104.32 E0.03984
G1 X213.674 Y102.175 E0.1042
G1 X212.674 Y101.369 E0.05098
G1 X159.102 Y78.678 E2.30791
G1 X158.187 Y78.492 E0.03705
G1 X133.02 Y78.492 E0.99836
G1 X131.648 Y78.935 E0.05719
G1 X95.268 Y105.152 E1.77886
G1 X95.547 Y105.539 F9000
G1 F1950
G1 X95.498 Y105.574 E0.00238
G1 X95.065 Y106.011 E0.02443
G1 X93.345 Y108.526 E0.12085
G1 X80.808 Y139.092 E1.31055
G1 X80.668 Y139.801 E0.02869
G1 X80.671 Y153.429 E0.54061
G1 X82.786 Y187.623 E1.35904
G1 X82.906 Y188.563 E0.03759
G1 X83.393 Y189.907 E0.0567
G1 X84.297 Y191.163 E0.06138
G1 X88.301 Y195.167 E0.22466
G1 X89.135 Y195.827 E0.04215
G1 X118.389 Y216.041 E1.41061
G1 X119.609 Y216.592 E0.05308
G1 X120.891 Y216.825 E0.05173
G1 X145.106 Y219.942 E0.96851
G1 X162.712 Y219.989 E0.69841
G1 X201.165 Y213.884 E1.54452
G1 X202.46 Y213.279 E0.05671
G1 X203.294 Y212.619 E0.04215
G1 X207.298 Y208.615 E0.22466
G1 X207.958 Y207.782 E0.04215
G1 X208.194 Y207.378 E0.01855
G1 X216 Y189.109 E0.78812
G1 X216.146 Y188.5 E0.02484
G1 X218.416 Y154.851 E1.33788
G1 X218.391 Y123.097 E1.25963
G1 X215.113 Y105.332 E0.71663
G1 X214.801 Y104.595 E0.03174
G1 X213.285 Y102.45 E0.1042
G1 X212.488 Y101.808 E0.04062
G1 X158.916 Y79.117 E2.30791
G1 X158.187 Y78.969 E0.02952
G1 X133.02 Y78.969 E0.99836
G1 X131.927 Y79.322 E0.04557
G1 X95.595 Y105.504 E1.77648
G1 X95.874 Y105.891 F9000
G1 F1950
G1 X95.777 Y105.961 E0.00476
G1 X95.454 Y106.287 E0.0182
G1 X93.786 Y108.707 E0.1166
G1 X81.249 Y139.273 E1.31055
G1 X81.145 Y139.801 E0.02137
G1 X81.148 Y153.4 E0.53945
G1 X83.263 Y187.594 E1.35904
G1 X83.473 Y188.852 E0.05061
G1 X83.834 Y189.724 E0.03745
G1 X84.634 Y190.825 E0.054
G1 X88.639 Y194.83 E0.22466
G1 X89.425 Y195.448 E0.03968
G1 X118.66 Y215.649 E1.40967
G1 X119.791 Y216.151 E0.04908
G1 X145.167 Y219.468 E1.01522
G1 X162.713 Y219.512 E0.69603
G1 X200.983 Y213.443 E1.53711
G1 X202.17 Y212.9 E0.05178
G1 X202.956 Y212.282 E0.03968
G1 X206.961 Y208.277 E0.22466
G1 X207.579 Y207.491 E0.03968
G1 X215.561 Y188.921 E0.80182
G1 X215.67 Y188.468 E0.0185
G1 X217.94 Y154.818 E1.33788
G1 X217.914 Y123.098 E1.25834
G1 X214.644 Y105.419 E0.71318
G1 X214.412 Y104.871 E0.02364
G1 X212.895 Y102.726 E0.1042
G1 X212.301 Y102.248 E0.03025
G1 X158.73 Y79.557 E2.30791
G1 X158.187 Y79.446 E0.02199
G1 X133.02 Y79.446 E0.99836
G1 X132.206 Y79.709 E0.03394
G1 X95.923 Y105.856 E1.7741
G1 X96.202 Y106.243 F9000
G1 F1950
G1 X96.056 Y106.348 E0.00714
G1 X94.228 Y108.888 E0.12415
G1 X81.69 Y139.454 E1.31055
G1 X81.622 Y139.801 E0.01405
G1 X81.624 Y153.37 E0.53828
G1 X83.739 Y187.564 E1.35904
G1 X83.913 Y188.669 E0.04439
G1 X84.275 Y189.542 E0.03745
G1 X84.971 Y190.488 E0.04662
G1 X88.976 Y194.493 E0.22466
G1 X89.715 Y195.07 E0.03721
G1 X118.931 Y215.256 E1.40872
G1 X119.974 Y215.71 E0.0451
G1 X145.228 Y218.995 E1.01027
G1 X162.714 Y219.035 E0.69365
G1 X200.8 Y213.003 E1.5297
G1 X201.88 Y212.522 E0.04687
G1 X202.619 Y211.945 E0.03721
G1 X206.623 Y207.94 E0.22466
G1 X207.201 Y207.201 E0.03721
G1 X215.122 Y188.734 E0.79713
G1 X217.464 Y154.786 E1.34987
G1 X217.437 Y123.098 E1.25705
G1 X214.175 Y105.507 E0.70973
G1 X214.022 Y105.146 E0.01554
G1 X212.506 Y103.001 E0.1042
G1 X212.115 Y102.687 E0.01989
G1 X158.544 Y79.996 E2.30791
G1 X158.187 Y79.924 E0.01446
G1 X133.02 Y79.924 E0.99836
G1 X132.485 Y80.096 E0.02231
G1 X96.251 Y106.208 E1.77172
G1 X96.53 Y106.595 F9000
G1 F1950
G1 X96.335 Y106.735 E0.00952
G1 X94.669 Y109.069 E0.11375
G1 X82.132 Y139.635 E1.31055
G1 X82.1 Y153.341 E0.54371
G1 X84.215 Y187.535 E1.35904
G1 X84.354 Y188.487 E0.03818
G1 X84.715 Y189.359 E0.03745
G1 X85.309 Y190.151 E0.03924
G1 X89.313 Y194.155 E0.22466
G1 X90.006 Y194.691 E0.03474
G1 X119.203 Y214.864 E1.40778
G1 X120.156 Y215.269 E0.04111
G1 X145.289 Y218.522 E1.00532
G1 X162.715 Y218.558 E0.69127
G1 X200.618 Y212.562 E1.52228
G1 X201.49 Y212.201 E0.03745
G1 X202.282 Y211.607 E0.03924
G1 X206.286 Y207.603 E0.22466
G1 X206.822 Y206.91 E0.03474
G1 X214.683 Y188.546 E0.79243
G1 X216.988 Y154.754 E1.34362
G1 X216.96 Y123.099 E1.25576
G1 X213.633 Y105.421 E0.71355
G1 X212.116 Y103.277 E0.1042
G1 X211.929 Y103.126 E0.00953
G1 X158.358 Y80.435 E2.30791
G1 X133.02 Y80.401 E1.00514
G1 X132.764 Y80.483 E0.01069
G1 X96.578 Y106.56 E1.76934
G1 E-0.4 F2400
G1 Z0.5 F9000
G1 X146.553 Y187.072
G1 Z0.2
G1 E0.4 F2280
;WIDTH:0.62
G1 F1950
G1 X146.87 Y186.941 E0.01646
G1 X146.982 Y186.919 E0.00545
G1 X147.768 Y186.919 E0.03776
G1 X174.34 Y186.919 E1.27501
G1 X174.451 Y186.941 E0.00546
G1 X174.769 Y187.073 E0.01648
G1 X174.863 Y187.136 E0.00546
G1 X175.275 Y187.548 E0.02796
G1 X175.338 Y187.643 E0.00546
G1 X175.469 Y187.96 E0.01648
G1 X175.491 Y188.072 E0.00546
G1 X175.475 Y205.661 E0.844
G1 X175.419 Y205.939 E0.0136
G1 X175.31 Y206.202 E0.01369
G1 X175.152 Y206.438 E0.0136
G1 X164.783 Y216.774 E0.70253
G1 X164.277 Y217.171 E0.03087
G1 X164.119 Y217.268 E0.00891
G1 X163.534 Y217.516 E0.03047
G1 X163.357 Y217.569 E0.00888
G1 X162.629 Y217.662 E0.0352
G1 X146.953 Y217.633 E0.7522
G1 X146.842 Y217.61 E0.00545
G1 X146.525 Y217.479 E0.01646
G1 X146.431 Y217.415 E0.00545
G1 X146.02 Y217.003 E0.02792
G1 X145.957 Y216.909 E0.00545
G1 X145.826 Y216.592 E0.01646
G1 X145.804 Y216.48 E0.00545
G1 X145.83 Y188.069 E1.36329
G1 X145.852 Y187.958 E0.00545
G1 X145.984 Y187.641 E0.01646
G1 X146.047 Y187.547 E0.00545
G1 X146.459 Y187.135 E0.02792
G1 X146.503 Y187.105 E0.00257
G1 X146.826 Y187.584 F9000
G1 F1950
G1 X147.038 Y187.496 E0.01101
G1 X147.768 Y187.496 E0.03503
G1 X174.283 Y187.496 E1.27228
G1 X174.495 Y187.584 E0.01102
G1 X174.827 Y187.916 E0.0225
G1 X174.914 Y188.128 E0.01102
G1 X174.898 Y205.632 E0.83991
G1 X174.876 Y205.743 E0.00546
G1 X174.788 Y205.954 E0.01097
G1 X174.725 Y206.049 E0.00546
G1 X164.388 Y216.353 E0.70032
G1 X163.936 Y216.705 E0.02752
G1 X163.839 Y216.764 E0.00544
G1 X163.327 Y216.977 E0.02661
G1 X163.218 Y217.009 E0.00544
G1 X162.612 Y217.085 E0.02931
G1 X147.011 Y217.056 E0.7486
G1 X146.799 Y216.968 E0.01101
G1 X146.469 Y216.636 E0.02247
G1 X146.381 Y216.424 E0.01101
G1 X146.407 Y188.127 E1.35784
G1 X146.495 Y187.915 E0.01101
G1 X146.784 Y187.626 E0.01959
G1 X147.153 Y188.073 F9000
G1 F1950
G1 X147.768 Y188.073 E0.02952
G1 X174.168 Y188.073 E1.26677
G1 X174.337 Y188.242 E0.01148
G1 X174.321 Y205.574 E0.83167
G1 X174.277 Y205.68 E0.00551
G1 X163.987 Y215.937 E0.69714
G1 X163.973 Y215.95 E0.00091
G1 X163.6 Y216.235 E0.02254
G1 X163.567 Y216.254 E0.00182
G1 X163.124 Y216.436 E0.02299
G1 X163.088 Y216.446 E0.00182
G1 X162.622 Y216.507 E0.02253
G1 X162.603 Y216.508 E0.00091
G1 X147.127 Y216.479 E0.74264
G1 X146.958 Y216.31 E0.01146
G1 X146.984 Y188.242 E1.34683
G1 X147.111 Y188.115 E0.00858
G1 E-0.4 F2400
