; generated by SuperSlicer 2.5.59 on 2023-03-20 at 07:01:59 UTC


;
;

;
;
; 

; external perimeters extrusion width = 0.45mm
; perimeters extrusion width = 0.45mm
; infill extrusion width = 0.45mm
; solid infill extrusion width = 0.45mm
; top infill extrusion width = 0.45mm
; support material extrusion width = 0.40mm
; first layer extrusion width = 0.60mm

; external perimeters extrusion width = 0.45mm
; perimeters extrusion width = 0.45mm
; infill extrusion width = 0.45mm
; solid infill extrusion width = 0.45mm
; top infill extrusion width = 0.45mm
; support material extrusion width = 0.40mm
; first layer extrusion width = 0.60mm

; external perimeters extrusion width = 0.45mm
; perimeters extrusion width = 0.45mm
; infill extrusion width = 0.45mm
; solid infill extrusion width = 0.45mm
; top infill extrusion width = 0.45mm
; support material extrusion width = 0.40mm
; first layer extrusion width = 0.60mm

; object:{"name":"MY_JST_Pliers_Female_Part_V1a","id":"MY_JST_Pliers_Female_Part_V1a.stl id:0 copy 0","object_center":[122.102144,148.496764,0.000000],"boundingbox_center":[122.102144,148.496764,5.000000],"boundingbox_size":[40.905991,119.698002,10.000000]}
EXCLUDE_OBJECT_DEFINE NAME=MY_JST_Pliers_Female_Part_V1a_stl_id_0_copy_0 CENTER=122.102144,148.496764 POLYGON=[[101.649144,113.669768],[101.745144,107.765760],[101.793144,106.861768],[101.825144,106.617768],[101.853144,106.439768],[101.961144,105.905760],[102.239144,104.747768],[105.011144,93.239760],[105.331136,92.279768],[105.809136,91.385768],[106.429144,90.583760],[107.175136,89.897768],[108.027136,89.347760],[108.959144,88.949768],[109.945136,88.713760],[110.955144,88.647768],[111.963144,88.751760],[112.939144,89.023768],[113.855144,89.455768],[114.687144,90.037768],[115.407144,90.749760],[115.997136,91.571760],[116.441136,92.483768],[140.739136,173.455760],[140.761136,173.561776],[141.763152,180.145760],[142.271152,183.915776],[142.555152,187.877760],[142.555152,187.909776],[141.205136,194.227776],[138.471136,207.021776],[138.217136,208.207760],[138.201136,208.277776],[135.987152,208.345760],[135.423120,208.113776],[130.959136,206.275776],[130.659152,206.151760],[130.543152,205.959760],[114.039144,170.667776],[108.617136,156.687776],[106.817144,150.747776],[106.805136,150.705760],[105.281136,144.733760],[105.261144,144.649760],[104.011144,138.657776],[103.987144,138.529776],[103.013144,132.531768],[102.989144,132.359776],[102.285136,126.367768],[102.265144,126.151768],[101.831136,120.175768],[101.817144,119.917760],[101.651144,113.971760],[101.649144,113.669768]]
; object:{"name":"MY_JST_Pliers_Male_Part_V1a","id":"MY_JST_Pliers_Male_Part_V1a.stl id:1 copy 0","object_center":[172.404176,152.533500,0.000000],"boundingbox_center":[172.404176,152.533500,5.000000],"boundingbox_size":[51.892014,104.510010,10.000000]}
EXCLUDE_OBJECT_DEFINE NAME=MY_JST_Pliers_Male_Part_V1a_stl_id_1_copy_0 CENTER=172.404176,152.533500 POLYGON=[[146.458176,198.464496],[146.482176,198.250496],[155.360192,160.358496],[159.718192,146.012480],[161.966192,140.226496],[164.468192,134.546496],[164.504176,134.468496],[167.217200,128.980496],[167.277184,128.866488],[170.212192,123.542488],[170.298192,123.394496],[173.442176,118.242496],[173.558160,118.062496],[176.904176,113.090496],[177.054176,112.880496],[180.590176,108.096488],[180.776192,107.858488],[184.494176,103.270496],[185.264192,102.416488],[185.396176,102.294496],[186.316192,101.572496],[186.450192,101.484488],[187.500176,100.924488],[187.628176,100.868488],[188.776192,100.490496],[188.894192,100.462496],[190.108192,100.284488],[190.212192,100.278488],[191.456176,100.314488],[191.540192,100.322496],[192.780176,100.574496],[192.842192,100.594488],[194.036192,101.062488],[194.078192,101.082488],[195.190192,101.760488],[195.212192,101.776488],[196.206176,102.646488],[196.212192,102.652488],[197.046176,103.688496],[197.052192,103.696488],[197.692176,104.850496],[197.704192,104.878496],[198.128176,106.106488],[198.140192,106.152488],[198.344176,107.416488],[198.350192,107.484488],[198.334192,108.746488],[198.324192,108.832488],[198.094176,110.054488],[198.066192,110.156496],[175.350192,177.160496],[174.906192,178.452496],[174.774176,178.762496],[174.114192,180.025504],[171.306176,184.972496],[169.404176,188.204496],[169.328192,188.324496],[167.183168,191.496496],[167.113184,191.594496],[166.661200,192.178496],[166.652192,192.186496],[164.314176,194.078496],[156.770192,200.180496],[151.416176,204.510496],[151.130192,204.740496],[151.070176,204.788496],[149.336176,203.514496],[149.020192,202.960496],[147.348176,200.028496],[146.670176,198.838496],[146.490176,198.522496],[146.458176,198.464496]]
; object:{"name":"My_JST_Pliers_Screw_Keeper_V1","id":"My_JST_Pliers_Screw_Keeper_V1.stl id:2 copy 0","object_center":[146.105431,145.239784,0.000000],"boundingbox_center":[146.105431,145.239784,2.000000],"boundingbox_size":[14.499207,14.499207,4.000000]}
EXCLUDE_OBJECT_DEFINE NAME=My_JST_Pliers_Screw_Keeper_V1_stl_id_2_copy_0 CENTER=146.105431,145.239784 POLYGON=[[138.855840,145.315728],[138.859008,145.012080],[138.874912,144.708832],[138.903472,144.406528],[138.944688,144.105664],[138.998480,143.806800],[139.064720,143.510432],[139.143312,143.217136],[139.234096,142.927376],[139.336976,142.641648],[139.451712,142.360496],[139.578112,142.084384],[139.715968,141.813808],[139.865040,141.549248],[140.025056,141.291168],[140.195744,141.040016],[140.376800,140.796240],[140.567888,140.560240],[140.768704,140.332464],[140.978880,140.113280],[141.198064,139.903104],[141.425840,139.702272],[141.661840,139.511168],[141.905616,139.330128],[142.156768,139.159424],[142.414864,138.999424],[142.679408,138.850336],[142.949984,138.712480],[143.226080,138.586064],[143.507232,138.471328],[143.792944,138.368464],[144.082720,138.277648],[144.376032,138.199072],[144.672384,138.132816],[144.971248,138.079040],[145.272096,138.037824],[145.574432,138.009248],[145.877664,137.993344],[146.181328,137.990176],[146.484832,137.999712],[146.787696,138.021936],[147.089344,138.056848],[147.389264,138.104336],[147.686944,138.164368],[147.981840,138.236800],[148.273440,138.321520],[148.561248,138.418368],[148.844752,138.527184],[149.123440,138.647792],[149.396816,138.779968],[149.664464,138.923456],[149.925840,139.078032],[150.180512,139.243408],[150.428032,139.419312],[150.667968,139.605440],[150.899936,139.801440],[151.123440,140.006992],[151.338160,140.221712],[151.543712,140.445216],[151.739712,140.677168],[151.925840,140.917120],[152.101744,141.164640],[152.267136,141.419312],[152.421728,141.680688],[152.565216,141.948304],[152.697392,142.221712],[152.818000,142.500400],[152.926816,142.783872],[153.023680,143.071680],[153.108400,143.363296],[153.180832,143.658208],[153.240848,143.955872],[153.288368,144.255792],[153.323280,144.557456],[153.345504,144.860288],[153.355040,145.163824],[153.351872,145.467472],[153.335968,145.770704],[153.307408,146.073024],[153.266176,146.373888],[153.212416,146.672752],[153.146176,146.969104],[153.067584,147.262416],[152.976784,147.552192],[152.873920,147.837888],[152.759184,148.119056],[152.632768,148.395168],[152.494896,148.665744],[152.345856,148.930304],[152.185824,149.188368],[152.015136,149.439536],[151.834096,149.683312],[151.642976,149.919312],[151.442176,150.147088],[151.232000,150.366272],[151.012816,150.576448],[150.785040,150.777264],[150.549040,150.968368],[150.305264,151.149408],[150.054112,151.320112],[149.796016,151.480128],[149.531472,151.629216],[149.260912,151.767056],[148.984800,151.893472],[148.703648,152.008208],[148.417936,152.111088],[148.128176,152.201888],[147.834848,152.280480],[147.538496,152.346736],[147.239632,152.400512],[146.938784,152.441712],[146.636464,152.470304],[146.333216,152.486208],[146.029568,152.489376],[145.726048,152.479840],[145.423184,152.457616],[145.121552,152.422704],[144.821632,152.375200],[144.523936,152.315184],[144.229040,152.242736],[143.937440,152.158016],[143.649632,152.061168],[143.366128,151.952368],[143.087440,151.831760],[142.814064,151.699584],[142.546416,151.556096],[142.285040,151.401520],[142.030368,151.236128],[141.782832,151.060224],[141.542896,150.874112],[141.310960,150.678096],[141.087440,150.472560],[140.872704,150.257840],[140.667168,150.034320],[140.471168,149.802368],[140.285040,149.562432],[140.109136,149.314912],[139.943744,149.060240],[139.789152,148.798864],[139.645664,148.531248],[139.513488,148.257840],[139.392896,147.979152],[139.284064,147.695664],[139.187216,147.407872],[139.102480,147.116240],[139.030064,146.821344],[138.970032,146.523680],[138.922512,146.223760],[138.887616,145.922112],[138.865392,145.619248],[138.855840,145.315728]]
; plater:{"center":[149.999666,148.496764,0.000000],"boundingbox_center":[149.999666,148.496764,5.000000],"boundingbox_size":[96.701034,119.698002,10.000000]}

;TYPE:Custom
SET_PRINT_STATS_INFO TOTAL_LAYER=46

M104 S0 ; Stops SuperSlicer from sending temp waits separately

M109 S0

M140 S0

print_start EXTRUDER=250 BED=105 CHAMBER=0
G21 ; set units to millimeters
G90 ; use absolute coordinates
M82 ; use absolute distances for extrusion
G92 E0
; Filament gcode
;_TOOLCHANGE 0
M107
;LAYER_CHANGE
;Z:0.21875
;HEIGHT:0.21875
TIMELAPSE_TAKE_FRAME
;BEFORE_LAYER_CHANGE
;0.21875


G1 E-0.8 F2400
G1 Z0.2 F9000
G1 Z0.21875
SET_PRINT_STATS_INFO CURRENT_LAYER=1
;AFTER_LAYER_CHANGE
;0.21875
G92 E0
G1 Z0.41875
G1 X105.032 Y90.153
G1 Z0.21875
G1 E0.8 F2400
;TYPE:Skirt
;WIDTH:0.54
G1 F2100
G1 X104.431 Y91.06 E0.84878
G1 X104.048 Y91.853 E0.88829
G1 X103.706 Y92.906 E0.93793
G1 X100.642 Y105.62 E1.52437
G1 X100.439 Y106.868 E1.58107
G1 X100.301 Y113.655 E1.88546
G1 X100.472 Y120.004 E2.17026
G1 X100.922 Y126.288 E2.45276
G1 X101.655 Y132.566 E2.73619
G1 X102.775 Y139.379 E3.04578
G1 X103.943 Y144.939 E3.30057
G1 X105.51 Y151.083 E3.58488
G1 X107.371 Y157.21 E3.87202
G1 X116.256 Y181.456 E5.02995
G1 X127.911 Y207.849 E6.32371
G1 X129.106 Y209.015 E6.3986
G1 X134.069 Y211.059 E6.63926
G1 X134.99 Y211.227 E6.68124
G1 X139.64 Y211.034 E6.88995
G1 X151.953 Y207.971 E7.4589
G1 X152.821 Y207.539 E7.50236
G1 X167.474 Y195.688 E8.34745
G1 X167.84 Y195.313 E8.37095
G1 X169.534 Y193.106 E8.49567
G1 X171.853 Y189.662 E8.68187
G1 X173.874 Y186.216 E8.861
G1 X177.34 Y179.992 E9.18042
G1 X178.075 Y178 E9.27568
G1 X199.349 Y110.586 E12.44557
G1 X199.627 Y109.242 E12.50706
G1 X199.704 Y107.614 E12.58015
G1 X199.396 Y105.637 E12.66987
G1 X199.01 Y104.51 E12.7233
G1 X198.278 Y103.113 E12.79403
G1 X197.04 Y101.575 E12.88258
G1 X196.141 Y100.79 E12.9361
G1 X194.807 Y99.943 E13.00692
G1 X192.938 Y99.224 E13.09673
G1 X111.171 Y87.306 E16.80202
G1 X109.926 Y87.357 E16.85787
G1 X108.721 Y87.612 E16.91312
G1 X107.226 Y88.252 E16.98604
G1 X106.501 Y88.722 E17.02477
G1 X105.587 Y89.517 E17.07907
G1 X105.071 Y90.107 E17.11425
G1 X105.441 Y90.43 F9000
G1 F2100
G1 X104.788 Y91.435 E17.16801
G1 X104.185 Y93.021 E17.24411
G1 X101.121 Y105.736 E17.83055
G1 X100.931 Y106.889 E17.88297
G1 X100.793 Y113.657 E18.18652
G1 X100.963 Y119.975 E18.46992
G1 X101.412 Y126.239 E18.75153
G1 X102.143 Y132.493 E19.03387
G1 X103.261 Y139.294 E19.34295
G1 X104.424 Y144.832 E19.59668
G1 X105.983 Y150.947 E19.87967
G1 X107.834 Y157.04 E20.16522
G1 X116.706 Y181.257 E21.32172
G1 X128.361 Y207.65 E22.61549
G1 X129.294 Y208.56 E22.67389
G1 X134.256 Y210.603 E22.91455
G1 X134.975 Y210.734 E22.9473
G1 X139.521 Y210.555 E23.15133
G1 X151.834 Y207.493 E23.72027
G1 X152.511 Y207.156 E23.75417
G1 X167.45 Y195.012 E24.61746
G1 X169.125 Y192.831 E24.74081
G1 X171.428 Y189.412 E24.92561
G1 X173.445 Y185.973 E25.1044
G1 X176.905 Y179.761 E25.42324
G1 X177.605 Y177.851 E25.51446
G1 X198.88 Y110.437 E28.68435
G1 X199.143 Y109.148 E28.74337
G1 X199.211 Y107.6 E28.81282
G1 X198.93 Y105.797 E28.89466
G1 X198.543 Y104.67 E28.94809
G1 X197.847 Y103.35 E29.01501
G1 X196.716 Y101.946 E29.09587
G1 X195.817 Y101.161 E29.14938
G1 X194.552 Y100.365 E29.21639
G1 X192.848 Y99.709 E29.29829
G1 X111.12 Y87.796 E33.0018
G1 X109.96 Y87.849 E33.05387
G1 X108.835 Y88.092 E33.10548
G1 X107.494 Y88.666 E33.17088
G1 X106.769 Y89.135 E33.20962
G1 X105.92 Y89.88 E33.26024
G1 X105.481 Y90.384 E33.29024
G92 E0
G1 E-0.8 F2400
G1 Z0.41875 F9000
G1 X107.419 Y91.908
G1 Z0.21875
G1 E0 F2400
;WIDTH:0.6
;HEIGHT:0.22
G1 F2100
G1 X107.628 Y91.666 E0.01617
G1 X108.154 Y91.183 E0.05226
G1 X108.172 Y91.169 E0.05343
G1 X108.775 Y90.779 E0.08976
G1 X108.796 Y90.768 E0.09094
G1 X109.455 Y90.485 E0.12719
G1 X109.477 Y90.478 E0.12839
G1 X110.176 Y90.312 E0.1647
G1 X110.199 Y90.308 E0.16585
G1 X110.914 Y90.26 E0.20211
G1 X110.938 Y90.26 E0.20331
G1 X111.652 Y90.335 E0.2396
G1 X111.675 Y90.339 E0.24078
G1 X112.365 Y90.532 E0.27702
G1 X112.387 Y90.54 E0.27819
G1 X113.037 Y90.846 E0.31451
G1 X113.057 Y90.858 E0.31572
G1 X113.644 Y91.27 E0.35195
G1 X113.661 Y91.285 E0.3531
G1 X114.133 Y91.748 E0.38655
G1 X114.147 Y91.765 E0.38766
G1 X114.605 Y92.388 E0.42675
G1 X114.618 Y92.409 E0.42801
G1 X114.933 Y93.054 E0.46428
G1 X114.941 Y93.076 E0.46548
G1 X115.141 Y93.766 E0.50181
G1 X115.146 Y93.789 E0.50297
G1 X115.229 Y94.506 E0.53949
G1 X115.617 Y107.256 E1.18446
G1 X115.343 Y113.449 E1.49787
G1 X115.333 Y120.05 E1.83159
G1 X115.614 Y126.637 E2.16496
G1 X116.185 Y133.218 E2.49897
G1 X117.044 Y139.761 E2.83261
G1 X118.19 Y146.262 E3.16639
G1 X119.285 Y151.281 E3.42609
G1 X119.624 Y152.718 E3.50075
G1 X120.243 Y155.145 E3.6274
G1 X120.697 Y156.834 E3.71584
G1 X121.337 Y159.094 E3.83458
G1 X123.215 Y165.048 E4.15027
G1 X123.698 Y166.208 E4.21378
G1 X124.785 Y165.616 E4.27633
G1 X124.804 Y165.608 E4.27739
G1 X126.521 Y164.988 E4.36968
G1 X126.542 Y164.982 E4.37081
G1 X128.338 Y164.647 E4.46317
G1 X128.361 Y164.645 E4.46431
G1 X130.185 Y164.606 E4.55657
G1 X130.207 Y164.607 E4.55768
G1 X131.68 Y164.812 E4.63289
G1 X132.087 Y164.881 E4.65375
G1 X132.105 Y164.886 E4.65471
G1 X133.831 Y165.435 E4.74626
G1 X133.851 Y165.443 E4.74738
G1 X135.431 Y166.243 E4.8369
G1 X135.45 Y166.254 E4.838
G1 X136.623 Y167.102 E4.91122
G1 X136.952 Y167.348 E4.93196
G1 X136.967 Y167.362 E4.93301
G1 X138.234 Y168.649 E5.02432
G1 X138.516 Y169 E5.04706
G1 X139.301 Y170.15 E5.1175
G1 X139.311 Y170.167 E5.11851
G1 X140.112 Y171.806 E5.21075
G1 X140.121 Y171.827 E5.21188
G1 X140.643 Y173.552 E5.30298
G1 X140.648 Y173.573 E5.30407
G1 X140.879 Y175.248 E5.38956
G1 X141.652 Y180.167 E5.64134
G1 X142.157 Y183.924 E5.833
G1 X142.441 Y187.878 E6.03344
G1 X142.455 Y189.683 E6.12473
G1 X142.452 Y189.713 E6.12625
G1 X138.536 Y208.036 E7.07359
G1 X138.39 Y208.158 E7.08324
G1 X135.084 Y208.26 E7.25046
G1 X135.026 Y208.249 E7.25341
G1 X130.761 Y206.492 E7.48667
G1 X130.668 Y206.357 E7.49496
G1 X130.653 Y205.781 E7.52412
G1 X130.81 Y205.615 E7.53567
G1 X133.485 Y205.534 E7.67099
G1 X133.681 Y205.511 E7.68098
G1 X133.859 Y205.46 E7.69035
G1 X134.027 Y205.378 E7.69978
G1 X134.18 Y205.271 E7.70923
G1 X134.308 Y205.144 E7.71836
G1 X134.433 Y204.96 E7.72962
G1 X134.5 Y204.822 E7.73735
G1 X134.552 Y204.644 E7.74673
G1 X134.575 Y204.455 E7.75637
G1 X134.546 Y201.686 E7.89639
G1 X134.257 Y198.918 E8.03709
G1 X133.714 Y196.195 E8.17749
G1 X132.92 Y193.531 E8.318
G1 X131.884 Y190.954 E8.45845
G1 X130.661 Y188.569 E8.59396
G1 X129.924 Y187.34 E8.66641
G1 X128.541 Y187.317 E8.73639
G1 X128.52 Y187.315 E8.73743
G1 X126.785 Y187.025 E8.82639
G1 X126.764 Y187.02 E8.82749
G1 X125.095 Y186.464 E8.91644
G1 X125.075 Y186.455 E8.91753
G1 X123.512 Y185.646 E9.0065
G1 X123.494 Y185.634 E9.00759
G1 X122.077 Y184.591 E9.09656
G1 X122.061 Y184.577 E9.09766
G1 X120.823 Y183.325 E9.18665
G1 X120.809 Y183.308 E9.18775
G1 X119.776 Y181.868 E9.27736
G1 X119.68 Y181.696 E9.28732
G1 X118.981 Y180.288 E9.36679
G1 X118.973 Y180.269 E9.36785
G1 X118.438 Y178.593 E9.45679
G1 X118.433 Y178.573 E9.45784
G1 X118.186 Y177.031 E9.53679
G1 X118.155 Y176.592 E9.55905
G1 X118.168 Y175.052 E9.63695
G1 X118.169 Y175.031 E9.63801
G1 X118.452 Y173.293 E9.72702
G1 X118.457 Y173.272 E9.72811
G1 X119.004 Y171.602 E9.817
G1 X119.012 Y171.583 E9.81802
G1 X119.557 Y170.49 E9.87979
G1 X118.404 Y169.869 E9.94602
G1 X117.768 Y171.091 E10.01563
