; generated by SuperSlicer 2.4 on 2023-02-15 at 15:38:05 UTC


;
;

;
;
; 

; external perimeters extrusion width = 0.42mm
; perimeters extrusion width = 0.47mm
; infill extrusion width = 0.45mm
; solid infill extrusion width = 0.47mm
; top infill extrusion width = 0.45mm
; support material extrusion width = 0.40mm
; first layer extrusion width = 0.61mm

; object:{"name":"P3_Tool-Carriage1 - P3_Tool Carriage","id":"P3_Tool-Carriage1 - P3_Tool Carriage id:0 copy 0","object_center":[146.272736,166.069463,0.000000],"boundingbox_center":[146.272736,166.069463,22.500000],"boundingbox_size":[35.307040,45.252432,45.000000]}
; plater:{"center":[146.272736,166.069463,0.000000],"boundingbox_center":[146.272736,166.069463,22.500000],"boundingbox_size":[35.307040,45.252432,45.000000]}

;TYPE:Custom
M104 S0 ; Stops SuperSlicer from sending temp waits separately


; Pre-Processed for Cancel-Object support by preprocess_cancellation v0.2.0
; 1 known objects
EXCLUDE_OBJECT_DEFINE NAME=P3_Tool_Carriage1_P3_Tool_Carriage_id_0_copy_0 CENTER=146.507,164.468 POLYGON=[[128.752,143.657],[128.752,188.482],[164.108,188.482],[164.108,143.657]]

M140 S0

print_start EXTRUDER=250 BED=105 CHAMBER=0
M107
G21 ; set units to millimeters
G90 ; use absolute coordinates
M83 ; use relative distances for extrusion
; Filament gcode
;_TOOLCHANGE 0
M107
;LAYER_CHANGE
;Z:0.21875
;HEIGHT:0.21875
TIMELAPSE_TAKE_FRAME
;BEFORE_LAYER_CHANGE
;0.21875


G1 Z0.21875 F8400
;AFTER_LAYER_CHANGE
;0.21875
G92 E0
G1 E-0.9 F3000
G1 Z0.71875 F8400
G1 X126.457 Y139.555
G1 Z0.21875
G1 E0.9 F3000
;TYPE:Skirt
;WIDTH:0.44
G1 F1800
G1 X126.055 Y140.922 E0.05095
G1 X125.729 Y185.921 E1.6086
G1 X125.985 Y187.062 E0.04179
G1 X126.932 Y188.127 E0.05095
G1 X128.299 Y188.529 E0.05095
G1 X163.901 Y188.787 E1.27266
G1 X165.041 Y188.531 E0.04179
G1 X166.106 Y187.584 E0.05095
G1 X166.508 Y186.217 E0.05095
G1 X166.834 Y141.218 E1.6086
G1 X166.579 Y140.077 E0.04179
G1 X165.631 Y139.012 E0.05095
G1 X164.264 Y138.61 E0.05095
G1 X128.663 Y138.352 E1.27266
G1 X127.522 Y138.608 E0.04179
G1 X126.502 Y139.515 E0.0488
G1 X126.848 Y139.677 F8400
G1 F1800
G1 X126.448 Y140.925 E0.04684
G1 X126.122 Y185.924 E1.6086
G1 X126.256 Y186.697 E0.02805
G1 X127.054 Y187.736 E0.04684
G1 X128.302 Y188.136 E0.04684
G1 X163.903 Y188.394 E1.27266
G1 X164.676 Y188.26 E0.02805
G1 X165.716 Y187.462 E0.04684
G1 X166.116 Y186.214 E0.04684
G1 X166.442 Y141.215 E1.6086
G1 X166.307 Y140.442 E0.02805
G1 X165.509 Y139.403 E0.04684
G1 X164.261 Y139.003 E0.04684
G1 X128.66 Y138.745 E1.27266
G1 X127.887 Y138.879 E0.02805
G1 X126.896 Y139.641 E0.0447
G1 E-0.9 F3000
G1 Z0.71875 F8400
G1 X129.536 Y142.277
G1 Z0.21875
G1 E0.9 F3000
;WIDTH:0.608
;HEIGHT:0.22
G1 F1800
G1 X129.969 Y141.843 E0.03146
G1 X130.151 Y141.718 E0.01131
G1 X130.56 Y141.546 E0.02275
G1 X130.83 Y141.494 E0.01412
G1 X162.052 Y141.72 E1.60151
G1 X162.322 Y141.776 E0.01412
G1 X162.728 Y141.954 E0.02275
G1 X162.907 Y142.082 E0.01131
G1 X163.343 Y142.524 E0.03185
G1 X163.494 Y142.754 E0.01412
G1 X163.641 Y143.114 E0.01994
G1 X163.692 Y143.385 E0.01412
G1 X163.398 Y184.005 E2.08356
G1 X163.342 Y184.274 E0.01412
G1 X163.191 Y184.632 E0.01994
G1 X163.072 Y184.818 E0.01131
G1 X162.594 Y185.296 E0.03466
G1 X162.413 Y185.421 E0.01131
G1 X162.004 Y185.593 E0.02275
G1 X161.734 Y185.645 E0.01412
G1 X130.512 Y185.419 E1.60151
G1 X130.242 Y185.363 E0.01412
G1 X129.884 Y185.212 E0.01994
G1 X129.699 Y185.092 E0.01131
G1 X129.22 Y184.615 E0.03466
G1 X129.095 Y184.434 E0.01131
G1 X128.923 Y184.025 E0.02275
G1 X128.871 Y183.754 E0.01412
G1 X129.166 Y143.134 E2.08356
G1 X129.221 Y142.865 E0.01412
G1 X129.373 Y142.507 E0.01994
G1 X129.494 Y142.32 E0.01143
G1 X129.94 Y142.659 F8400
G1 F1800
G1 X130.343 Y142.262 E0.02902
G1 X130.436 Y142.201 E0.00567
G1 X130.745 Y142.076 E0.01711
G1 X130.853 Y142.055 E0.00567
G1 X162.02 Y142.281 E1.59868
G1 X162.129 Y142.303 E0.00567
G1 X162.436 Y142.433 E0.01711
G1 X162.527 Y142.495 E0.00567
G1 X162.924 Y142.898 E0.02902
G1 X162.985 Y142.991 E0.00567
G1 X163.111 Y143.3 E0.01711
G1 X163.131 Y143.408 E0.00567
G1 X162.837 Y183.973 E2.08073
G1 X162.815 Y184.081 E0.00567
G1 X162.685 Y184.388 E0.01711
G1 X162.623 Y184.48 E0.00567
G1 X162.22 Y184.877 E0.02902
G1 X162.128 Y184.938 E0.00567
G1 X161.819 Y185.063 E0.01711
G1 X161.71 Y185.084 E0.00567
G1 X130.543 Y184.858 E1.59868
G1 X130.435 Y184.836 E0.00567
G1 X130.128 Y184.706 E0.01711
G1 X130.036 Y184.644 E0.00567
G1 X129.639 Y184.241 E0.02902
G1 X129.578 Y184.148 E0.00567
G1 X129.453 Y183.839 E0.01711
G1 X129.432 Y183.731 E0.00567
G1 X129.726 Y143.166 E2.08073
G1 X129.749 Y143.058 E0.00567
G1 X129.878 Y142.751 E0.01711
G1 X129.907 Y142.709 E0.00259
G1 X130.373 Y143.02 F8400
G1 F1800
G1 X130.698 Y142.7 E0.02336
G1 X130.905 Y142.616 E0.01144
G1 X161.961 Y142.841 E1.59302
G1 X162.167 Y142.928 E0.01144
G1 X162.486 Y143.253 E0.02336
G1 X162.57 Y143.459 E0.01144
G1 X162.277 Y183.914 E2.07506
G1 X162.19 Y184.119 E0.01144
G1 X161.866 Y184.439 E0.02336
G1 X161.659 Y184.523 E0.01144
G1 X130.602 Y184.298 E1.59302
G1 X130.397 Y184.211 E0.01144
G1 X130.077 Y183.886 E0.02336
G1 X129.993 Y183.68 E0.01144
G1 X130.287 Y143.225 E2.07506
G1 X130.35 Y143.075 E0.00837
G1 X130.847 Y143.341 F8400
G1 F1800
G1 X131.012 Y143.178 E0.01191
G1 X161.846 Y143.401 E1.58157
G1 X162.009 Y143.567 E0.01191
G1 X161.717 Y183.798 E2.06362
G1 X161.552 Y183.961 E0.01191
G1 X130.718 Y183.738 E1.58157
G1 X130.555 Y183.572 E0.01191
G1 X130.846 Y143.401 E2.06054
M104 S250 ; set temperature
; printing object P3_Tool-Carriage1 - P3_Tool Carriage id:0 copy 0
EXCLUDE_OBJECT_START NAME=P3_Tool_Carriage1_P3_Tool_Carriage_id_0_copy_0
G1 X131.428 Y143.765 F8400
;TYPE:External perimeter
;HEIGHT:0.21875
G1 F1800
G1 X146.533 Y143.875 E0.76307
G1 X161.421 Y143.983 E0.75209
G1 X161.136 Y183.374 E1.9899
G1 X131.142 Y183.156 E1.51516
G1 X131.427 Y143.825 E1.98687
;WIPE_START
G1 X131.773 Y143.968 F8400
;WIPE_END
G1 X131.985 Y144.33
;TYPE:Internal perimeter
G1 F1800
G1 X146.529 Y144.436 E0.73473
G1 X160.856 Y144.54 E0.72375
G1 X160.579 Y182.809 E1.93322
G1 X131.708 Y182.599 E1.45847
G1 X131.984 Y144.39 E1.93019
G1 X132.542 Y144.896 F8400
G1 F1800
G1 X146.525 Y144.997 E0.70638
G1 X160.291 Y145.097 E0.69541
G1 X160.022 Y182.243 E1.87653
G1 X132.273 Y182.042 E1.40179
G1 X132.541 Y144.956 E1.8735
G1 X133.099 Y145.461 F8400
G1 F1800
G1 X146.521 Y145.558 E0.67804
G1 X159.726 Y145.654 E0.66706
G1 X159.465 Y181.678 E1.81985
G1 X132.838 Y181.485 E1.34511
G1 X133.098 Y145.521 E1.81682
G1 E-0.9 F3000
G1 Z0.71875 F8400
G1 X151.698 Y154.653
G1 Z0.21875
G1 E0.9 F3000
;TYPE:External perimeter
G1 F1800
G1 X151.553 Y154.959 E0.01711
G1 X151.453 Y155.355 E0.02062
G1 X151.436 Y155.693 E0.01711
G1 X151.495 Y156.097 E0.02062
G1 X151.607 Y156.413 E0.01694
G1 X151.773 Y156.705 E0.01695
G1 X152.042 Y157.016 E0.02079
G1 X152.372 Y157.262 E0.02079
G1 X152.678 Y157.407 E0.01711
G1 X153.074 Y157.507 E0.02062
G1 X153.409 Y157.524 E0.01695
G1 X153.742 Y157.483 E0.01694
G1 X154.129 Y157.355 E0.02062
G1 X154.424 Y157.187 E0.01711
G1 X154.735 Y156.918 E0.02079
G1 X154.981 Y156.588 E0.02079
G1 X155.127 Y156.282 E0.01711
G1 X155.226 Y155.886 E0.02062
G1 X155.244 Y155.548 E0.01711
G1 X155.184 Y155.144 E0.02062
G1 X155.071 Y154.825 E0.01711
G1 X154.862 Y154.474 E0.02062
G1 X154.635 Y154.223 E0.01711
G1 X154.307 Y153.979 E0.02062
G1 X154.001 Y153.834 E0.01711
G1 X153.605 Y153.734 E0.02062
G1 X153.267 Y153.716 E0.01712
G1 X152.863 Y153.776 E0.02062
G1 X152.547 Y153.888 E0.01694
G1 X152.255 Y154.054 E0.01694
G1 X151.944 Y154.323 E0.02079
G1 X151.734 Y154.605 E0.01776
;WIPE_START
G1 X151.298 Y154.659 F8400
;WIPE_END
G1 X151.022 Y154.768
;TYPE:Internal perimeter
G1 F1800
G1 X150.895 Y155.271 E0.02621
G1 X150.872 Y155.72 E0.0227
G1 X150.948 Y156.233 E0.02621
G1 X151.095 Y156.647 E0.02221
G1 X151.312 Y157.03 E0.02222
G1 X151.658 Y157.43 E0.02669
G1 X152.081 Y157.745 E0.02669
G1 X152.487 Y157.938 E0.0227
G1 X152.99 Y158.065 E0.02621
G1 X153.429 Y158.087 E0.02222
G1 X153.866 Y158.033 E0.02221
G1 X154.358 Y157.87 E0.02621
G1 X154.749 Y157.648 E0.0227
G1 X155.149 Y157.302 E0.02669
G1 X155.464 Y156.879 E0.02669
G1 X155.657 Y156.473 E0.0227
G1 X155.784 Y155.97 E0.02621
G1 X155.807 Y155.521 E0.0227
G1 X155.732 Y155.008 E0.02621
G1 X155.581 Y154.585 E0.0227
G1 X155.315 Y154.139 E0.0262
G1 X155.014 Y153.806 E0.0227
G1 X154.598 Y153.496 E0.02621
G1 X154.192 Y153.303 E0.02269
G1 X153.689 Y153.176 E0.02621
G1 X153.24 Y153.153 E0.0227
G1 X152.727 Y153.228 E0.02621
G1 X152.313 Y153.376 E0.02222
G1 X151.93 Y153.593 E0.02221
G1 X151.53 Y153.938 E0.02669
G1 X151.215 Y154.362 E0.02669
G1 X151.048 Y154.714 E0.01967
G1 X150.541 Y154.473 F8400
G1 F1800
G1 X150.492 Y154.577 E0.00582
G1 X150.338 Y155.187 E0.03179
G1 X150.309 Y155.746 E0.02828
G1 X150.4 Y156.369 E0.03179
G1 X150.583 Y156.882 E0.02749
G1 X150.851 Y157.355 E0.02749
G1 X151.273 Y157.843 E0.03258
G1 X151.791 Y158.228 E0.03259
G1 X152.296 Y158.468 E0.02828
G1 X152.906 Y158.622 E0.03179
G1 X153.45 Y158.65 E0.02749
G1 X153.99 Y158.583 E0.02749
G1 X154.587 Y158.385 E0.03179
G1 X155.074 Y158.109 E0.02828
G1 X155.562 Y157.687 E0.03259
G1 X155.947 Y157.169 E0.03258
G1 X156.187 Y156.664 E0.02828
G1 X156.341 Y156.054 E0.03179
G1 X156.37 Y155.494 E0.02828
G1 X156.279 Y154.872 E0.03179
G1 X156.091 Y154.344 E0.02828
G1 X155.769 Y153.804 E0.03179
G1 X155.393 Y153.389 E0.02828
G1 X154.888 Y153.013 E0.03179
G1 X154.383 Y152.773 E0.02828
G1 X153.773 Y152.619 E0.03179
G1 X153.214 Y152.59 E0.02828
G1 X152.591 Y152.681 E0.03179
G1 X152.078 Y152.864 E0.02749
G1 X151.605 Y153.132 E0.02749
G1 X151.117 Y153.554 E0.03258
G1 X150.732 Y154.072 E0.03258
G1 X150.567 Y154.419 E0.01943
G1 X149.961 Y154.386 F8400
G1 F1800
G1 X149.78 Y155.104 E0.03737
G1 X149.746 Y155.773 E0.03386
G1 X149.853 Y156.505 E0.03737
G1 X150.071 Y157.116 E0.03276
G1 X150.391 Y157.68 E0.03276
G1 X150.889 Y158.256 E0.03848
G1 X151.5 Y158.711 E0.03848
G1 X152.105 Y158.999 E0.03386
G1 X152.823 Y159.18 E0.03737
G1 X153.47 Y159.213 E0.03276
G1 X154.114 Y159.133 E0.03276
G1 X154.816 Y158.9 E0.03737
G1 X155.399 Y158.569 E0.03386
G1 X155.975 Y158.071 E0.03848
G1 X156.43 Y157.46 E0.03848
G1 X156.718 Y156.855 E0.03386
G1 X156.899 Y156.137 E0.03737
G1 X156.933 Y155.468 E0.03386
G1 X156.826 Y154.736 E0.03737
G1 X156.601 Y154.104 E0.03386
G1 X156.222 Y153.469 E0.03737
G1 X155.773 Y152.972 E0.03386
G1 X155.179 Y152.53 E0.03737
G1 X154.574 Y152.242 E0.03386
G1 X153.856 Y152.061 E0.03737
G1 X153.187 Y152.027 E0.03386
G1 X152.455 Y152.134 E0.03737
G1 X151.844 Y152.352 E0.03276
G1 X151.28 Y152.672 E0.03276
G1 X150.704 Y153.17 E0.03848
G1 X150.249 Y153.781 E0.03848
G1 X149.987 Y154.332 E0.03083
G1 E-0.9 F3000
G1 Z0.71875 F8400
G1 X140.245 Y155.442
G1 Z0.21875
G1 E0.9 F3000
;TYPE:External perimeter
G1 F1800
G1 X140.185 Y155.035 E0.02079
G1 X140.071 Y154.716 E0.01711
G1 X139.862 Y154.365 E0.02062
G1 X139.635 Y154.114 E0.01711
G1 X139.307 Y153.87 E0.02062
G1 X139.002 Y153.725 E0.01711
G1 X138.606 Y153.625 E0.02062
G1 X138.267 Y153.608 E0.01712
G1 X137.967 Y153.652 E0.01535
G1 X137.863 Y153.667 E0.00527
G1 X137.547 Y153.779 E0.01694
G1 X137.256 Y153.945 E0.01694
G1 X136.944 Y154.214 E0.02079
G1 X136.698 Y154.544 E0.02079
G1 X136.553 Y154.85 E0.01711
G1 X136.453 Y155.246 E0.02062
G1 X136.436 Y155.584 E0.01711
G1 X136.495 Y155.988 E0.02062
G1 X136.608 Y156.304 E0.01695
G1 X136.773 Y156.596 E0.01694
G1 X137.042 Y156.908 E0.02079
G1 X137.372 Y157.153 E0.02079
G1 X137.678 Y157.299 E0.01711
G1 X138.074 Y157.399 E0.02062
G1 X138.409 Y157.416 E0.01695
G1 X138.742 Y157.374 E0.01694
G1 X139.13 Y157.246 E0.02062
G1 X139.424 Y157.079 E0.01711
G1 X139.733 Y156.812 E0.02062
G1 X139.941 Y156.544 E0.01711
G1 X140.125 Y156.18 E0.02062
G1 X140.215 Y155.853 E0.01711
G1 X140.24 Y155.502 E0.01776
;WIPE_START
G1 X140.575 Y155.218 F8400
;WIPE_END
G1 X140.809 Y155.422
;TYPE:Internal perimeter
G1 F1800
G1 X140.732 Y154.899 E0.02669
G1 X140.581 Y154.476 E0.0227
G1 X140.315 Y154.03 E0.02621
G1 X140.014 Y153.697 E0.0227
G1 X139.598 Y153.387 E0.02621
G1 X139.192 Y153.194 E0.02269
G1 X138.689 Y153.067 E0.02621
G1 X138.241 Y153.045 E0.0227
G1 X137.885 Y153.097 E0.01814
G1 X137.727 Y153.12 E0.00806
G1 X137.313 Y153.267 E0.02222
G1 X136.931 Y153.484 E0.02222
G1 X136.531 Y153.83 E0.02669
G1 X136.215 Y154.254 E0.02669
G1 X136.023 Y154.659 E0.0227
G1 X135.896 Y155.162 E0.02621
G1 X135.873 Y155.611 E0.0227
G1 X135.948 Y156.124 E0.02621
G1 X136.095 Y156.539 E0.02222
G1 X136.313 Y156.921 E0.02222
G1 X136.658 Y157.321 E0.02669
G1 X137.082 Y157.636 E0.02669
G1 X137.488 Y157.829 E0.0227
G1 X137.991 Y157.956 E0.0262
G1 X138.43 Y157.978 E0.02222
G1 X138.866 Y157.924 E0.02222
G1 X139.359 Y157.761 E0.0262
G1 X139.749 Y157.539 E0.0227
G1 X140.142 Y157.2 E0.02621
G1 X140.418 Y156.846 E0.0227
G1 X140.651 Y156.382 E0.02621
G1 X140.77 Y155.949 E0.0227
G1 X140.804 Y155.482 E0.02366
G1 X141.364 Y155.522 F8400
G1 F1800
G1 X141.373 Y155.401 E0.00613
G1 X141.279 Y154.763 E0.03258
G1 X141.091 Y154.236 E0.02828
G1 X140.769 Y153.695 E0.03179
G1 X140.394 Y153.28 E0.02828
G1 X139.889 Y152.904 E0.03179
G1 X139.383 Y152.664 E0.02828
G1 X138.773 Y152.51 E0.03179
G1 X138.214 Y152.481 E0.02828
G1 X137.804 Y152.542 E0.02094
G1 X137.591 Y152.573 E0.01085
G1 X137.079 Y152.755 E0.02749
G1 X136.606 Y153.024 E0.02749
G1 X136.118 Y153.445 E0.03258
G1 X135.732 Y153.963 E0.03258
G1 X135.492 Y154.468 E0.02828
G1 X135.338 Y155.079 E0.03179
G1 X135.31 Y155.638 E0.02828
G1 X135.401 Y156.26 E0.03179
G1 X135.583 Y156.773 E0.02749
G1 X135.852 Y157.246 E0.02749
G1 X136.274 Y157.734 E0.03258
G1 X136.791 Y158.119 E0.03258
G1 X137.297 Y158.36 E0.02828
G1 X137.907 Y158.514 E0.03179
G1 X138.45 Y158.541 E0.02749
G1 X138.99 Y158.474 E0.02749
G1 X139.588 Y158.276 E0.03179
G1 X140.074 Y158 E0.02828
G1 X140.551 Y157.588 E0.03179
G1 X140.895 Y157.147 E0.02828
G1 X141.177 Y156.584 E0.03179
G1 X141.326 Y156.045 E0.02828
G1 X141.359 Y155.582 E0.02342
G1 X141.937 Y155.381 F8400
G1 F1800
G1 X141.826 Y154.627 E0.03848
G1 X141.602 Y153.996 E0.03386
G1 X141.222 Y153.36 E0.03737
G1 X140.773 Y152.863 E0.03386
G1 X140.18 Y152.421 E0.03737
G1 X139.574 Y152.133 E0.03386
G1 X138.857 Y151.952 E0.03737
G1 X138.187 Y151.918 E0.03386
G1 X137.723 Y151.986 E0.02373
G1 X137.455 Y152.026 E0.01365
G1 X136.844 Y152.243 E0.03276
G1 X136.28 Y152.563 E0.03276
G1 X135.704 Y153.061 E0.03848
G1 X135.249 Y153.672 E0.03848
G1 X134.962 Y154.278 E0.03386
G1 X134.781 Y154.995 E0.03737
G1 X134.746 Y155.664 E0.03386
G1 X134.854 Y156.396 E0.03737
G1 X135.071 Y157.007 E0.03276
G1 X135.391 Y157.571 E0.03276
G1 X135.889 Y158.148 E0.03848
G1 X136.5 Y158.602 E0.03848
G1 X137.106 Y158.89 E0.03386
G1 X137.823 Y159.071 E0.03737
G1 X138.471 Y159.104 E0.03276
G1 X139.114 Y159.024 E0.03276
G1 X139.816 Y158.791 E0.03737
G1 X140.399 Y158.461 E0.03386
G1 X140.959 Y157.977 E0.03737
G1 X141.371 Y157.448 E0.03386
G1 X141.703 Y156.787 E0.03737
G1 X141.881 Y156.141 E0.03386
G1 X141.932 Y155.441 E0.03545
G1 E-0.9 F3000
G1 Z0.71875 F8400
G1 X138.49 Y169.625
G1 Z0.21875
G1 E0.9 F3000
;TYPE:External perimeter
G1 F1800
G1 X138.151 Y169.607 E0.01712
G1 X137.747 Y169.666 E0.02062
G1 X137.431 Y169.779 E0.01695
G1 X137.14 Y169.945 E0.01695
G1 X136.828 Y170.214 E0.02079
G1 X136.583 Y170.544 E0.02079
G1 X136.437 Y170.85 E0.01711
G1 X136.337 Y171.246 E0.02062
G1 X136.32 Y171.584 E0.01711
G1 X136.379 Y171.988 E0.02062
G1 X136.492 Y172.304 E0.01695
G1 X136.657 Y172.596 E0.01694
G1 X136.924 Y172.905 E0.02062
G1 X137.191 Y173.113 E0.01711
G1 X137.559 Y173.297 E0.02079
G1 X137.958 Y173.398 E0.02079
G1 X138.293 Y173.415 E0.01695
G1 X138.626 Y173.374 E0.01694
G1 X139.014 Y173.245 E0.02062
G1 X139.308 Y173.078 E0.01711
G1 X139.617 Y172.811 E0.02063
G1 X139.825 Y172.544 E0.01711
G1 X140.009 Y172.179 E0.02062
G1 X140.099 Y171.853 E0.01711
G1 X140.129 Y171.442 E0.02079
G1 X140.069 Y171.035 E0.02079
G1 X139.956 Y170.719 E0.01695
G1 X139.791 Y170.427 E0.01694
G1 X139.522 Y170.116 E0.02079
G1 X139.192 Y169.87 E0.02079
G1 X138.886 Y169.724 E0.01711
G1 X138.548 Y169.639 E0.01759
;WIPE_START
G1 X138.331 Y169.257 F8400
;WIPE_END
G1 X138.125 Y169.044
;TYPE:Internal perimeter
G1 F1800
