
; ### Ellis' Pressure Advance / Linear Advance Calibration Tool ###
;
; Original Marlin linear advance calibration tool by Sineos [https://github.com/Sineos]
; Heavily modified/rewritten by Andrew Ellis [https://github.com/AndrewEllis93]
;
; -------------------------------------------
; Generated: Sat Apr 08 2023 23:04:03 GMT-0400 (Eastern Daylight Time)
; -------------------------------------------
;
; Advanced Mode: false
;
; Printer:
;  - Firmware: klipper
;  - Bed Shape: Rect
;  - Bed Size X: 300 mm
;  - Bed Size Y: 300 mm
;  - Origin Bed Center: false
;  - Travel Speed: 140 mm/s
;  - Nozzle Diameter: 0.4 mm
;  - Filament Diameter: 1.75 mm
;  - Extrusion Multiplier: 0.98
;
; Retraction / Z Hop:
;  - Retraction Distance: 0.8 mm
;  - Retract Speed: 35 mm/s
;  - Unretract Speed: 1 mm/s
;  - Z Hop Enable: true
;  - Z Hop Height: 0.3mm
;
; First Layer Settings:
;  - First Layer Height: 0.22 mm
;  - First Layer Printing Speed: 45 mm/s
;  - First Layer Fan Speed: 0%
;  - Anchor Option: anchor_frame
;
; Print Settings:
;  - Layer Height: 0.2 mm
;  - Print Speed: 60 mm/s
;  - Acceleration: Disabled
;  - Fan Speed: 0%
;
; Pressure Advance Stepping:
;  - PA Start Value: 0
;  - PA End Value: 0.08
;  - PA Increment: 0.005
;
; Start / End G-code:
;  - Hotend Temp: 255C
;  - Bed Temp: 105C
;  - Don't Add G28: false
;  - Don't Add Heating G-Codes: false
;
; Calculated Values:
;  - Print Size X: 84.74 mm
;  - Print Size Y: 53.99 mm
;  - Number of Patterns to Print: 17
;  - PA Values: 0, 0.005, 0.01, 0.015, 0.02, 0.025, 0.03, 0.035, 0.04, 0.045, 0.05, 0.055, 0.06, 0.065, 0.07, 0.075, 0.08
;
; Prepare printing
;
G28 ; Home all axes
M190 S105 ; Set & wait for bed temp
M109 S255 ; Set & wait for hotend temp
; PRINT_START ; Start macro
START_PRINT ; Start macro (alternate / official start macro name)
G21 ; Millimeter units
G90 ; Absolute XYZ
M83 ; Relative E
G92 E0 ; Reset extruder distance
;
;  Begin printing
;
M106 S0 ; Set fan speed
G1 E-0.8 F2100 ; Retract
G0 Z5 F8400 ; Z raise
G0 X107.6288 Y123.0068 F8400 ; Move to start position
G0 Z0.22 F8400 ; Move to start layer height
G1 E0.8 F60 ; Un-retract
SET_PRESSURE_ADVANCE ADVANCE=0 ; Set pressure advance to start value
M117 PA 0
G1 X107.6288 Y165.4332 E1.9501 F2700 ; Draw perimeter (up)
G1 X192.3712 Y165.4332 E3.89512 F2700 ; Draw perimeter (right)
G1 X192.3712 Y123.0068 E1.9501 F2700 ; Draw perimeter (down)
G1 X107.6288 Y123.0068 E3.89512 F2700 ; Draw perimeter (left)
G0 X108.1416 Y123.5196 F8400 ; Step inwards to print next perimeter
G1 X108.1416 Y164.9204 E1.90296 F2700 ; Draw perimeter (up)
G1 X191.8584 Y164.9204 E3.84798 F2700 ; Draw perimeter (right)
G1 X191.8584 Y123.5196 E1.90296 F2700 ; Draw perimeter (down)
G1 X108.1416 Y123.5196 E3.84798 F2700 ; Draw perimeter (left)
G0 X108.6544 Y124.0324 F8400 ; Step inwards to print next perimeter
G1 X108.6544 Y164.4076 E1.85582 F2700 ; Draw perimeter (up)
G1 X191.3456 Y164.4076 E3.80084 F2700 ; Draw perimeter (right)
G1 X191.3456 Y124.0324 E1.85582 F2700 ; Draw perimeter (down)
G1 X108.6544 Y124.0324 E3.80084 F2700 ; Draw perimeter (left)
G0 X109.1672 Y124.5452 F8400 ; Step inwards to print next perimeter
G1 X109.1672 Y163.8948 E1.80868 F2700 ; Draw perimeter (up)
G1 X190.8328 Y163.8948 E3.7537 F2700 ; Draw perimeter (right)
G1 X190.8328 Y124.5452 E1.80868 F2700 ; Draw perimeter (down)
G1 X109.1672 Y124.5452 E3.7537 F2700 ; Draw perimeter (left)
G1 E-0.8 F2100 ; Retract
G1 Z0.52 F8400 ; Z hop
G0 X107.6288 Y165.946 F8400 ; Move to box start
G1 Z0.22 F8400 ; Z hop return
G1 E0.8 F60 ; Un-retract
G1 X107.6288 Y177.4588 E0.52918 F2700 ; Draw perimeter (up)
G1 X171.8833 Y177.4588 E2.95341 F2700 ; Draw perimeter (right)
G1 X171.8833 Y165.946 E0.52918 F2700 ; Draw perimeter (down)
G1 X107.6288 Y165.946 E2.95341 F2700 ; Draw perimeter (left)
G0 X108.1416 Y166.4588 F8400 ; Step inwards to print next perimeter
G1 X108.1416 Y176.946 E0.48204 F2700 ; Draw perimeter (up)
G1 X171.3705 Y176.946 E2.90627 F2700 ; Draw perimeter (right)
G1 X171.3705 Y166.4588 E0.48204 F2700 ; Draw perimeter (down)
G1 X108.1416 Y166.4588 E2.90627 F2700 ; Draw perimeter (left)
G0 X108.6544 Y166.9716 F8400 ; Step inwards to print next perimeter
G1 X108.6544 Y176.4332 E0.4349 F2700 ; Draw perimeter (up)
G1 X170.8577 Y176.4332 E2.85913 F2700 ; Draw perimeter (right)
G1 X170.8577 Y166.9716 E0.4349 F2700 ; Draw perimeter (down)
G1 X108.6544 Y166.9716 E2.85913 F2700 ; Draw perimeter (left)
G0 X109.1672 Y167.4844 F8400 ; Step inwards to print next perimeter
G1 X109.1672 Y175.9204 E0.38776 F2700 ; Draw perimeter (up)
G1 X170.3449 Y175.9204 E2.81199 F2700 ; Draw perimeter (right)
G1 X170.3449 Y167.4844 E0.38776 F2700 ; Draw perimeter (down)
G1 X109.1672 Y167.4844 E2.81199 F2700 ; Draw perimeter (left)
G0 X109.5405 Y167.8577 F8400 ; Move to fill start
G0 X110.2657 Y167.8577 F8400 ; Move
G1 X109.5405 Y168.5829 E0.04714 F2700 ; Fill
G0 X109.5405 Y169.3081 F8400 ; Move
G1 X110.9909 Y167.8577 E0.09428 F2700 ; Fill
G0 X111.7161 Y167.8577 F8400 ; Move
G1 X109.5405 Y170.0333 E0.14142 F2700 ; Fill
G0 X109.5405 Y170.7585 F8400 ; Move
G1 X112.4413 Y167.8577 E0.18856 F2700 ; Fill
G0 X113.1665 Y167.8577 F8400 ; Move
G1 X109.5405 Y171.4836 E0.2357 F2700 ; Fill
G0 X109.5405 Y172.2088 F8400 ; Move
G1 X113.8917 Y167.8577 E0.28284 F2700 ; Fill
G0 X114.6169 Y167.8577 F8400 ; Move
G1 X109.5405 Y172.934 E0.32998 F2700 ; Fill
G0 X109.5405 Y173.6592 F8400 ; Move
G1 X115.342 Y167.8577 E0.37712 F2700 ; Fill
G0 X116.0672 Y167.8577 F8400 ; Move
G1 X109.5405 Y174.3844 E0.42426 F2700 ; Fill
G0 X109.5405 Y175.1096 F8400 ; Move
G1 X116.7924 Y167.8577 E0.4714 F2700 ; Fill
G0 X117.5176 Y167.8577 F8400 ; Move
G1 X109.8282 Y175.5471 E0.49984 F2700 ; Fill
G0 X110.5534 Y175.5471 F8400 ; Move
G1 X118.2428 Y167.8577 E0.49984 F2700 ; Fill
G0 X118.968 Y167.8577 F8400 ; Move
G1 X111.2786 Y175.5471 E0.49984 F2700 ; Fill
G0 X112.0038 Y175.5471 F8400 ; Move
G1 X119.6932 Y167.8577 E0.49984 F2700 ; Fill
G0 X120.4184 Y167.8577 F8400 ; Move
G1 X112.729 Y175.5471 E0.49984 F2700 ; Fill
G0 X113.4542 Y175.5471 F8400 ; Move
G1 X121.1436 Y167.8577 E0.49984 F2700 ; Fill
G0 X121.8688 Y167.8577 F8400 ; Move
G1 X114.1794 Y175.5471 E0.49984 F2700 ; Fill
G0 X114.9046 Y175.5471 F8400 ; Move
G1 X122.594 Y167.8577 E0.49984 F2700 ; Fill
G0 X123.3192 Y167.8577 F8400 ; Move
G1 X115.6298 Y175.5471 E0.49984 F2700 ; Fill
G0 X116.3549 Y175.5471 F8400 ; Move
G1 X124.0443 Y167.8577 E0.49984 F2700 ; Fill
G0 X124.7695 Y167.8577 F8400 ; Move
G1 X117.0801 Y175.5471 E0.49984 F2700 ; Fill
G0 X117.8053 Y175.5471 F8400 ; Move
G1 X125.4947 Y167.8577 E0.49984 F2700 ; Fill
G0 X126.2199 Y167.8577 F8400 ; Move
G1 X118.5305 Y175.5471 E0.49984 F2700 ; Fill
G0 X119.2557 Y175.5471 F8400 ; Move
G1 X126.9451 Y167.8577 E0.49984 F2700 ; Fill
G0 X127.6703 Y167.8577 F8400 ; Move
G1 X119.9809 Y175.5471 E0.49984 F2700 ; Fill
G0 X120.7061 Y175.5471 F8400 ; Move
G1 X128.3955 Y167.8577 E0.49984 F2700 ; Fill
G0 X129.1207 Y167.8577 F8400 ; Move
G1 X121.4313 Y175.5471 E0.49984 F2700 ; Fill
G0 X122.1565 Y175.5471 F8400 ; Move
G1 X129.8459 Y167.8577 E0.49984 F2700 ; Fill
G0 X130.5711 Y167.8577 F8400 ; Move
G1 X122.8817 Y175.5471 E0.49984 F2700 ; Fill
G0 X123.6069 Y175.5471 F8400 ; Move
G1 X131.2963 Y167.8577 E0.49984 F2700 ; Fill
G0 X132.0214 Y167.8577 F8400 ; Move
G1 X124.3321 Y175.5471 E0.49984 F2700 ; Fill
G0 X125.0572 Y175.5471 F8400 ; Move
G1 X132.7466 Y167.8577 E0.49984 F2700 ; Fill
G0 X133.4718 Y167.8577 F8400 ; Move
G1 X125.7824 Y175.5471 E0.49984 F2700 ; Fill
G0 X126.5076 Y175.5471 F8400 ; Move
G1 X134.197 Y167.8577 E0.49984 F2700 ; Fill
G0 X134.9222 Y167.8577 F8400 ; Move
G1 X127.2328 Y175.5471 E0.49984 F2700 ; Fill
G0 X127.958 Y175.5471 F8400 ; Move
G1 X135.6474 Y167.8577 E0.49984 F2700 ; Fill
G0 X136.3726 Y167.8577 F8400 ; Move
G1 X128.6832 Y175.5471 E0.49984 F2700 ; Fill
G0 X129.4084 Y175.5471 F8400 ; Move
G1 X137.0978 Y167.8577 E0.49984 F2700 ; Fill
G0 X137.823 Y167.8577 F8400 ; Move
G1 X130.1336 Y175.5471 E0.49984 F2700 ; Fill
G0 X130.8588 Y175.5471 F8400 ; Move
G1 X138.5482 Y167.8577 E0.49984 F2700 ; Fill
G0 X139.2734 Y167.8577 F8400 ; Move
G1 X131.584 Y175.5471 E0.49984 F2700 ; Fill
G0 X132.3092 Y175.5471 F8400 ; Move
G1 X139.9985 Y167.8577 E0.49984 F2700 ; Fill
G0 X140.7237 Y167.8577 F8400 ; Move
G1 X133.0343 Y175.5471 E0.49984 F2700 ; Fill
G0 X133.7595 Y175.5471 F8400 ; Move
G1 X141.4489 Y167.8577 E0.49984 F2700 ; Fill
G0 X142.1741 Y167.8577 F8400 ; Move
G1 X134.4847 Y175.5471 E0.49984 F2700 ; Fill
G0 X135.2099 Y175.5471 F8400 ; Move
G1 X142.8993 Y167.8577 E0.49984 F2700 ; Fill
G0 X143.6245 Y167.8577 F8400 ; Move
G1 X135.9351 Y175.5471 E0.49984 F2700 ; Fill
G0 X136.6603 Y175.5471 F8400 ; Move
G1 X144.3497 Y167.8577 E0.49984 F2700 ; Fill
G0 X145.0749 Y167.8577 F8400 ; Move
G1 X137.3855 Y175.5471 E0.49984 F2700 ; Fill
G0 X138.1107 Y175.5471 F8400 ; Move
G1 X145.8001 Y167.8577 E0.49984 F2700 ; Fill
G0 X146.5253 Y167.8577 F8400 ; Move
G1 X138.8359 Y175.5471 E0.49984 F2700 ; Fill
G0 X139.5611 Y175.5471 F8400 ; Move
G1 X147.2505 Y167.8577 E0.49984 F2700 ; Fill
G0 X147.9757 Y167.8577 F8400 ; Move
G1 X140.2863 Y175.5471 E0.49984 F2700 ; Fill
G0 X141.0114 Y175.5471 F8400 ; Move
G1 X148.7008 Y167.8577 E0.49984 F2700 ; Fill
G0 X149.426 Y167.8577 F8400 ; Move
G1 X141.7366 Y175.5471 E0.49984 F2700 ; Fill
G0 X142.4618 Y175.5471 F8400 ; Move
G1 X150.1512 Y167.8577 E0.49984 F2700 ; Fill
G0 X150.8764 Y167.8577 F8400 ; Move
G1 X143.187 Y175.5471 E0.49984 F2700 ; Fill
G0 X143.9122 Y175.5471 F8400 ; Move
G1 X151.6016 Y167.8577 E0.49984 F2700 ; Fill
G0 X152.3268 Y167.8577 F8400 ; Move
G1 X144.6374 Y175.5471 E0.49984 F2700 ; Fill
G0 X145.3626 Y175.5471 F8400 ; Move
G1 X153.052 Y167.8577 E0.49984 F2700 ; Fill
G0 X153.7772 Y167.8577 F8400 ; Move
G1 X146.0878 Y175.5471 E0.49984 F2700 ; Fill
G0 X146.813 Y175.5471 F8400 ; Move
G1 X154.5024 Y167.8577 E0.49984 F2700 ; Fill
G0 X155.2276 Y167.8577 F8400 ; Move
G1 X147.5382 Y175.5471 E0.49984 F2700 ; Fill
G0 X148.2634 Y175.5471 F8400 ; Move
G1 X155.9528 Y167.8577 E0.49984 F2700 ; Fill
G0 X156.6779 Y167.8577 F8400 ; Move
G1 X148.9886 Y175.5471 E0.49984 F2700 ; Fill
G0 X149.7137 Y175.5471 F8400 ; Move
G1 X157.4031 Y167.8577 E0.49984 F2700 ; Fill
G0 X158.1283 Y167.8577 F8400 ; Move
G1 X150.4389 Y175.5471 E0.49984 F2700 ; Fill
G0 X151.1641 Y175.5471 F8400 ; Move
G1 X158.8535 Y167.8577 E0.49984 F2700 ; Fill
G0 X159.5787 Y167.8577 F8400 ; Move
G1 X151.8893 Y175.5471 E0.49984 F2700 ; Fill
G0 X152.6145 Y175.5471 F8400 ; Move
G1 X160.3039 Y167.8577 E0.49984 F2700 ; Fill
G0 X161.0291 Y167.8577 F8400 ; Move
G1 X153.3397 Y175.5471 E0.49984 F2700 ; Fill
G0 X154.0649 Y175.5471 F8400 ; Move
G1 X161.7543 Y167.8577 E0.49984 F2700 ; Fill
G0 X162.4795 Y167.8577 F8400 ; Move
G1 X154.7901 Y175.5471 E0.49984 F2700 ; Fill
G0 X155.5153 Y175.5471 F8400 ; Move
G1 X163.2047 Y167.8577 E0.49984 F2700 ; Fill
G0 X163.9299 Y167.8577 F8400 ; Move
G1 X156.2405 Y175.5471 E0.49984 F2700 ; Fill
G0 X156.9657 Y175.5471 F8400 ; Move
G1 X164.655 Y167.8577 E0.49984 F2700 ; Fill
G0 X165.3802 Y167.8577 F8400 ; Move
G1 X157.6908 Y175.5471 E0.49984 F2700 ; Fill
G0 X158.416 Y175.5471 F8400 ; Move
G1 X166.1054 Y167.8577 E0.49984 F2700 ; Fill
G0 X166.8306 Y167.8577 F8400 ; Move
G1 X159.1412 Y175.5471 E0.49984 F2700 ; Fill
G0 X159.8664 Y175.5471 F8400 ; Move
G1 X167.5558 Y167.8577 E0.49984 F2700 ; Fill
G0 X168.281 Y167.8577 F8400 ; Move
G1 X160.5916 Y175.5471 E0.49984 F2700 ; Fill
G0 X161.3168 Y175.5471 F8400 ; Move
G1 X169.0062 Y167.8577 E0.49984 F2700 ; Fill
G0 X169.7314 Y167.8577 F8400 ; Move
G1 X162.042 Y175.5471 E0.49984 F2700 ; Fill
G0 X162.7672 Y175.5471 F8400 ; Move
G1 X169.9716 Y168.3427 E0.46831 F2700 ; Fill
G0 X169.9716 Y169.0679 F8400 ; Move
G1 X163.4924 Y175.5471 E0.42117 F2700 ; Fill
G0 X164.2176 Y175.5471 F8400 ; Move
G1 X169.9716 Y169.7931 E0.37403 F2700 ; Fill
G0 X169.9716 Y170.5182 F8400 ; Move
G1 X164.9428 Y175.5471 E0.32689 F2700 ; Fill
G0 X165.6679 Y175.5471 F8400 ; Move
G1 X169.9716 Y171.2434 E0.27975 F2700 ; Fill
G0 X169.9716 Y171.9686 F8400 ; Move
G1 X166.3931 Y175.5471 E0.23261 F2700 ; Fill
G0 X167.1183 Y175.5471 F8400 ; Move
G1 X169.9716 Y172.6938 E0.18547 F2700 ; Fill
G0 X169.9716 Y173.419 F8400 ; Move
G1 X167.8435 Y175.5471 E0.13833 F2700 ; Fill
G0 X168.5687 Y175.5471 F8400 ; Move
G1 X169.9716 Y174.1442 E0.09119 F2700 ; Fill
G0 X169.9716 Y174.8694 F8400 ; Move
G1 X169.2939 Y175.5471 E0.04405 F2700 ; Fill
G0 Z0.22 F8400 ; Move to layer height
G1 E-0.8 F2100 ; Retract
G1 Z0.52 F8400 ; Z hop
G0 X112.2448 Y124.9185 F8400 ; Move to pattern start

G1 Z0.22 F8400 ; Z hop return
G1 E0.8 F60 ; Un-retract
SET_PRESSURE_ADVANCE ADVANCE=0 ; Set pressure advance
M117 PA 0
G1 X131.5463 Y144.22 E0.98552 F2700 ; Print pattern wall
G1 X112.2448 Y163.5215 E0.98552 F2700 ; Print pattern wall
G1 E-0.8 F2100 ; Retract
G1 Z0.52 F8400 ; Z hop
G0 X112.8205 Y124.9185 F8400 ; Move to start next pattern wall
G1 Z0.22 F8400 ; Z hop return
G1 E0.8 F60 ; Un-retract
G1 X132.122 Y144.22 E0.98552 F2700 ; Print pattern wall
G1 X112.8205 Y163.5215 E0.98552 F2700 ; Print pattern wall
G1 E-0.8 F2100 ; Retract
G1 Z0.52 F8400 ; Z hop
G0 X113.3962 Y124.9185 F8400 ; Move to start next pattern wall
G1 Z0.22 F8400 ; Z hop return
G1 E0.8 F60 ; Un-retract
G1 X132.6977 Y144.22 E0.98552 F2700 ; Print pattern wall
G1 X113.3962 Y163.5215 E0.98552 F2700 ; Print pattern wall
G1 E-0.8 F2100 ; Retract
G1 Z0.52 F8400 ; Z hop
G0 X115.8462 Y124.9185 F8400 ; Move to next pattern
G1 Z0.22 F8400 ; Z hop return
G1 E0.8 F60 ; Un-retract
SET_PRESSURE_ADVANCE ADVANCE=0.005 ; Set pressure advance
M117 PA 0.005
G1 X135.1477 Y144.22 E0.98552 F2700 ; Print pattern wall
G1 X115.8462 Y163.5215 E0.98552 F2700 ; Print pattern wall
G1 E-0.8 F2100 ; Retract
G1 Z0.52 F8400 ; Z hop
G0 X116.4219 Y124.9185 F8400 ; Move to start next pattern wall
G1 Z0.22 F8400 ; Z hop return
G1 E0.8 F60 ; Un-retract
G1 X135.7234 Y144.22 E0.98552 F2700 ; Print pattern wall
G1 X116.4219 Y163.5215 E0.98552 F2700 ; Print pattern wall
G1 E-0.8 F2100 ; Retract
G1 Z0.52 F8400 ; Z hop
G0 X116.9976 Y124.9185 F8400 ; Move to start next pattern wall
G1 Z0.22 F8400 ; Z hop return
G1 E0.8 F60 ; Un-retract
G1 X136.2991 Y144.22 E0.98552 F2700 ; Print pattern wall
G1 X116.9976 Y163.5215 E0.98552 F2700 ; Print pattern wall
G1 E-0.8 F2100 ; Retract
G1 Z0.52 F8400 ; Z hop
G0 X119.4476 Y124.9185 F8400 ; Move to next pattern
G1 Z0.22 F8400 ; Z hop return
G1 E0.8 F60 ; Un-retract
SET_PRESSURE_ADVANCE ADVANCE=0.01 ; Set pressure advance
M117 PA 0.01
G1 X138.7491 Y144.22 E0.98552 F2700 ; Print pattern wall
G1 X119.4476 Y163.5215 E0.98552 F2700 ; Print pattern wall
G1 E-0.8 F2100 ; Retract
G1 Z0.52 F8400 ; Z hop
G0 X120.0233 Y124.9185 F8400 ; Move to start next pattern wall
G1 Z0.22 F8400 ; Z hop return
G1 E0.8 F60 ; Un-retract
G1 X139.3248 Y144.22 E0.98552 F2700 ; Print pattern wall
G1 X120.0233 Y163.5215 E0.98552 F2700 ; Print pattern wall
G1 E-0.8 F2100 ; Retract
G1 Z0.52 F8400 ; Z hop
G0 X120.599 Y124.9185 F8400 ; Move to start next pattern wall
G1 Z0.22 F8400 ; Z hop return
G1 E0.8 F60 ; Un-retract
G1 X139.9005 Y144.22 E0.98552 F2700 ; Print pattern wall
G1 X120.599 Y163.5215 E0.98552 F2700 ; Print pattern wall
G1 E-0.8 F2100 ; Retract
G1 Z0.52 F8400 ; Z hop
G0 X123.049 Y124.9185 F8400 ; Move to next pattern
G1 Z0.22 F8400 ; Z hop return
G1 E0.8 F60 ; Un-retract
SET_PRESSURE_ADVANCE ADVANCE=0.015 ; Set pressure advance
M117 PA 0.015
G1 X142.3505 Y144.22 E0.98552 F2700 ; Print pattern wall
G1 X123.049 Y163.5215 E0.98552 F2700 ; Print pattern wall
G1 E-0.8 F2100 ; Retract
G1 Z0.52 F8400 ; Z hop
G0 X123.6247 Y124.9185 F8400 ; Move to start next pattern wall
G1 Z0.22 F8400 ; Z hop return
G1 E0.8 F60 ; Un-retract
G1 X142.9262 Y144.22 E0.98552 F2700 ; Print pattern wall
G1 X123.6247 Y163.5215 E0.98552 F2700 ; Print pattern wall
G1 E-0.8 F2100 ; Retract
G1 Z0.52 F8400 ; Z hop
G0 X124.2004 Y124.9185 F8400 ; Move to start next pattern wall
G1 Z0.22 F8400 ; Z hop return
G1 E0.8 F60 ; Un-retract
G1 X143.5019 Y144.22 E0.98552 F2700 ; Print pattern wall
G1 X124.2004 Y163.5215 E0.98552 F2700 ; Print pattern wall
G1 E-0.8 F2100 ; Retract
G1 Z0.52 F8400 ; Z hop
G0 X126.6504 Y124.9185 F8400 ; Move to next pattern
G1 Z0.22 F8400 ; Z hop return
G1 E0.8 F60 ; Un-retract
SET_PRESSURE_ADVANCE ADVANCE=0.02 ; Set pressure advance
M117 PA 0.02
G1 X145.9519 Y144.22 E0.98552 F2700 ; Print pattern wall
G1 X126.6504 Y163.5215 E0.98552 F2700 ; Print pattern wall
G1 E-0.8 F2100 ; Retract
G1 Z0.52 F8400 ; Z hop
G0 X127.2261 Y124.9185 F8400 ; Move to start next pattern wall
G1 Z0.22 F8400 ; Z hop return
G1 E0.8 F60 ; Un-retract
G1 X146.5276 Y144.22 E0.98552 F2700 ; Print pattern wall
G1 X127.2261 Y163.5215 E0.98552 F2700 ; Print pattern wall
G1 E-0.8 F2100 ; Retract
G1 Z0.52 F8400 ; Z hop
G0 X127.8018 Y124.9185 F8400 ; Move to start next pattern wall
G1 Z0.22 F8400 ; Z hop return
G1 E0.8 F60 ; Un-retract
G1 X147.1033 Y144.22 E0.98552 F2700 ; Print pattern wall
G1 X127.8018 Y163.5215 E0.98552 F2700 ; Print pattern wall
G1 E-0.8 F2100 ; Retract
G1 Z0.52 F8400 ; Z hop
G0 X130.2518 Y124.9185 F8400 ; Move to next pattern
G1 Z0.22 F8400 ; Z hop return
G1 E0.8 F60 ; Un-retract
SET_PRESSURE_ADVANCE ADVANCE=0.025 ; Set pressure advance
M117 PA 0.025
G1 X149.5533 Y144.22 E0.98552 F2700 ; Print pattern wall
G1 X130.2518 Y163.5215 E0.98552 F2700 ; Print pattern wall
G1 E-0.8 F2100 ; Retract
G1 Z0.52 F8400 ; Z hop
G0 X130.8275 Y124.9185 F8400 ; Move to start next pattern wall
G1 Z0.22 F8400 ; Z hop return
G1 E0.8 F60 ; Un-retract
G1 X150.129 Y144.22 E0.98552 F2700 ; Print pattern wall
G1 X130.8275 Y163.5215 E0.98552 F2700 ; Print pattern wall
G1 E-0.8 F2100 ; Retract
G1 Z0.52 F8400 ; Z hop
G0 X131.4032 Y124.9185 F8400 ; Move to start next pattern wall
G1 Z0.22 F8400 ; Z hop return
G1 E0.8 F60 ; Un-retract
G1 X150.7047 Y144.22 E0.98552 F2700 ; Print pattern wall
G1 X131.4032 Y163.5215 E0.98552 F2700 ; Print pattern wall
G1 E-0.8 F2100 ; Retract
G1 Z0.52 F8400 ; Z hop
G0 X133.8532 Y124.9185 F8400 ; Move to next pattern
G1 Z0.22 F8400 ; Z hop return
G1 E0.8 F60 ; Un-retract
SET_PRESSURE_ADVANCE ADVANCE=0.03 ; Set pressure advance
M117 PA 0.03
G1 X153.1547 Y144.22 E0.98552 F2700 ; Print pattern wall
G1 X133.8532 Y163.5215 E0.98552 F2700 ; Print pattern wall
G1 E-0.8 F2100 ; Retract
G1 Z0.52 F8400 ; Z hop
G0 X134.4289 Y124.9185 F8400 ; Move to start next pattern wall
G1 Z0.22 F8400 ; Z hop return
G1 E0.8 F60 ; Un-retract
G1 X153.7304 Y144.22 E0.98552 F2700 ; Print pattern wall
G1 X134.4289 Y163.5215 E0.98552 F2700 ; Print pattern wall
G1 E-0.8 F2100 ; Retract
G1 Z0.52 F8400 ; Z hop
G0 X135.0046 Y124.9185 F8400 ; Move to start next pattern wall
G1 Z0.22 F8400 ; Z hop return
G1 E0.8 F60 ; Un-retract
G1 X154.3061 Y144.22 E0.98552 F2700 ; Print pattern wall
G1 X135.0046 Y163.5215 E0.98552 F2700 ; Print pattern wall
G1 E-0.8 F2100 ; Retract
G1 Z0.52 F8400 ; Z hop
G0 X137.4546 Y124.9185 F8400 ; Move to next pattern
G1 Z0.22 F8400 ; Z hop return
G1 E0.8 F60 ; Un-retract
SET_PRESSURE_ADVANCE ADVANCE=0.035 ; Set pressure advance
M117 PA 0.035
G1 X156.7561 Y144.22 E0.98552 F2700 ; Print pattern wall
G1 X137.4546 Y163.5215 E0.98552 F2700 ; Print pattern wall
G1 E-0.8 F2100 ; Retract
G1 Z0.52 F8400 ; Z hop
G0 X138.0303 Y124.9185 F8400 ; Move to start next pattern wall
G1 Z0.22 F8400 ; Z hop return
G1 E0.8 F60 ; Un-retract
G1 X157.3318 Y144.22 E0.98552 F2700 ; Print pattern wall
G1 X138.0303 Y163.5215 E0.98552 F2700 ; Print pattern wall
G1 E-0.8 F2100 ; Retract
G1 Z0.52 F8400 ; Z hop
G0 X138.606 Y124.9185 F8400 ; Move to start next pattern wall
G1 Z0.22 F8400 ; Z hop return
G1 E0.8 F60 ; Un-retract
G1 X157.9075 Y144.22 E0.98552 F2700 ; Print pattern wall
G1 X138.606 Y163.5215 E0.98552 F2700 ; Print pattern wall
G1 E-0.8 F2100 ; Retract
G1 Z0.52 F8400 ; Z hop
G0 X141.056 Y124.9185 F8400 ; Move to next pattern
G1 Z0.22 F8400 ; Z hop return
G1 E0.8 F60 ; Un-retract
SET_PRESSURE_ADVANCE ADVANCE=0.04 ; Set pressure advance
M117 PA 0.04
G1 X160.3575 Y144.22 E0.98552 F2700 ; Print pattern wall
G1 X141.056 Y163.5215 E0.98552 F2700 ; Print pattern wall
G1 E-0.8 F2100 ; Retract
G1 Z0.52 F8400 ; Z hop
G0 X141.6317 Y124.9185 F8400 ; Move to start next pattern wall
G1 Z0.22 F8400 ; Z hop return
G1 E0.8 F60 ; Un-retract
G1 X160.9332 Y144.22 E0.98552 F2700 ; Print pattern wall
G1 X141.6317 Y163.5215 E0.98552 F2700 ; Print pattern wall
G1 E-0.8 F2100 ; Retract
G1 Z0.52 F8400 ; Z hop
G0 X142.2074 Y124.9185 F8400 ; Move to start next pattern wall
G1 Z0.22 F8400 ; Z hop return
G1 E0.8 F60 ; Un-retract
G1 X161.5089 Y144.22 E0.98552 F2700 ; Print pattern wall
G1 X142.2074 Y163.5215 E0.98552 F2700 ; Print pattern wall
G1 E-0.8 F2100 ; Retract
G1 Z0.52 F8400 ; Z hop
G0 X144.6574 Y124.9185 F8400 ; Move to next pattern
G1 Z0.22 F8400 ; Z hop return
G1 E0.8 F60 ; Un-retract
SET_PRESSURE_ADVANCE ADVANCE=0.045 ; Set pressure advance
M117 PA 0.045
G1 X163.9589 Y144.22 E0.98552 F2700 ; Print pattern wall
G1 X144.6574 Y163.5215 E0.98552 F2700 ; Print pattern wall
G1 E-0.8 F2100 ; Retract
G1 Z0.52 F8400 ; Z hop
G0 X145.2331 Y124.9185 F8400 ; Move to start next pattern wall
G1 Z0.22 F8400 ; Z hop return
G1 E0.8 F60 ; Un-retract
G1 X164.5346 Y144.22 E0.98552 F2700 ; Print pattern wall
G1 X145.2331 Y163.5215 E0.98552 F2700 ; Print pattern wall
G1 E-0.8 F2100 ; Retract
G1 Z0.52 F8400 ; Z hop
G0 X145.8088 Y124.9185 F8400 ; Move to start next pattern wall
G1 Z0.22 F8400 ; Z hop return
G1 E0.8 F60 ; Un-retract
G1 X165.1103 Y144.22 E0.98552 F2700 ; Print pattern wall
G1 X145.8088 Y163.5215 E0.98552 F2700 ; Print pattern wall
G1 E-0.8 F2100 ; Retract
G1 Z0.52 F8400 ; Z hop
G0 X148.2588 Y124.9185 F8400 ; Move to next pattern
G1 Z0.22 F8400 ; Z hop return
G1 E0.8 F60 ; Un-retract
SET_PRESSURE_ADVANCE ADVANCE=0.05 ; Set pressure advance
M117 PA 0.05
G1 X167.5603 Y144.22 E0.98552 F2700 ; Print pattern wall
G1 X148.2588 Y163.5215 E0.98552 F2700 ; Print pattern wall
G1 E-0.8 F2100 ; Retract
G1 Z0.52 F8400 ; Z hop
G0 X148.8345 Y124.9185 F8400 ; Move to start next pattern wall
G1 Z0.22 F8400 ; Z hop return
G1 E0.8 F60 ; Un-retract
G1 X168.136 Y144.22 E0.98552 F2700 ; Print pattern wall
G1 X148.8345 Y163.5215 E0.98552 F2700 ; Print pattern wall
G1 E-0.8 F2100 ; Retract
G1 Z0.52 F8400 ; Z hop
G0 X149.4102 Y124.9185 F8400 ; Move to start next pattern wall
G1 Z0.22 F8400 ; Z hop return
G1 E0.8 F60 ; Un-retract
G1 X168.7117 Y144.22 E0.98552 F2700 ; Print pattern wall
G1 X149.4102 Y163.5215 E0.98552 F2700 ; Print pattern wall
G1 E-0.8 F2100 ; Retract
G1 Z0.52 F8400 ; Z hop
G0 X151.8602 Y124.9185 F8400 ; Move to next pattern
G1 Z0.22 F8400 ; Z hop return
G1 E0.8 F60 ; Un-retract
SET_PRESSURE_ADVANCE ADVANCE=0.055 ; Set pressure advance
M117 PA 0.055
G1 X171.1617 Y144.22 E0.98552 F2700 ; Print pattern wall
G1 X151.8602 Y163.5215 E0.98552 F2700 ; Print pattern wall
G1 E-0.8 F2100 ; Retract
G1 Z0.52 F8400 ; Z hop
G0 X152.4359 Y124.9185 F8400 ; Move to start next pattern wall
G1 Z0.22 F8400 ; Z hop return
G1 E0.8 F60 ; Un-retract
G1 X171.7374 Y144.22 E0.98552 F2700 ; Print pattern wall
G1 X152.4359 Y163.5215 E0.98552 F2700 ; Print pattern wall
G1 E-0.8 F2100 ; Retract
G1 Z0.52 F8400 ; Z hop
G0 X153.0116 Y124.9185 F8400 ; Move to start next pattern wall
G1 Z0.22 F8400 ; Z hop return
G1 E0.8 F60 ; Un-retract
G1 X172.3131 Y144.22 E0.98552 F2700 ; Print pattern wall
G1 X153.0116 Y163.5215 E0.98552 F2700 ; Print pattern wall
G1 E-0.8 F2100 ; Retract
G1 Z0.52 F8400 ; Z hop
G0 X155.4616 Y124.9185 F8400 ; Move to next pattern
G1 Z0.22 F8400 ; Z hop return
G1 E0.8 F60 ; Un-retract
SET_PRESSURE_ADVANCE ADVANCE=0.06 ; Set pressure advance
M117 PA 0.06
G1 X174.7631 Y144.22 E0.98552 F2700 ; Print pattern wall
G1 X155.4616 Y163.5215 E0.98552 F2700 ; Print pattern wall
G1 E-0.8 F2100 ; Retract
G1 Z0.52 F8400 ; Z hop
G0 X156.0373 Y124.9185 F8400 ; Move to start next pattern wall
G1 Z0.22 F8400 ; Z hop return
G1 E0.8 F60 ; Un-retract
G1 X175.3388 Y144.22 E0.98552 F2700 ; Print pattern wall
G1 X156.0373 Y163.5215 E0.98552 F2700 ; Print pattern wall
G1 E-0.8 F2100 ; Retract
G1 Z0.52 F8400 ; Z hop
G0 X156.613 Y124.9185 F8400 ; Move to start next pattern wall
G1 Z0.22 F8400 ; Z hop return
G1 E0.8 F60 ; Un-retract
G1 X175.9145 Y144.22 E0.98552 F2700 ; Print pattern wall
G1 X156.613 Y163.5215 E0.98552 F2700 ; Print pattern wall
G1 E-0.8 F2100 ; Retract
G1 Z0.52 F8400 ; Z hop
G0 X159.063 Y124.9185 F8400 ; Move to next pattern
G1 Z0.22 F8400 ; Z hop return
G1 E0.8 F60 ; Un-retract
SET_PRESSURE_ADVANCE ADVANCE=0.065 ; Set pressure advance
M117 PA 0.065
G1 X178.3645 Y144.22 E0.98552 F2700 ; Print pattern wall
G1 X159.063 Y163.5215 E0.98552 F2700 ; Print pattern wall
G1 E-0.8 F2100 ; Retract
G1 Z0.52 F8400 ; Z hop
G0 X159.6387 Y124.9185 F8400 ; Move to start next pattern wall
G1 Z0.22 F8400 ; Z hop return
G1 E0.8 F60 ; Un-retract
G1 X178.9402 Y144.22 E0.98552 F2700 ; Print pattern wall
G1 X159.6387 Y163.5215 E0.98552 F2700 ; Print pattern wall
G1 E-0.8 F2100 ; Retract
G1 Z0.52 F8400 ; Z hop
G0 X160.2144 Y124.9185 F8400 ; Move to start next pattern wall
G1 Z0.22 F8400 ; Z hop return
G1 E0.8 F60 ; Un-retract
G1 X179.5159 Y144.22 E0.98552 F2700 ; Print pattern wall
G1 X160.2144 Y163.5215 E0.98552 F2700 ; Print pattern wall
G1 E-0.8 F2100 ; Retract
G1 Z0.52 F8400 ; Z hop
G0 X162.6644 Y124.9185 F8400 ; Move to next pattern
G1 Z0.22 F8400 ; Z hop return
G1 E0.8 F60 ; Un-retract
SET_PRESSURE_ADVANCE ADVANCE=0.07 ; Set pressure advance
M117 PA 0.07
G1 X181.9659 Y144.22 E0.98552 F2700 ; Print pattern wall
G1 X162.6644 Y163.5215 E0.98552 F2700 ; Print pattern wall
G1 E-0.8 F2100 ; Retract
G1 Z0.52 F8400 ; Z hop
G0 X163.2401 Y124.9185 F8400 ; Move to start next pattern wall
G1 Z0.22 F8400 ; Z hop return
G1 E0.8 F60 ; Un-retract
G1 X182.5416 Y144.22 E0.98552 F2700 ; Print pattern wall
G1 X163.2401 Y163.5215 E0.98552 F2700 ; Print pattern wall
G1 E-0.8 F2100 ; Retract
G1 Z0.52 F8400 ; Z hop
G0 X163.8157 Y124.9185 F8400 ; Move to start next pattern wall
G1 Z0.22 F8400 ; Z hop return
G1 E0.8 F60 ; Un-retract
G1 X183.1173 Y144.22 E0.98552 F2700 ; Print pattern wall
G1 X163.8157 Y163.5215 E0.98552 F2700 ; Print pattern wall
G1 E-0.8 F2100 ; Retract
G1 Z0.52 F8400 ; Z hop
G0 X166.2657 Y124.9185 F8400 ; Move to next pattern
G1 Z0.22 F8400 ; Z hop return
G1 E0.8 F60 ; Un-retract
SET_PRESSURE_ADVANCE ADVANCE=0.075 ; Set pressure advance
M117 PA 0.075
G1 X185.5673 Y144.22 E0.98552 F2700 ; Print pattern wall
G1 X166.2657 Y163.5215 E0.98552 F2700 ; Print pattern wall
G1 E-0.8 F2100 ; Retract
G1 Z0.52 F8400 ; Z hop
G0 X166.8414 Y124.9185 F8400 ; Move to start next pattern wall
G1 Z0.22 F8400 ; Z hop return
G1 E0.8 F60 ; Un-retract
G1 X186.143 Y144.22 E0.98552 F2700 ; Print pattern wall
G1 X166.8414 Y163.5215 E0.98552 F2700 ; Print pattern wall
G1 E-0.8 F2100 ; Retract
G1 Z0.52 F8400 ; Z hop
G0 X167.4171 Y124.9185 F8400 ; Move to start next pattern wall
G1 Z0.22 F8400 ; Z hop return
G1 E0.8 F60 ; Un-retract
G1 X186.7187 Y144.22 E0.98552 F2700 ; Print pattern wall
G1 X167.4171 Y163.5215 E0.98552 F2700 ; Print pattern wall
G1 E-0.8 F2100 ; Retract
G1 Z0.52 F8400 ; Z hop
G0 X169.8671 Y124.9185 F8400 ; Move to next pattern
G1 Z0.22 F8400 ; Z hop return
G1 E0.8 F60 ; Un-retract
SET_PRESSURE_ADVANCE ADVANCE=0.08 ; Set pressure advance
M117 PA 0.08
G1 X189.1687 Y144.22 E0.98552 F2700 ; Print pattern wall
G1 X169.8671 Y163.5215 E0.98552 F2700 ; Print pattern wall
G1 E-0.8 F2100 ; Retract
G1 Z0.52 F8400 ; Z hop
G0 X170.4428 Y124.9185 F8400 ; Move to start next pattern wall
G1 Z0.22 F8400 ; Z hop return
G1 E0.8 F60 ; Un-retract
G1 X189.7443 Y144.22 E0.98552 F2700 ; Print pattern wall
G1 X170.4428 Y163.5215 E0.98552 F2700 ; Print pattern wall
G1 E-0.8 F2100 ; Retract
G1 Z0.52 F8400 ; Z hop
G0 X171.0185 Y124.9185 F8400 ; Move to start next pattern wall
G1 Z0.22 F8400 ; Z hop return
G1 E0.8 F60 ; Un-retract
G1 X190.32 Y144.22 E0.98552 F2700 ; Print pattern wall
G1 X171.0185 Y163.5215 E0.98552 F2700 ; Print pattern wall
G1 E-0.8 F2100 ; Retract
G1 Z0.52 F8400 ; Z hop
G0 X112.2448 Y124.9185 F8400 ; Move back to start position
G1 Z0.22 F8400 ; Z hop return
G1 E0.8 F60 ; Un-retract
M106 S0 ; Set fan speed
G0 Z0.42 F8400 ; Move to layer height
SET_PRESSURE_ADVANCE ADVANCE=0 ; Set pressure advance to start value for numbering
M117 PA 0
G1 E-0.8 F2100 ; Retract
G1 Z0.72 F8400 ; Z hop
G0 X108.9088 Y166.8832 F8400 ; Move
G1 Z0.42 F8400 ; Z hop return
G1 E0.8 F60 ; Un-retract
G1 X110.9088 Y166.8832 E0.06634 F2700 ; Glyph: 0
G1 X112.9088 Y166.8832 E0.06634 F2700 ; Glyph: 0
G1 X112.9088 Y168.8832 E0.06634 F2700 ; Glyph: 0
G1 X110.9088 Y168.8832 E0.06634 F2700 ; Glyph: 0
G1 X108.9088 Y168.8832 E0.06634 F2700 ; Glyph: 0
G1 X108.9088 Y166.8832 E0.06634 F2700 ; Glyph: 0
G1 E-0.8 F2100 ; Retract
G1 Z0.72 F8400 ; Z hop
G0 X116.1116 Y166.8832 F8400 ; Move
G1 Z0.42 F8400 ; Z hop return
G1 E0.8 F60 ; Un-retract
G1 X118.1116 Y166.8832 E0.06634 F2700 ; Glyph: 0
G1 X120.1116 Y166.8832 E0.06634 F2700 ; Glyph: 0
G1 X120.1116 Y168.8832 E0.06634 F2700 ; Glyph: 0
G1 X118.1116 Y168.8832 E0.06634 F2700 ; Glyph: 0
G1 X116.1116 Y168.8832 E0.06634 F2700 ; Glyph: 0
G1 X116.1116 Y166.8832 E0.06634 F2700 ; Glyph: 0
G1 E-0.8 F2100 ; Retract
G1 Z0.72 F8400 ; Z hop
G0 X120.1116 Y169.8832 F8400 ; Move
G1 Z0.42 F8400 ; Z hop return
G1 E0.8 F60 ; Un-retract
G1 X119.3616 Y169.8832 E0.02488 F2700 ; Glyph: .
G1 E-0.8 F2100 ; Retract
G1 Z0.72 F8400 ; Z hop
G0 X116.1116 Y170.8832 F8400 ; Move
G1 Z0.42 F8400 ; Z hop return
G1 E0.8 F60 ; Un-retract
G1 X118.1116 Y170.8832 E0.06634 F2700 ; Glyph: 0
G1 X120.1116 Y170.8832 E0.06634 F2700 ; Glyph: 0
G1 X120.1116 Y172.8832 E0.06634 F2700 ; Glyph: 0
G1 X118.1116 Y172.8832 E0.06634 F2700 ; Glyph: 0
G1 X116.1116 Y172.8832 E0.06634 F2700 ; Glyph: 0
G1 X116.1116 Y170.8832 E0.06634 F2700 ; Glyph: 0
G1 E-0.8 F2100 ; Retract
G1 Z0.72 F8400 ; Z hop
G0 X116.1116 Y173.8832 F8400 ; Move
G1 Z0.42 F8400 ; Z hop return
G1 E0.8 F60 ; Un-retract
G1 X118.1116 Y173.8832 E0.06634 F2700 ; Glyph: 1
G1 X120.1116 Y173.8832 E0.06634 F2700 ; Glyph: 1
G1 E-0.8 F2100 ; Retract
G1 Z0.72 F8400 ; Z hop
G0 X123.3144 Y166.8832 F8400 ; Move
G1 Z0.42 F8400 ; Z hop return
G1 E0.8 F60 ; Un-retract
G1 X125.3144 Y166.8832 E0.06634 F2700 ; Glyph: 0
G1 X127.3144 Y166.8832 E0.06634 F2700 ; Glyph: 0
G1 X127.3144 Y168.8832 E0.06634 F2700 ; Glyph: 0
G1 X125.3144 Y168.8832 E0.06634 F2700 ; Glyph: 0
G1 X123.3144 Y168.8832 E0.06634 F2700 ; Glyph: 0
G1 X123.3144 Y166.8832 E0.06634 F2700 ; Glyph: 0
G1 E-0.8 F2100 ; Retract
G1 Z0.72 F8400 ; Z hop
G0 X127.3144 Y169.8832 F8400 ; Move
G1 Z0.42 F8400 ; Z hop return
G1 E0.8 F60 ; Un-retract
G1 X126.5644 Y169.8832 E0.02488 F2700 ; Glyph: .
G1 E-0.8 F2100 ; Retract
G1 Z0.72 F8400 ; Z hop
G0 X123.3144 Y170.8832 F8400 ; Move
G1 Z0.42 F8400 ; Z hop return
G1 E0.8 F60 ; Un-retract
G1 X125.3144 Y170.8832 E0.06634 F2700 ; Glyph: 0
G1 X127.3144 Y170.8832 E0.06634 F2700 ; Glyph: 0
G1 X127.3144 Y172.8832 E0.06634 F2700 ; Glyph: 0
G1 X125.3144 Y172.8832 E0.06634 F2700 ; Glyph: 0
G1 X123.3144 Y172.8832 E0.06634 F2700 ; Glyph: 0
G1 X123.3144 Y170.8832 E0.06634 F2700 ; Glyph: 0
G1 E-0.8 F2100 ; Retract
G1 Z0.72 F8400 ; Z hop
G0 X123.3144 Y173.8832 F8400 ; Move
G1 Z0.42 F8400 ; Z hop return
G1 E0.8 F60 ; Un-retract
G1 X123.3144 Y175.8832 E0.06634 F2700 ; Glyph: 2
G1 X125.3144 Y175.8832 E0.06634 F2700 ; Glyph: 2
G1 X125.3144 Y173.8832 E0.06634 F2700 ; Glyph: 2
G1 X127.3144 Y173.8832 E0.06634 F2700 ; Glyph: 2
G1 X127.3144 Y175.8832 E0.06634 F2700 ; Glyph: 2
G1 E-0.8 F2100 ; Retract
G1 Z0.72 F8400 ; Z hop
G0 X130.5172 Y166.8832 F8400 ; Move
G1 Z0.42 F8400 ; Z hop return
G1 E0.8 F60 ; Un-retract
G1 X132.5172 Y166.8832 E0.06634 F2700 ; Glyph: 0
G1 X134.5172 Y166.8832 E0.06634 F2700 ; Glyph: 0
G1 X134.5172 Y168.8832 E0.06634 F2700 ; Glyph: 0
G1 X132.5172 Y168.8832 E0.06634 F2700 ; Glyph: 0
G1 X130.5172 Y168.8832 E0.06634 F2700 ; Glyph: 0
G1 X130.5172 Y166.8832 E0.06634 F2700 ; Glyph: 0
G1 E-0.8 F2100 ; Retract
G1 Z0.72 F8400 ; Z hop
G0 X134.5172 Y169.8832 F8400 ; Move
G1 Z0.42 F8400 ; Z hop return
G1 E0.8 F60 ; Un-retract
G1 X133.7672 Y169.8832 E0.02488 F2700 ; Glyph: .
G1 E-0.8 F2100 ; Retract
G1 Z0.72 F8400 ; Z hop
G0 X130.5172 Y170.8832 F8400 ; Move
G1 Z0.42 F8400 ; Z hop return
G1 E0.8 F60 ; Un-retract
G1 X132.5172 Y170.8832 E0.06634 F2700 ; Glyph: 0
G1 X134.5172 Y170.8832 E0.06634 F2700 ; Glyph: 0
G1 X134.5172 Y172.8832 E0.06634 F2700 ; Glyph: 0
G1 X132.5172 Y172.8832 E0.06634 F2700 ; Glyph: 0
G1 X130.5172 Y172.8832 E0.06634 F2700 ; Glyph: 0
G1 X130.5172 Y170.8832 E0.06634 F2700 ; Glyph: 0
G1 E-0.8 F2100 ; Retract
G1 Z0.72 F8400 ; Z hop
G0 X130.5172 Y173.8832 F8400 ; Move
G1 Z0.42 F8400 ; Z hop return
G1 E0.8 F60 ; Un-retract
G1 X130.5172 Y175.8832 E0.06634 F2700 ; Glyph: 3
G1 X132.5172 Y175.8832 E0.06634 F2700 ; Glyph: 3
G1 X132.5172 Y173.8832 E0.06634 F2700 ; Glyph: 3
G0 X132.5172 Y175.8832 F8400 ; Move
G1 X134.5172 Y175.8832 E0.06634 F2700 ; Glyph: 3
G1 X134.5172 Y173.8832 E0.06634 F2700 ; Glyph: 3
G1 E-0.8 F2100 ; Retract
G1 Z0.72 F8400 ; Z hop
G0 X137.72 Y166.8832 F8400 ; Move
G1 Z0.42 F8400 ; Z hop return
G1 E0.8 F60 ; Un-retract
G1 X139.72 Y166.8832 E0.06634 F2700 ; Glyph: 0
G1 X141.72 Y166.8832 E0.06634 F2700 ; Glyph: 0
G1 X141.72 Y168.8832 E0.06634 F2700 ; Glyph: 0
G1 X139.72 Y168.8832 E0.06634 F2700 ; Glyph: 0
G1 X137.72 Y168.8832 E0.06634 F2700 ; Glyph: 0
G1 X137.72 Y166.8832 E0.06634 F2700 ; Glyph: 0
G1 E-0.8 F2100 ; Retract
G1 Z0.72 F8400 ; Z hop
G0 X141.72 Y169.8832 F8400 ; Move
G1 Z0.42 F8400 ; Z hop return
G1 E0.8 F60 ; Un-retract
G1 X140.97 Y169.8832 E0.02488 F2700 ; Glyph: .
G1 E-0.8 F2100 ; Retract
G1 Z0.72 F8400 ; Z hop
G0 X137.72 Y170.8832 F8400 ; Move
G1 Z0.42 F8400 ; Z hop return
G1 E0.8 F60 ; Un-retract
G1 X139.72 Y170.8832 E0.06634 F2700 ; Glyph: 0
G1 X141.72 Y170.8832 E0.06634 F2700 ; Glyph: 0
G1 X141.72 Y172.8832 E0.06634 F2700 ; Glyph: 0
G1 X139.72 Y172.8832 E0.06634 F2700 ; Glyph: 0
G1 X137.72 Y172.8832 E0.06634 F2700 ; Glyph: 0
G1 X137.72 Y170.8832 E0.06634 F2700 ; Glyph: 0
G1 E-0.8 F2100 ; Retract
G1 Z0.72 F8400 ; Z hop
G0 X137.72 Y175.8832 F8400 ; Move
G1 Z0.42 F8400 ; Z hop return
G1 E0.8 F60 ; Un-retract
G1 X139.72 Y175.8832 E0.06634 F2700 ; Glyph: 4
G1 X141.72 Y175.8832 E0.06634 F2700 ; Glyph: 4
G0 X139.72 Y175.8832 F8400 ; Move
G1 X139.72 Y173.8832 E0.06634 F2700 ; Glyph: 4
G1 X137.72 Y173.8832 E0.06634 F2700 ; Glyph: 4
G1 E-0.8 F2100 ; Retract
G1 Z0.72 F8400 ; Z hop
G0 X144.9228 Y166.8832 F8400 ; Move
G1 Z0.42 F8400 ; Z hop return
G1 E0.8 F60 ; Un-retract
G1 X146.9228 Y166.8832 E0.06634 F2700 ; Glyph: 0
G1 X148.9228 Y166.8832 E0.06634 F2700 ; Glyph: 0
G1 X148.9228 Y168.8832 E0.06634 F2700 ; Glyph: 0
G1 X146.9228 Y168.8832 E0.06634 F2700 ; Glyph: 0
G1 X144.9228 Y168.8832 E0.06634 F2700 ; Glyph: 0
G1 X144.9228 Y166.8832 E0.06634 F2700 ; Glyph: 0
G1 E-0.8 F2100 ; Retract
G1 Z0.72 F8400 ; Z hop
G0 X148.9228 Y169.8832 F8400 ; Move
G1 Z0.42 F8400 ; Z hop return
G1 E0.8 F60 ; Un-retract
G1 X148.1728 Y169.8832 E0.02488 F2700 ; Glyph: .
G1 E-0.8 F2100 ; Retract
G1 Z0.72 F8400 ; Z hop
G0 X144.9228 Y170.8832 F8400 ; Move
G1 Z0.42 F8400 ; Z hop return
G1 E0.8 F60 ; Un-retract
G1 X146.9228 Y170.8832 E0.06634 F2700 ; Glyph: 0
G1 X148.9228 Y170.8832 E0.06634 F2700 ; Glyph: 0
G1 X148.9228 Y172.8832 E0.06634 F2700 ; Glyph: 0
G1 X146.9228 Y172.8832 E0.06634 F2700 ; Glyph: 0
G1 X144.9228 Y172.8832 E0.06634 F2700 ; Glyph: 0
G1 X144.9228 Y170.8832 E0.06634 F2700 ; Glyph: 0
G1 E-0.8 F2100 ; Retract
G1 Z0.72 F8400 ; Z hop
G0 X144.9228 Y175.8832 F8400 ; Move
G1 Z0.42 F8400 ; Z hop return
G1 E0.8 F60 ; Un-retract
G1 X144.9228 Y173.8832 E0.06634 F2700 ; Glyph: 5
G1 X146.9228 Y173.8832 E0.06634 F2700 ; Glyph: 5
G1 X146.9228 Y175.8832 E0.06634 F2700 ; Glyph: 5
G1 X148.9228 Y175.8832 E0.06634 F2700 ; Glyph: 5
G1 X148.9228 Y173.8832 E0.06634 F2700 ; Glyph: 5
G1 E-0.8 F2100 ; Retract
G1 Z0.72 F8400 ; Z hop
G0 X152.1256 Y166.8832 F8400 ; Move
G1 Z0.42 F8400 ; Z hop return
G1 E0.8 F60 ; Un-retract
G1 X154.1256 Y166.8832 E0.06634 F2700 ; Glyph: 0
G1 X156.1256 Y166.8832 E0.06634 F2700 ; Glyph: 0
G1 X156.1256 Y168.8832 E0.06634 F2700 ; Glyph: 0
G1 X154.1256 Y168.8832 E0.06634 F2700 ; Glyph: 0
G1 X152.1256 Y168.8832 E0.06634 F2700 ; Glyph: 0
G1 X152.1256 Y166.8832 E0.06634 F2700 ; Glyph: 0
G1 E-0.8 F2100 ; Retract
G1 Z0.72 F8400 ; Z hop
G0 X156.1256 Y169.8832 F8400 ; Move
G1 Z0.42 F8400 ; Z hop return
G1 E0.8 F60 ; Un-retract
G1 X155.3756 Y169.8832 E0.02488 F2700 ; Glyph: .
G1 E-0.8 F2100 ; Retract
G1 Z0.72 F8400 ; Z hop
G0 X152.1256 Y170.8832 F8400 ; Move
G1 Z0.42 F8400 ; Z hop return
G1 E0.8 F60 ; Un-retract
G1 X154.1256 Y170.8832 E0.06634 F2700 ; Glyph: 0
G1 X156.1256 Y170.8832 E0.06634 F2700 ; Glyph: 0
G1 X156.1256 Y172.8832 E0.06634 F2700 ; Glyph: 0
G1 X154.1256 Y172.8832 E0.06634 F2700 ; Glyph: 0
G1 X152.1256 Y172.8832 E0.06634 F2700 ; Glyph: 0
G1 X152.1256 Y170.8832 E0.06634 F2700 ; Glyph: 0
G1 E-0.8 F2100 ; Retract
G1 Z0.72 F8400 ; Z hop
G0 X152.1256 Y175.8832 F8400 ; Move
G1 Z0.42 F8400 ; Z hop return
G1 E0.8 F60 ; Un-retract
G1 X152.1256 Y173.8832 E0.06634 F2700 ; Glyph: 6
G1 X154.1256 Y173.8832 E0.06634 F2700 ; Glyph: 6
G1 X156.1256 Y173.8832 E0.06634 F2700 ; Glyph: 6
G1 X156.1256 Y175.8832 E0.06634 F2700 ; Glyph: 6
G1 X154.1256 Y175.8832 E0.06634 F2700 ; Glyph: 6
G1 X154.1256 Y173.8832 E0.06634 F2700 ; Glyph: 6
G1 E-0.8 F2100 ; Retract
G1 Z0.72 F8400 ; Z hop
G0 X159.3284 Y166.8832 F8400 ; Move
G1 Z0.42 F8400 ; Z hop return
G1 E0.8 F60 ; Un-retract
G1 X161.3284 Y166.8832 E0.06634 F2700 ; Glyph: 0
G1 X163.3284 Y166.8832 E0.06634 F2700 ; Glyph: 0
G1 X163.3284 Y168.8832 E0.06634 F2700 ; Glyph: 0
G1 X161.3284 Y168.8832 E0.06634 F2700 ; Glyph: 0
G1 X159.3284 Y168.8832 E0.06634 F2700 ; Glyph: 0
G1 X159.3284 Y166.8832 E0.06634 F2700 ; Glyph: 0
G1 E-0.8 F2100 ; Retract
G1 Z0.72 F8400 ; Z hop
G0 X163.3284 Y169.8832 F8400 ; Move
G1 Z0.42 F8400 ; Z hop return
G1 E0.8 F60 ; Un-retract
G1 X162.5784 Y169.8832 E0.02488 F2700 ; Glyph: .
G1 E-0.8 F2100 ; Retract
G1 Z0.72 F8400 ; Z hop
G0 X159.3284 Y170.8832 F8400 ; Move
G1 Z0.42 F8400 ; Z hop return
G1 E0.8 F60 ; Un-retract
G1 X161.3284 Y170.8832 E0.06634 F2700 ; Glyph: 0
G1 X163.3284 Y170.8832 E0.06634 F2700 ; Glyph: 0
G1 X163.3284 Y172.8832 E0.06634 F2700 ; Glyph: 0
G1 X161.3284 Y172.8832 E0.06634 F2700 ; Glyph: 0
G1 X159.3284 Y172.8832 E0.06634 F2700 ; Glyph: 0
G1 X159.3284 Y170.8832 E0.06634 F2700 ; Glyph: 0
G1 E-0.8 F2100 ; Retract
G1 Z0.72 F8400 ; Z hop
G0 X159.3284 Y173.8832 F8400 ; Move
G1 Z0.42 F8400 ; Z hop return
G1 E0.8 F60 ; Un-retract
G1 X159.3284 Y175.8832 E0.06634 F2700 ; Glyph: 7
G1 X161.3284 Y175.8832 E0.06634 F2700 ; Glyph: 7
G1 X163.3284 Y175.8832 E0.06634 F2700 ; Glyph: 7
G1 E-0.8 F2100 ; Retract
G1 Z0.72 F8400 ; Z hop
G0 X166.5311 Y166.8832 F8400 ; Move
G1 Z0.42 F8400 ; Z hop return
G1 E0.8 F60 ; Un-retract
G1 X168.5311 Y166.8832 E0.06634 F2700 ; Glyph: 0
G1 X170.5311 Y166.8832 E0.06634 F2700 ; Glyph: 0
G1 X170.5311 Y168.8832 E0.06634 F2700 ; Glyph: 0
G1 X168.5311 Y168.8832 E0.06634 F2700 ; Glyph: 0
G1 X166.5311 Y168.8832 E0.06634 F2700 ; Glyph: 0
G1 X166.5311 Y166.8832 E0.06634 F2700 ; Glyph: 0
G1 E-0.8 F2100 ; Retract
G1 Z0.72 F8400 ; Z hop
G0 X170.5311 Y169.8832 F8400 ; Move
G1 Z0.42 F8400 ; Z hop return
G1 E0.8 F60 ; Un-retract
G1 X169.7811 Y169.8832 E0.02488 F2700 ; Glyph: .
G1 E-0.8 F2100 ; Retract
G1 Z0.72 F8400 ; Z hop
G0 X166.5311 Y170.8832 F8400 ; Move
G1 Z0.42 F8400 ; Z hop return
G1 E0.8 F60 ; Un-retract
G1 X168.5311 Y170.8832 E0.06634 F2700 ; Glyph: 0
G1 X170.5311 Y170.8832 E0.06634 F2700 ; Glyph: 0
G1 X170.5311 Y172.8832 E0.06634 F2700 ; Glyph: 0
G1 X168.5311 Y172.8832 E0.06634 F2700 ; Glyph: 0
G1 X166.5311 Y172.8832 E0.06634 F2700 ; Glyph: 0
G1 X166.5311 Y170.8832 E0.06634 F2700 ; Glyph: 0
G1 E-0.8 F2100 ; Retract
G1 Z0.72 F8400 ; Z hop
G0 X166.5311 Y173.8832 F8400 ; Move
G1 Z0.42 F8400 ; Z hop return
G1 E0.8 F60 ; Un-retract
G1 X168.5311 Y173.8832 E0.06634 F2700 ; Glyph: 8
G1 X170.5311 Y173.8832 E0.06634 F2700 ; Glyph: 8
G1 X170.5311 Y175.8832 E0.06634 F2700 ; Glyph: 8
G1 X168.5311 Y175.8832 E0.06634 F2700 ; Glyph: 8
G1 X166.5311 Y175.8832 E0.06634 F2700 ; Glyph: 8
G1 X166.5311 Y173.8832 E0.06634 F2700 ; Glyph: 8
G0 X168.5311 Y173.8832 F8400 ; Move
G1 X168.5311 Y175.8832 E0.06634 F2700 ; Glyph: 8
G1 E-0.8 F2100 ; Retract
G1 Z0.72 F8400 ; Z hop
G0 X110.3331 Y123.0068 F8400 ; Move to pattern start

G1 Z0.42 F8400 ; Z hop return
G1 E0.8 F60 ; Un-retract
SET_PRESSURE_ADVANCE ADVANCE=0 ; Set pressure advance
M117 PA 0
G1 X131.5463 Y144.22 E0.99515 F3600 ; Print pattern wall
G1 X110.3331 Y165.4332 E0.99515 F3600 ; Print pattern wall
G1 E-0.8 F2100 ; Retract
G1 Z0.72 F8400 ; Z hop
G0 X110.9088 Y123.0068 F8400 ; Move to start next pattern wall
G1 Z0.42 F8400 ; Z hop return
G1 E0.8 F60 ; Un-retract
G1 X132.122 Y144.22 E0.99515 F3600 ; Print pattern wall
G1 X110.9088 Y165.4332 E0.99515 F3600 ; Print pattern wall
G1 E-0.8 F2100 ; Retract
G1 Z0.72 F8400 ; Z hop
G0 X111.4845 Y123.0068 F8400 ; Move to start next pattern wall
G1 Z0.42 F8400 ; Z hop return
G1 E0.8 F60 ; Un-retract
G1 X132.6977 Y144.22 E0.99515 F3600 ; Print pattern wall
G1 X111.4845 Y165.4332 E0.99515 F3600 ; Print pattern wall
G1 E-0.8 F2100 ; Retract
G1 Z0.72 F8400 ; Z hop
G0 X113.9345 Y123.0068 F8400 ; Move to next pattern
G1 Z0.42 F8400 ; Z hop return
G1 E0.8 F60 ; Un-retract
SET_PRESSURE_ADVANCE ADVANCE=0.005 ; Set pressure advance
M117 PA 0.005
G1 X135.1477 Y144.22 E0.99515 F3600 ; Print pattern wall
G1 X113.9345 Y165.4332 E0.99515 F3600 ; Print pattern wall
G1 E-0.8 F2100 ; Retract
G1 Z0.72 F8400 ; Z hop
G0 X114.5102 Y123.0068 F8400 ; Move to start next pattern wall
G1 Z0.42 F8400 ; Z hop return
G1 E0.8 F60 ; Un-retract
G1 X135.7234 Y144.22 E0.99515 F3600 ; Print pattern wall
G1 X114.5102 Y165.4332 E0.99515 F3600 ; Print pattern wall
G1 E-0.8 F2100 ; Retract
G1 Z0.72 F8400 ; Z hop
G0 X115.0859 Y123.0068 F8400 ; Move to start next pattern wall
G1 Z0.42 F8400 ; Z hop return
G1 E0.8 F60 ; Un-retract
G1 X136.2991 Y144.22 E0.99515 F3600 ; Print pattern wall
G1 X115.0859 Y165.4332 E0.99515 F3600 ; Print pattern wall
G1 E-0.8 F2100 ; Retract
G1 Z0.72 F8400 ; Z hop
G0 X117.5359 Y123.0068 F8400 ; Move to next pattern
G1 Z0.42 F8400 ; Z hop return
G1 E0.8 F60 ; Un-retract
SET_PRESSURE_ADVANCE ADVANCE=0.01 ; Set pressure advance
M117 PA 0.01
G1 X138.7491 Y144.22 E0.99515 F3600 ; Print pattern wall
G1 X117.5359 Y165.4332 E0.99515 F3600 ; Print pattern wall
G1 E-0.8 F2100 ; Retract
G1 Z0.72 F8400 ; Z hop
G0 X118.1116 Y123.0068 F8400 ; Move to start next pattern wall
G1 Z0.42 F8400 ; Z hop return
G1 E0.8 F60 ; Un-retract
G1 X139.3248 Y144.22 E0.99515 F3600 ; Print pattern wall
G1 X118.1116 Y165.4332 E0.99515 F3600 ; Print pattern wall
G1 E-0.8 F2100 ; Retract
G1 Z0.72 F8400 ; Z hop
G0 X118.6873 Y123.0068 F8400 ; Move to start next pattern wall
G1 Z0.42 F8400 ; Z hop return
G1 E0.8 F60 ; Un-retract
G1 X139.9005 Y144.22 E0.99515 F3600 ; Print pattern wall
G1 X118.6873 Y165.4332 E0.99515 F3600 ; Print pattern wall
G1 E-0.8 F2100 ; Retract
G1 Z0.72 F8400 ; Z hop
G0 X121.1373 Y123.0068 F8400 ; Move to next pattern
G1 Z0.42 F8400 ; Z hop return
G1 E0.8 F60 ; Un-retract
SET_PRESSURE_ADVANCE ADVANCE=0.015 ; Set pressure advance
M117 PA 0.015
G1 X142.3505 Y144.22 E0.99515 F3600 ; Print pattern wall
G1 X121.1373 Y165.4332 E0.99515 F3600 ; Print pattern wall
G1 E-0.8 F2100 ; Retract
G1 Z0.72 F8400 ; Z hop
G0 X121.713 Y123.0068 F8400 ; Move to start next pattern wall
G1 Z0.42 F8400 ; Z hop return
G1 E0.8 F60 ; Un-retract
G1 X142.9262 Y144.22 E0.99515 F3600 ; Print pattern wall
G1 X121.713 Y165.4332 E0.99515 F3600 ; Print pattern wall
G1 E-0.8 F2100 ; Retract
G1 Z0.72 F8400 ; Z hop
G0 X122.2887 Y123.0068 F8400 ; Move to start next pattern wall
G1 Z0.42 F8400 ; Z hop return
G1 E0.8 F60 ; Un-retract
G1 X143.5019 Y144.22 E0.99515 F3600 ; Print pattern wall
G1 X122.2887 Y165.4332 E0.99515 F3600 ; Print pattern wall
G1 E-0.8 F2100 ; Retract
G1 Z0.72 F8400 ; Z hop
G0 X124.7387 Y123.0068 F8400 ; Move to next pattern
G1 Z0.42 F8400 ; Z hop return
G1 E0.8 F60 ; Un-retract
SET_PRESSURE_ADVANCE ADVANCE=0.02 ; Set pressure advance
M117 PA 0.02
G1 X145.9519 Y144.22 E0.99515 F3600 ; Print pattern wall
G1 X124.7387 Y165.4332 E0.99515 F3600 ; Print pattern wall
G1 E-0.8 F2100 ; Retract
G1 Z0.72 F8400 ; Z hop
G0 X125.3144 Y123.0068 F8400 ; Move to start next pattern wall
G1 Z0.42 F8400 ; Z hop return
G1 E0.8 F60 ; Un-retract
G1 X146.5276 Y144.22 E0.99515 F3600 ; Print pattern wall
G1 X125.3144 Y165.4332 E0.99515 F3600 ; Print pattern wall
G1 E-0.8 F2100 ; Retract
G1 Z0.72 F8400 ; Z hop
G0 X125.8901 Y123.0068 F8400 ; Move to start next pattern wall
G1 Z0.42 F8400 ; Z hop return
G1 E0.8 F60 ; Un-retract
G1 X147.1033 Y144.22 E0.99515 F3600 ; Print pattern wall
G1 X125.8901 Y165.4332 E0.99515 F3600 ; Print pattern wall
G1 E-0.8 F2100 ; Retract
G1 Z0.72 F8400 ; Z hop
G0 X128.3401 Y123.0068 F8400 ; Move to next pattern
G1 Z0.42 F8400 ; Z hop return
G1 E0.8 F60 ; Un-retract
SET_PRESSURE_ADVANCE ADVANCE=0.025 ; Set pressure advance
M117 PA 0.025
G1 X149.5533 Y144.22 E0.99515 F3600 ; Print pattern wall
G1 X128.3401 Y165.4332 E0.99515 F3600 ; Print pattern wall
G1 E-0.8 F2100 ; Retract
G1 Z0.72 F8400 ; Z hop
G0 X128.9158 Y123.0068 F8400 ; Move to start next pattern wall
G1 Z0.42 F8400 ; Z hop return
G1 E0.8 F60 ; Un-retract
G1 X150.129 Y144.22 E0.99515 F3600 ; Print pattern wall
G1 X128.9158 Y165.4332 E0.99515 F3600 ; Print pattern wall
G1 E-0.8 F2100 ; Retract
G1 Z0.72 F8400 ; Z hop
G0 X129.4915 Y123.0068 F8400 ; Move to start next pattern wall
G1 Z0.42 F8400 ; Z hop return
G1 E0.8 F60 ; Un-retract
G1 X150.7047 Y144.22 E0.99515 F3600 ; Print pattern wall
G1 X129.4915 Y165.4332 E0.99515 F3600 ; Print pattern wall
G1 E-0.8 F2100 ; Retract
G1 Z0.72 F8400 ; Z hop
G0 X131.9415 Y123.0068 F8400 ; Move to next pattern
G1 Z0.42 F8400 ; Z hop return
G1 E0.8 F60 ; Un-retract
SET_PRESSURE_ADVANCE ADVANCE=0.03 ; Set pressure advance
M117 PA 0.03
G1 X153.1547 Y144.22 E0.99515 F3600 ; Print pattern wall
G1 X131.9415 Y165.4332 E0.99515 F3600 ; Print pattern wall
G1 E-0.8 F2100 ; Retract
G1 Z0.72 F8400 ; Z hop
G0 X132.5172 Y123.0068 F8400 ; Move to start next pattern wall
G1 Z0.42 F8400 ; Z hop return
G1 E0.8 F60 ; Un-retract
G1 X153.7304 Y144.22 E0.99515 F3600 ; Print pattern wall
G1 X132.5172 Y165.4332 E0.99515 F3600 ; Print pattern wall
G1 E-0.8 F2100 ; Retract
G1 Z0.72 F8400 ; Z hop
G0 X133.0929 Y123.0068 F8400 ; Move to start next pattern wall
G1 Z0.42 F8400 ; Z hop return
G1 E0.8 F60 ; Un-retract
G1 X154.3061 Y144.22 E0.99515 F3600 ; Print pattern wall
G1 X133.0929 Y165.4332 E0.99515 F3600 ; Print pattern wall
G1 E-0.8 F2100 ; Retract
G1 Z0.72 F8400 ; Z hop
G0 X135.5429 Y123.0068 F8400 ; Move to next pattern
G1 Z0.42 F8400 ; Z hop return
G1 E0.8 F60 ; Un-retract
SET_PRESSURE_ADVANCE ADVANCE=0.035 ; Set pressure advance
M117 PA 0.035
G1 X156.7561 Y144.22 E0.99515 F3600 ; Print pattern wall
G1 X135.5429 Y165.4332 E0.99515 F3600 ; Print pattern wall
G1 E-0.8 F2100 ; Retract
G1 Z0.72 F8400 ; Z hop
G0 X136.1186 Y123.0068 F8400 ; Move to start next pattern wall
G1 Z0.42 F8400 ; Z hop return
G1 E0.8 F60 ; Un-retract
G1 X157.3318 Y144.22 E0.99515 F3600 ; Print pattern wall
G1 X136.1186 Y165.4332 E0.99515 F3600 ; Print pattern wall
G1 E-0.8 F2100 ; Retract
G1 Z0.72 F8400 ; Z hop
G0 X136.6943 Y123.0068 F8400 ; Move to start next pattern wall
G1 Z0.42 F8400 ; Z hop return
G1 E0.8 F60 ; Un-retract
G1 X157.9075 Y144.22 E0.99515 F3600 ; Print pattern wall
G1 X136.6943 Y165.4332 E0.99515 F3600 ; Print pattern wall
G1 E-0.8 F2100 ; Retract
G1 Z0.72 F8400 ; Z hop
G0 X139.1443 Y123.0068 F8400 ; Move to next pattern
G1 Z0.42 F8400 ; Z hop return
G1 E0.8 F60 ; Un-retract
SET_PRESSURE_ADVANCE ADVANCE=0.04 ; Set pressure advance
M117 PA 0.04
G1 X160.3575 Y144.22 E0.99515 F3600 ; Print pattern wall
G1 X139.1443 Y165.4332 E0.99515 F3600 ; Print pattern wall
G1 E-0.8 F2100 ; Retract
G1 Z0.72 F8400 ; Z hop
G0 X139.72 Y123.0068 F8400 ; Move to start next pattern wall
G1 Z0.42 F8400 ; Z hop return
G1 E0.8 F60 ; Un-retract
G1 X160.9332 Y144.22 E0.99515 F3600 ; Print pattern wall
G1 X139.72 Y165.4332 E0.99515 F3600 ; Print pattern wall
G1 E-0.8 F2100 ; Retract
G1 Z0.72 F8400 ; Z hop
G0 X140.2957 Y123.0068 F8400 ; Move to start next pattern wall
G1 Z0.42 F8400 ; Z hop return
G1 E0.8 F60 ; Un-retract
G1 X161.5089 Y144.22 E0.99515 F3600 ; Print pattern wall
G1 X140.2957 Y165.4332 E0.99515 F3600 ; Print pattern wall
G1 E-0.8 F2100 ; Retract
G1 Z0.72 F8400 ; Z hop
G0 X142.7457 Y123.0068 F8400 ; Move to next pattern
G1 Z0.42 F8400 ; Z hop return
G1 E0.8 F60 ; Un-retract
SET_PRESSURE_ADVANCE ADVANCE=0.045 ; Set pressure advance
M117 PA 0.045
G1 X163.9589 Y144.22 E0.99515 F3600 ; Print pattern wall
G1 X142.7457 Y165.4332 E0.99515 F3600 ; Print pattern wall
G1 E-0.8 F2100 ; Retract
G1 Z0.72 F8400 ; Z hop
G0 X143.3214 Y123.0068 F8400 ; Move to start next pattern wall
G1 Z0.42 F8400 ; Z hop return
G1 E0.8 F60 ; Un-retract
G1 X164.5346 Y144.22 E0.99515 F3600 ; Print pattern wall
G1 X143.3214 Y165.4332 E0.99515 F3600 ; Print pattern wall
G1 E-0.8 F2100 ; Retract
G1 Z0.72 F8400 ; Z hop
G0 X143.8971 Y123.0068 F8400 ; Move to start next pattern wall
G1 Z0.42 F8400 ; Z hop return
G1 E0.8 F60 ; Un-retract
G1 X165.1103 Y144.22 E0.99515 F3600 ; Print pattern wall
G1 X143.8971 Y165.4332 E0.99515 F3600 ; Print pattern wall
G1 E-0.8 F2100 ; Retract
G1 Z0.72 F8400 ; Z hop
G0 X146.3471 Y123.0068 F8400 ; Move to next pattern
G1 Z0.42 F8400 ; Z hop return
G1 E0.8 F60 ; Un-retract
SET_PRESSURE_ADVANCE ADVANCE=0.05 ; Set pressure advance
M117 PA 0.05
G1 X167.5603 Y144.22 E0.99515 F3600 ; Print pattern wall
G1 X146.3471 Y165.4332 E0.99515 F3600 ; Print pattern wall
G1 E-0.8 F2100 ; Retract
G1 Z0.72 F8400 ; Z hop
G0 X146.9228 Y123.0068 F8400 ; Move to start next pattern wall
G1 Z0.42 F8400 ; Z hop return
G1 E0.8 F60 ; Un-retract
G1 X168.136 Y144.22 E0.99515 F3600 ; Print pattern wall
G1 X146.9228 Y165.4332 E0.99515 F3600 ; Print pattern wall
G1 E-0.8 F2100 ; Retract
G1 Z0.72 F8400 ; Z hop
G0 X147.4985 Y123.0068 F8400 ; Move to start next pattern wall
G1 Z0.42 F8400 ; Z hop return
G1 E0.8 F60 ; Un-retract
G1 X168.7117 Y144.22 E0.99515 F3600 ; Print pattern wall
G1 X147.4985 Y165.4332 E0.99515 F3600 ; Print pattern wall
G1 E-0.8 F2100 ; Retract
G1 Z0.72 F8400 ; Z hop
G0 X149.9485 Y123.0068 F8400 ; Move to next pattern
G1 Z0.42 F8400 ; Z hop return
G1 E0.8 F60 ; Un-retract
SET_PRESSURE_ADVANCE ADVANCE=0.055 ; Set pressure advance
M117 PA 0.055
G1 X171.1617 Y144.22 E0.99515 F3600 ; Print pattern wall
G1 X149.9485 Y165.4332 E0.99515 F3600 ; Print pattern wall
G1 E-0.8 F2100 ; Retract
G1 Z0.72 F8400 ; Z hop
G0 X150.5242 Y123.0068 F8400 ; Move to start next pattern wall
G1 Z0.42 F8400 ; Z hop return
G1 E0.8 F60 ; Un-retract
G1 X171.7374 Y144.22 E0.99515 F3600 ; Print pattern wall
G1 X150.5242 Y165.4332 E0.99515 F3600 ; Print pattern wall
G1 E-0.8 F2100 ; Retract
G1 Z0.72 F8400 ; Z hop
G0 X151.0999 Y123.0068 F8400 ; Move to start next pattern wall
G1 Z0.42 F8400 ; Z hop return
G1 E0.8 F60 ; Un-retract
G1 X172.3131 Y144.22 E0.99515 F3600 ; Print pattern wall
G1 X151.0999 Y165.4332 E0.99515 F3600 ; Print pattern wall
G1 E-0.8 F2100 ; Retract
G1 Z0.72 F8400 ; Z hop
G0 X153.5499 Y123.0068 F8400 ; Move to next pattern
G1 Z0.42 F8400 ; Z hop return
G1 E0.8 F60 ; Un-retract
SET_PRESSURE_ADVANCE ADVANCE=0.06 ; Set pressure advance
M117 PA 0.06
G1 X174.7631 Y144.22 E0.99515 F3600 ; Print pattern wall
G1 X153.5499 Y165.4332 E0.99515 F3600 ; Print pattern wall
G1 E-0.8 F2100 ; Retract
G1 Z0.72 F8400 ; Z hop
G0 X154.1256 Y123.0068 F8400 ; Move to start next pattern wall
G1 Z0.42 F8400 ; Z hop return
G1 E0.8 F60 ; Un-retract
G1 X175.3388 Y144.22 E0.99515 F3600 ; Print pattern wall
G1 X154.1256 Y165.4332 E0.99515 F3600 ; Print pattern wall
G1 E-0.8 F2100 ; Retract
G1 Z0.72 F8400 ; Z hop
G0 X154.7013 Y123.0068 F8400 ; Move to start next pattern wall
G1 Z0.42 F8400 ; Z hop return
G1 E0.8 F60 ; Un-retract
G1 X175.9145 Y144.22 E0.99515 F3600 ; Print pattern wall
G1 X154.7013 Y165.4332 E0.99515 F3600 ; Print pattern wall
G1 E-0.8 F2100 ; Retract
G1 Z0.72 F8400 ; Z hop
G0 X157.1513 Y123.0068 F8400 ; Move to next pattern
G1 Z0.42 F8400 ; Z hop return
G1 E0.8 F60 ; Un-retract
SET_PRESSURE_ADVANCE ADVANCE=0.065 ; Set pressure advance
M117 PA 0.065
G1 X178.3645 Y144.22 E0.99515 F3600 ; Print pattern wall
G1 X157.1513 Y165.4332 E0.99515 F3600 ; Print pattern wall
G1 E-0.8 F2100 ; Retract
G1 Z0.72 F8400 ; Z hop
G0 X157.727 Y123.0068 F8400 ; Move to start next pattern wall
G1 Z0.42 F8400 ; Z hop return
G1 E0.8 F60 ; Un-retract
G1 X178.9402 Y144.22 E0.99515 F3600 ; Print pattern wall
G1 X157.727 Y165.4332 E0.99515 F3600 ; Print pattern wall
G1 E-0.8 F2100 ; Retract
G1 Z0.72 F8400 ; Z hop
G0 X158.3027 Y123.0068 F8400 ; Move to start next pattern wall
G1 Z0.42 F8400 ; Z hop return
G1 E0.8 F60 ; Un-retract
G1 X179.5159 Y144.22 E0.99515 F3600 ; Print pattern wall
G1 X158.3027 Y165.4332 E0.99515 F3600 ; Print pattern wall
G1 E-0.8 F2100 ; Retract
G1 Z0.72 F8400 ; Z hop
G0 X160.7527 Y123.0068 F8400 ; Move to next pattern
G1 Z0.42 F8400 ; Z hop return
G1 E0.8 F60 ; Un-retract
SET_PRESSURE_ADVANCE ADVANCE=0.07 ; Set pressure advance
M117 PA 0.07
G1 X181.9659 Y144.22 E0.99515 F3600 ; Print pattern wall
G1 X160.7527 Y165.4332 E0.99515 F3600 ; Print pattern wall
G1 E-0.8 F2100 ; Retract
G1 Z0.72 F8400 ; Z hop
G0 X161.3284 Y123.0068 F8400 ; Move to start next pattern wall
G1 Z0.42 F8400 ; Z hop return
G1 E0.8 F60 ; Un-retract
G1 X182.5416 Y144.22 E0.99515 F3600 ; Print pattern wall
G1 X161.3284 Y165.4332 E0.99515 F3600 ; Print pattern wall
G1 E-0.8 F2100 ; Retract
G1 Z0.72 F8400 ; Z hop
G0 X161.9041 Y123.0068 F8400 ; Move to start next pattern wall
G1 Z0.42 F8400 ; Z hop return
G1 E0.8 F60 ; Un-retract
G1 X183.1173 Y144.22 E0.99515 F3600 ; Print pattern wall
G1 X161.9041 Y165.4332 E0.99515 F3600 ; Print pattern wall
G1 E-0.8 F2100 ; Retract
G1 Z0.72 F8400 ; Z hop
G0 X164.3541 Y123.0068 F8400 ; Move to next pattern
G1 Z0.42 F8400 ; Z hop return
G1 E0.8 F60 ; Un-retract
SET_PRESSURE_ADVANCE ADVANCE=0.075 ; Set pressure advance
M117 PA 0.075
G1 X185.5673 Y144.22 E0.99515 F3600 ; Print pattern wall
G1 X164.3541 Y165.4332 E0.99515 F3600 ; Print pattern wall
G1 E-0.8 F2100 ; Retract
G1 Z0.72 F8400 ; Z hop
G0 X164.9297 Y123.0068 F8400 ; Move to start next pattern wall
G1 Z0.42 F8400 ; Z hop return
G1 E0.8 F60 ; Un-retract
G1 X186.143 Y144.22 E0.99515 F3600 ; Print pattern wall
G1 X164.9297 Y165.4332 E0.99515 F3600 ; Print pattern wall
G1 E-0.8 F2100 ; Retract
G1 Z0.72 F8400 ; Z hop
G0 X165.5054 Y123.0068 F8400 ; Move to start next pattern wall
G1 Z0.42 F8400 ; Z hop return
G1 E0.8 F60 ; Un-retract
G1 X186.7187 Y144.22 E0.99515 F3600 ; Print pattern wall
G1 X165.5054 Y165.4332 E0.99515 F3600 ; Print pattern wall
G1 E-0.8 F2100 ; Retract
G1 Z0.72 F8400 ; Z hop
G0 X167.9554 Y123.0068 F8400 ; Move to next pattern
G1 Z0.42 F8400 ; Z hop return
G1 E0.8 F60 ; Un-retract
SET_PRESSURE_ADVANCE ADVANCE=0.08 ; Set pressure advance
M117 PA 0.08
G1 X189.1687 Y144.22 E0.99515 F3600 ; Print pattern wall
G1 X167.9554 Y165.4332 E0.99515 F3600 ; Print pattern wall
G1 E-0.8 F2100 ; Retract
G1 Z0.72 F8400 ; Z hop
G0 X168.5311 Y123.0068 F8400 ; Move to start next pattern wall
G1 Z0.42 F8400 ; Z hop return
G1 E0.8 F60 ; Un-retract
G1 X189.7443 Y144.22 E0.99515 F3600 ; Print pattern wall
G1 X168.5311 Y165.4332 E0.99515 F3600 ; Print pattern wall
G1 E-0.8 F2100 ; Retract
G1 Z0.72 F8400 ; Z hop
G0 X169.1068 Y123.0068 F8400 ; Move to start next pattern wall
G1 Z0.42 F8400 ; Z hop return
G1 E0.8 F60 ; Un-retract
G1 X190.32 Y144.22 E0.99515 F3600 ; Print pattern wall
G1 X169.1068 Y165.4332 E0.99515 F3600 ; Print pattern wall
G1 E-0.8 F2100 ; Retract
G1 Z0.72 F8400 ; Z hop
G0 X110.3331 Y123.0068 F8400 ; Move back to start position
G1 Z0.42 F8400 ; Z hop return
G1 E0.8 F60 ; Un-retract
G0 Z0.62 F8400 ; Move to layer height
SET_PRESSURE_ADVANCE ADVANCE=0 ; Set pressure advance
M117 PA 0
G1 X131.5463 Y144.22 E0.99515 F3600 ; Print pattern wall
G1 X110.3331 Y165.4332 E0.99515 F3600 ; Print pattern wall
G1 E-0.8 F2100 ; Retract
G1 Z0.92 F8400 ; Z hop
G0 X110.9088 Y123.0068 F8400 ; Move to start next pattern wall
G1 Z0.62 F8400 ; Z hop return
G1 E0.8 F60 ; Un-retract
G1 X132.122 Y144.22 E0.99515 F3600 ; Print pattern wall
G1 X110.9088 Y165.4332 E0.99515 F3600 ; Print pattern wall
G1 E-0.8 F2100 ; Retract
G1 Z0.92 F8400 ; Z hop
G0 X111.4845 Y123.0068 F8400 ; Move to start next pattern wall
G1 Z0.62 F8400 ; Z hop return
G1 E0.8 F60 ; Un-retract
G1 X132.6977 Y144.22 E0.99515 F3600 ; Print pattern wall
G1 X111.4845 Y165.4332 E0.99515 F3600 ; Print pattern wall
G1 E-0.8 F2100 ; Retract
G1 Z0.92 F8400 ; Z hop
G0 X113.9345 Y123.0068 F8400 ; Move to next pattern
G1 Z0.62 F8400 ; Z hop return
G1 E0.8 F60 ; Un-retract
SET_PRESSURE_ADVANCE ADVANCE=0.005 ; Set pressure advance
M117 PA 0.005
G1 X135.1477 Y144.22 E0.99515 F3600 ; Print pattern wall
G1 X113.9345 Y165.4332 E0.99515 F3600 ; Print pattern wall
G1 E-0.8 F2100 ; Retract
G1 Z0.92 F8400 ; Z hop
G0 X114.5102 Y123.0068 F8400 ; Move to start next pattern wall
G1 Z0.62 F8400 ; Z hop return
G1 E0.8 F60 ; Un-retract
G1 X135.7234 Y144.22 E0.99515 F3600 ; Print pattern wall
G1 X114.5102 Y165.4332 E0.99515 F3600 ; Print pattern wall
G1 E-0.8 F2100 ; Retract
G1 Z0.92 F8400 ; Z hop
G0 X115.0859 Y123.0068 F8400 ; Move to start next pattern wall
G1 Z0.62 F8400 ; Z hop return
G1 E0.8 F60 ; Un-retract
G1 X136.2991 Y144.22 E0.99515 F3600 ; Print pattern wall
G1 X115.0859 Y165.4332 E0.99515 F3600 ; Print pattern wall
G1 E-0.8 F2100 ; Retract
G1 Z0.92 F8400 ; Z hop
G0 X117.5359 Y123.0068 F8400 ; Move to next pattern
G1 Z0.62 F8400 ; Z hop return
G1 E0.8 F60 ; Un-retract
SET_PRESSURE_ADVANCE ADVANCE=0.01 ; Set pressure advance
M117 PA 0.01
G1 X138.7491 Y144.22 E0.99515 F3600 ; Print pattern wall
G1 X117.5359 Y165.4332 E0.99515 F3600 ; Print pattern wall
G1 E-0.8 F2100 ; Retract
G1 Z0.92 F8400 ; Z hop
G0 X118.1116 Y123.0068 F8400 ; Move to start next pattern wall
G1 Z0.62 F8400 ; Z hop return
G1 E0.8 F60 ; Un-retract
G1 X139.3248 Y144.22 E0.99515 F3600 ; Print pattern wall
G1 X118.1116 Y165.4332 E0.99515 F3600 ; Print pattern wall
G1 E-0.8 F2100 ; Retract
G1 Z0.92 F8400 ; Z hop
G0 X118.6873 Y123.0068 F8400 ; Move to start next pattern wall
G1 Z0.62 F8400 ; Z hop return
G1 E0.8 F60 ; Un-retract
G1 X139.9005 Y144.22 E0.99515 F3600 ; Print pattern wall
G1 X118.6873 Y165.4332 E0.99515 F3600 ; Print pattern wall
G1 E-0.8 F2100 ; Retract
G1 Z0.92 F8400 ; Z hop
G0 X121.1373 Y123.0068 F8400 ; Move to next pattern
G1 Z0.62 F8400 ; Z hop return
G1 E0.8 F60 ; Un-retract
SET_PRESSURE_ADVANCE ADVANCE=0.015 ; Set pressure advance
M117 PA 0.015
G1 X142.3505 Y144.22 E0.99515 F3600 ; Print pattern wall
G1 X121.1373 Y165.4332 E0.99515 F3600 ; Print pattern wall
G1 E-0.8 F2100 ; Retract
G1 Z0.92 F8400 ; Z hop
G0 X121.713 Y123.0068 F8400 ; Move to start next pattern wall
G1 Z0.62 F8400 ; Z hop return
G1 E0.8 F60 ; Un-retract
G1 X142.9262 Y144.22 E0.99515 F3600 ; Print pattern wall
G1 X121.713 Y165.4332 E0.99515 F3600 ; Print pattern wall
G1 E-0.8 F2100 ; Retract
G1 Z0.92 F8400 ; Z hop
G0 X122.2887 Y123.0068 F8400 ; Move to start next pattern wall
G1 Z0.62 F8400 ; Z hop return
G1 E0.8 F60 ; Un-retract
G1 X143.5019 Y144.22 E0.99515 F3600 ; Print pattern wall
G1 X122.2887 Y165.4332 E0.99515 F3600 ; Print pattern wall
G1 E-0.8 F2100 ; Retract
G1 Z0.92 F8400 ; Z hop
G0 X124.7387 Y123.0068 F8400 ; Move to next pattern
G1 Z0.62 F8400 ; Z hop return
G1 E0.8 F60 ; Un-retract
SET_PRESSURE_ADVANCE ADVANCE=0.02 ; Set pressure advance
M117 PA 0.02
G1 X145.9519 Y144.22 E0.99515 F3600 ; Print pattern wall
G1 X124.7387 Y165.4332 E0.99515 F3600 ; Print pattern wall
G1 E-0.8 F2100 ; Retract
G1 Z0.92 F8400 ; Z hop
G0 X125.3144 Y123.0068 F8400 ; Move to start next pattern wall
G1 Z0.62 F8400 ; Z hop return
G1 E0.8 F60 ; Un-retract
G1 X146.5276 Y144.22 E0.99515 F3600 ; Print pattern wall
G1 X125.3144 Y165.4332 E0.99515 F3600 ; Print pattern wall
G1 E-0.8 F2100 ; Retract
G1 Z0.92 F8400 ; Z hop
G0 X125.8901 Y123.0068 F8400 ; Move to start next pattern wall
G1 Z0.62 F8400 ; Z hop return
G1 E0.8 F60 ; Un-retract
G1 X147.1033 Y144.22 E0.99515 F3600 ; Print pattern wall
G1 X125.8901 Y165.4332 E0.99515 F3600 ; Print pattern wall
G1 E-0.8 F2100 ; Retract
G1 Z0.92 F8400 ; Z hop
G0 X128.3401 Y123.0068 F8400 ; Move to next pattern
G1 Z0.62 F8400 ; Z hop return
G1 E0.8 F60 ; Un-retract
SET_PRESSURE_ADVANCE ADVANCE=0.025 ; Set pressure advance
M117 PA 0.025
G1 X149.5533 Y144.22 E0.99515 F3600 ; Print pattern wall
G1 X128.3401 Y165.4332 E0.99515 F3600 ; Print pattern wall
G1 E-0.8 F2100 ; Retract
G1 Z0.92 F8400 ; Z hop
G0 X128.9158 Y123.0068 F8400 ; Move to start next pattern wall
G1 Z0.62 F8400 ; Z hop return
G1 E0.8 F60 ; Un-retract
G1 X150.129 Y144.22 E0.99515 F3600 ; Print pattern wall
G1 X128.9158 Y165.4332 E0.99515 F3600 ; Print pattern wall
G1 E-0.8 F2100 ; Retract
G1 Z0.92 F8400 ; Z hop
G0 X129.4915 Y123.0068 F8400 ; Move to start next pattern wall
G1 Z0.62 F8400 ; Z hop return
G1 E0.8 F60 ; Un-retract
G1 X150.7047 Y144.22 E0.99515 F3600 ; Print pattern wall
G1 X129.4915 Y165.4332 E0.99515 F3600 ; Print pattern wall
G1 E-0.8 F2100 ; Retract
G1 Z0.92 F8400 ; Z hop
G0 X131.9415 Y123.0068 F8400 ; Move to next pattern
G1 Z0.62 F8400 ; Z hop return
G1 E0.8 F60 ; Un-retract
SET_PRESSURE_ADVANCE ADVANCE=0.03 ; Set pressure advance
M117 PA 0.03
G1 X153.1547 Y144.22 E0.99515 F3600 ; Print pattern wall
G1 X131.9415 Y165.4332 E0.99515 F3600 ; Print pattern wall
G1 E-0.8 F2100 ; Retract
G1 Z0.92 F8400 ; Z hop
G0 X132.5172 Y123.0068 F8400 ; Move to start next pattern wall
G1 Z0.62 F8400 ; Z hop return
G1 E0.8 F60 ; Un-retract
G1 X153.7304 Y144.22 E0.99515 F3600 ; Print pattern wall
G1 X132.5172 Y165.4332 E0.99515 F3600 ; Print pattern wall
G1 E-0.8 F2100 ; Retract
G1 Z0.92 F8400 ; Z hop
G0 X133.0929 Y123.0068 F8400 ; Move to start next pattern wall
G1 Z0.62 F8400 ; Z hop return
G1 E0.8 F60 ; Un-retract
G1 X154.3061 Y144.22 E0.99515 F3600 ; Print pattern wall
G1 X133.0929 Y165.4332 E0.99515 F3600 ; Print pattern wall
G1 E-0.8 F2100 ; Retract
G1 Z0.92 F8400 ; Z hop
G0 X135.5429 Y123.0068 F8400 ; Move to next pattern
G1 Z0.62 F8400 ; Z hop return
G1 E0.8 F60 ; Un-retract
SET_PRESSURE_ADVANCE ADVANCE=0.035 ; Set pressure advance
M117 PA 0.035
G1 X156.7561 Y144.22 E0.99515 F3600 ; Print pattern wall
G1 X135.5429 Y165.4332 E0.99515 F3600 ; Print pattern wall
G1 E-0.8 F2100 ; Retract
G1 Z0.92 F8400 ; Z hop
G0 X136.1186 Y123.0068 F8400 ; Move to start next pattern wall
G1 Z0.62 F8400 ; Z hop return
G1 E0.8 F60 ; Un-retract
G1 X157.3318 Y144.22 E0.99515 F3600 ; Print pattern wall
G1 X136.1186 Y165.4332 E0.99515 F3600 ; Print pattern wall
G1 E-0.8 F2100 ; Retract
G1 Z0.92 F8400 ; Z hop
G0 X136.6943 Y123.0068 F8400 ; Move to start next pattern wall
G1 Z0.62 F8400 ; Z hop return
G1 E0.8 F60 ; Un-retract
G1 X157.9075 Y144.22 E0.99515 F3600 ; Print pattern wall
G1 X136.6943 Y165.4332 E0.99515 F3600 ; Print pattern wall
G1 E-0.8 F2100 ; Retract
G1 Z0.92 F8400 ; Z hop
G0 X139.1443 Y123.0068 F8400 ; Move to next pattern
G1 Z0.62 F8400 ; Z hop return
G1 E0.8 F60 ; Un-retract
SET_PRESSURE_ADVANCE ADVANCE=0.04 ; Set pressure advance
M117 PA 0.04
G1 X160.3575 Y144.22 E0.99515 F3600 ; Print pattern wall
G1 X139.1443 Y165.4332 E0.99515 F3600 ; Print pattern wall
G1 E-0.8 F2100 ; Retract
G1 Z0.92 F8400 ; Z hop
G0 X139.72 Y123.0068 F8400 ; Move to start next pattern wall
G1 Z0.62 F8400 ; Z hop return
G1 E0.8 F60 ; Un-retract
G1 X160.9332 Y144.22 E0.99515 F3600 ; Print pattern wall
G1 X139.72 Y165.4332 E0.99515 F3600 ; Print pattern wall
G1 E-0.8 F2100 ; Retract
G1 Z0.92 F8400 ; Z hop
G0 X140.2957 Y123.0068 F8400 ; Move to start next pattern wall
G1 Z0.62 F8400 ; Z hop return
G1 E0.8 F60 ; Un-retract
G1 X161.5089 Y144.22 E0.99515 F3600 ; Print pattern wall
G1 X140.2957 Y165.4332 E0.99515 F3600 ; Print pattern wall
G1 E-0.8 F2100 ; Retract
G1 Z0.92 F8400 ; Z hop
G0 X142.7457 Y123.0068 F8400 ; Move to next pattern
G1 Z0.62 F8400 ; Z hop return
G1 E0.8 F60 ; Un-retract
SET_PRESSURE_ADVANCE ADVANCE=0.045 ; Set pressure advance
M117 PA 0.045
G1 X163.9589 Y144.22 E0.99515 F3600 ; Print pattern wall
G1 X142.7457 Y165.4332 E0.99515 F3600 ; Print pattern wall
G1 E-0.8 F2100 ; Retract
G1 Z0.92 F8400 ; Z hop
G0 X143.3214 Y123.0068 F8400 ; Move to start next pattern wall
G1 Z0.62 F8400 ; Z hop return
G1 E0.8 F60 ; Un-retract
G1 X164.5346 Y144.22 E0.99515 F3600 ; Print pattern wall
G1 X143.3214 Y165.4332 E0.99515 F3600 ; Print pattern wall
G1 E-0.8 F2100 ; Retract
G1 Z0.92 F8400 ; Z hop
G0 X143.8971 Y123.0068 F8400 ; Move to start next pattern wall
G1 Z0.62 F8400 ; Z hop return
G1 E0.8 F60 ; Un-retract
G1 X165.1103 Y144.22 E0.99515 F3600 ; Print pattern wall
G1 X143.8971 Y165.4332 E0.99515 F3600 ; Print pattern wall
G1 E-0.8 F2100 ; Retract
G1 Z0.92 F8400 ; Z hop
G0 X146.3471 Y123.0068 F8400 ; Move to next pattern
G1 Z0.62 F8400 ; Z hop return
G1 E0.8 F60 ; Un-retract
SET_PRESSURE_ADVANCE ADVANCE=0.05 ; Set pressure advance
M117 PA 0.05
G1 X167.5603 Y144.22 E0.99515 F3600 ; Print pattern wall
G1 X146.3471 Y165.4332 E0.99515 F3600 ; Print pattern wall
G1 E-0.8 F2100 ; Retract
G1 Z0.92 F8400 ; Z hop
G0 X146.9228 Y123.0068 F8400 ; Move to start next pattern wall
G1 Z0.62 F8400 ; Z hop return
G1 E0.8 F60 ; Un-retract
G1 X168.136 Y144.22 E0.99515 F3600 ; Print pattern wall
G1 X146.9228 Y165.4332 E0.99515 F3600 ; Print pattern wall
G1 E-0.8 F2100 ; Retract
G1 Z0.92 F8400 ; Z hop
G0 X147.4985 Y123.0068 F8400 ; Move to start next pattern wall
G1 Z0.62 F8400 ; Z hop return
G1 E0.8 F60 ; Un-retract
G1 X168.7117 Y144.22 E0.99515 F3600 ; Print pattern wall
G1 X147.4985 Y165.4332 E0.99515 F3600 ; Print pattern wall
G1 E-0.8 F2100 ; Retract
G1 Z0.92 F8400 ; Z hop
G0 X149.9485 Y123.0068 F8400 ; Move to next pattern
G1 Z0.62 F8400 ; Z hop return
G1 E0.8 F60 ; Un-retract
SET_PRESSURE_ADVANCE ADVANCE=0.055 ; Set pressure advance
M117 PA 0.055
G1 X171.1617 Y144.22 E0.99515 F3600 ; Print pattern wall
G1 X149.9485 Y165.4332 E0.99515 F3600 ; Print pattern wall
G1 E-0.8 F2100 ; Retract
G1 Z0.92 F8400 ; Z hop
G0 X150.5242 Y123.0068 F8400 ; Move to start next pattern wall
G1 Z0.62 F8400 ; Z hop return
G1 E0.8 F60 ; Un-retract
G1 X171.7374 Y144.22 E0.99515 F3600 ; Print pattern wall
G1 X150.5242 Y165.4332 E0.99515 F3600 ; Print pattern wall
G1 E-0.8 F2100 ; Retract
G1 Z0.92 F8400 ; Z hop
G0 X151.0999 Y123.0068 F8400 ; Move to start next pattern wall
G1 Z0.62 F8400 ; Z hop return
G1 E0.8 F60 ; Un-retract
G1 X172.3131 Y144.22 E0.99515 F3600 ; Print pattern wall
G1 X151.0999 Y165.4332 E0.99515 F3600 ; Print pattern wall
G1 E-0.8 F2100 ; Retract
G1 Z0.92 F8400 ; Z hop
G0 X153.5499 Y123.0068 F8400 ; Move to next pattern
G1 Z0.62 F8400 ; Z hop return
G1 E0.8 F60 ; Un-retract
SET_PRESSURE_ADVANCE ADVANCE=0.06 ; Set pressure advance
M117 PA 0.06
G1 X174.7631 Y144.22 E0.99515 F3600 ; Print pattern wall
G1 X153.5499 Y165.4332 E0.99515 F3600 ; Print pattern wall
G1 E-0.8 F2100 ; Retract
G1 Z0.92 F8400 ; Z hop
G0 X154.1256 Y123.0068 F8400 ; Move to start next pattern wall
G1 Z0.62 F8400 ; Z hop return
G1 E0.8 F60 ; Un-retract
G1 X175.3388 Y144.22 E0.99515 F3600 ; Print pattern wall
G1 X154.1256 Y165.4332 E0.99515 F3600 ; Print pattern wall
G1 E-0.8 F2100 ; Retract
G1 Z0.92 F8400 ; Z hop
G0 X154.7013 Y123.0068 F8400 ; Move to start next pattern wall
G1 Z0.62 F8400 ; Z hop return
G1 E0.8 F60 ; Un-retract
G1 X175.9145 Y144.22 E0.99515 F3600 ; Print pattern wall
G1 X154.7013 Y165.4332 E0.99515 F3600 ; Print pattern wall
G1 E-0.8 F2100 ; Retract
G1 Z0.92 F8400 ; Z hop
G0 X157.1513 Y123.0068 F8400 ; Move to next pattern
G1 Z0.62 F8400 ; Z hop return
G1 E0.8 F60 ; Un-retract
SET_PRESSURE_ADVANCE ADVANCE=0.065 ; Set pressure advance
M117 PA 0.065
G1 X178.3645 Y144.22 E0.99515 F3600 ; Print pattern wall
G1 X157.1513 Y165.4332 E0.99515 F3600 ; Print pattern wall
G1 E-0.8 F2100 ; Retract
G1 Z0.92 F8400 ; Z hop
G0 X157.727 Y123.0068 F8400 ; Move to start next pattern wall
G1 Z0.62 F8400 ; Z hop return
G1 E0.8 F60 ; Un-retract
G1 X178.9402 Y144.22 E0.99515 F3600 ; Print pattern wall
G1 X157.727 Y165.4332 E0.99515 F3600 ; Print pattern wall
G1 E-0.8 F2100 ; Retract
G1 Z0.92 F8400 ; Z hop
G0 X158.3027 Y123.0068 F8400 ; Move to start next pattern wall
G1 Z0.62 F8400 ; Z hop return
G1 E0.8 F60 ; Un-retract
G1 X179.5159 Y144.22 E0.99515 F3600 ; Print pattern wall
G1 X158.3027 Y165.4332 E0.99515 F3600 ; Print pattern wall
G1 E-0.8 F2100 ; Retract
G1 Z0.92 F8400 ; Z hop
G0 X160.7527 Y123.0068 F8400 ; Move to next pattern
G1 Z0.62 F8400 ; Z hop return
G1 E0.8 F60 ; Un-retract
SET_PRESSURE_ADVANCE ADVANCE=0.07 ; Set pressure advance
M117 PA 0.07
G1 X181.9659 Y144.22 E0.99515 F3600 ; Print pattern wall
G1 X160.7527 Y165.4332 E0.99515 F3600 ; Print pattern wall
G1 E-0.8 F2100 ; Retract
G1 Z0.92 F8400 ; Z hop
G0 X161.3284 Y123.0068 F8400 ; Move to start next pattern wall
G1 Z0.62 F8400 ; Z hop return
G1 E0.8 F60 ; Un-retract
G1 X182.5416 Y144.22 E0.99515 F3600 ; Print pattern wall
G1 X161.3284 Y165.4332 E0.99515 F3600 ; Print pattern wall
G1 E-0.8 F2100 ; Retract
G1 Z0.92 F8400 ; Z hop
G0 X161.9041 Y123.0068 F8400 ; Move to start next pattern wall
G1 Z0.62 F8400 ; Z hop return
G1 E0.8 F60 ; Un-retract
G1 X183.1173 Y144.22 E0.99515 F3600 ; Print pattern wall
G1 X161.9041 Y165.4332 E0.99515 F3600 ; Print pattern wall
G1 E-0.8 F2100 ; Retract
G1 Z0.92 F8400 ; Z hop
G0 X164.3541 Y123.0068 F8400 ; Move to next pattern
G1 Z0.62 F8400 ; Z hop return
G1 E0.8 F60 ; Un-retract
SET_PRESSURE_ADVANCE ADVANCE=0.075 ; Set pressure advance
M117 PA 0.075
G1 X185.5673 Y144.22 E0.99515 F3600 ; Print pattern wall
G1 X164.3541 Y165.4332 E0.99515 F3600 ; Print pattern wall
G1 E-0.8 F2100 ; Retract
G1 Z0.92 F8400 ; Z hop
G0 X164.9297 Y123.0068 F8400 ; Move to start next pattern wall
G1 Z0.62 F8400 ; Z hop return
G1 E0.8 F60 ; Un-retract
G1 X186.143 Y144.22 E0.99515 F3600 ; Print pattern wall
G1 X164.9297 Y165.4332 E0.99515 F3600 ; Print pattern wall
G1 E-0.8 F2100 ; Retract
G1 Z0.92 F8400 ; Z hop
G0 X165.5054 Y123.0068 F8400 ; Move to start next pattern wall
G1 Z0.62 F8400 ; Z hop return
G1 E0.8 F60 ; Un-retract
G1 X186.7187 Y144.22 E0.99515 F3600 ; Print pattern wall
G1 X165.5054 Y165.4332 E0.99515 F3600 ; Print pattern wall
G1 E-0.8 F2100 ; Retract
G1 Z0.92 F8400 ; Z hop
G0 X167.9554 Y123.0068 F8400 ; Move to next pattern
G1 Z0.62 F8400 ; Z hop return
G1 E0.8 F60 ; Un-retract
SET_PRESSURE_ADVANCE ADVANCE=0.08 ; Set pressure advance
M117 PA 0.08
G1 X189.1687 Y144.22 E0.99515 F3600 ; Print pattern wall
G1 X167.9554 Y165.4332 E0.99515 F3600 ; Print pattern wall
G1 E-0.8 F2100 ; Retract
G1 Z0.92 F8400 ; Z hop
G0 X168.5311 Y123.0068 F8400 ; Move to start next pattern wall
G1 Z0.62 F8400 ; Z hop return
G1 E0.8 F60 ; Un-retract
G1 X189.7443 Y144.22 E0.99515 F3600 ; Print pattern wall
G1 X168.5311 Y165.4332 E0.99515 F3600 ; Print pattern wall
G1 E-0.8 F2100 ; Retract
G1 Z0.92 F8400 ; Z hop
G0 X169.1068 Y123.0068 F8400 ; Move to start next pattern wall
G1 Z0.62 F8400 ; Z hop return
G1 E0.8 F60 ; Un-retract
G1 X190.32 Y144.22 E0.99515 F3600 ; Print pattern wall
G1 X169.1068 Y165.4332 E0.99515 F3600 ; Print pattern wall
G1 E-0.8 F2100 ; Retract
G1 Z0.92 F8400 ; Z hop
G0 X110.3331 Y123.0068 F8400 ; Move back to start position
G1 Z0.62 F8400 ; Z hop return
G1 E0.8 F60 ; Un-retract
G0 Z0.82 F8400 ; Move to layer height
SET_PRESSURE_ADVANCE ADVANCE=0 ; Set pressure advance
M117 PA 0
G1 X131.5463 Y144.22 E0.99515 F3600 ; Print pattern wall
G1 X110.3331 Y165.4332 E0.99515 F3600 ; Print pattern wall
G1 E-0.8 F2100 ; Retract
G1 Z1.12 F8400 ; Z hop
G0 X110.9088 Y123.0068 F8400 ; Move to start next pattern wall
G1 Z0.82 F8400 ; Z hop return
G1 E0.8 F60 ; Un-retract
G1 X132.122 Y144.22 E0.99515 F3600 ; Print pattern wall
G1 X110.9088 Y165.4332 E0.99515 F3600 ; Print pattern wall
G1 E-0.8 F2100 ; Retract
G1 Z1.12 F8400 ; Z hop
G0 X111.4845 Y123.0068 F8400 ; Move to start next pattern wall
G1 Z0.82 F8400 ; Z hop return
G1 E0.8 F60 ; Un-retract
G1 X132.6977 Y144.22 E0.99515 F3600 ; Print pattern wall
G1 X111.4845 Y165.4332 E0.99515 F3600 ; Print pattern wall
G1 E-0.8 F2100 ; Retract
G1 Z1.12 F8400 ; Z hop
G0 X113.9345 Y123.0068 F8400 ; Move to next pattern
G1 Z0.82 F8400 ; Z hop return
G1 E0.8 F60 ; Un-retract
SET_PRESSURE_ADVANCE ADVANCE=0.005 ; Set pressure advance
M117 PA 0.005
G1 X135.1477 Y144.22 E0.99515 F3600 ; Print pattern wall
G1 X113.9345 Y165.4332 E0.99515 F3600 ; Print pattern wall
G1 E-0.8 F2100 ; Retract
G1 Z1.12 F8400 ; Z hop
G0 X114.5102 Y123.0068 F8400 ; Move to start next pattern wall
G1 Z0.82 F8400 ; Z hop return
G1 E0.8 F60 ; Un-retract
G1 X135.7234 Y144.22 E0.99515 F3600 ; Print pattern wall
G1 X114.5102 Y165.4332 E0.99515 F3600 ; Print pattern wall
G1 E-0.8 F2100 ; Retract
G1 Z1.12 F8400 ; Z hop
G0 X115.0859 Y123.0068 F8400 ; Move to start next pattern wall
G1 Z0.82 F8400 ; Z hop return
G1 E0.8 F60 ; Un-retract
G1 X136.2991 Y144.22 E0.99515 F3600 ; Print pattern wall
G1 X115.0859 Y165.4332 E0.99515 F3600 ; Print pattern wall
G1 E-0.8 F2100 ; Retract
G1 Z1.12 F8400 ; Z hop
G0 X117.5359 Y123.0068 F8400 ; Move to next pattern
G1 Z0.82 F8400 ; Z hop return
G1 E0.8 F60 ; Un-retract
SET_PRESSURE_ADVANCE ADVANCE=0.01 ; Set pressure advance
M117 PA 0.01
G1 X138.7491 Y144.22 E0.99515 F3600 ; Print pattern wall
G1 X117.5359 Y165.4332 E0.99515 F3600 ; Print pattern wall
G1 E-0.8 F2100 ; Retract
G1 Z1.12 F8400 ; Z hop
G0 X118.1116 Y123.0068 F8400 ; Move to start next pattern wall
G1 Z0.82 F8400 ; Z hop return
G1 E0.8 F60 ; Un-retract
G1 X139.3248 Y144.22 E0.99515 F3600 ; Print pattern wall
G1 X118.1116 Y165.4332 E0.99515 F3600 ; Print pattern wall
G1 E-0.8 F2100 ; Retract
G1 Z1.12 F8400 ; Z hop
G0 X118.6873 Y123.0068 F8400 ; Move to start next pattern wall
G1 Z0.82 F8400 ; Z hop return
G1 E0.8 F60 ; Un-retract
G1 X139.9005 Y144.22 E0.99515 F3600 ; Print pattern wall
G1 X118.6873 Y165.4332 E0.99515 F3600 ; Print pattern wall
G1 E-0.8 F2100 ; Retract
G1 Z1.12 F8400 ; Z hop
G0 X121.1373 Y123.0068 F8400 ; Move to next pattern
G1 Z0.82 F8400 ; Z hop return
G1 E0.8 F60 ; Un-retract
SET_PRESSURE_ADVANCE ADVANCE=0.015 ; Set pressure advance
M117 PA 0.015
G1 X142.3505 Y144.22 E0.99515 F3600 ; Print pattern wall
G1 X121.1373 Y165.4332 E0.99515 F3600 ; Print pattern wall
G1 E-0.8 F2100 ; Retract
G1 Z1.12 F8400 ; Z hop
G0 X121.713 Y123.0068 F8400 ; Move to start next pattern wall
G1 Z0.82 F8400 ; Z hop return
G1 E0.8 F60 ; Un-retract
G1 X142.9262 Y144.22 E0.99515 F3600 ; Print pattern wall
G1 X121.713 Y165.4332 E0.99515 F3600 ; Print pattern wall
G1 E-0.8 F2100 ; Retract
G1 Z1.12 F8400 ; Z hop
G0 X122.2887 Y123.0068 F8400 ; Move to start next pattern wall
G1 Z0.82 F8400 ; Z hop return
G1 E0.8 F60 ; Un-retract
G1 X143.5019 Y144.22 E0.99515 F3600 ; Print pattern wall
G1 X122.2887 Y165.4332 E0.99515 F3600 ; Print pattern wall
G1 E-0.8 F2100 ; Retract
G1 Z1.12 F8400 ; Z hop
G0 X124.7387 Y123.0068 F8400 ; Move to next pattern
G1 Z0.82 F8400 ; Z hop return
G1 E0.8 F60 ; Un-retract
SET_PRESSURE_ADVANCE ADVANCE=0.02 ; Set pressure advance
M117 PA 0.02
G1 X145.9519 Y144.22 E0.99515 F3600 ; Print pattern wall
G1 X124.7387 Y165.4332 E0.99515 F3600 ; Print pattern wall
G1 E-0.8 F2100 ; Retract
G1 Z1.12 F8400 ; Z hop
G0 X125.3144 Y123.0068 F8400 ; Move to start next pattern wall
G1 Z0.82 F8400 ; Z hop return
G1 E0.8 F60 ; Un-retract
G1 X146.5276 Y144.22 E0.99515 F3600 ; Print pattern wall
G1 X125.3144 Y165.4332 E0.99515 F3600 ; Print pattern wall
G1 E-0.8 F2100 ; Retract
G1 Z1.12 F8400 ; Z hop
G0 X125.8901 Y123.0068 F8400 ; Move to start next pattern wall
G1 Z0.82 F8400 ; Z hop return
G1 E0.8 F60 ; Un-retract
G1 X147.1033 Y144.22 E0.99515 F3600 ; Print pattern wall
G1 X125.8901 Y165.4332 E0.99515 F3600 ; Print pattern wall
G1 E-0.8 F2100 ; Retract
G1 Z1.12 F8400 ; Z hop
G0 X128.3401 Y123.0068 F8400 ; Move to next pattern
G1 Z0.82 F8400 ; Z hop return
G1 E0.8 F60 ; Un-retract
SET_PRESSURE_ADVANCE ADVANCE=0.025 ; Set pressure advance
M117 PA 0.025
G1 X149.5533 Y144.22 E0.99515 F3600 ; Print pattern wall
G1 X128.3401 Y165.4332 E0.99515 F3600 ; Print pattern wall
G1 E-0.8 F2100 ; Retract
G1 Z1.12 F8400 ; Z hop
G0 X128.9158 Y123.0068 F8400 ; Move to start next pattern wall
G1 Z0.82 F8400 ; Z hop return
G1 E0.8 F60 ; Un-retract
G1 X150.129 Y144.22 E0.99515 F3600 ; Print pattern wall
G1 X128.9158 Y165.4332 E0.99515 F3600 ; Print pattern wall
G1 E-0.8 F2100 ; Retract
G1 Z1.12 F8400 ; Z hop
G0 X129.4915 Y123.0068 F8400 ; Move to start next pattern wall
G1 Z0.82 F8400 ; Z hop return
G1 E0.8 F60 ; Un-retract
G1 X150.7047 Y144.22 E0.99515 F3600 ; Print pattern wall
G1 X129.4915 Y165.4332 E0.99515 F3600 ; Print pattern wall
G1 E-0.8 F2100 ; Retract
G1 Z1.12 F8400 ; Z hop
G0 X131.9415 Y123.0068 F8400 ; Move to next pattern
G1 Z0.82 F8400 ; Z hop return
G1 E0.8 F60 ; Un-retract
SET_PRESSURE_ADVANCE ADVANCE=0.03 ; Set pressure advance
M117 PA 0.03
G1 X153.1547 Y144.22 E0.99515 F3600 ; Print pattern wall
G1 X131.9415 Y165.4332 E0.99515 F3600 ; Print pattern wall
G1 E-0.8 F2100 ; Retract
G1 Z1.12 F8400 ; Z hop
G0 X132.5172 Y123.0068 F8400 ; Move to start next pattern wall
G1 Z0.82 F8400 ; Z hop return
G1 E0.8 F60 ; Un-retract
G1 X153.7304 Y144.22 E0.99515 F3600 ; Print pattern wall
G1 X132.5172 Y165.4332 E0.99515 F3600 ; Print pattern wall
G1 E-0.8 F2100 ; Retract
G1 Z1.12 F8400 ; Z hop
G0 X133.0929 Y123.0068 F8400 ; Move to start next pattern wall
G1 Z0.82 F8400 ; Z hop return
G1 E0.8 F60 ; Un-retract
G1 X154.3061 Y144.22 E0.99515 F3600 ; Print pattern wall
G1 X133.0929 Y165.4332 E0.99515 F3600 ; Print pattern wall
G1 E-0.8 F2100 ; Retract
G1 Z1.12 F8400 ; Z hop
G0 X135.5429 Y123.0068 F8400 ; Move to next pattern
G1 Z0.82 F8400 ; Z hop return
G1 E0.8 F60 ; Un-retract
SET_PRESSURE_ADVANCE ADVANCE=0.035 ; Set pressure advance
M117 PA 0.035
G1 X156.7561 Y144.22 E0.99515 F3600 ; Print pattern wall
G1 X135.5429 Y165.4332 E0.99515 F3600 ; Print pattern wall
G1 E-0.8 F2100 ; Retract
G1 Z1.12 F8400 ; Z hop
G0 X136.1186 Y123.0068 F8400 ; Move to start next pattern wall
G1 Z0.82 F8400 ; Z hop return
G1 E0.8 F60 ; Un-retract
G1 X157.3318 Y144.22 E0.99515 F3600 ; Print pattern wall
G1 X136.1186 Y165.4332 E0.99515 F3600 ; Print pattern wall
G1 E-0.8 F2100 ; Retract
G1 Z1.12 F8400 ; Z hop
G0 X136.6943 Y123.0068 F8400 ; Move to start next pattern wall
G1 Z0.82 F8400 ; Z hop return
G1 E0.8 F60 ; Un-retract
G1 X157.9075 Y144.22 E0.99515 F3600 ; Print pattern wall
G1 X136.6943 Y165.4332 E0.99515 F3600 ; Print pattern wall
G1 E-0.8 F2100 ; Retract
G1 Z1.12 F8400 ; Z hop
G0 X139.1443 Y123.0068 F8400 ; Move to next pattern
G1 Z0.82 F8400 ; Z hop return
G1 E0.8 F60 ; Un-retract
SET_PRESSURE_ADVANCE ADVANCE=0.04 ; Set pressure advance
M117 PA 0.04
G1 X160.3575 Y144.22 E0.99515 F3600 ; Print pattern wall
G1 X139.1443 Y165.4332 E0.99515 F3600 ; Print pattern wall
G1 E-0.8 F2100 ; Retract
G1 Z1.12 F8400 ; Z hop
G0 X139.72 Y123.0068 F8400 ; Move to start next pattern wall
G1 Z0.82 F8400 ; Z hop return
G1 E0.8 F60 ; Un-retract
G1 X160.9332 Y144.22 E0.99515 F3600 ; Print pattern wall
G1 X139.72 Y165.4332 E0.99515 F3600 ; Print pattern wall
G1 E-0.8 F2100 ; Retract
G1 Z1.12 F8400 ; Z hop
G0 X140.2957 Y123.0068 F8400 ; Move to start next pattern wall
G1 Z0.82 F8400 ; Z hop return
G1 E0.8 F60 ; Un-retract
G1 X161.5089 Y144.22 E0.99515 F3600 ; Print pattern wall
G1 X140.2957 Y165.4332 E0.99515 F3600 ; Print pattern wall
G1 E-0.8 F2100 ; Retract
G1 Z1.12 F8400 ; Z hop
G0 X142.7457 Y123.0068 F8400 ; Move to next pattern
G1 Z0.82 F8400 ; Z hop return
G1 E0.8 F60 ; Un-retract
SET_PRESSURE_ADVANCE ADVANCE=0.045 ; Set pressure advance
M117 PA 0.045
G1 X163.9589 Y144.22 E0.99515 F3600 ; Print pattern wall
G1 X142.7457 Y165.4332 E0.99515 F3600 ; Print pattern wall
G1 E-0.8 F2100 ; Retract
G1 Z1.12 F8400 ; Z hop
G0 X143.3214 Y123.0068 F8400 ; Move to start next pattern wall
G1 Z0.82 F8400 ; Z hop return
G1 E0.8 F60 ; Un-retract
G1 X164.5346 Y144.22 E0.99515 F3600 ; Print pattern wall
G1 X143.3214 Y165.4332 E0.99515 F3600 ; Print pattern wall
G1 E-0.8 F2100 ; Retract
G1 Z1.12 F8400 ; Z hop
G0 X143.8971 Y123.0068 F8400 ; Move to start next pattern wall
G1 Z0.82 F8400 ; Z hop return
G1 E0.8 F60 ; Un-retract
G1 X165.1103 Y144.22 E0.99515 F3600 ; Print pattern wall
G1 X143.8971 Y165.4332 E0.99515 F3600 ; Print pattern wall
G1 E-0.8 F2100 ; Retract
G1 Z1.12 F8400 ; Z hop
G0 X146.3471 Y123.0068 F8400 ; Move to next pattern
G1 Z0.82 F8400 ; Z hop return
G1 E0.8 F60 ; Un-retract
SET_PRESSURE_ADVANCE ADVANCE=0.05 ; Set pressure advance
M117 PA 0.05
G1 X167.5603 Y144.22 E0.99515 F3600 ; Print pattern wall
G1 X146.3471 Y165.4332 E0.99515 F3600 ; Print pattern wall
G1 E-0.8 F2100 ; Retract
G1 Z1.12 F8400 ; Z hop
G0 X146.9228 Y123.0068 F8400 ; Move to start next pattern wall
G1 Z0.82 F8400 ; Z hop return
G1 E0.8 F60 ; Un-retract
G1 X168.136 Y144.22 E0.99515 F3600 ; Print pattern wall
G1 X146.9228 Y165.4332 E0.99515 F3600 ; Print pattern wall
G1 E-0.8 F2100 ; Retract
G1 Z1.12 F8400 ; Z hop
G0 X147.4985 Y123.0068 F8400 ; Move to start next pattern wall
G1 Z0.82 F8400 ; Z hop return
G1 E0.8 F60 ; Un-retract
G1 X168.7117 Y144.22 E0.99515 F3600 ; Print pattern wall
G1 X147.4985 Y165.4332 E0.99515 F3600 ; Print pattern wall
G1 E-0.8 F2100 ; Retract
G1 Z1.12 F8400 ; Z hop
G0 X149.9485 Y123.0068 F8400 ; Move to next pattern
G1 Z0.82 F8400 ; Z hop return
G1 E0.8 F60 ; Un-retract
SET_PRESSURE_ADVANCE ADVANCE=0.055 ; Set pressure advance
M117 PA 0.055
G1 X171.1617 Y144.22 E0.99515 F3600 ; Print pattern wall
G1 X149.9485 Y165.4332 E0.99515 F3600 ; Print pattern wall
G1 E-0.8 F2100 ; Retract
G1 Z1.12 F8400 ; Z hop
G0 X150.5242 Y123.0068 F8400 ; Move to start next pattern wall
G1 Z0.82 F8400 ; Z hop return
G1 E0.8 F60 ; Un-retract
G1 X171.7374 Y144.22 E0.99515 F3600 ; Print pattern wall
G1 X150.5242 Y165.4332 E0.99515 F3600 ; Print pattern wall
G1 E-0.8 F2100 ; Retract
G1 Z1.12 F8400 ; Z hop
G0 X151.0999 Y123.0068 F8400 ; Move to start next pattern wall
G1 Z0.82 F8400 ; Z hop return
G1 E0.8 F60 ; Un-retract
G1 X172.3131 Y144.22 E0.99515 F3600 ; Print pattern wall
G1 X151.0999 Y165.4332 E0.99515 F3600 ; Print pattern wall
G1 E-0.8 F2100 ; Retract
G1 Z1.12 F8400 ; Z hop
G0 X153.5499 Y123.0068 F8400 ; Move to next pattern
G1 Z0.82 F8400 ; Z hop return
G1 E0.8 F60 ; Un-retract
SET_PRESSURE_ADVANCE ADVANCE=0.06 ; Set pressure advance
M117 PA 0.06
G1 X174.7631 Y144.22 E0.99515 F3600 ; Print pattern wall
G1 X153.5499 Y165.4332 E0.99515 F3600 ; Print pattern wall
G1 E-0.8 F2100 ; Retract
G1 Z1.12 F8400 ; Z hop
G0 X154.1256 Y123.0068 F8400 ; Move to start next pattern wall
G1 Z0.82 F8400 ; Z hop return
G1 E0.8 F60 ; Un-retract
G1 X175.3388 Y144.22 E0.99515 F3600 ; Print pattern wall
G1 X154.1256 Y165.4332 E0.99515 F3600 ; Print pattern wall
G1 E-0.8 F2100 ; Retract
G1 Z1.12 F8400 ; Z hop
G0 X154.7013 Y123.0068 F8400 ; Move to start next pattern wall
G1 Z0.82 F8400 ; Z hop return
G1 E0.8 F60 ; Un-retract
G1 X175.9145 Y144.22 E0.99515 F3600 ; Print pattern wall
G1 X154.7013 Y165.4332 E0.99515 F3600 ; Print pattern wall
G1 E-0.8 F2100 ; Retract
G1 Z1.12 F8400 ; Z hop
G0 X157.1513 Y123.0068 F8400 ; Move to next pattern
G1 Z0.82 F8400 ; Z hop return
G1 E0.8 F60 ; Un-retract
SET_PRESSURE_ADVANCE ADVANCE=0.065 ; Set pressure advance
M117 PA 0.065
G1 X178.3645 Y144.22 E0.99515 F3600 ; Print pattern wall
G1 X157.1513 Y165.4332 E0.99515 F3600 ; Print pattern wall
G1 E-0.8 F2100 ; Retract
G1 Z1.12 F8400 ; Z hop
G0 X157.727 Y123.0068 F8400 ; Move to start next pattern wall
G1 Z0.82 F8400 ; Z hop return
G1 E0.8 F60 ; Un-retract
G1 X178.9402 Y144.22 E0.99515 F3600 ; Print pattern wall
G1 X157.727 Y165.4332 E0.99515 F3600 ; Print pattern wall
G1 E-0.8 F2100 ; Retract
G1 Z1.12 F8400 ; Z hop
G0 X158.3027 Y123.0068 F8400 ; Move to start next pattern wall
G1 Z0.82 F8400 ; Z hop return
G1 E0.8 F60 ; Un-retract
G1 X179.5159 Y144.22 E0.99515 F3600 ; Print pattern wall
G1 X158.3027 Y165.4332 E0.99515 F3600 ; Print pattern wall
G1 E-0.8 F2100 ; Retract
G1 Z1.12 F8400 ; Z hop
G0 X160.7527 Y123.0068 F8400 ; Move to next pattern
G1 Z0.82 F8400 ; Z hop return
G1 E0.8 F60 ; Un-retract
SET_PRESSURE_ADVANCE ADVANCE=0.07 ; Set pressure advance
M117 PA 0.07
G1 X181.9659 Y144.22 E0.99515 F3600 ; Print pattern wall
G1 X160.7527 Y165.4332 E0.99515 F3600 ; Print pattern wall
G1 E-0.8 F2100 ; Retract
G1 Z1.12 F8400 ; Z hop
G0 X161.3284 Y123.0068 F8400 ; Move to start next pattern wall
G1 Z0.82 F8400 ; Z hop return
G1 E0.8 F60 ; Un-retract
G1 X182.5416 Y144.22 E0.99515 F3600 ; Print pattern wall
G1 X161.3284 Y165.4332 E0.99515 F3600 ; Print pattern wall
G1 E-0.8 F2100 ; Retract
G1 Z1.12 F8400 ; Z hop
G0 X161.9041 Y123.0068 F8400 ; Move to start next pattern wall
G1 Z0.82 F8400 ; Z hop return
G1 E0.8 F60 ; Un-retract
G1 X183.1173 Y144.22 E0.99515 F3600 ; Print pattern wall
G1 X161.9041 Y165.4332 E0.99515 F3600 ; Print pattern wall
G1 E-0.8 F2100 ; Retract
G1 Z1.12 F8400 ; Z hop
G0 X164.3541 Y123.0068 F8400 ; Move to next pattern
G1 Z0.82 F8400 ; Z hop return
G1 E0.8 F60 ; Un-retract
SET_PRESSURE_ADVANCE ADVANCE=0.075 ; Set pressure advance
M117 PA 0.075
G1 X185.5673 Y144.22 E0.99515 F3600 ; Print pattern wall
G1 X164.3541 Y165.4332 E0.99515 F3600 ; Print pattern wall
G1 E-0.8 F2100 ; Retract
G1 Z1.12 F8400 ; Z hop
G0 X164.9297 Y123.0068 F8400 ; Move to start next pattern wall
G1 Z0.82 F8400 ; Z hop return
G1 E0.8 F60 ; Un-retract
G1 X186.143 Y144.22 E0.99515 F3600 ; Print pattern wall
G1 X164.9297 Y165.4332 E0.99515 F3600 ; Print pattern wall
G1 E-0.8 F2100 ; Retract
G1 Z1.12 F8400 ; Z hop
G0 X165.5054 Y123.0068 F8400 ; Move to start next pattern wall
G1 Z0.82 F8400 ; Z hop return
G1 E0.8 F60 ; Un-retract
G1 X186.7187 Y144.22 E0.99515 F3600 ; Print pattern wall
G1 X165.5054 Y165.4332 E0.99515 F3600 ; Print pattern wall
G1 E-0.8 F2100 ; Retract
G1 Z1.12 F8400 ; Z hop
G0 X167.9554 Y123.0068 F8400 ; Move to next pattern
G1 Z0.82 F8400 ; Z hop return
G1 E0.8 F60 ; Un-retract
SET_PRESSURE_ADVANCE ADVANCE=0.08 ; Set pressure advance
M117 PA 0.08
G1 X189.1687 Y144.22 E0.99515 F3600 ; Print pattern wall
G1 X167.9554 Y165.4332 E0.99515 F3600 ; Print pattern wall
G1 E-0.8 F2100 ; Retract
G1 Z1.12 F8400 ; Z hop
G0 X168.5311 Y123.0068 F8400 ; Move to start next pattern wall
G1 Z0.82 F8400 ; Z hop return
G1 E0.8 F60 ; Un-retract
G1 X189.7443 Y144.22 E0.99515 F3600 ; Print pattern wall
G1 X168.5311 Y165.4332 E0.99515 F3600 ; Print pattern wall
G1 E-0.8 F2100 ; Retract
G1 Z1.12 F8400 ; Z hop
G0 X169.1068 Y123.0068 F8400 ; Move to start next pattern wall
G1 Z0.82 F8400 ; Z hop return
G1 E0.8 F60 ; Un-retract
G1 X190.32 Y144.22 E0.99515 F3600 ; Print pattern wall
G1 X169.1068 Y165.4332 E0.99515 F3600 ; Print pattern wall
SET_PRESSURE_ADVANCE ADVANCE=0 ; Set pressure advance back to start value
M117 PA 0
G1 E-0.8 F2100 ; Retract
G1 Z1.12 F8400 ; Z hop
G0 Z5.82 F8400 ; Z raise
M104 S0 ; Turn off hotend
M140 S0 ; Turn off bed
M107    ; Turn off fan
;
; End G-code
;
PRINT_END ; End macro. Change name to match yours
;
; FINISH
;
