
; ### Ellis' Pressure Advance / Linear Advance Calibration Tool ###
;
; Original Marlin linear advance calibration tool by Sineos [https://github.com/Sineos]
; Heavily modified/rewritten by Andrew Ellis [https://github.com/AndrewEllis93]
;
; -------------------------------------------
; Generated: Sat Apr 08 2023 22:54:04 GMT-0400 (Eastern Daylight Time)
; -------------------------------------------
;
; Advanced Mode: false
;
; Printer:
;  - Firmware: klipper
;  - Bed Shape: Rect
;  - Bed Size X: 300 mm
;  - Bed Size Y: 300 mm
;  - Origin Bed Center: false
;  - Travel Speed: 150 mm/s
;  - Nozzle Diameter: 0.4 mm
;  - Filament Diameter: 1.75 mm
;  - Extrusion Multiplier: 0.98
;
; Retraction / Z Hop:
;  - Retraction Distance: 0.8 mm
;  - Retract Speed: 35 mm/s
;  - Unretract Speed: 0 mm/s
;  - Z Hop Enable: true
;  - Z Hop Height: 0.3mm
;
; First Layer Settings:
;  - First Layer Height: 0.22 mm
;  - First Layer Printing Speed: 50 mm/s
;  - First Layer Fan Speed: 0%
;  - Anchor Option: anchor_frame
;
; Print Settings:
;  - Layer Height: 0.22 mm
;  - Print Speed: 80 mm/s
;  - Acceleration: Disabled
;  - Fan Speed: 0%
;
; Pressure Advance Stepping:
;  - PA Start Value: 0
;  - PA End Value: 0.08
;  - PA Increment: 0.005
;
; Start / End G-code:
;  - Hotend Temp: 255C
;  - Bed Temp: 105C
;  - Don't Add G28: false
;  - Don't Add Heating G-Codes: true
;
; Calculated Values:
;  - Print Size X: 84.54 mm
;  - Print Size Y: 53.99 mm
;  - Number of Patterns to Print: 17
;  - PA Values: 0, 0.005, 0.01, 0.015, 0.02, 0.025, 0.03, 0.035, 0.04, 0.045, 0.05, 0.055, 0.06, 0.065, 0.07, 0.075, 0.08
;
; Prepare printing
;
G28 ; Home all axes
SET_PRINT_STATS_INFO TOTAL_LAYER=[total_layer_count]




print_start EXTRUDER=255 BED=105 CHAMBER=0
G21 ; Millimeter units
G90 ; Absolute XYZ
M83 ; Relative E
G92 E0 ; Reset extruder distance
;
;  Begin printing
;
M106 S0 ; Set fan speed
G1 E-0.8 F2100 ; Retract
G0 Z5 F9000 ; Z raise
G0 X107.729 Y123.0068 F9000 ; Move to start position
G0 Z0.22 F9000 ; Move to start layer height
G1 E0.8 F0 ; Un-retract
SET_PRESSURE_ADVANCE ADVANCE=0 ; Set pressure advance to start value
M117 PA 0
G1 X107.729 Y165.4332 E1.9501 F3000 ; Draw perimeter (up)
G1 X192.271 Y165.4332 E3.88591 F3000 ; Draw perimeter (right)
G1 X192.271 Y123.0068 E1.9501 F3000 ; Draw perimeter (down)
G1 X107.729 Y123.0068 E3.88591 F3000 ; Draw perimeter (left)
G0 X108.2418 Y123.5196 F9000 ; Step inwards to print next perimeter
G1 X108.2418 Y164.9204 E1.90296 F3000 ; Draw perimeter (up)
G1 X191.7582 Y164.9204 E3.83877 F3000 ; Draw perimeter (right)
G1 X191.7582 Y123.5196 E1.90296 F3000 ; Draw perimeter (down)
G1 X108.2418 Y123.5196 E3.83877 F3000 ; Draw perimeter (left)
G0 X108.7546 Y124.0324 F9000 ; Step inwards to print next perimeter
G1 X108.7546 Y164.4076 E1.85582 F3000 ; Draw perimeter (up)
G1 X191.2454 Y164.4076 E3.79163 F3000 ; Draw perimeter (right)
G1 X191.2454 Y124.0324 E1.85582 F3000 ; Draw perimeter (down)
G1 X108.7546 Y124.0324 E3.79163 F3000 ; Draw perimeter (left)
G0 X109.2674 Y124.5452 F9000 ; Step inwards to print next perimeter
G1 X109.2674 Y163.8948 E1.80868 F3000 ; Draw perimeter (up)
G1 X190.7326 Y163.8948 E3.74449 F3000 ; Draw perimeter (right)
G1 X190.7326 Y124.5452 E1.80868 F3000 ; Draw perimeter (down)
G1 X109.2674 Y124.5452 E3.74449 F3000 ; Draw perimeter (left)
G1 E-0.8 F2100 ; Retract
G1 Z0.52 F9000 ; Z hop
G0 X107.729 Y165.946 F9000 ; Move to box start
G1 Z0.22 F9000 ; Z hop return
G1 E0.8 F0 ; Un-retract
G1 X107.729 Y177.4588 E0.52918 F3000 ; Draw perimeter (up)
G1 X171.7923 Y177.4588 E2.94462 F3000 ; Draw perimeter (right)
G1 X171.7923 Y165.946 E0.52918 F3000 ; Draw perimeter (down)
G1 X107.729 Y165.946 E2.94462 F3000 ; Draw perimeter (left)
G0 X108.2418 Y166.4588 F9000 ; Step inwards to print next perimeter
G1 X108.2418 Y176.946 E0.48204 F3000 ; Draw perimeter (up)
G1 X171.2795 Y176.946 E2.89748 F3000 ; Draw perimeter (right)
G1 X171.2795 Y166.4588 E0.48204 F3000 ; Draw perimeter (down)
G1 X108.2418 Y166.4588 E2.89748 F3000 ; Draw perimeter (left)
G0 X108.7546 Y166.9716 F9000 ; Step inwards to print next perimeter
G1 X108.7546 Y176.4332 E0.4349 F3000 ; Draw perimeter (up)
G1 X170.7667 Y176.4332 E2.85034 F3000 ; Draw perimeter (right)
G1 X170.7667 Y166.9716 E0.4349 F3000 ; Draw perimeter (down)
G1 X108.7546 Y166.9716 E2.85034 F3000 ; Draw perimeter (left)
G0 X109.2674 Y167.4844 F9000 ; Step inwards to print next perimeter
G1 X109.2674 Y175.9204 E0.38776 F3000 ; Draw perimeter (up)
G1 X170.2539 Y175.9204 E2.8032 F3000 ; Draw perimeter (right)
G1 X170.2539 Y167.4844 E0.38776 F3000 ; Draw perimeter (down)
G1 X109.2674 Y167.4844 E2.8032 F3000 ; Draw perimeter (left)
G0 X109.6407 Y167.8577 F9000 ; Move to fill start
G0 X110.3659 Y167.8577 F9000 ; Move
G1 X109.6407 Y168.5829 E0.04714 F3000 ; Fill
G0 X109.6407 Y169.3081 F9000 ; Move
G1 X111.0911 Y167.8577 E0.09428 F3000 ; Fill
G0 X111.8163 Y167.8577 F9000 ; Move
G1 X109.6407 Y170.0333 E0.14142 F3000 ; Fill
G0 X109.6407 Y170.7585 F9000 ; Move
G1 X112.5414 Y167.8577 E0.18856 F3000 ; Fill
G0 X113.2666 Y167.8577 F9000 ; Move
G1 X109.6407 Y171.4836 E0.2357 F3000 ; Fill
G0 X109.6407 Y172.2088 F9000 ; Move
G1 X113.9918 Y167.8577 E0.28284 F3000 ; Fill
G0 X114.717 Y167.8577 F9000 ; Move
G1 X109.6407 Y172.934 E0.32998 F3000 ; Fill
G0 X109.6407 Y173.6592 F9000 ; Move
G1 X115.4422 Y167.8577 E0.37712 F3000 ; Fill
G0 X116.1674 Y167.8577 F9000 ; Move
G1 X109.6407 Y174.3844 E0.42426 F3000 ; Fill
G0 X109.6407 Y175.1096 F9000 ; Move
G1 X116.8926 Y167.8577 E0.4714 F3000 ; Fill
G0 X117.6178 Y167.8577 F9000 ; Move
G1 X109.9284 Y175.5471 E0.49984 F3000 ; Fill
G0 X110.6536 Y175.5471 F9000 ; Move
G1 X118.343 Y167.8577 E0.49984 F3000 ; Fill
G0 X119.0682 Y167.8577 F9000 ; Move
G1 X111.3788 Y175.5471 E0.49984 F3000 ; Fill
G0 X112.104 Y175.5471 F9000 ; Move
G1 X119.7934 Y167.8577 E0.49984 F3000 ; Fill
G0 X120.5186 Y167.8577 F9000 ; Move
G1 X112.8292 Y175.5471 E0.49984 F3000 ; Fill
G0 X113.5543 Y175.5471 F9000 ; Move
G1 X121.2437 Y167.8577 E0.49984 F3000 ; Fill
G0 X121.9689 Y167.8577 F9000 ; Move
G1 X114.2795 Y175.5471 E0.49984 F3000 ; Fill
G0 X115.0047 Y175.5471 F9000 ; Move
G1 X122.6941 Y167.8577 E0.49984 F3000 ; Fill
G0 X123.4193 Y167.8577 F9000 ; Move
G1 X115.7299 Y175.5471 E0.49984 F3000 ; Fill
G0 X116.4551 Y175.5471 F9000 ; Move
G1 X124.1445 Y167.8577 E0.49984 F3000 ; Fill
G0 X124.8697 Y167.8577 F9000 ; Move
G1 X117.1803 Y175.5471 E0.49984 F3000 ; Fill
G0 X117.9055 Y175.5471 F9000 ; Move
G1 X125.5949 Y167.8577 E0.49984 F3000 ; Fill
G0 X126.3201 Y167.8577 F9000 ; Move
G1 X118.6307 Y175.5471 E0.49984 F3000 ; Fill
G0 X119.3559 Y175.5471 F9000 ; Move
G1 X127.0453 Y167.8577 E0.49984 F3000 ; Fill
G0 X127.7705 Y167.8577 F9000 ; Move
G1 X120.0811 Y175.5471 E0.49984 F3000 ; Fill
G0 X120.8063 Y175.5471 F9000 ; Move
G1 X128.4957 Y167.8577 E0.49984 F3000 ; Fill
G0 X129.2208 Y167.8577 F9000 ; Move
G1 X121.5315 Y175.5471 E0.49984 F3000 ; Fill
G0 X122.2566 Y175.5471 F9000 ; Move
G1 X129.946 Y167.8577 E0.49984 F3000 ; Fill
G0 X130.6712 Y167.8577 F9000 ; Move
G1 X122.9818 Y175.5471 E0.49984 F3000 ; Fill
G0 X123.707 Y175.5471 F9000 ; Move
G1 X131.3964 Y167.8577 E0.49984 F3000 ; Fill
G0 X132.1216 Y167.8577 F9000 ; Move
G1 X124.4322 Y175.5471 E0.49984 F3000 ; Fill
G0 X125.1574 Y175.5471 F9000 ; Move
G1 X132.8468 Y167.8577 E0.49984 F3000 ; Fill
G0 X133.572 Y167.8577 F9000 ; Move
G1 X125.8826 Y175.5471 E0.49984 F3000 ; Fill
G0 X126.6078 Y175.5471 F9000 ; Move
G1 X134.2972 Y167.8577 E0.49984 F3000 ; Fill
G0 X135.0224 Y167.8577 F9000 ; Move
G1 X127.333 Y175.5471 E0.49984 F3000 ; Fill
G0 X128.0582 Y175.5471 F9000 ; Move
G1 X135.7476 Y167.8577 E0.49984 F3000 ; Fill
G0 X136.4728 Y167.8577 F9000 ; Move
G1 X128.7834 Y175.5471 E0.49984 F3000 ; Fill
G0 X129.5086 Y175.5471 F9000 ; Move
G1 X137.1979 Y167.8577 E0.49984 F3000 ; Fill
G0 X137.9231 Y167.8577 F9000 ; Move
G1 X130.2337 Y175.5471 E0.49984 F3000 ; Fill
G0 X130.9589 Y175.5471 F9000 ; Move
G1 X138.6483 Y167.8577 E0.49984 F3000 ; Fill
G0 X139.3735 Y167.8577 F9000 ; Move
G1 X131.6841 Y175.5471 E0.49984 F3000 ; Fill
G0 X132.4093 Y175.5471 F9000 ; Move
G1 X140.0987 Y167.8577 E0.49984 F3000 ; Fill
G0 X140.8239 Y167.8577 F9000 ; Move
G1 X133.1345 Y175.5471 E0.49984 F3000 ; Fill
G0 X133.8597 Y175.5471 F9000 ; Move
G1 X141.5491 Y167.8577 E0.49984 F3000 ; Fill
G0 X142.2743 Y167.8577 F9000 ; Move
G1 X134.5849 Y175.5471 E0.49984 F3000 ; Fill
G0 X135.3101 Y175.5471 F9000 ; Move
G1 X142.9995 Y167.8577 E0.49984 F3000 ; Fill
G0 X143.7247 Y167.8577 F9000 ; Move
G1 X136.0353 Y175.5471 E0.49984 F3000 ; Fill
G0 X136.7605 Y175.5471 F9000 ; Move
G1 X144.4499 Y167.8577 E0.49984 F3000 ; Fill
G0 X145.1751 Y167.8577 F9000 ; Move
G1 X137.4857 Y175.5471 E0.49984 F3000 ; Fill
G0 X138.2108 Y175.5471 F9000 ; Move
G1 X145.9002 Y167.8577 E0.49984 F3000 ; Fill
G0 X146.6254 Y167.8577 F9000 ; Move
G1 X138.936 Y175.5471 E0.49984 F3000 ; Fill
G0 X139.6612 Y175.5471 F9000 ; Move
G1 X147.3506 Y167.8577 E0.49984 F3000 ; Fill
G0 X148.0758 Y167.8577 F9000 ; Move
G1 X140.3864 Y175.5471 E0.49984 F3000 ; Fill
G0 X141.1116 Y175.5471 F9000 ; Move
G1 X148.801 Y167.8577 E0.49984 F3000 ; Fill
G0 X149.5262 Y167.8577 F9000 ; Move
G1 X141.8368 Y175.5471 E0.49984 F3000 ; Fill
G0 X142.562 Y175.5471 F9000 ; Move
G1 X150.2514 Y167.8577 E0.49984 F3000 ; Fill
G0 X150.9766 Y167.8577 F9000 ; Move
G1 X143.2872 Y175.5471 E0.49984 F3000 ; Fill
G0 X144.0124 Y175.5471 F9000 ; Move
G1 X151.7018 Y167.8577 E0.49984 F3000 ; Fill
G0 X152.427 Y167.8577 F9000 ; Move
G1 X144.7376 Y175.5471 E0.49984 F3000 ; Fill
G0 X145.4628 Y175.5471 F9000 ; Move
G1 X153.1522 Y167.8577 E0.49984 F3000 ; Fill
G0 X153.8773 Y167.8577 F9000 ; Move
G1 X146.188 Y175.5471 E0.49984 F3000 ; Fill
G0 X146.9131 Y175.5471 F9000 ; Move
G1 X154.6025 Y167.8577 E0.49984 F3000 ; Fill
G0 X155.3277 Y167.8577 F9000 ; Move
G1 X147.6383 Y175.5471 E0.49984 F3000 ; Fill
G0 X148.3635 Y175.5471 F9000 ; Move
G1 X156.0529 Y167.8577 E0.49984 F3000 ; Fill
G0 X156.7781 Y167.8577 F9000 ; Move
G1 X149.0887 Y175.5471 E0.49984 F3000 ; Fill
G0 X149.8139 Y175.5471 F9000 ; Move
G1 X157.5033 Y167.8577 E0.49984 F3000 ; Fill
G0 X158.2285 Y167.8577 F9000 ; Move
G1 X150.5391 Y175.5471 E0.49984 F3000 ; Fill
G0 X151.2643 Y175.5471 F9000 ; Move
G1 X158.9537 Y167.8577 E0.49984 F3000 ; Fill
G0 X159.6789 Y167.8577 F9000 ; Move
G1 X151.9895 Y175.5471 E0.49984 F3000 ; Fill
G0 X152.7147 Y175.5471 F9000 ; Move
G1 X160.4041 Y167.8577 E0.49984 F3000 ; Fill
G0 X161.1293 Y167.8577 F9000 ; Move
G1 X153.4399 Y175.5471 E0.49984 F3000 ; Fill
G0 X154.1651 Y175.5471 F9000 ; Move
G1 X161.8544 Y167.8577 E0.49984 F3000 ; Fill
G0 X162.5796 Y167.8577 F9000 ; Move
G1 X154.8902 Y175.5471 E0.49984 F3000 ; Fill
G0 X155.6154 Y175.5471 F9000 ; Move
G1 X163.3048 Y167.8577 E0.49984 F3000 ; Fill
G0 X164.03 Y167.8577 F9000 ; Move
G1 X156.3406 Y175.5471 E0.49984 F3000 ; Fill
G0 X157.0658 Y175.5471 F9000 ; Move
G1 X164.7552 Y167.8577 E0.49984 F3000 ; Fill
G0 X165.4804 Y167.8577 F9000 ; Move
G1 X157.791 Y175.5471 E0.49984 F3000 ; Fill
G0 X158.5162 Y175.5471 F9000 ; Move
G1 X166.2056 Y167.8577 E0.49984 F3000 ; Fill
G0 X166.9308 Y167.8577 F9000 ; Move
G1 X159.2414 Y175.5471 E0.49984 F3000 ; Fill
G0 X159.9666 Y175.5471 F9000 ; Move
G1 X167.656 Y167.8577 E0.49984 F3000 ; Fill
G0 X168.3812 Y167.8577 F9000 ; Move
G1 X160.6918 Y175.5471 E0.49984 F3000 ; Fill
G0 X161.417 Y175.5471 F9000 ; Move
G1 X169.1064 Y167.8577 E0.49984 F3000 ; Fill
G0 X169.8316 Y167.8577 F9000 ; Move
G1 X162.1422 Y175.5471 E0.49984 F3000 ; Fill
G0 X162.8673 Y175.5471 F9000 ; Move
G1 X169.8806 Y168.5339 E0.45588 F3000 ; Fill
G0 X169.8806 Y169.2591 F9000 ; Move
G1 X163.5925 Y175.5471 E0.40874 F3000 ; Fill
G0 X164.3177 Y175.5471 F9000 ; Move
G1 X169.8806 Y169.9843 E0.3616 F3000 ; Fill
G0 X169.8806 Y170.7094 F9000 ; Move
G1 X165.0429 Y175.5471 E0.31446 F3000 ; Fill
G0 X165.7681 Y175.5471 F9000 ; Move
G1 X169.8806 Y171.4346 E0.26732 F3000 ; Fill
G0 X169.8806 Y172.1598 F9000 ; Move
G1 X166.4933 Y175.5471 E0.22018 F3000 ; Fill
G0 X167.2185 Y175.5471 F9000 ; Move
G1 X169.8806 Y172.885 E0.17304 F3000 ; Fill
G0 X169.8806 Y173.6102 F9000 ; Move
G1 X167.9437 Y175.5471 E0.1259 F3000 ; Fill
G0 X168.6689 Y175.5471 F9000 ; Move
G1 X169.8806 Y174.3354 E0.07876 F3000 ; Fill
G0 X169.8806 Y175.0606 F9000 ; Move
G1 X169.3941 Y175.5471 E0.03162 F3000 ; Fill
G0 Z0.22 F9000 ; Move to layer height
G1 E-0.8 F2100 ; Retract
G1 Z0.52 F9000 ; Z hop
G0 X112.3511 Y124.9185 F9000 ; Move to pattern start

G1 Z0.22 F9000 ; Z hop return
G1 E0.8 F0 ; Un-retract
SET_PRESSURE_ADVANCE ADVANCE=0 ; Set pressure advance
M117 PA 0
G1 X131.6526 Y144.22 E0.98552 F3000 ; Print pattern wall
G1 X112.3511 Y163.5215 E0.98552 F3000 ; Print pattern wall
G1 E-0.8 F2100 ; Retract
G1 Z0.52 F9000 ; Z hop
G0 X112.9207 Y124.9185 F9000 ; Move to start next pattern wall
G1 Z0.22 F9000 ; Z hop return
G1 E0.8 F0 ; Un-retract
G1 X132.2222 Y144.22 E0.98552 F3000 ; Print pattern wall
G1 X112.9207 Y163.5215 E0.98552 F3000 ; Print pattern wall
G1 E-0.8 F2100 ; Retract
G1 Z0.52 F9000 ; Z hop
G0 X113.4903 Y124.9185 F9000 ; Move to start next pattern wall
G1 Z0.22 F9000 ; Z hop return
G1 E0.8 F0 ; Un-retract
G1 X132.7918 Y144.22 E0.98552 F3000 ; Print pattern wall
G1 X113.4903 Y163.5215 E0.98552 F3000 ; Print pattern wall
G1 E-0.8 F2100 ; Retract
G1 Z0.52 F9000 ; Z hop
G0 X115.9403 Y124.9185 F9000 ; Move to next pattern
G1 Z0.22 F9000 ; Z hop return
G1 E0.8 F0 ; Un-retract
SET_PRESSURE_ADVANCE ADVANCE=0.005 ; Set pressure advance
M117 PA 0.005
G1 X135.2418 Y144.22 E0.98552 F3000 ; Print pattern wall
G1 X115.9403 Y163.5215 E0.98552 F3000 ; Print pattern wall
G1 E-0.8 F2100 ; Retract
G1 Z0.52 F9000 ; Z hop
G0 X116.5099 Y124.9185 F9000 ; Move to start next pattern wall
G1 Z0.22 F9000 ; Z hop return
G1 E0.8 F0 ; Un-retract
G1 X135.8114 Y144.22 E0.98552 F3000 ; Print pattern wall
G1 X116.5099 Y163.5215 E0.98552 F3000 ; Print pattern wall
G1 E-0.8 F2100 ; Retract
G1 Z0.52 F9000 ; Z hop
G0 X117.0796 Y124.9185 F9000 ; Move to start next pattern wall
G1 Z0.22 F9000 ; Z hop return
G1 E0.8 F0 ; Un-retract
G1 X136.3811 Y144.22 E0.98552 F3000 ; Print pattern wall
G1 X117.0796 Y163.5215 E0.98552 F3000 ; Print pattern wall
G1 E-0.8 F2100 ; Retract
G1 Z0.52 F9000 ; Z hop
G0 X119.5296 Y124.9185 F9000 ; Move to next pattern
G1 Z0.22 F9000 ; Z hop return
G1 E0.8 F0 ; Un-retract
SET_PRESSURE_ADVANCE ADVANCE=0.01 ; Set pressure advance
M117 PA 0.01
G1 X138.8311 Y144.22 E0.98552 F3000 ; Print pattern wall
G1 X119.5296 Y163.5215 E0.98552 F3000 ; Print pattern wall
G1 E-0.8 F2100 ; Retract
G1 Z0.52 F9000 ; Z hop
G0 X120.0992 Y124.9185 F9000 ; Move to start next pattern wall
G1 Z0.22 F9000 ; Z hop return
G1 E0.8 F0 ; Un-retract
G1 X139.4007 Y144.22 E0.98552 F3000 ; Print pattern wall
G1 X120.0992 Y163.5215 E0.98552 F3000 ; Print pattern wall
G1 E-0.8 F2100 ; Retract
G1 Z0.52 F9000 ; Z hop
G0 X120.6688 Y124.9185 F9000 ; Move to start next pattern wall
G1 Z0.22 F9000 ; Z hop return
G1 E0.8 F0 ; Un-retract
G1 X139.9703 Y144.22 E0.98552 F3000 ; Print pattern wall
G1 X120.6688 Y163.5215 E0.98552 F3000 ; Print pattern wall
G1 E-0.8 F2100 ; Retract
G1 Z0.52 F9000 ; Z hop
G0 X123.1188 Y124.9185 F9000 ; Move to next pattern
G1 Z0.22 F9000 ; Z hop return
G1 E0.8 F0 ; Un-retract
SET_PRESSURE_ADVANCE ADVANCE=0.015 ; Set pressure advance
M117 PA 0.015
G1 X142.4203 Y144.22 E0.98552 F3000 ; Print pattern wall
G1 X123.1188 Y163.5215 E0.98552 F3000 ; Print pattern wall
G1 E-0.8 F2100 ; Retract
G1 Z0.52 F9000 ; Z hop
G0 X123.6885 Y124.9185 F9000 ; Move to start next pattern wall
G1 Z0.22 F9000 ; Z hop return
G1 E0.8 F0 ; Un-retract
G1 X142.99 Y144.22 E0.98552 F3000 ; Print pattern wall
G1 X123.6885 Y163.5215 E0.98552 F3000 ; Print pattern wall
G1 E-0.8 F2100 ; Retract
G1 Z0.52 F9000 ; Z hop
G0 X124.2581 Y124.9185 F9000 ; Move to start next pattern wall
G1 Z0.22 F9000 ; Z hop return
G1 E0.8 F0 ; Un-retract
G1 X143.5596 Y144.22 E0.98552 F3000 ; Print pattern wall
G1 X124.2581 Y163.5215 E0.98552 F3000 ; Print pattern wall
G1 E-0.8 F2100 ; Retract
G1 Z0.52 F9000 ; Z hop
G0 X126.7081 Y124.9185 F9000 ; Move to next pattern
G1 Z0.22 F9000 ; Z hop return
G1 E0.8 F0 ; Un-retract
SET_PRESSURE_ADVANCE ADVANCE=0.02 ; Set pressure advance
M117 PA 0.02
G1 X146.0096 Y144.22 E0.98552 F3000 ; Print pattern wall
G1 X126.7081 Y163.5215 E0.98552 F3000 ; Print pattern wall
G1 E-0.8 F2100 ; Retract
G1 Z0.52 F9000 ; Z hop
G0 X127.2777 Y124.9185 F9000 ; Move to start next pattern wall
G1 Z0.22 F9000 ; Z hop return
G1 E0.8 F0 ; Un-retract
G1 X146.5792 Y144.22 E0.98552 F3000 ; Print pattern wall
G1 X127.2777 Y163.5215 E0.98552 F3000 ; Print pattern wall
G1 E-0.8 F2100 ; Retract
G1 Z0.52 F9000 ; Z hop
G0 X127.8473 Y124.9185 F9000 ; Move to start next pattern wall
G1 Z0.22 F9000 ; Z hop return
G1 E0.8 F0 ; Un-retract
G1 X147.1488 Y144.22 E0.98552 F3000 ; Print pattern wall
G1 X127.8473 Y163.5215 E0.98552 F3000 ; Print pattern wall
G1 E-0.8 F2100 ; Retract
G1 Z0.52 F9000 ; Z hop
G0 X130.2973 Y124.9185 F9000 ; Move to next pattern
G1 Z0.22 F9000 ; Z hop return
G1 E0.8 F0 ; Un-retract
SET_PRESSURE_ADVANCE ADVANCE=0.025 ; Set pressure advance
M117 PA 0.025
G1 X149.5988 Y144.22 E0.98552 F3000 ; Print pattern wall
G1 X130.2973 Y163.5215 E0.98552 F3000 ; Print pattern wall
G1 E-0.8 F2100 ; Retract
G1 Z0.52 F9000 ; Z hop
G0 X130.867 Y124.9185 F9000 ; Move to start next pattern wall
G1 Z0.22 F9000 ; Z hop return
G1 E0.8 F0 ; Un-retract
G1 X150.1685 Y144.22 E0.98552 F3000 ; Print pattern wall
G1 X130.867 Y163.5215 E0.98552 F3000 ; Print pattern wall
G1 E-0.8 F2100 ; Retract
G1 Z0.52 F9000 ; Z hop
G0 X131.4366 Y124.9185 F9000 ; Move to start next pattern wall
G1 Z0.22 F9000 ; Z hop return
G1 E0.8 F0 ; Un-retract
G1 X150.7381 Y144.22 E0.98552 F3000 ; Print pattern wall
G1 X131.4366 Y163.5215 E0.98552 F3000 ; Print pattern wall
G1 E-0.8 F2100 ; Retract
G1 Z0.52 F9000 ; Z hop
G0 X133.8866 Y124.9185 F9000 ; Move to next pattern
G1 Z0.22 F9000 ; Z hop return
G1 E0.8 F0 ; Un-retract
SET_PRESSURE_ADVANCE ADVANCE=0.03 ; Set pressure advance
M117 PA 0.03
G1 X153.1881 Y144.22 E0.98552 F3000 ; Print pattern wall
G1 X133.8866 Y163.5215 E0.98552 F3000 ; Print pattern wall
G1 E-0.8 F2100 ; Retract
G1 Z0.52 F9000 ; Z hop
G0 X134.4562 Y124.9185 F9000 ; Move to start next pattern wall
G1 Z0.22 F9000 ; Z hop return
G1 E0.8 F0 ; Un-retract
G1 X153.7577 Y144.22 E0.98552 F3000 ; Print pattern wall
G1 X134.4562 Y163.5215 E0.98552 F3000 ; Print pattern wall
G1 E-0.8 F2100 ; Retract
G1 Z0.52 F9000 ; Z hop
G0 X135.0258 Y124.9185 F9000 ; Move to start next pattern wall
G1 Z0.22 F9000 ; Z hop return
G1 E0.8 F0 ; Un-retract
G1 X154.3274 Y144.22 E0.98552 F3000 ; Print pattern wall
G1 X135.0258 Y163.5215 E0.98552 F3000 ; Print pattern wall
G1 E-0.8 F2100 ; Retract
G1 Z0.52 F9000 ; Z hop
G0 X137.4758 Y124.9185 F9000 ; Move to next pattern
G1 Z0.22 F9000 ; Z hop return
G1 E0.8 F0 ; Un-retract
SET_PRESSURE_ADVANCE ADVANCE=0.035 ; Set pressure advance
M117 PA 0.035
G1 X156.7774 Y144.22 E0.98552 F3000 ; Print pattern wall
G1 X137.4758 Y163.5215 E0.98552 F3000 ; Print pattern wall
G1 E-0.8 F2100 ; Retract
G1 Z0.52 F9000 ; Z hop
G0 X138.0455 Y124.9185 F9000 ; Move to start next pattern wall
G1 Z0.22 F9000 ; Z hop return
G1 E0.8 F0 ; Un-retract
G1 X157.347 Y144.22 E0.98552 F3000 ; Print pattern wall
G1 X138.0455 Y163.5215 E0.98552 F3000 ; Print pattern wall
G1 E-0.8 F2100 ; Retract
G1 Z0.52 F9000 ; Z hop
G0 X138.6151 Y124.9185 F9000 ; Move to start next pattern wall
G1 Z0.22 F9000 ; Z hop return
G1 E0.8 F0 ; Un-retract
G1 X157.9166 Y144.22 E0.98552 F3000 ; Print pattern wall
G1 X138.6151 Y163.5215 E0.98552 F3000 ; Print pattern wall
G1 E-0.8 F2100 ; Retract
G1 Z0.52 F9000 ; Z hop
G0 X141.0651 Y124.9185 F9000 ; Move to next pattern
G1 Z0.22 F9000 ; Z hop return
G1 E0.8 F0 ; Un-retract
SET_PRESSURE_ADVANCE ADVANCE=0.04 ; Set pressure advance
M117 PA 0.04
G1 X160.3666 Y144.22 E0.98552 F3000 ; Print pattern wall
G1 X141.0651 Y163.5215 E0.98552 F3000 ; Print pattern wall
G1 E-0.8 F2100 ; Retract
G1 Z0.52 F9000 ; Z hop
G0 X141.6347 Y124.9185 F9000 ; Move to start next pattern wall
G1 Z0.22 F9000 ; Z hop return
G1 E0.8 F0 ; Un-retract
G1 X160.9362 Y144.22 E0.98552 F3000 ; Print pattern wall
G1 X141.6347 Y163.5215 E0.98552 F3000 ; Print pattern wall
G1 E-0.8 F2100 ; Retract
G1 Z0.52 F9000 ; Z hop
G0 X142.2044 Y124.9185 F9000 ; Move to start next pattern wall
G1 Z0.22 F9000 ; Z hop return
G1 E0.8 F0 ; Un-retract
G1 X161.5059 Y144.22 E0.98552 F3000 ; Print pattern wall
G1 X142.2044 Y163.5215 E0.98552 F3000 ; Print pattern wall
G1 E-0.8 F2100 ; Retract
G1 Z0.52 F9000 ; Z hop
G0 X144.6544 Y124.9185 F9000 ; Move to next pattern
G1 Z0.22 F9000 ; Z hop return
G1 E0.8 F0 ; Un-retract
SET_PRESSURE_ADVANCE ADVANCE=0.045 ; Set pressure advance
M117 PA 0.045
G1 X163.9559 Y144.22 E0.98552 F3000 ; Print pattern wall
G1 X144.6544 Y163.5215 E0.98552 F3000 ; Print pattern wall
G1 E-0.8 F2100 ; Retract
G1 Z0.52 F9000 ; Z hop
G0 X145.224 Y124.9185 F9000 ; Move to start next pattern wall
G1 Z0.22 F9000 ; Z hop return
G1 E0.8 F0 ; Un-retract
G1 X164.5255 Y144.22 E0.98552 F3000 ; Print pattern wall
G1 X145.224 Y163.5215 E0.98552 F3000 ; Print pattern wall
G1 E-0.8 F2100 ; Retract
G1 Z0.52 F9000 ; Z hop
G0 X145.7936 Y124.9185 F9000 ; Move to start next pattern wall
G1 Z0.22 F9000 ; Z hop return
G1 E0.8 F0 ; Un-retract
G1 X165.0951 Y144.22 E0.98552 F3000 ; Print pattern wall
G1 X145.7936 Y163.5215 E0.98552 F3000 ; Print pattern wall
G1 E-0.8 F2100 ; Retract
G1 Z0.52 F9000 ; Z hop
G0 X148.2436 Y124.9185 F9000 ; Move to next pattern
G1 Z0.22 F9000 ; Z hop return
G1 E0.8 F0 ; Un-retract
SET_PRESSURE_ADVANCE ADVANCE=0.05 ; Set pressure advance
M117 PA 0.05
G1 X167.5451 Y144.22 E0.98552 F3000 ; Print pattern wall
G1 X148.2436 Y163.5215 E0.98552 F3000 ; Print pattern wall
G1 E-0.8 F2100 ; Retract
G1 Z0.52 F9000 ; Z hop
G0 X148.8132 Y124.9185 F9000 ; Move to start next pattern wall
G1 Z0.22 F9000 ; Z hop return
G1 E0.8 F0 ; Un-retract
G1 X168.1147 Y144.22 E0.98552 F3000 ; Print pattern wall
G1 X148.8132 Y163.5215 E0.98552 F3000 ; Print pattern wall
G1 E-0.8 F2100 ; Retract
G1 Z0.52 F9000 ; Z hop
G0 X149.3829 Y124.9185 F9000 ; Move to start next pattern wall
G1 Z0.22 F9000 ; Z hop return
G1 E0.8 F0 ; Un-retract
G1 X168.6844 Y144.22 E0.98552 F3000 ; Print pattern wall
G1 X149.3829 Y163.5215 E0.98552 F3000 ; Print pattern wall
G1 E-0.8 F2100 ; Retract
G1 Z0.52 F9000 ; Z hop
G0 X151.8329 Y124.9185 F9000 ; Move to next pattern
G1 Z0.22 F9000 ; Z hop return
G1 E0.8 F0 ; Un-retract
SET_PRESSURE_ADVANCE ADVANCE=0.055 ; Set pressure advance
M117 PA 0.055
G1 X171.1344 Y144.22 E0.98552 F3000 ; Print pattern wall
G1 X151.8329 Y163.5215 E0.98552 F3000 ; Print pattern wall
G1 E-0.8 F2100 ; Retract
G1 Z0.52 F9000 ; Z hop
G0 X152.4025 Y124.9185 F9000 ; Move to start next pattern wall
G1 Z0.22 F9000 ; Z hop return
G1 E0.8 F0 ; Un-retract
G1 X171.704 Y144.22 E0.98552 F3000 ; Print pattern wall
G1 X152.4025 Y163.5215 E0.98552 F3000 ; Print pattern wall
G1 E-0.8 F2100 ; Retract
G1 Z0.52 F9000 ; Z hop
G0 X152.9721 Y124.9185 F9000 ; Move to start next pattern wall
G1 Z0.22 F9000 ; Z hop return
G1 E0.8 F0 ; Un-retract
G1 X172.2736 Y144.22 E0.98552 F3000 ; Print pattern wall
G1 X152.9721 Y163.5215 E0.98552 F3000 ; Print pattern wall
G1 E-0.8 F2100 ; Retract
G1 Z0.52 F9000 ; Z hop
G0 X155.4221 Y124.9185 F9000 ; Move to next pattern
G1 Z0.22 F9000 ; Z hop return
G1 E0.8 F0 ; Un-retract
SET_PRESSURE_ADVANCE ADVANCE=0.06 ; Set pressure advance
M117 PA 0.06
G1 X174.7236 Y144.22 E0.98552 F3000 ; Print pattern wall
G1 X155.4221 Y163.5215 E0.98552 F3000 ; Print pattern wall
G1 E-0.8 F2100 ; Retract
G1 Z0.52 F9000 ; Z hop
G0 X155.9917 Y124.9185 F9000 ; Move to start next pattern wall
G1 Z0.22 F9000 ; Z hop return
G1 E0.8 F0 ; Un-retract
G1 X175.2933 Y144.22 E0.98552 F3000 ; Print pattern wall
G1 X155.9917 Y163.5215 E0.98552 F3000 ; Print pattern wall
G1 E-0.8 F2100 ; Retract
G1 Z0.52 F9000 ; Z hop
G0 X156.5614 Y124.9185 F9000 ; Move to start next pattern wall
G1 Z0.22 F9000 ; Z hop return
G1 E0.8 F0 ; Un-retract
G1 X175.8629 Y144.22 E0.98552 F3000 ; Print pattern wall
G1 X156.5614 Y163.5215 E0.98552 F3000 ; Print pattern wall
G1 E-0.8 F2100 ; Retract
G1 Z0.52 F9000 ; Z hop
G0 X159.0114 Y124.9185 F9000 ; Move to next pattern
G1 Z0.22 F9000 ; Z hop return
G1 E0.8 F0 ; Un-retract
SET_PRESSURE_ADVANCE ADVANCE=0.065 ; Set pressure advance
M117 PA 0.065
G1 X178.3129 Y144.22 E0.98552 F3000 ; Print pattern wall
G1 X159.0114 Y163.5215 E0.98552 F3000 ; Print pattern wall
G1 E-0.8 F2100 ; Retract
G1 Z0.52 F9000 ; Z hop
G0 X159.581 Y124.9185 F9000 ; Move to start next pattern wall
G1 Z0.22 F9000 ; Z hop return
G1 E0.8 F0 ; Un-retract
G1 X178.8825 Y144.22 E0.98552 F3000 ; Print pattern wall
G1 X159.581 Y163.5215 E0.98552 F3000 ; Print pattern wall
G1 E-0.8 F2100 ; Retract
G1 Z0.52 F9000 ; Z hop
G0 X160.1506 Y124.9185 F9000 ; Move to start next pattern wall
G1 Z0.22 F9000 ; Z hop return
G1 E0.8 F0 ; Un-retract
G1 X179.4521 Y144.22 E0.98552 F3000 ; Print pattern wall
G1 X160.1506 Y163.5215 E0.98552 F3000 ; Print pattern wall
G1 E-0.8 F2100 ; Retract
G1 Z0.52 F9000 ; Z hop
G0 X162.6006 Y124.9185 F9000 ; Move to next pattern
G1 Z0.22 F9000 ; Z hop return
G1 E0.8 F0 ; Un-retract
SET_PRESSURE_ADVANCE ADVANCE=0.07 ; Set pressure advance
M117 PA 0.07
G1 X181.9021 Y144.22 E0.98552 F3000 ; Print pattern wall
G1 X162.6006 Y163.5215 E0.98552 F3000 ; Print pattern wall
G1 E-0.8 F2100 ; Retract
G1 Z0.52 F9000 ; Z hop
G0 X163.1703 Y124.9185 F9000 ; Move to start next pattern wall
G1 Z0.22 F9000 ; Z hop return
G1 E0.8 F0 ; Un-retract
G1 X182.4718 Y144.22 E0.98552 F3000 ; Print pattern wall
G1 X163.1703 Y163.5215 E0.98552 F3000 ; Print pattern wall
G1 E-0.8 F2100 ; Retract
G1 Z0.52 F9000 ; Z hop
G0 X163.7399 Y124.9185 F9000 ; Move to start next pattern wall
G1 Z0.22 F9000 ; Z hop return
G1 E0.8 F0 ; Un-retract
G1 X183.0414 Y144.22 E0.98552 F3000 ; Print pattern wall
G1 X163.7399 Y163.5215 E0.98552 F3000 ; Print pattern wall
G1 E-0.8 F2100 ; Retract
G1 Z0.52 F9000 ; Z hop
G0 X166.1899 Y124.9185 F9000 ; Move to next pattern
G1 Z0.22 F9000 ; Z hop return
G1 E0.8 F0 ; Un-retract
SET_PRESSURE_ADVANCE ADVANCE=0.075 ; Set pressure advance
M117 PA 0.075
G1 X185.4914 Y144.22 E0.98552 F3000 ; Print pattern wall
G1 X166.1899 Y163.5215 E0.98552 F3000 ; Print pattern wall
G1 E-0.8 F2100 ; Retract
G1 Z0.52 F9000 ; Z hop
G0 X166.7595 Y124.9185 F9000 ; Move to start next pattern wall
G1 Z0.22 F9000 ; Z hop return
G1 E0.8 F0 ; Un-retract
G1 X186.061 Y144.22 E0.98552 F3000 ; Print pattern wall
G1 X166.7595 Y163.5215 E0.98552 F3000 ; Print pattern wall
G1 E-0.8 F2100 ; Retract
G1 Z0.52 F9000 ; Z hop
G0 X167.3291 Y124.9185 F9000 ; Move to start next pattern wall
G1 Z0.22 F9000 ; Z hop return
G1 E0.8 F0 ; Un-retract
G1 X186.6307 Y144.22 E0.98552 F3000 ; Print pattern wall
G1 X167.3291 Y163.5215 E0.98552 F3000 ; Print pattern wall
G1 E-0.8 F2100 ; Retract
G1 Z0.52 F9000 ; Z hop
G0 X169.7791 Y124.9185 F9000 ; Move to next pattern
G1 Z0.22 F9000 ; Z hop return
G1 E0.8 F0 ; Un-retract
SET_PRESSURE_ADVANCE ADVANCE=0.08 ; Set pressure advance
M117 PA 0.08
G1 X189.0807 Y144.22 E0.98552 F3000 ; Print pattern wall
G1 X169.7791 Y163.5215 E0.98552 F3000 ; Print pattern wall
G1 E-0.8 F2100 ; Retract
G1 Z0.52 F9000 ; Z hop
G0 X170.3488 Y124.9185 F9000 ; Move to start next pattern wall
G1 Z0.22 F9000 ; Z hop return
G1 E0.8 F0 ; Un-retract
G1 X189.6503 Y144.22 E0.98552 F3000 ; Print pattern wall
G1 X170.3488 Y163.5215 E0.98552 F3000 ; Print pattern wall
G1 E-0.8 F2100 ; Retract
G1 Z0.52 F9000 ; Z hop
G0 X170.9184 Y124.9185 F9000 ; Move to start next pattern wall
G1 Z0.22 F9000 ; Z hop return
G1 E0.8 F0 ; Un-retract
G1 X190.2199 Y144.22 E0.98552 F3000 ; Print pattern wall
G1 X170.9184 Y163.5215 E0.98552 F3000 ; Print pattern wall
G1 E-0.8 F2100 ; Retract
G1 Z0.52 F9000 ; Z hop
G0 X112.3511 Y124.9185 F9000 ; Move back to start position
G1 Z0.22 F9000 ; Z hop return
G1 E0.8 F0 ; Un-retract
M106 S0 ; Set fan speed
G0 Z0.44 F9000 ; Move to layer height
SET_PRESSURE_ADVANCE ADVANCE=0 ; Set pressure advance to start value for numbering
M117 PA 0
G1 E-0.8 F2100 ; Retract
G1 Z0.74 F9000 ; Z hop
G0 X109.009 Y166.8832 F9000 ; Move
G1 Z0.44 F9000 ; Z hop return
G1 E0.8 F0 ; Un-retract
G1 X111.009 Y166.8832 E0.07221 F3000 ; Glyph: 0
G1 X113.009 Y166.8832 E0.07221 F3000 ; Glyph: 0
G1 X113.009 Y168.8832 E0.07221 F3000 ; Glyph: 0
G1 X111.009 Y168.8832 E0.07221 F3000 ; Glyph: 0
G1 X109.009 Y168.8832 E0.07221 F3000 ; Glyph: 0
G1 X109.009 Y166.8832 E0.07221 F3000 ; Glyph: 0
G1 E-0.8 F2100 ; Retract
G1 Z0.74 F9000 ; Z hop
G0 X116.1875 Y166.8832 F9000 ; Move
G1 Z0.44 F9000 ; Z hop return
G1 E0.8 F0 ; Un-retract
G1 X118.1875 Y166.8832 E0.07221 F3000 ; Glyph: 0
G1 X120.1875 Y166.8832 E0.07221 F3000 ; Glyph: 0
G1 X120.1875 Y168.8832 E0.07221 F3000 ; Glyph: 0
G1 X118.1875 Y168.8832 E0.07221 F3000 ; Glyph: 0
G1 X116.1875 Y168.8832 E0.07221 F3000 ; Glyph: 0
G1 X116.1875 Y166.8832 E0.07221 F3000 ; Glyph: 0
G1 E-0.8 F2100 ; Retract
G1 Z0.74 F9000 ; Z hop
G0 X120.1875 Y169.8832 F9000 ; Move
G1 Z0.44 F9000 ; Z hop return
G1 E0.8 F0 ; Un-retract
G1 X119.4375 Y169.8832 E0.02708 F3000 ; Glyph: .
G1 E-0.8 F2100 ; Retract
G1 Z0.74 F9000 ; Z hop
G0 X116.1875 Y170.8832 F9000 ; Move
G1 Z0.44 F9000 ; Z hop return
G1 E0.8 F0 ; Un-retract
G1 X118.1875 Y170.8832 E0.07221 F3000 ; Glyph: 0
G1 X120.1875 Y170.8832 E0.07221 F3000 ; Glyph: 0
G1 X120.1875 Y172.8832 E0.07221 F3000 ; Glyph: 0
G1 X118.1875 Y172.8832 E0.07221 F3000 ; Glyph: 0
G1 X116.1875 Y172.8832 E0.07221 F3000 ; Glyph: 0
G1 X116.1875 Y170.8832 E0.07221 F3000 ; Glyph: 0
G1 E-0.8 F2100 ; Retract
G1 Z0.74 F9000 ; Z hop
G0 X116.1875 Y173.8832 F9000 ; Move
G1 Z0.44 F9000 ; Z hop return
G1 E0.8 F0 ; Un-retract
G1 X118.1875 Y173.8832 E0.07221 F3000 ; Glyph: 1
G1 X120.1875 Y173.8832 E0.07221 F3000 ; Glyph: 1
G1 E-0.8 F2100 ; Retract
G1 Z0.74 F9000 ; Z hop
G0 X123.366 Y166.8832 F9000 ; Move
G1 Z0.44 F9000 ; Z hop return
G1 E0.8 F0 ; Un-retract
G1 X125.366 Y166.8832 E0.07221 F3000 ; Glyph: 0
G1 X127.366 Y166.8832 E0.07221 F3000 ; Glyph: 0
G1 X127.366 Y168.8832 E0.07221 F3000 ; Glyph: 0
G1 X125.366 Y168.8832 E0.07221 F3000 ; Glyph: 0
G1 X123.366 Y168.8832 E0.07221 F3000 ; Glyph: 0
G1 X123.366 Y166.8832 E0.07221 F3000 ; Glyph: 0
G1 E-0.8 F2100 ; Retract
G1 Z0.74 F9000 ; Z hop
G0 X127.366 Y169.8832 F9000 ; Move
G1 Z0.44 F9000 ; Z hop return
G1 E0.8 F0 ; Un-retract
G1 X126.616 Y169.8832 E0.02708 F3000 ; Glyph: .
G1 E-0.8 F2100 ; Retract
G1 Z0.74 F9000 ; Z hop
G0 X123.366 Y170.8832 F9000 ; Move
G1 Z0.44 F9000 ; Z hop return
G1 E0.8 F0 ; Un-retract
G1 X125.366 Y170.8832 E0.07221 F3000 ; Glyph: 0
G1 X127.366 Y170.8832 E0.07221 F3000 ; Glyph: 0
G1 X127.366 Y172.8832 E0.07221 F3000 ; Glyph: 0
G1 X125.366 Y172.8832 E0.07221 F3000 ; Glyph: 0
G1 X123.366 Y172.8832 E0.07221 F3000 ; Glyph: 0
G1 X123.366 Y170.8832 E0.07221 F3000 ; Glyph: 0
G1 E-0.8 F2100 ; Retract
G1 Z0.74 F9000 ; Z hop
G0 X123.366 Y173.8832 F9000 ; Move
G1 Z0.44 F9000 ; Z hop return
G1 E0.8 F0 ; Un-retract
G1 X123.366 Y175.8832 E0.07221 F3000 ; Glyph: 2
G1 X125.366 Y175.8832 E0.07221 F3000 ; Glyph: 2
G1 X125.366 Y173.8832 E0.07221 F3000 ; Glyph: 2
G1 X127.366 Y173.8832 E0.07221 F3000 ; Glyph: 2
G1 X127.366 Y175.8832 E0.07221 F3000 ; Glyph: 2
G1 E-0.8 F2100 ; Retract
G1 Z0.74 F9000 ; Z hop
G0 X130.5445 Y166.8832 F9000 ; Move
G1 Z0.44 F9000 ; Z hop return
G1 E0.8 F0 ; Un-retract
G1 X132.5445 Y166.8832 E0.07221 F3000 ; Glyph: 0
G1 X134.5445 Y166.8832 E0.07221 F3000 ; Glyph: 0
G1 X134.5445 Y168.8832 E0.07221 F3000 ; Glyph: 0
G1 X132.5445 Y168.8832 E0.07221 F3000 ; Glyph: 0
G1 X130.5445 Y168.8832 E0.07221 F3000 ; Glyph: 0
G1 X130.5445 Y166.8832 E0.07221 F3000 ; Glyph: 0
G1 E-0.8 F2100 ; Retract
G1 Z0.74 F9000 ; Z hop
G0 X134.5445 Y169.8832 F9000 ; Move
G1 Z0.44 F9000 ; Z hop return
G1 E0.8 F0 ; Un-retract
G1 X133.7945 Y169.8832 E0.02708 F3000 ; Glyph: .
G1 E-0.8 F2100 ; Retract
G1 Z0.74 F9000 ; Z hop
G0 X130.5445 Y170.8832 F9000 ; Move
G1 Z0.44 F9000 ; Z hop return
G1 E0.8 F0 ; Un-retract
G1 X132.5445 Y170.8832 E0.07221 F3000 ; Glyph: 0
G1 X134.5445 Y170.8832 E0.07221 F3000 ; Glyph: 0
G1 X134.5445 Y172.8832 E0.07221 F3000 ; Glyph: 0
G1 X132.5445 Y172.8832 E0.07221 F3000 ; Glyph: 0
G1 X130.5445 Y172.8832 E0.07221 F3000 ; Glyph: 0
G1 X130.5445 Y170.8832 E0.07221 F3000 ; Glyph: 0
G1 E-0.8 F2100 ; Retract
G1 Z0.74 F9000 ; Z hop
G0 X130.5445 Y173.8832 F9000 ; Move
G1 Z0.44 F9000 ; Z hop return
G1 E0.8 F0 ; Un-retract
G1 X130.5445 Y175.8832 E0.07221 F3000 ; Glyph: 3
G1 X132.5445 Y175.8832 E0.07221 F3000 ; Glyph: 3
G1 X132.5445 Y173.8832 E0.07221 F3000 ; Glyph: 3
G0 X132.5445 Y175.8832 F9000 ; Move
G1 X134.5445 Y175.8832 E0.07221 F3000 ; Glyph: 3
G1 X134.5445 Y173.8832 E0.07221 F3000 ; Glyph: 3
G1 E-0.8 F2100 ; Retract
G1 Z0.74 F9000 ; Z hop
G0 X137.723 Y166.8832 F9000 ; Move
G1 Z0.44 F9000 ; Z hop return
G1 E0.8 F0 ; Un-retract
G1 X139.723 Y166.8832 E0.07221 F3000 ; Glyph: 0
G1 X141.723 Y166.8832 E0.07221 F3000 ; Glyph: 0
G1 X141.723 Y168.8832 E0.07221 F3000 ; Glyph: 0
G1 X139.723 Y168.8832 E0.07221 F3000 ; Glyph: 0
G1 X137.723 Y168.8832 E0.07221 F3000 ; Glyph: 0
G1 X137.723 Y166.8832 E0.07221 F3000 ; Glyph: 0
G1 E-0.8 F2100 ; Retract
G1 Z0.74 F9000 ; Z hop
G0 X141.723 Y169.8832 F9000 ; Move
G1 Z0.44 F9000 ; Z hop return
G1 E0.8 F0 ; Un-retract
G1 X140.973 Y169.8832 E0.02708 F3000 ; Glyph: .
G1 E-0.8 F2100 ; Retract
G1 Z0.74 F9000 ; Z hop
G0 X137.723 Y170.8832 F9000 ; Move
G1 Z0.44 F9000 ; Z hop return
G1 E0.8 F0 ; Un-retract
G1 X139.723 Y170.8832 E0.07221 F3000 ; Glyph: 0
G1 X141.723 Y170.8832 E0.07221 F3000 ; Glyph: 0
G1 X141.723 Y172.8832 E0.07221 F3000 ; Glyph: 0
G1 X139.723 Y172.8832 E0.07221 F3000 ; Glyph: 0
G1 X137.723 Y172.8832 E0.07221 F3000 ; Glyph: 0
G1 X137.723 Y170.8832 E0.07221 F3000 ; Glyph: 0
G1 E-0.8 F2100 ; Retract
G1 Z0.74 F9000 ; Z hop
G0 X137.723 Y175.8832 F9000 ; Move
G1 Z0.44 F9000 ; Z hop return
G1 E0.8 F0 ; Un-retract
G1 X139.723 Y175.8832 E0.07221 F3000 ; Glyph: 4
G1 X141.723 Y175.8832 E0.07221 F3000 ; Glyph: 4
G0 X139.723 Y175.8832 F9000 ; Move
G1 X139.723 Y173.8832 E0.07221 F3000 ; Glyph: 4
G1 X137.723 Y173.8832 E0.07221 F3000 ; Glyph: 4
G1 E-0.8 F2100 ; Retract
G1 Z0.74 F9000 ; Z hop
G0 X144.9015 Y166.8832 F9000 ; Move
G1 Z0.44 F9000 ; Z hop return
G1 E0.8 F0 ; Un-retract
G1 X146.9015 Y166.8832 E0.07221 F3000 ; Glyph: 0
G1 X148.9015 Y166.8832 E0.07221 F3000 ; Glyph: 0
G1 X148.9015 Y168.8832 E0.07221 F3000 ; Glyph: 0
G1 X146.9015 Y168.8832 E0.07221 F3000 ; Glyph: 0
G1 X144.9015 Y168.8832 E0.07221 F3000 ; Glyph: 0
G1 X144.9015 Y166.8832 E0.07221 F3000 ; Glyph: 0
G1 E-0.8 F2100 ; Retract
G1 Z0.74 F9000 ; Z hop
G0 X148.9015 Y169.8832 F9000 ; Move
G1 Z0.44 F9000 ; Z hop return
G1 E0.8 F0 ; Un-retract
G1 X148.1515 Y169.8832 E0.02708 F3000 ; Glyph: .
G1 E-0.8 F2100 ; Retract
G1 Z0.74 F9000 ; Z hop
G0 X144.9015 Y170.8832 F9000 ; Move
G1 Z0.44 F9000 ; Z hop return
G1 E0.8 F0 ; Un-retract
G1 X146.9015 Y170.8832 E0.07221 F3000 ; Glyph: 0
G1 X148.9015 Y170.8832 E0.07221 F3000 ; Glyph: 0
G1 X148.9015 Y172.8832 E0.07221 F3000 ; Glyph: 0
G1 X146.9015 Y172.8832 E0.07221 F3000 ; Glyph: 0
G1 X144.9015 Y172.8832 E0.07221 F3000 ; Glyph: 0
G1 X144.9015 Y170.8832 E0.07221 F3000 ; Glyph: 0
G1 E-0.8 F2100 ; Retract
G1 Z0.74 F9000 ; Z hop
G0 X144.9015 Y175.8832 F9000 ; Move
G1 Z0.44 F9000 ; Z hop return
G1 E0.8 F0 ; Un-retract
G1 X144.9015 Y173.8832 E0.07221 F3000 ; Glyph: 5
G1 X146.9015 Y173.8832 E0.07221 F3000 ; Glyph: 5
G1 X146.9015 Y175.8832 E0.07221 F3000 ; Glyph: 5
G1 X148.9015 Y175.8832 E0.07221 F3000 ; Glyph: 5
G1 X148.9015 Y173.8832 E0.07221 F3000 ; Glyph: 5
G1 E-0.8 F2100 ; Retract
G1 Z0.74 F9000 ; Z hop
G0 X152.0801 Y166.8832 F9000 ; Move
G1 Z0.44 F9000 ; Z hop return
G1 E0.8 F0 ; Un-retract
G1 X154.0801 Y166.8832 E0.07221 F3000 ; Glyph: 0
G1 X156.0801 Y166.8832 E0.07221 F3000 ; Glyph: 0
G1 X156.0801 Y168.8832 E0.07221 F3000 ; Glyph: 0
G1 X154.0801 Y168.8832 E0.07221 F3000 ; Glyph: 0
G1 X152.0801 Y168.8832 E0.07221 F3000 ; Glyph: 0
G1 X152.0801 Y166.8832 E0.07221 F3000 ; Glyph: 0
G1 E-0.8 F2100 ; Retract
G1 Z0.74 F9000 ; Z hop
G0 X156.0801 Y169.8832 F9000 ; Move
G1 Z0.44 F9000 ; Z hop return
G1 E0.8 F0 ; Un-retract
G1 X155.3301 Y169.8832 E0.02708 F3000 ; Glyph: .
G1 E-0.8 F2100 ; Retract
G1 Z0.74 F9000 ; Z hop
G0 X152.0801 Y170.8832 F9000 ; Move
G1 Z0.44 F9000 ; Z hop return
G1 E0.8 F0 ; Un-retract
G1 X154.0801 Y170.8832 E0.07221 F3000 ; Glyph: 0
G1 X156.0801 Y170.8832 E0.07221 F3000 ; Glyph: 0
G1 X156.0801 Y172.8832 E0.07221 F3000 ; Glyph: 0
G1 X154.0801 Y172.8832 E0.07221 F3000 ; Glyph: 0
G1 X152.0801 Y172.8832 E0.07221 F3000 ; Glyph: 0
G1 X152.0801 Y170.8832 E0.07221 F3000 ; Glyph: 0
G1 E-0.8 F2100 ; Retract
G1 Z0.74 F9000 ; Z hop
G0 X152.0801 Y175.8832 F9000 ; Move
G1 Z0.44 F9000 ; Z hop return
G1 E0.8 F0 ; Un-retract
G1 X152.0801 Y173.8832 E0.07221 F3000 ; Glyph: 6
G1 X154.0801 Y173.8832 E0.07221 F3000 ; Glyph: 6
G1 X156.0801 Y173.8832 E0.07221 F3000 ; Glyph: 6
G1 X156.0801 Y175.8832 E0.07221 F3000 ; Glyph: 6
G1 X154.0801 Y175.8832 E0.07221 F3000 ; Glyph: 6
G1 X154.0801 Y173.8832 E0.07221 F3000 ; Glyph: 6
G1 E-0.8 F2100 ; Retract
G1 Z0.74 F9000 ; Z hop
G0 X159.2586 Y166.8832 F9000 ; Move
G1 Z0.44 F9000 ; Z hop return
G1 E0.8 F0 ; Un-retract
G1 X161.2586 Y166.8832 E0.07221 F3000 ; Glyph: 0
G1 X163.2586 Y166.8832 E0.07221 F3000 ; Glyph: 0
G1 X163.2586 Y168.8832 E0.07221 F3000 ; Glyph: 0
G1 X161.2586 Y168.8832 E0.07221 F3000 ; Glyph: 0
G1 X159.2586 Y168.8832 E0.07221 F3000 ; Glyph: 0
G1 X159.2586 Y166.8832 E0.07221 F3000 ; Glyph: 0
G1 E-0.8 F2100 ; Retract
G1 Z0.74 F9000 ; Z hop
G0 X163.2586 Y169.8832 F9000 ; Move
G1 Z0.44 F9000 ; Z hop return
G1 E0.8 F0 ; Un-retract
G1 X162.5086 Y169.8832 E0.02708 F3000 ; Glyph: .
G1 E-0.8 F2100 ; Retract
G1 Z0.74 F9000 ; Z hop
G0 X159.2586 Y170.8832 F9000 ; Move
G1 Z0.44 F9000 ; Z hop return
G1 E0.8 F0 ; Un-retract
G1 X161.2586 Y170.8832 E0.07221 F3000 ; Glyph: 0
G1 X163.2586 Y170.8832 E0.07221 F3000 ; Glyph: 0
G1 X163.2586 Y172.8832 E0.07221 F3000 ; Glyph: 0
G1 X161.2586 Y172.8832 E0.07221 F3000 ; Glyph: 0
G1 X159.2586 Y172.8832 E0.07221 F3000 ; Glyph: 0
G1 X159.2586 Y170.8832 E0.07221 F3000 ; Glyph: 0
G1 E-0.8 F2100 ; Retract
G1 Z0.74 F9000 ; Z hop
G0 X159.2586 Y173.8832 F9000 ; Move
G1 Z0.44 F9000 ; Z hop return
G1 E0.8 F0 ; Un-retract
G1 X159.2586 Y175.8832 E0.07221 F3000 ; Glyph: 7
G1 X161.2586 Y175.8832 E0.07221 F3000 ; Glyph: 7
G1 X163.2586 Y175.8832 E0.07221 F3000 ; Glyph: 7
G1 E-0.8 F2100 ; Retract
G1 Z0.74 F9000 ; Z hop
G0 X166.4371 Y166.8832 F9000 ; Move
G1 Z0.44 F9000 ; Z hop return
G1 E0.8 F0 ; Un-retract
G1 X168.4371 Y166.8832 E0.07221 F3000 ; Glyph: 0
G1 X170.4371 Y166.8832 E0.07221 F3000 ; Glyph: 0
G1 X170.4371 Y168.8832 E0.07221 F3000 ; Glyph: 0
G1 X168.4371 Y168.8832 E0.07221 F3000 ; Glyph: 0
G1 X166.4371 Y168.8832 E0.07221 F3000 ; Glyph: 0
G1 X166.4371 Y166.8832 E0.07221 F3000 ; Glyph: 0
G1 E-0.8 F2100 ; Retract
G1 Z0.74 F9000 ; Z hop
G0 X170.4371 Y169.8832 F9000 ; Move
G1 Z0.44 F9000 ; Z hop return
G1 E0.8 F0 ; Un-retract
G1 X169.6871 Y169.8832 E0.02708 F3000 ; Glyph: .
G1 E-0.8 F2100 ; Retract
G1 Z0.74 F9000 ; Z hop
G0 X166.4371 Y170.8832 F9000 ; Move
G1 Z0.44 F9000 ; Z hop return
G1 E0.8 F0 ; Un-retract
G1 X168.4371 Y170.8832 E0.07221 F3000 ; Glyph: 0
G1 X170.4371 Y170.8832 E0.07221 F3000 ; Glyph: 0
G1 X170.4371 Y172.8832 E0.07221 F3000 ; Glyph: 0
G1 X168.4371 Y172.8832 E0.07221 F3000 ; Glyph: 0
G1 X166.4371 Y172.8832 E0.07221 F3000 ; Glyph: 0
G1 X166.4371 Y170.8832 E0.07221 F3000 ; Glyph: 0
G1 E-0.8 F2100 ; Retract
G1 Z0.74 F9000 ; Z hop
G0 X166.4371 Y173.8832 F9000 ; Move
G1 Z0.44 F9000 ; Z hop return
G1 E0.8 F0 ; Un-retract
G1 X168.4371 Y173.8832 E0.07221 F3000 ; Glyph: 8
G1 X170.4371 Y173.8832 E0.07221 F3000 ; Glyph: 8
G1 X170.4371 Y175.8832 E0.07221 F3000 ; Glyph: 8
G1 X168.4371 Y175.8832 E0.07221 F3000 ; Glyph: 8
G1 X166.4371 Y175.8832 E0.07221 F3000 ; Glyph: 8
G1 X166.4371 Y173.8832 E0.07221 F3000 ; Glyph: 8
G0 X168.4371 Y173.8832 F9000 ; Move
G1 X168.4371 Y175.8832 E0.07221 F3000 ; Glyph: 8
G1 E-0.8 F2100 ; Retract
G1 Z0.74 F9000 ; Z hop
G0 X110.4394 Y123.0068 F9000 ; Move to pattern start

G1 Z0.44 F9000 ; Z hop return
G1 E0.8 F0 ; Un-retract
SET_PRESSURE_ADVANCE ADVANCE=0 ; Set pressure advance
M117 PA 0
G1 X131.6526 Y144.22 E1.08313 F4800 ; Print pattern wall
G1 X110.4394 Y165.4332 E1.08313 F4800 ; Print pattern wall
G1 E-0.8 F2100 ; Retract
G1 Z0.74 F9000 ; Z hop
G0 X111.009 Y123.0068 F9000 ; Move to start next pattern wall
G1 Z0.44 F9000 ; Z hop return
G1 E0.8 F0 ; Un-retract
G1 X132.2222 Y144.22 E1.08313 F4800 ; Print pattern wall
G1 X111.009 Y165.4332 E1.08313 F4800 ; Print pattern wall
G1 E-0.8 F2100 ; Retract
G1 Z0.74 F9000 ; Z hop
G0 X111.5786 Y123.0068 F9000 ; Move to start next pattern wall
G1 Z0.44 F9000 ; Z hop return
G1 E0.8 F0 ; Un-retract
G1 X132.7918 Y144.22 E1.08313 F4800 ; Print pattern wall
G1 X111.5786 Y165.4332 E1.08313 F4800 ; Print pattern wall
G1 E-0.8 F2100 ; Retract
G1 Z0.74 F9000 ; Z hop
G0 X114.0286 Y123.0068 F9000 ; Move to next pattern
G1 Z0.44 F9000 ; Z hop return
G1 E0.8 F0 ; Un-retract
SET_PRESSURE_ADVANCE ADVANCE=0.005 ; Set pressure advance
M117 PA 0.005
G1 X135.2418 Y144.22 E1.08313 F4800 ; Print pattern wall
G1 X114.0286 Y165.4332 E1.08313 F4800 ; Print pattern wall
G1 E-0.8 F2100 ; Retract
G1 Z0.74 F9000 ; Z hop
G0 X114.5982 Y123.0068 F9000 ; Move to start next pattern wall
G1 Z0.44 F9000 ; Z hop return
G1 E0.8 F0 ; Un-retract
G1 X135.8114 Y144.22 E1.08313 F4800 ; Print pattern wall
G1 X114.5982 Y165.4332 E1.08313 F4800 ; Print pattern wall
G1 E-0.8 F2100 ; Retract
G1 Z0.74 F9000 ; Z hop
G0 X115.1679 Y123.0068 F9000 ; Move to start next pattern wall
G1 Z0.44 F9000 ; Z hop return
G1 E0.8 F0 ; Un-retract
G1 X136.3811 Y144.22 E1.08313 F4800 ; Print pattern wall
G1 X115.1679 Y165.4332 E1.08313 F4800 ; Print pattern wall
G1 E-0.8 F2100 ; Retract
G1 Z0.74 F9000 ; Z hop
G0 X117.6179 Y123.0068 F9000 ; Move to next pattern
G1 Z0.44 F9000 ; Z hop return
G1 E0.8 F0 ; Un-retract
SET_PRESSURE_ADVANCE ADVANCE=0.01 ; Set pressure advance
M117 PA 0.01
G1 X138.8311 Y144.22 E1.08313 F4800 ; Print pattern wall
G1 X117.6179 Y165.4332 E1.08313 F4800 ; Print pattern wall
G1 E-0.8 F2100 ; Retract
G1 Z0.74 F9000 ; Z hop
G0 X118.1875 Y123.0068 F9000 ; Move to start next pattern wall
G1 Z0.44 F9000 ; Z hop return
G1 E0.8 F0 ; Un-retract
G1 X139.4007 Y144.22 E1.08313 F4800 ; Print pattern wall
G1 X118.1875 Y165.4332 E1.08313 F4800 ; Print pattern wall
G1 E-0.8 F2100 ; Retract
G1 Z0.74 F9000 ; Z hop
G0 X118.7571 Y123.0068 F9000 ; Move to start next pattern wall
G1 Z0.44 F9000 ; Z hop return
G1 E0.8 F0 ; Un-retract
G1 X139.9703 Y144.22 E1.08313 F4800 ; Print pattern wall
G1 X118.7571 Y165.4332 E1.08313 F4800 ; Print pattern wall
G1 E-0.8 F2100 ; Retract
G1 Z0.74 F9000 ; Z hop
G0 X121.2071 Y123.0068 F9000 ; Move to next pattern
G1 Z0.44 F9000 ; Z hop return
G1 E0.8 F0 ; Un-retract
SET_PRESSURE_ADVANCE ADVANCE=0.015 ; Set pressure advance
M117 PA 0.015
G1 X142.4203 Y144.22 E1.08313 F4800 ; Print pattern wall
G1 X121.2071 Y165.4332 E1.08313 F4800 ; Print pattern wall
G1 E-0.8 F2100 ; Retract
G1 Z0.74 F9000 ; Z hop
G0 X121.7768 Y123.0068 F9000 ; Move to start next pattern wall
G1 Z0.44 F9000 ; Z hop return
G1 E0.8 F0 ; Un-retract
G1 X142.99 Y144.22 E1.08313 F4800 ; Print pattern wall
G1 X121.7768 Y165.4332 E1.08313 F4800 ; Print pattern wall
G1 E-0.8 F2100 ; Retract
G1 Z0.74 F9000 ; Z hop
G0 X122.3464 Y123.0068 F9000 ; Move to start next pattern wall
G1 Z0.44 F9000 ; Z hop return
G1 E0.8 F0 ; Un-retract
G1 X143.5596 Y144.22 E1.08313 F4800 ; Print pattern wall
G1 X122.3464 Y165.4332 E1.08313 F4800 ; Print pattern wall
G1 E-0.8 F2100 ; Retract
G1 Z0.74 F9000 ; Z hop
G0 X124.7964 Y123.0068 F9000 ; Move to next pattern
G1 Z0.44 F9000 ; Z hop return
G1 E0.8 F0 ; Un-retract
SET_PRESSURE_ADVANCE ADVANCE=0.02 ; Set pressure advance
M117 PA 0.02
G1 X146.0096 Y144.22 E1.08313 F4800 ; Print pattern wall
G1 X124.7964 Y165.4332 E1.08313 F4800 ; Print pattern wall
G1 E-0.8 F2100 ; Retract
G1 Z0.74 F9000 ; Z hop
G0 X125.366 Y123.0068 F9000 ; Move to start next pattern wall
G1 Z0.44 F9000 ; Z hop return
G1 E0.8 F0 ; Un-retract
G1 X146.5792 Y144.22 E1.08313 F4800 ; Print pattern wall
G1 X125.366 Y165.4332 E1.08313 F4800 ; Print pattern wall
G1 E-0.8 F2100 ; Retract
G1 Z0.74 F9000 ; Z hop
G0 X125.9356 Y123.0068 F9000 ; Move to start next pattern wall
G1 Z0.44 F9000 ; Z hop return
G1 E0.8 F0 ; Un-retract
G1 X147.1488 Y144.22 E1.08313 F4800 ; Print pattern wall
G1 X125.9356 Y165.4332 E1.08313 F4800 ; Print pattern wall
G1 E-0.8 F2100 ; Retract
G1 Z0.74 F9000 ; Z hop
G0 X128.3856 Y123.0068 F9000 ; Move to next pattern
G1 Z0.44 F9000 ; Z hop return
G1 E0.8 F0 ; Un-retract
SET_PRESSURE_ADVANCE ADVANCE=0.025 ; Set pressure advance
M117 PA 0.025
G1 X149.5988 Y144.22 E1.08313 F4800 ; Print pattern wall
G1 X128.3856 Y165.4332 E1.08313 F4800 ; Print pattern wall
G1 E-0.8 F2100 ; Retract
G1 Z0.74 F9000 ; Z hop
G0 X128.9553 Y123.0068 F9000 ; Move to start next pattern wall
G1 Z0.44 F9000 ; Z hop return
G1 E0.8 F0 ; Un-retract
G1 X150.1685 Y144.22 E1.08313 F4800 ; Print pattern wall
G1 X128.9553 Y165.4332 E1.08313 F4800 ; Print pattern wall
G1 E-0.8 F2100 ; Retract
G1 Z0.74 F9000 ; Z hop
G0 X129.5249 Y123.0068 F9000 ; Move to start next pattern wall
G1 Z0.44 F9000 ; Z hop return
G1 E0.8 F0 ; Un-retract
G1 X150.7381 Y144.22 E1.08313 F4800 ; Print pattern wall
G1 X129.5249 Y165.4332 E1.08313 F4800 ; Print pattern wall
G1 E-0.8 F2100 ; Retract
G1 Z0.74 F9000 ; Z hop
G0 X131.9749 Y123.0068 F9000 ; Move to next pattern
G1 Z0.44 F9000 ; Z hop return
G1 E0.8 F0 ; Un-retract
SET_PRESSURE_ADVANCE ADVANCE=0.03 ; Set pressure advance
M117 PA 0.03
G1 X153.1881 Y144.22 E1.08313 F4800 ; Print pattern wall
G1 X131.9749 Y165.4332 E1.08313 F4800 ; Print pattern wall
G1 E-0.8 F2100 ; Retract
G1 Z0.74 F9000 ; Z hop
G0 X132.5445 Y123.0068 F9000 ; Move to start next pattern wall
G1 Z0.44 F9000 ; Z hop return
G1 E0.8 F0 ; Un-retract
G1 X153.7577 Y144.22 E1.08313 F4800 ; Print pattern wall
G1 X132.5445 Y165.4332 E1.08313 F4800 ; Print pattern wall
G1 E-0.8 F2100 ; Retract
G1 Z0.74 F9000 ; Z hop
G0 X133.1141 Y123.0068 F9000 ; Move to start next pattern wall
G1 Z0.44 F9000 ; Z hop return
G1 E0.8 F0 ; Un-retract
G1 X154.3274 Y144.22 E1.08313 F4800 ; Print pattern wall
G1 X133.1141 Y165.4332 E1.08313 F4800 ; Print pattern wall
G1 E-0.8 F2100 ; Retract
G1 Z0.74 F9000 ; Z hop
G0 X135.5641 Y123.0068 F9000 ; Move to next pattern
G1 Z0.44 F9000 ; Z hop return
G1 E0.8 F0 ; Un-retract
SET_PRESSURE_ADVANCE ADVANCE=0.035 ; Set pressure advance
M117 PA 0.035
G1 X156.7774 Y144.22 E1.08313 F4800 ; Print pattern wall
G1 X135.5641 Y165.4332 E1.08313 F4800 ; Print pattern wall
G1 E-0.8 F2100 ; Retract
G1 Z0.74 F9000 ; Z hop
G0 X136.1338 Y123.0068 F9000 ; Move to start next pattern wall
G1 Z0.44 F9000 ; Z hop return
G1 E0.8 F0 ; Un-retract
G1 X157.347 Y144.22 E1.08313 F4800 ; Print pattern wall
G1 X136.1338 Y165.4332 E1.08313 F4800 ; Print pattern wall
G1 E-0.8 F2100 ; Retract
G1 Z0.74 F9000 ; Z hop
G0 X136.7034 Y123.0068 F9000 ; Move to start next pattern wall
G1 Z0.44 F9000 ; Z hop return
G1 E0.8 F0 ; Un-retract
G1 X157.9166 Y144.22 E1.08313 F4800 ; Print pattern wall
G1 X136.7034 Y165.4332 E1.08313 F4800 ; Print pattern wall
G1 E-0.8 F2100 ; Retract
G1 Z0.74 F9000 ; Z hop
G0 X139.1534 Y123.0068 F9000 ; Move to next pattern
G1 Z0.44 F9000 ; Z hop return
G1 E0.8 F0 ; Un-retract
SET_PRESSURE_ADVANCE ADVANCE=0.04 ; Set pressure advance
M117 PA 0.04
G1 X160.3666 Y144.22 E1.08313 F4800 ; Print pattern wall
G1 X139.1534 Y165.4332 E1.08313 F4800 ; Print pattern wall
G1 E-0.8 F2100 ; Retract
G1 Z0.74 F9000 ; Z hop
G0 X139.723 Y123.0068 F9000 ; Move to start next pattern wall
G1 Z0.44 F9000 ; Z hop return
G1 E0.8 F0 ; Un-retract
G1 X160.9362 Y144.22 E1.08313 F4800 ; Print pattern wall
G1 X139.723 Y165.4332 E1.08313 F4800 ; Print pattern wall
G1 E-0.8 F2100 ; Retract
G1 Z0.74 F9000 ; Z hop
G0 X140.2927 Y123.0068 F9000 ; Move to start next pattern wall
G1 Z0.44 F9000 ; Z hop return
G1 E0.8 F0 ; Un-retract
G1 X161.5059 Y144.22 E1.08313 F4800 ; Print pattern wall
G1 X140.2927 Y165.4332 E1.08313 F4800 ; Print pattern wall
G1 E-0.8 F2100 ; Retract
G1 Z0.74 F9000 ; Z hop
G0 X142.7427 Y123.0068 F9000 ; Move to next pattern
G1 Z0.44 F9000 ; Z hop return
G1 E0.8 F0 ; Un-retract
SET_PRESSURE_ADVANCE ADVANCE=0.045 ; Set pressure advance
M117 PA 0.045
G1 X163.9559 Y144.22 E1.08313 F4800 ; Print pattern wall
G1 X142.7427 Y165.4332 E1.08313 F4800 ; Print pattern wall
G1 E-0.8 F2100 ; Retract
G1 Z0.74 F9000 ; Z hop
G0 X143.3123 Y123.0068 F9000 ; Move to start next pattern wall
G1 Z0.44 F9000 ; Z hop return
G1 E0.8 F0 ; Un-retract
G1 X164.5255 Y144.22 E1.08313 F4800 ; Print pattern wall
G1 X143.3123 Y165.4332 E1.08313 F4800 ; Print pattern wall
G1 E-0.8 F2100 ; Retract
G1 Z0.74 F9000 ; Z hop
G0 X143.8819 Y123.0068 F9000 ; Move to start next pattern wall
G1 Z0.44 F9000 ; Z hop return
G1 E0.8 F0 ; Un-retract
G1 X165.0951 Y144.22 E1.08313 F4800 ; Print pattern wall
G1 X143.8819 Y165.4332 E1.08313 F4800 ; Print pattern wall
G1 E-0.8 F2100 ; Retract
G1 Z0.74 F9000 ; Z hop
G0 X146.3319 Y123.0068 F9000 ; Move to next pattern
G1 Z0.44 F9000 ; Z hop return
G1 E0.8 F0 ; Un-retract
SET_PRESSURE_ADVANCE ADVANCE=0.05 ; Set pressure advance
M117 PA 0.05
G1 X167.5451 Y144.22 E1.08313 F4800 ; Print pattern wall
G1 X146.3319 Y165.4332 E1.08313 F4800 ; Print pattern wall
G1 E-0.8 F2100 ; Retract
G1 Z0.74 F9000 ; Z hop
G0 X146.9015 Y123.0068 F9000 ; Move to start next pattern wall
G1 Z0.44 F9000 ; Z hop return
G1 E0.8 F0 ; Un-retract
G1 X168.1147 Y144.22 E1.08313 F4800 ; Print pattern wall
G1 X146.9015 Y165.4332 E1.08313 F4800 ; Print pattern wall
G1 E-0.8 F2100 ; Retract
G1 Z0.74 F9000 ; Z hop
G0 X147.4712 Y123.0068 F9000 ; Move to start next pattern wall
G1 Z0.44 F9000 ; Z hop return
G1 E0.8 F0 ; Un-retract
G1 X168.6844 Y144.22 E1.08313 F4800 ; Print pattern wall
G1 X147.4712 Y165.4332 E1.08313 F4800 ; Print pattern wall
G1 E-0.8 F2100 ; Retract
G1 Z0.74 F9000 ; Z hop
G0 X149.9212 Y123.0068 F9000 ; Move to next pattern
G1 Z0.44 F9000 ; Z hop return
G1 E0.8 F0 ; Un-retract
SET_PRESSURE_ADVANCE ADVANCE=0.055 ; Set pressure advance
M117 PA 0.055
G1 X171.1344 Y144.22 E1.08313 F4800 ; Print pattern wall
G1 X149.9212 Y165.4332 E1.08313 F4800 ; Print pattern wall
G1 E-0.8 F2100 ; Retract
G1 Z0.74 F9000 ; Z hop
G0 X150.4908 Y123.0068 F9000 ; Move to start next pattern wall
G1 Z0.44 F9000 ; Z hop return
G1 E0.8 F0 ; Un-retract
G1 X171.704 Y144.22 E1.08313 F4800 ; Print pattern wall
G1 X150.4908 Y165.4332 E1.08313 F4800 ; Print pattern wall
G1 E-0.8 F2100 ; Retract
G1 Z0.74 F9000 ; Z hop
G0 X151.0604 Y123.0068 F9000 ; Move to start next pattern wall
G1 Z0.44 F9000 ; Z hop return
G1 E0.8 F0 ; Un-retract
G1 X172.2736 Y144.22 E1.08313 F4800 ; Print pattern wall
G1 X151.0604 Y165.4332 E1.08313 F4800 ; Print pattern wall
G1 E-0.8 F2100 ; Retract
G1 Z0.74 F9000 ; Z hop
G0 X153.5104 Y123.0068 F9000 ; Move to next pattern
G1 Z0.44 F9000 ; Z hop return
G1 E0.8 F0 ; Un-retract
SET_PRESSURE_ADVANCE ADVANCE=0.06 ; Set pressure advance
M117 PA 0.06
G1 X174.7236 Y144.22 E1.08313 F4800 ; Print pattern wall
G1 X153.5104 Y165.4332 E1.08313 F4800 ; Print pattern wall
G1 E-0.8 F2100 ; Retract
G1 Z0.74 F9000 ; Z hop
G0 X154.0801 Y123.0068 F9000 ; Move to start next pattern wall
G1 Z0.44 F9000 ; Z hop return
G1 E0.8 F0 ; Un-retract
G1 X175.2933 Y144.22 E1.08313 F4800 ; Print pattern wall
G1 X154.0801 Y165.4332 E1.08313 F4800 ; Print pattern wall
G1 E-0.8 F2100 ; Retract
G1 Z0.74 F9000 ; Z hop
G0 X154.6497 Y123.0068 F9000 ; Move to start next pattern wall
G1 Z0.44 F9000 ; Z hop return
G1 E0.8 F0 ; Un-retract
G1 X175.8629 Y144.22 E1.08313 F4800 ; Print pattern wall
G1 X154.6497 Y165.4332 E1.08313 F4800 ; Print pattern wall
G1 E-0.8 F2100 ; Retract
G1 Z0.74 F9000 ; Z hop
G0 X157.0997 Y123.0068 F9000 ; Move to next pattern
G1 Z0.44 F9000 ; Z hop return
G1 E0.8 F0 ; Un-retract
SET_PRESSURE_ADVANCE ADVANCE=0.065 ; Set pressure advance
M117 PA 0.065
G1 X178.3129 Y144.22 E1.08313 F4800 ; Print pattern wall
G1 X157.0997 Y165.4332 E1.08313 F4800 ; Print pattern wall
G1 E-0.8 F2100 ; Retract
G1 Z0.74 F9000 ; Z hop
G0 X157.6693 Y123.0068 F9000 ; Move to start next pattern wall
G1 Z0.44 F9000 ; Z hop return
G1 E0.8 F0 ; Un-retract
G1 X178.8825 Y144.22 E1.08313 F4800 ; Print pattern wall
G1 X157.6693 Y165.4332 E1.08313 F4800 ; Print pattern wall
G1 E-0.8 F2100 ; Retract
G1 Z0.74 F9000 ; Z hop
G0 X158.2389 Y123.0068 F9000 ; Move to start next pattern wall
G1 Z0.44 F9000 ; Z hop return
G1 E0.8 F0 ; Un-retract
G1 X179.4521 Y144.22 E1.08313 F4800 ; Print pattern wall
G1 X158.2389 Y165.4332 E1.08313 F4800 ; Print pattern wall
G1 E-0.8 F2100 ; Retract
G1 Z0.74 F9000 ; Z hop
G0 X160.6889 Y123.0068 F9000 ; Move to next pattern
G1 Z0.44 F9000 ; Z hop return
G1 E0.8 F0 ; Un-retract
SET_PRESSURE_ADVANCE ADVANCE=0.07 ; Set pressure advance
M117 PA 0.07
G1 X181.9021 Y144.22 E1.08313 F4800 ; Print pattern wall
G1 X160.6889 Y165.4332 E1.08313 F4800 ; Print pattern wall
G1 E-0.8 F2100 ; Retract
G1 Z0.74 F9000 ; Z hop
G0 X161.2586 Y123.0068 F9000 ; Move to start next pattern wall
G1 Z0.44 F9000 ; Z hop return
G1 E0.8 F0 ; Un-retract
G1 X182.4718 Y144.22 E1.08313 F4800 ; Print pattern wall
G1 X161.2586 Y165.4332 E1.08313 F4800 ; Print pattern wall
G1 E-0.8 F2100 ; Retract
G1 Z0.74 F9000 ; Z hop
G0 X161.8282 Y123.0068 F9000 ; Move to start next pattern wall
G1 Z0.44 F9000 ; Z hop return
G1 E0.8 F0 ; Un-retract
G1 X183.0414 Y144.22 E1.08313 F4800 ; Print pattern wall
G1 X161.8282 Y165.4332 E1.08313 F4800 ; Print pattern wall
G1 E-0.8 F2100 ; Retract
G1 Z0.74 F9000 ; Z hop
G0 X164.2782 Y123.0068 F9000 ; Move to next pattern
G1 Z0.44 F9000 ; Z hop return
G1 E0.8 F0 ; Un-retract
SET_PRESSURE_ADVANCE ADVANCE=0.075 ; Set pressure advance
M117 PA 0.075
G1 X185.4914 Y144.22 E1.08313 F4800 ; Print pattern wall
G1 X164.2782 Y165.4332 E1.08313 F4800 ; Print pattern wall
G1 E-0.8 F2100 ; Retract
G1 Z0.74 F9000 ; Z hop
G0 X164.8478 Y123.0068 F9000 ; Move to start next pattern wall
G1 Z0.44 F9000 ; Z hop return
G1 E0.8 F0 ; Un-retract
G1 X186.061 Y144.22 E1.08313 F4800 ; Print pattern wall
G1 X164.8478 Y165.4332 E1.08313 F4800 ; Print pattern wall
G1 E-0.8 F2100 ; Retract
G1 Z0.74 F9000 ; Z hop
G0 X165.4174 Y123.0068 F9000 ; Move to start next pattern wall
G1 Z0.44 F9000 ; Z hop return
G1 E0.8 F0 ; Un-retract
G1 X186.6307 Y144.22 E1.08313 F4800 ; Print pattern wall
G1 X165.4174 Y165.4332 E1.08313 F4800 ; Print pattern wall
G1 E-0.8 F2100 ; Retract
G1 Z0.74 F9000 ; Z hop
G0 X167.8674 Y123.0068 F9000 ; Move to next pattern
G1 Z0.44 F9000 ; Z hop return
G1 E0.8 F0 ; Un-retract
SET_PRESSURE_ADVANCE ADVANCE=0.08 ; Set pressure advance
M117 PA 0.08
G1 X189.0807 Y144.22 E1.08313 F4800 ; Print pattern wall
G1 X167.8674 Y165.4332 E1.08313 F4800 ; Print pattern wall
G1 E-0.8 F2100 ; Retract
G1 Z0.74 F9000 ; Z hop
G0 X168.4371 Y123.0068 F9000 ; Move to start next pattern wall
G1 Z0.44 F9000 ; Z hop return
G1 E0.8 F0 ; Un-retract
G1 X189.6503 Y144.22 E1.08313 F4800 ; Print pattern wall
G1 X168.4371 Y165.4332 E1.08313 F4800 ; Print pattern wall
G1 E-0.8 F2100 ; Retract
G1 Z0.74 F9000 ; Z hop
G0 X169.0067 Y123.0068 F9000 ; Move to start next pattern wall
G1 Z0.44 F9000 ; Z hop return
G1 E0.8 F0 ; Un-retract
G1 X190.2199 Y144.22 E1.08313 F4800 ; Print pattern wall
G1 X169.0067 Y165.4332 E1.08313 F4800 ; Print pattern wall
G1 E-0.8 F2100 ; Retract
G1 Z0.74 F9000 ; Z hop
G0 X110.4394 Y123.0068 F9000 ; Move back to start position
G1 Z0.44 F9000 ; Z hop return
G1 E0.8 F0 ; Un-retract
G0 Z0.66 F9000 ; Move to layer height
SET_PRESSURE_ADVANCE ADVANCE=0 ; Set pressure advance
M117 PA 0
G1 X131.6526 Y144.22 E1.08313 F4800 ; Print pattern wall
G1 X110.4394 Y165.4332 E1.08313 F4800 ; Print pattern wall
G1 E-0.8 F2100 ; Retract
G1 Z0.96 F9000 ; Z hop
G0 X111.009 Y123.0068 F9000 ; Move to start next pattern wall
G1 Z0.66 F9000 ; Z hop return
G1 E0.8 F0 ; Un-retract
G1 X132.2222 Y144.22 E1.08313 F4800 ; Print pattern wall
G1 X111.009 Y165.4332 E1.08313 F4800 ; Print pattern wall
G1 E-0.8 F2100 ; Retract
G1 Z0.96 F9000 ; Z hop
G0 X111.5786 Y123.0068 F9000 ; Move to start next pattern wall
G1 Z0.66 F9000 ; Z hop return
G1 E0.8 F0 ; Un-retract
G1 X132.7918 Y144.22 E1.08313 F4800 ; Print pattern wall
G1 X111.5786 Y165.4332 E1.08313 F4800 ; Print pattern wall
G1 E-0.8 F2100 ; Retract
G1 Z0.96 F9000 ; Z hop
G0 X114.0286 Y123.0068 F9000 ; Move to next pattern
G1 Z0.66 F9000 ; Z hop return
G1 E0.8 F0 ; Un-retract
SET_PRESSURE_ADVANCE ADVANCE=0.005 ; Set pressure advance
M117 PA 0.005
G1 X135.2418 Y144.22 E1.08313 F4800 ; Print pattern wall
G1 X114.0286 Y165.4332 E1.08313 F4800 ; Print pattern wall
G1 E-0.8 F2100 ; Retract
G1 Z0.96 F9000 ; Z hop
G0 X114.5982 Y123.0068 F9000 ; Move to start next pattern wall
G1 Z0.66 F9000 ; Z hop return
G1 E0.8 F0 ; Un-retract
G1 X135.8114 Y144.22 E1.08313 F4800 ; Print pattern wall
G1 X114.5982 Y165.4332 E1.08313 F4800 ; Print pattern wall
G1 E-0.8 F2100 ; Retract
G1 Z0.96 F9000 ; Z hop
G0 X115.1679 Y123.0068 F9000 ; Move to start next pattern wall
G1 Z0.66 F9000 ; Z hop return
G1 E0.8 F0 ; Un-retract
G1 X136.3811 Y144.22 E1.08313 F4800 ; Print pattern wall
G1 X115.1679 Y165.4332 E1.08313 F4800 ; Print pattern wall
G1 E-0.8 F2100 ; Retract
G1 Z0.96 F9000 ; Z hop
G0 X117.6179 Y123.0068 F9000 ; Move to next pattern
G1 Z0.66 F9000 ; Z hop return
G1 E0.8 F0 ; Un-retract
SET_PRESSURE_ADVANCE ADVANCE=0.01 ; Set pressure advance
M117 PA 0.01
G1 X138.8311 Y144.22 E1.08313 F4800 ; Print pattern wall
G1 X117.6179 Y165.4332 E1.08313 F4800 ; Print pattern wall
G1 E-0.8 F2100 ; Retract
G1 Z0.96 F9000 ; Z hop
G0 X118.1875 Y123.0068 F9000 ; Move to start next pattern wall
G1 Z0.66 F9000 ; Z hop return
G1 E0.8 F0 ; Un-retract
G1 X139.4007 Y144.22 E1.08313 F4800 ; Print pattern wall
G1 X118.1875 Y165.4332 E1.08313 F4800 ; Print pattern wall
G1 E-0.8 F2100 ; Retract
G1 Z0.96 F9000 ; Z hop
G0 X118.7571 Y123.0068 F9000 ; Move to start next pattern wall
G1 Z0.66 F9000 ; Z hop return
G1 E0.8 F0 ; Un-retract
G1 X139.9703 Y144.22 E1.08313 F4800 ; Print pattern wall
G1 X118.7571 Y165.4332 E1.08313 F4800 ; Print pattern wall
G1 E-0.8 F2100 ; Retract
G1 Z0.96 F9000 ; Z hop
G0 X121.2071 Y123.0068 F9000 ; Move to next pattern
G1 Z0.66 F9000 ; Z hop return
G1 E0.8 F0 ; Un-retract
SET_PRESSURE_ADVANCE ADVANCE=0.015 ; Set pressure advance
M117 PA 0.015
G1 X142.4203 Y144.22 E1.08313 F4800 ; Print pattern wall
G1 X121.2071 Y165.4332 E1.08313 F4800 ; Print pattern wall
G1 E-0.8 F2100 ; Retract
G1 Z0.96 F9000 ; Z hop
G0 X121.7768 Y123.0068 F9000 ; Move to start next pattern wall
G1 Z0.66 F9000 ; Z hop return
G1 E0.8 F0 ; Un-retract
G1 X142.99 Y144.22 E1.08313 F4800 ; Print pattern wall
G1 X121.7768 Y165.4332 E1.08313 F4800 ; Print pattern wall
G1 E-0.8 F2100 ; Retract
G1 Z0.96 F9000 ; Z hop
G0 X122.3464 Y123.0068 F9000 ; Move to start next pattern wall
G1 Z0.66 F9000 ; Z hop return
G1 E0.8 F0 ; Un-retract
G1 X143.5596 Y144.22 E1.08313 F4800 ; Print pattern wall
G1 X122.3464 Y165.4332 E1.08313 F4800 ; Print pattern wall
G1 E-0.8 F2100 ; Retract
G1 Z0.96 F9000 ; Z hop
G0 X124.7964 Y123.0068 F9000 ; Move to next pattern
G1 Z0.66 F9000 ; Z hop return
G1 E0.8 F0 ; Un-retract
SET_PRESSURE_ADVANCE ADVANCE=0.02 ; Set pressure advance
M117 PA 0.02
G1 X146.0096 Y144.22 E1.08313 F4800 ; Print pattern wall
G1 X124.7964 Y165.4332 E1.08313 F4800 ; Print pattern wall
G1 E-0.8 F2100 ; Retract
G1 Z0.96 F9000 ; Z hop
G0 X125.366 Y123.0068 F9000 ; Move to start next pattern wall
G1 Z0.66 F9000 ; Z hop return
G1 E0.8 F0 ; Un-retract
G1 X146.5792 Y144.22 E1.08313 F4800 ; Print pattern wall
G1 X125.366 Y165.4332 E1.08313 F4800 ; Print pattern wall
G1 E-0.8 F2100 ; Retract
G1 Z0.96 F9000 ; Z hop
G0 X125.9356 Y123.0068 F9000 ; Move to start next pattern wall
G1 Z0.66 F9000 ; Z hop return
G1 E0.8 F0 ; Un-retract
G1 X147.1488 Y144.22 E1.08313 F4800 ; Print pattern wall
G1 X125.9356 Y165.4332 E1.08313 F4800 ; Print pattern wall
G1 E-0.8 F2100 ; Retract
G1 Z0.96 F9000 ; Z hop
G0 X128.3856 Y123.0068 F9000 ; Move to next pattern
G1 Z0.66 F9000 ; Z hop return
G1 E0.8 F0 ; Un-retract
SET_PRESSURE_ADVANCE ADVANCE=0.025 ; Set pressure advance
M117 PA 0.025
G1 X149.5988 Y144.22 E1.08313 F4800 ; Print pattern wall
G1 X128.3856 Y165.4332 E1.08313 F4800 ; Print pattern wall
G1 E-0.8 F2100 ; Retract
G1 Z0.96 F9000 ; Z hop
G0 X128.9553 Y123.0068 F9000 ; Move to start next pattern wall
G1 Z0.66 F9000 ; Z hop return
G1 E0.8 F0 ; Un-retract
G1 X150.1685 Y144.22 E1.08313 F4800 ; Print pattern wall
G1 X128.9553 Y165.4332 E1.08313 F4800 ; Print pattern wall
G1 E-0.8 F2100 ; Retract
G1 Z0.96 F9000 ; Z hop
G0 X129.5249 Y123.0068 F9000 ; Move to start next pattern wall
G1 Z0.66 F9000 ; Z hop return
G1 E0.8 F0 ; Un-retract
G1 X150.7381 Y144.22 E1.08313 F4800 ; Print pattern wall
G1 X129.5249 Y165.4332 E1.08313 F4800 ; Print pattern wall
G1 E-0.8 F2100 ; Retract
G1 Z0.96 F9000 ; Z hop
G0 X131.9749 Y123.0068 F9000 ; Move to next pattern
G1 Z0.66 F9000 ; Z hop return
G1 E0.8 F0 ; Un-retract
SET_PRESSURE_ADVANCE ADVANCE=0.03 ; Set pressure advance
M117 PA 0.03
G1 X153.1881 Y144.22 E1.08313 F4800 ; Print pattern wall
G1 X131.9749 Y165.4332 E1.08313 F4800 ; Print pattern wall
G1 E-0.8 F2100 ; Retract
G1 Z0.96 F9000 ; Z hop
G0 X132.5445 Y123.0068 F9000 ; Move to start next pattern wall
G1 Z0.66 F9000 ; Z hop return
G1 E0.8 F0 ; Un-retract
G1 X153.7577 Y144.22 E1.08313 F4800 ; Print pattern wall
G1 X132.5445 Y165.4332 E1.08313 F4800 ; Print pattern wall
G1 E-0.8 F2100 ; Retract
G1 Z0.96 F9000 ; Z hop
G0 X133.1141 Y123.0068 F9000 ; Move to start next pattern wall
G1 Z0.66 F9000 ; Z hop return
G1 E0.8 F0 ; Un-retract
G1 X154.3274 Y144.22 E1.08313 F4800 ; Print pattern wall
G1 X133.1141 Y165.4332 E1.08313 F4800 ; Print pattern wall
G1 E-0.8 F2100 ; Retract
G1 Z0.96 F9000 ; Z hop
G0 X135.5641 Y123.0068 F9000 ; Move to next pattern
G1 Z0.66 F9000 ; Z hop return
G1 E0.8 F0 ; Un-retract
SET_PRESSURE_ADVANCE ADVANCE=0.035 ; Set pressure advance
M117 PA 0.035
G1 X156.7774 Y144.22 E1.08313 F4800 ; Print pattern wall
G1 X135.5641 Y165.4332 E1.08313 F4800 ; Print pattern wall
G1 E-0.8 F2100 ; Retract
G1 Z0.96 F9000 ; Z hop
G0 X136.1338 Y123.0068 F9000 ; Move to start next pattern wall
G1 Z0.66 F9000 ; Z hop return
G1 E0.8 F0 ; Un-retract
G1 X157.347 Y144.22 E1.08313 F4800 ; Print pattern wall
G1 X136.1338 Y165.4332 E1.08313 F4800 ; Print pattern wall
G1 E-0.8 F2100 ; Retract
G1 Z0.96 F9000 ; Z hop
G0 X136.7034 Y123.0068 F9000 ; Move to start next pattern wall
G1 Z0.66 F9000 ; Z hop return
G1 E0.8 F0 ; Un-retract
G1 X157.9166 Y144.22 E1.08313 F4800 ; Print pattern wall
G1 X136.7034 Y165.4332 E1.08313 F4800 ; Print pattern wall
G1 E-0.8 F2100 ; Retract
G1 Z0.96 F9000 ; Z hop
G0 X139.1534 Y123.0068 F9000 ; Move to next pattern
G1 Z0.66 F9000 ; Z hop return
G1 E0.8 F0 ; Un-retract
SET_PRESSURE_ADVANCE ADVANCE=0.04 ; Set pressure advance
M117 PA 0.04
G1 X160.3666 Y144.22 E1.08313 F4800 ; Print pattern wall
G1 X139.1534 Y165.4332 E1.08313 F4800 ; Print pattern wall
G1 E-0.8 F2100 ; Retract
G1 Z0.96 F9000 ; Z hop
G0 X139.723 Y123.0068 F9000 ; Move to start next pattern wall
G1 Z0.66 F9000 ; Z hop return
G1 E0.8 F0 ; Un-retract
G1 X160.9362 Y144.22 E1.08313 F4800 ; Print pattern wall
G1 X139.723 Y165.4332 E1.08313 F4800 ; Print pattern wall
G1 E-0.8 F2100 ; Retract
G1 Z0.96 F9000 ; Z hop
G0 X140.2927 Y123.0068 F9000 ; Move to start next pattern wall
G1 Z0.66 F9000 ; Z hop return
G1 E0.8 F0 ; Un-retract
G1 X161.5059 Y144.22 E1.08313 F4800 ; Print pattern wall
G1 X140.2927 Y165.4332 E1.08313 F4800 ; Print pattern wall
G1 E-0.8 F2100 ; Retract
G1 Z0.96 F9000 ; Z hop
G0 X142.7427 Y123.0068 F9000 ; Move to next pattern
G1 Z0.66 F9000 ; Z hop return
G1 E0.8 F0 ; Un-retract
SET_PRESSURE_ADVANCE ADVANCE=0.045 ; Set pressure advance
M117 PA 0.045
G1 X163.9559 Y144.22 E1.08313 F4800 ; Print pattern wall
G1 X142.7427 Y165.4332 E1.08313 F4800 ; Print pattern wall
G1 E-0.8 F2100 ; Retract
G1 Z0.96 F9000 ; Z hop
G0 X143.3123 Y123.0068 F9000 ; Move to start next pattern wall
G1 Z0.66 F9000 ; Z hop return
G1 E0.8 F0 ; Un-retract
G1 X164.5255 Y144.22 E1.08313 F4800 ; Print pattern wall
G1 X143.3123 Y165.4332 E1.08313 F4800 ; Print pattern wall
G1 E-0.8 F2100 ; Retract
G1 Z0.96 F9000 ; Z hop
G0 X143.8819 Y123.0068 F9000 ; Move to start next pattern wall
G1 Z0.66 F9000 ; Z hop return
G1 E0.8 F0 ; Un-retract
G1 X165.0951 Y144.22 E1.08313 F4800 ; Print pattern wall
G1 X143.8819 Y165.4332 E1.08313 F4800 ; Print pattern wall
G1 E-0.8 F2100 ; Retract
G1 Z0.96 F9000 ; Z hop
G0 X146.3319 Y123.0068 F9000 ; Move to next pattern
G1 Z0.66 F9000 ; Z hop return
G1 E0.8 F0 ; Un-retract
SET_PRESSURE_ADVANCE ADVANCE=0.05 ; Set pressure advance
M117 PA 0.05
G1 X167.5451 Y144.22 E1.08313 F4800 ; Print pattern wall
G1 X146.3319 Y165.4332 E1.08313 F4800 ; Print pattern wall
G1 E-0.8 F2100 ; Retract
G1 Z0.96 F9000 ; Z hop
G0 X146.9015 Y123.0068 F9000 ; Move to start next pattern wall
G1 Z0.66 F9000 ; Z hop return
G1 E0.8 F0 ; Un-retract
G1 X168.1147 Y144.22 E1.08313 F4800 ; Print pattern wall
G1 X146.9015 Y165.4332 E1.08313 F4800 ; Print pattern wall
G1 E-0.8 F2100 ; Retract
G1 Z0.96 F9000 ; Z hop
G0 X147.4712 Y123.0068 F9000 ; Move to start next pattern wall
G1 Z0.66 F9000 ; Z hop return
G1 E0.8 F0 ; Un-retract
G1 X168.6844 Y144.22 E1.08313 F4800 ; Print pattern wall
G1 X147.4712 Y165.4332 E1.08313 F4800 ; Print pattern wall
G1 E-0.8 F2100 ; Retract
G1 Z0.96 F9000 ; Z hop
G0 X149.9212 Y123.0068 F9000 ; Move to next pattern
G1 Z0.66 F9000 ; Z hop return
G1 E0.8 F0 ; Un-retract
SET_PRESSURE_ADVANCE ADVANCE=0.055 ; Set pressure advance
M117 PA 0.055
G1 X171.1344 Y144.22 E1.08313 F4800 ; Print pattern wall
G1 X149.9212 Y165.4332 E1.08313 F4800 ; Print pattern wall
G1 E-0.8 F2100 ; Retract
G1 Z0.96 F9000 ; Z hop
G0 X150.4908 Y123.0068 F9000 ; Move to start next pattern wall
G1 Z0.66 F9000 ; Z hop return
G1 E0.8 F0 ; Un-retract
G1 X171.704 Y144.22 E1.08313 F4800 ; Print pattern wall
G1 X150.4908 Y165.4332 E1.08313 F4800 ; Print pattern wall
G1 E-0.8 F2100 ; Retract
G1 Z0.96 F9000 ; Z hop
G0 X151.0604 Y123.0068 F9000 ; Move to start next pattern wall
G1 Z0.66 F9000 ; Z hop return
G1 E0.8 F0 ; Un-retract
G1 X172.2736 Y144.22 E1.08313 F4800 ; Print pattern wall
G1 X151.0604 Y165.4332 E1.08313 F4800 ; Print pattern wall
G1 E-0.8 F2100 ; Retract
G1 Z0.96 F9000 ; Z hop
G0 X153.5104 Y123.0068 F9000 ; Move to next pattern
G1 Z0.66 F9000 ; Z hop return
G1 E0.8 F0 ; Un-retract
SET_PRESSURE_ADVANCE ADVANCE=0.06 ; Set pressure advance
M117 PA 0.06
G1 X174.7236 Y144.22 E1.08313 F4800 ; Print pattern wall
G1 X153.5104 Y165.4332 E1.08313 F4800 ; Print pattern wall
G1 E-0.8 F2100 ; Retract
G1 Z0.96 F9000 ; Z hop
G0 X154.0801 Y123.0068 F9000 ; Move to start next pattern wall
G1 Z0.66 F9000 ; Z hop return
G1 E0.8 F0 ; Un-retract
G1 X175.2933 Y144.22 E1.08313 F4800 ; Print pattern wall
G1 X154.0801 Y165.4332 E1.08313 F4800 ; Print pattern wall
G1 E-0.8 F2100 ; Retract
G1 Z0.96 F9000 ; Z hop
G0 X154.6497 Y123.0068 F9000 ; Move to start next pattern wall
G1 Z0.66 F9000 ; Z hop return
G1 E0.8 F0 ; Un-retract
G1 X175.8629 Y144.22 E1.08313 F4800 ; Print pattern wall
G1 X154.6497 Y165.4332 E1.08313 F4800 ; Print pattern wall
G1 E-0.8 F2100 ; Retract
G1 Z0.96 F9000 ; Z hop
G0 X157.0997 Y123.0068 F9000 ; Move to next pattern
G1 Z0.66 F9000 ; Z hop return
G1 E0.8 F0 ; Un-retract
SET_PRESSURE_ADVANCE ADVANCE=0.065 ; Set pressure advance
M117 PA 0.065
G1 X178.3129 Y144.22 E1.08313 F4800 ; Print pattern wall
G1 X157.0997 Y165.4332 E1.08313 F4800 ; Print pattern wall
G1 E-0.8 F2100 ; Retract
G1 Z0.96 F9000 ; Z hop
G0 X157.6693 Y123.0068 F9000 ; Move to start next pattern wall
G1 Z0.66 F9000 ; Z hop return
G1 E0.8 F0 ; Un-retract
G1 X178.8825 Y144.22 E1.08313 F4800 ; Print pattern wall
G1 X157.6693 Y165.4332 E1.08313 F4800 ; Print pattern wall
G1 E-0.8 F2100 ; Retract
G1 Z0.96 F9000 ; Z hop
G0 X158.2389 Y123.0068 F9000 ; Move to start next pattern wall
G1 Z0.66 F9000 ; Z hop return
G1 E0.8 F0 ; Un-retract
G1 X179.4521 Y144.22 E1.08313 F4800 ; Print pattern wall
G1 X158.2389 Y165.4332 E1.08313 F4800 ; Print pattern wall
G1 E-0.8 F2100 ; Retract
G1 Z0.96 F9000 ; Z hop
G0 X160.6889 Y123.0068 F9000 ; Move to next pattern
G1 Z0.66 F9000 ; Z hop return
G1 E0.8 F0 ; Un-retract
SET_PRESSURE_ADVANCE ADVANCE=0.07 ; Set pressure advance
M117 PA 0.07
G1 X181.9021 Y144.22 E1.08313 F4800 ; Print pattern wall
G1 X160.6889 Y165.4332 E1.08313 F4800 ; Print pattern wall
G1 E-0.8 F2100 ; Retract
G1 Z0.96 F9000 ; Z hop
G0 X161.2586 Y123.0068 F9000 ; Move to start next pattern wall
G1 Z0.66 F9000 ; Z hop return
G1 E0.8 F0 ; Un-retract
G1 X182.4718 Y144.22 E1.08313 F4800 ; Print pattern wall
G1 X161.2586 Y165.4332 E1.08313 F4800 ; Print pattern wall
G1 E-0.8 F2100 ; Retract
G1 Z0.96 F9000 ; Z hop
G0 X161.8282 Y123.0068 F9000 ; Move to start next pattern wall
G1 Z0.66 F9000 ; Z hop return
G1 E0.8 F0 ; Un-retract
G1 X183.0414 Y144.22 E1.08313 F4800 ; Print pattern wall
G1 X161.8282 Y165.4332 E1.08313 F4800 ; Print pattern wall
G1 E-0.8 F2100 ; Retract
G1 Z0.96 F9000 ; Z hop
G0 X164.2782 Y123.0068 F9000 ; Move to next pattern
G1 Z0.66 F9000 ; Z hop return
G1 E0.8 F0 ; Un-retract
SET_PRESSURE_ADVANCE ADVANCE=0.075 ; Set pressure advance
M117 PA 0.075
G1 X185.4914 Y144.22 E1.08313 F4800 ; Print pattern wall
G1 X164.2782 Y165.4332 E1.08313 F4800 ; Print pattern wall
G1 E-0.8 F2100 ; Retract
G1 Z0.96 F9000 ; Z hop
G0 X164.8478 Y123.0068 F9000 ; Move to start next pattern wall
G1 Z0.66 F9000 ; Z hop return
G1 E0.8 F0 ; Un-retract
G1 X186.061 Y144.22 E1.08313 F4800 ; Print pattern wall
G1 X164.8478 Y165.4332 E1.08313 F4800 ; Print pattern wall
G1 E-0.8 F2100 ; Retract
G1 Z0.96 F9000 ; Z hop
G0 X165.4174 Y123.0068 F9000 ; Move to start next pattern wall
G1 Z0.66 F9000 ; Z hop return
G1 E0.8 F0 ; Un-retract
G1 X186.6307 Y144.22 E1.08313 F4800 ; Print pattern wall
G1 X165.4174 Y165.4332 E1.08313 F4800 ; Print pattern wall
G1 E-0.8 F2100 ; Retract
G1 Z0.96 F9000 ; Z hop
G0 X167.8674 Y123.0068 F9000 ; Move to next pattern
G1 Z0.66 F9000 ; Z hop return
G1 E0.8 F0 ; Un-retract
SET_PRESSURE_ADVANCE ADVANCE=0.08 ; Set pressure advance
M117 PA 0.08
G1 X189.0807 Y144.22 E1.08313 F4800 ; Print pattern wall
G1 X167.8674 Y165.4332 E1.08313 F4800 ; Print pattern wall
G1 E-0.8 F2100 ; Retract
G1 Z0.96 F9000 ; Z hop
G0 X168.4371 Y123.0068 F9000 ; Move to start next pattern wall
G1 Z0.66 F9000 ; Z hop return
G1 E0.8 F0 ; Un-retract
G1 X189.6503 Y144.22 E1.08313 F4800 ; Print pattern wall
G1 X168.4371 Y165.4332 E1.08313 F4800 ; Print pattern wall
G1 E-0.8 F2100 ; Retract
G1 Z0.96 F9000 ; Z hop
G0 X169.0067 Y123.0068 F9000 ; Move to start next pattern wall
G1 Z0.66 F9000 ; Z hop return
G1 E0.8 F0 ; Un-retract
G1 X190.2199 Y144.22 E1.08313 F4800 ; Print pattern wall
G1 X169.0067 Y165.4332 E1.08313 F4800 ; Print pattern wall
G1 E-0.8 F2100 ; Retract
G1 Z0.96 F9000 ; Z hop
G0 X110.4394 Y123.0068 F9000 ; Move back to start position
G1 Z0.66 F9000 ; Z hop return
G1 E0.8 F0 ; Un-retract
G0 Z0.88 F9000 ; Move to layer height
SET_PRESSURE_ADVANCE ADVANCE=0 ; Set pressure advance
M117 PA 0
G1 X131.6526 Y144.22 E1.08313 F4800 ; Print pattern wall
G1 X110.4394 Y165.4332 E1.08313 F4800 ; Print pattern wall
G1 E-0.8 F2100 ; Retract
G1 Z1.18 F9000 ; Z hop
G0 X111.009 Y123.0068 F9000 ; Move to start next pattern wall
G1 Z0.88 F9000 ; Z hop return
G1 E0.8 F0 ; Un-retract
G1 X132.2222 Y144.22 E1.08313 F4800 ; Print pattern wall
G1 X111.009 Y165.4332 E1.08313 F4800 ; Print pattern wall
G1 E-0.8 F2100 ; Retract
G1 Z1.18 F9000 ; Z hop
G0 X111.5786 Y123.0068 F9000 ; Move to start next pattern wall
G1 Z0.88 F9000 ; Z hop return
G1 E0.8 F0 ; Un-retract
G1 X132.7918 Y144.22 E1.08313 F4800 ; Print pattern wall
G1 X111.5786 Y165.4332 E1.08313 F4800 ; Print pattern wall
G1 E-0.8 F2100 ; Retract
G1 Z1.18 F9000 ; Z hop
G0 X114.0286 Y123.0068 F9000 ; Move to next pattern
G1 Z0.88 F9000 ; Z hop return
G1 E0.8 F0 ; Un-retract
SET_PRESSURE_ADVANCE ADVANCE=0.005 ; Set pressure advance
M117 PA 0.005
G1 X135.2418 Y144.22 E1.08313 F4800 ; Print pattern wall
G1 X114.0286 Y165.4332 E1.08313 F4800 ; Print pattern wall
G1 E-0.8 F2100 ; Retract
G1 Z1.18 F9000 ; Z hop
G0 X114.5982 Y123.0068 F9000 ; Move to start next pattern wall
G1 Z0.88 F9000 ; Z hop return
G1 E0.8 F0 ; Un-retract
G1 X135.8114 Y144.22 E1.08313 F4800 ; Print pattern wall
G1 X114.5982 Y165.4332 E1.08313 F4800 ; Print pattern wall
G1 E-0.8 F2100 ; Retract
G1 Z1.18 F9000 ; Z hop
G0 X115.1679 Y123.0068 F9000 ; Move to start next pattern wall
G1 Z0.88 F9000 ; Z hop return
G1 E0.8 F0 ; Un-retract
G1 X136.3811 Y144.22 E1.08313 F4800 ; Print pattern wall
G1 X115.1679 Y165.4332 E1.08313 F4800 ; Print pattern wall
G1 E-0.8 F2100 ; Retract
G1 Z1.18 F9000 ; Z hop
G0 X117.6179 Y123.0068 F9000 ; Move to next pattern
G1 Z0.88 F9000 ; Z hop return
G1 E0.8 F0 ; Un-retract
SET_PRESSURE_ADVANCE ADVANCE=0.01 ; Set pressure advance
M117 PA 0.01
G1 X138.8311 Y144.22 E1.08313 F4800 ; Print pattern wall
G1 X117.6179 Y165.4332 E1.08313 F4800 ; Print pattern wall
G1 E-0.8 F2100 ; Retract
G1 Z1.18 F9000 ; Z hop
G0 X118.1875 Y123.0068 F9000 ; Move to start next pattern wall
G1 Z0.88 F9000 ; Z hop return
G1 E0.8 F0 ; Un-retract
G1 X139.4007 Y144.22 E1.08313 F4800 ; Print pattern wall
G1 X118.1875 Y165.4332 E1.08313 F4800 ; Print pattern wall
G1 E-0.8 F2100 ; Retract
G1 Z1.18 F9000 ; Z hop
G0 X118.7571 Y123.0068 F9000 ; Move to start next pattern wall
G1 Z0.88 F9000 ; Z hop return
G1 E0.8 F0 ; Un-retract
G1 X139.9703 Y144.22 E1.08313 F4800 ; Print pattern wall
G1 X118.7571 Y165.4332 E1.08313 F4800 ; Print pattern wall
G1 E-0.8 F2100 ; Retract
G1 Z1.18 F9000 ; Z hop
G0 X121.2071 Y123.0068 F9000 ; Move to next pattern
G1 Z0.88 F9000 ; Z hop return
G1 E0.8 F0 ; Un-retract
SET_PRESSURE_ADVANCE ADVANCE=0.015 ; Set pressure advance
M117 PA 0.015
G1 X142.4203 Y144.22 E1.08313 F4800 ; Print pattern wall
G1 X121.2071 Y165.4332 E1.08313 F4800 ; Print pattern wall
G1 E-0.8 F2100 ; Retract
G1 Z1.18 F9000 ; Z hop
G0 X121.7768 Y123.0068 F9000 ; Move to start next pattern wall
G1 Z0.88 F9000 ; Z hop return
G1 E0.8 F0 ; Un-retract
G1 X142.99 Y144.22 E1.08313 F4800 ; Print pattern wall
G1 X121.7768 Y165.4332 E1.08313 F4800 ; Print pattern wall
G1 E-0.8 F2100 ; Retract
G1 Z1.18 F9000 ; Z hop
G0 X122.3464 Y123.0068 F9000 ; Move to start next pattern wall
G1 Z0.88 F9000 ; Z hop return
G1 E0.8 F0 ; Un-retract
G1 X143.5596 Y144.22 E1.08313 F4800 ; Print pattern wall
G1 X122.3464 Y165.4332 E1.08313 F4800 ; Print pattern wall
G1 E-0.8 F2100 ; Retract
G1 Z1.18 F9000 ; Z hop
G0 X124.7964 Y123.0068 F9000 ; Move to next pattern
G1 Z0.88 F9000 ; Z hop return
G1 E0.8 F0 ; Un-retract
SET_PRESSURE_ADVANCE ADVANCE=0.02 ; Set pressure advance
M117 PA 0.02
G1 X146.0096 Y144.22 E1.08313 F4800 ; Print pattern wall
G1 X124.7964 Y165.4332 E1.08313 F4800 ; Print pattern wall
G1 E-0.8 F2100 ; Retract
G1 Z1.18 F9000 ; Z hop
G0 X125.366 Y123.0068 F9000 ; Move to start next pattern wall
G1 Z0.88 F9000 ; Z hop return
G1 E0.8 F0 ; Un-retract
G1 X146.5792 Y144.22 E1.08313 F4800 ; Print pattern wall
G1 X125.366 Y165.4332 E1.08313 F4800 ; Print pattern wall
G1 E-0.8 F2100 ; Retract
G1 Z1.18 F9000 ; Z hop
G0 X125.9356 Y123.0068 F9000 ; Move to start next pattern wall
G1 Z0.88 F9000 ; Z hop return
G1 E0.8 F0 ; Un-retract
G1 X147.1488 Y144.22 E1.08313 F4800 ; Print pattern wall
G1 X125.9356 Y165.4332 E1.08313 F4800 ; Print pattern wall
G1 E-0.8 F2100 ; Retract
G1 Z1.18 F9000 ; Z hop
G0 X128.3856 Y123.0068 F9000 ; Move to next pattern
G1 Z0.88 F9000 ; Z hop return
G1 E0.8 F0 ; Un-retract
SET_PRESSURE_ADVANCE ADVANCE=0.025 ; Set pressure advance
M117 PA 0.025
G1 X149.5988 Y144.22 E1.08313 F4800 ; Print pattern wall
G1 X128.3856 Y165.4332 E1.08313 F4800 ; Print pattern wall
G1 E-0.8 F2100 ; Retract
G1 Z1.18 F9000 ; Z hop
G0 X128.9553 Y123.0068 F9000 ; Move to start next pattern wall
G1 Z0.88 F9000 ; Z hop return
G1 E0.8 F0 ; Un-retract
G1 X150.1685 Y144.22 E1.08313 F4800 ; Print pattern wall
G1 X128.9553 Y165.4332 E1.08313 F4800 ; Print pattern wall
G1 E-0.8 F2100 ; Retract
G1 Z1.18 F9000 ; Z hop
G0 X129.5249 Y123.0068 F9000 ; Move to start next pattern wall
G1 Z0.88 F9000 ; Z hop return
G1 E0.8 F0 ; Un-retract
G1 X150.7381 Y144.22 E1.08313 F4800 ; Print pattern wall
G1 X129.5249 Y165.4332 E1.08313 F4800 ; Print pattern wall
G1 E-0.8 F2100 ; Retract
G1 Z1.18 F9000 ; Z hop
G0 X131.9749 Y123.0068 F9000 ; Move to next pattern
G1 Z0.88 F9000 ; Z hop return
G1 E0.8 F0 ; Un-retract
SET_PRESSURE_ADVANCE ADVANCE=0.03 ; Set pressure advance
M117 PA 0.03
G1 X153.1881 Y144.22 E1.08313 F4800 ; Print pattern wall
G1 X131.9749 Y165.4332 E1.08313 F4800 ; Print pattern wall
G1 E-0.8 F2100 ; Retract
G1 Z1.18 F9000 ; Z hop
G0 X132.5445 Y123.0068 F9000 ; Move to start next pattern wall
G1 Z0.88 F9000 ; Z hop return
G1 E0.8 F0 ; Un-retract
G1 X153.7577 Y144.22 E1.08313 F4800 ; Print pattern wall
G1 X132.5445 Y165.4332 E1.08313 F4800 ; Print pattern wall
G1 E-0.8 F2100 ; Retract
G1 Z1.18 F9000 ; Z hop
G0 X133.1141 Y123.0068 F9000 ; Move to start next pattern wall
G1 Z0.88 F9000 ; Z hop return
G1 E0.8 F0 ; Un-retract
G1 X154.3274 Y144.22 E1.08313 F4800 ; Print pattern wall
G1 X133.1141 Y165.4332 E1.08313 F4800 ; Print pattern wall
G1 E-0.8 F2100 ; Retract
G1 Z1.18 F9000 ; Z hop
G0 X135.5641 Y123.0068 F9000 ; Move to next pattern
G1 Z0.88 F9000 ; Z hop return
G1 E0.8 F0 ; Un-retract
SET_PRESSURE_ADVANCE ADVANCE=0.035 ; Set pressure advance
M117 PA 0.035
G1 X156.7774 Y144.22 E1.08313 F4800 ; Print pattern wall
G1 X135.5641 Y165.4332 E1.08313 F4800 ; Print pattern wall
G1 E-0.8 F2100 ; Retract
G1 Z1.18 F9000 ; Z hop
G0 X136.1338 Y123.0068 F9000 ; Move to start next pattern wall
G1 Z0.88 F9000 ; Z hop return
G1 E0.8 F0 ; Un-retract
G1 X157.347 Y144.22 E1.08313 F4800 ; Print pattern wall
G1 X136.1338 Y165.4332 E1.08313 F4800 ; Print pattern wall
G1 E-0.8 F2100 ; Retract
G1 Z1.18 F9000 ; Z hop
G0 X136.7034 Y123.0068 F9000 ; Move to start next pattern wall
G1 Z0.88 F9000 ; Z hop return
G1 E0.8 F0 ; Un-retract
G1 X157.9166 Y144.22 E1.08313 F4800 ; Print pattern wall
G1 X136.7034 Y165.4332 E1.08313 F4800 ; Print pattern wall
G1 E-0.8 F2100 ; Retract
G1 Z1.18 F9000 ; Z hop
G0 X139.1534 Y123.0068 F9000 ; Move to next pattern
G1 Z0.88 F9000 ; Z hop return
G1 E0.8 F0 ; Un-retract
SET_PRESSURE_ADVANCE ADVANCE=0.04 ; Set pressure advance
M117 PA 0.04
G1 X160.3666 Y144.22 E1.08313 F4800 ; Print pattern wall
G1 X139.1534 Y165.4332 E1.08313 F4800 ; Print pattern wall
G1 E-0.8 F2100 ; Retract
G1 Z1.18 F9000 ; Z hop
G0 X139.723 Y123.0068 F9000 ; Move to start next pattern wall
G1 Z0.88 F9000 ; Z hop return
G1 E0.8 F0 ; Un-retract
G1 X160.9362 Y144.22 E1.08313 F4800 ; Print pattern wall
G1 X139.723 Y165.4332 E1.08313 F4800 ; Print pattern wall
G1 E-0.8 F2100 ; Retract
G1 Z1.18 F9000 ; Z hop
G0 X140.2927 Y123.0068 F9000 ; Move to start next pattern wall
G1 Z0.88 F9000 ; Z hop return
G1 E0.8 F0 ; Un-retract
G1 X161.5059 Y144.22 E1.08313 F4800 ; Print pattern wall
G1 X140.2927 Y165.4332 E1.08313 F4800 ; Print pattern wall
G1 E-0.8 F2100 ; Retract
G1 Z1.18 F9000 ; Z hop
G0 X142.7427 Y123.0068 F9000 ; Move to next pattern
G1 Z0.88 F9000 ; Z hop return
G1 E0.8 F0 ; Un-retract
SET_PRESSURE_ADVANCE ADVANCE=0.045 ; Set pressure advance
M117 PA 0.045
G1 X163.9559 Y144.22 E1.08313 F4800 ; Print pattern wall
G1 X142.7427 Y165.4332 E1.08313 F4800 ; Print pattern wall
G1 E-0.8 F2100 ; Retract
G1 Z1.18 F9000 ; Z hop
G0 X143.3123 Y123.0068 F9000 ; Move to start next pattern wall
G1 Z0.88 F9000 ; Z hop return
G1 E0.8 F0 ; Un-retract
G1 X164.5255 Y144.22 E1.08313 F4800 ; Print pattern wall
G1 X143.3123 Y165.4332 E1.08313 F4800 ; Print pattern wall
G1 E-0.8 F2100 ; Retract
G1 Z1.18 F9000 ; Z hop
G0 X143.8819 Y123.0068 F9000 ; Move to start next pattern wall
G1 Z0.88 F9000 ; Z hop return
G1 E0.8 F0 ; Un-retract
G1 X165.0951 Y144.22 E1.08313 F4800 ; Print pattern wall
G1 X143.8819 Y165.4332 E1.08313 F4800 ; Print pattern wall
G1 E-0.8 F2100 ; Retract
G1 Z1.18 F9000 ; Z hop
G0 X146.3319 Y123.0068 F9000 ; Move to next pattern
G1 Z0.88 F9000 ; Z hop return
G1 E0.8 F0 ; Un-retract
SET_PRESSURE_ADVANCE ADVANCE=0.05 ; Set pressure advance
M117 PA 0.05
G1 X167.5451 Y144.22 E1.08313 F4800 ; Print pattern wall
G1 X146.3319 Y165.4332 E1.08313 F4800 ; Print pattern wall
G1 E-0.8 F2100 ; Retract
G1 Z1.18 F9000 ; Z hop
G0 X146.9015 Y123.0068 F9000 ; Move to start next pattern wall
G1 Z0.88 F9000 ; Z hop return
G1 E0.8 F0 ; Un-retract
G1 X168.1147 Y144.22 E1.08313 F4800 ; Print pattern wall
G1 X146.9015 Y165.4332 E1.08313 F4800 ; Print pattern wall
G1 E-0.8 F2100 ; Retract
G1 Z1.18 F9000 ; Z hop
G0 X147.4712 Y123.0068 F9000 ; Move to start next pattern wall
G1 Z0.88 F9000 ; Z hop return
G1 E0.8 F0 ; Un-retract
G1 X168.6844 Y144.22 E1.08313 F4800 ; Print pattern wall
G1 X147.4712 Y165.4332 E1.08313 F4800 ; Print pattern wall
G1 E-0.8 F2100 ; Retract
G1 Z1.18 F9000 ; Z hop
G0 X149.9212 Y123.0068 F9000 ; Move to next pattern
G1 Z0.88 F9000 ; Z hop return
G1 E0.8 F0 ; Un-retract
SET_PRESSURE_ADVANCE ADVANCE=0.055 ; Set pressure advance
M117 PA 0.055
G1 X171.1344 Y144.22 E1.08313 F4800 ; Print pattern wall
G1 X149.9212 Y165.4332 E1.08313 F4800 ; Print pattern wall
G1 E-0.8 F2100 ; Retract
G1 Z1.18 F9000 ; Z hop
G0 X150.4908 Y123.0068 F9000 ; Move to start next pattern wall
G1 Z0.88 F9000 ; Z hop return
G1 E0.8 F0 ; Un-retract
G1 X171.704 Y144.22 E1.08313 F4800 ; Print pattern wall
G1 X150.4908 Y165.4332 E1.08313 F4800 ; Print pattern wall
G1 E-0.8 F2100 ; Retract
G1 Z1.18 F9000 ; Z hop
G0 X151.0604 Y123.0068 F9000 ; Move to start next pattern wall
G1 Z0.88 F9000 ; Z hop return
G1 E0.8 F0 ; Un-retract
G1 X172.2736 Y144.22 E1.08313 F4800 ; Print pattern wall
G1 X151.0604 Y165.4332 E1.08313 F4800 ; Print pattern wall
G1 E-0.8 F2100 ; Retract
G1 Z1.18 F9000 ; Z hop
G0 X153.5104 Y123.0068 F9000 ; Move to next pattern
G1 Z0.88 F9000 ; Z hop return
G1 E0.8 F0 ; Un-retract
SET_PRESSURE_ADVANCE ADVANCE=0.06 ; Set pressure advance
M117 PA 0.06
G1 X174.7236 Y144.22 E1.08313 F4800 ; Print pattern wall
G1 X153.5104 Y165.4332 E1.08313 F4800 ; Print pattern wall
G1 E-0.8 F2100 ; Retract
G1 Z1.18 F9000 ; Z hop
G0 X154.0801 Y123.0068 F9000 ; Move to start next pattern wall
G1 Z0.88 F9000 ; Z hop return
G1 E0.8 F0 ; Un-retract
G1 X175.2933 Y144.22 E1.08313 F4800 ; Print pattern wall
G1 X154.0801 Y165.4332 E1.08313 F4800 ; Print pattern wall
G1 E-0.8 F2100 ; Retract
G1 Z1.18 F9000 ; Z hop
G0 X154.6497 Y123.0068 F9000 ; Move to start next pattern wall
G1 Z0.88 F9000 ; Z hop return
G1 E0.8 F0 ; Un-retract
G1 X175.8629 Y144.22 E1.08313 F4800 ; Print pattern wall
G1 X154.6497 Y165.4332 E1.08313 F4800 ; Print pattern wall
G1 E-0.8 F2100 ; Retract
G1 Z1.18 F9000 ; Z hop
G0 X157.0997 Y123.0068 F9000 ; Move to next pattern
G1 Z0.88 F9000 ; Z hop return
G1 E0.8 F0 ; Un-retract
SET_PRESSURE_ADVANCE ADVANCE=0.065 ; Set pressure advance
M117 PA 0.065
G1 X178.3129 Y144.22 E1.08313 F4800 ; Print pattern wall
G1 X157.0997 Y165.4332 E1.08313 F4800 ; Print pattern wall
G1 E-0.8 F2100 ; Retract
G1 Z1.18 F9000 ; Z hop
G0 X157.6693 Y123.0068 F9000 ; Move to start next pattern wall
G1 Z0.88 F9000 ; Z hop return
G1 E0.8 F0 ; Un-retract
G1 X178.8825 Y144.22 E1.08313 F4800 ; Print pattern wall
G1 X157.6693 Y165.4332 E1.08313 F4800 ; Print pattern wall
G1 E-0.8 F2100 ; Retract
G1 Z1.18 F9000 ; Z hop
G0 X158.2389 Y123.0068 F9000 ; Move to start next pattern wall
G1 Z0.88 F9000 ; Z hop return
G1 E0.8 F0 ; Un-retract
G1 X179.4521 Y144.22 E1.08313 F4800 ; Print pattern wall
G1 X158.2389 Y165.4332 E1.08313 F4800 ; Print pattern wall
G1 E-0.8 F2100 ; Retract
G1 Z1.18 F9000 ; Z hop
G0 X160.6889 Y123.0068 F9000 ; Move to next pattern
G1 Z0.88 F9000 ; Z hop return
G1 E0.8 F0 ; Un-retract
SET_PRESSURE_ADVANCE ADVANCE=0.07 ; Set pressure advance
M117 PA 0.07
G1 X181.9021 Y144.22 E1.08313 F4800 ; Print pattern wall
G1 X160.6889 Y165.4332 E1.08313 F4800 ; Print pattern wall
G1 E-0.8 F2100 ; Retract
G1 Z1.18 F9000 ; Z hop
G0 X161.2586 Y123.0068 F9000 ; Move to start next pattern wall
G1 Z0.88 F9000 ; Z hop return
G1 E0.8 F0 ; Un-retract
G1 X182.4718 Y144.22 E1.08313 F4800 ; Print pattern wall
G1 X161.2586 Y165.4332 E1.08313 F4800 ; Print pattern wall
G1 E-0.8 F2100 ; Retract
G1 Z1.18 F9000 ; Z hop
G0 X161.8282 Y123.0068 F9000 ; Move to start next pattern wall
G1 Z0.88 F9000 ; Z hop return
G1 E0.8 F0 ; Un-retract
G1 X183.0414 Y144.22 E1.08313 F4800 ; Print pattern wall
G1 X161.8282 Y165.4332 E1.08313 F4800 ; Print pattern wall
G1 E-0.8 F2100 ; Retract
G1 Z1.18 F9000 ; Z hop
G0 X164.2782 Y123.0068 F9000 ; Move to next pattern
G1 Z0.88 F9000 ; Z hop return
G1 E0.8 F0 ; Un-retract
SET_PRESSURE_ADVANCE ADVANCE=0.075 ; Set pressure advance
M117 PA 0.075
G1 X185.4914 Y144.22 E1.08313 F4800 ; Print pattern wall
G1 X164.2782 Y165.4332 E1.08313 F4800 ; Print pattern wall
G1 E-0.8 F2100 ; Retract
G1 Z1.18 F9000 ; Z hop
G0 X164.8478 Y123.0068 F9000 ; Move to start next pattern wall
G1 Z0.88 F9000 ; Z hop return
G1 E0.8 F0 ; Un-retract
G1 X186.061 Y144.22 E1.08313 F4800 ; Print pattern wall
G1 X164.8478 Y165.4332 E1.08313 F4800 ; Print pattern wall
G1 E-0.8 F2100 ; Retract
G1 Z1.18 F9000 ; Z hop
G0 X165.4174 Y123.0068 F9000 ; Move to start next pattern wall
G1 Z0.88 F9000 ; Z hop return
G1 E0.8 F0 ; Un-retract
G1 X186.6307 Y144.22 E1.08313 F4800 ; Print pattern wall
G1 X165.4174 Y165.4332 E1.08313 F4800 ; Print pattern wall
G1 E-0.8 F2100 ; Retract
G1 Z1.18 F9000 ; Z hop
G0 X167.8674 Y123.0068 F9000 ; Move to next pattern
G1 Z0.88 F9000 ; Z hop return
G1 E0.8 F0 ; Un-retract
SET_PRESSURE_ADVANCE ADVANCE=0.08 ; Set pressure advance
M117 PA 0.08
G1 X189.0807 Y144.22 E1.08313 F4800 ; Print pattern wall
G1 X167.8674 Y165.4332 E1.08313 F4800 ; Print pattern wall
G1 E-0.8 F2100 ; Retract
G1 Z1.18 F9000 ; Z hop
G0 X168.4371 Y123.0068 F9000 ; Move to start next pattern wall
G1 Z0.88 F9000 ; Z hop return
G1 E0.8 F0 ; Un-retract
G1 X189.6503 Y144.22 E1.08313 F4800 ; Print pattern wall
G1 X168.4371 Y165.4332 E1.08313 F4800 ; Print pattern wall
G1 E-0.8 F2100 ; Retract
G1 Z1.18 F9000 ; Z hop
G0 X169.0067 Y123.0068 F9000 ; Move to start next pattern wall
G1 Z0.88 F9000 ; Z hop return
G1 E0.8 F0 ; Un-retract
G1 X190.2199 Y144.22 E1.08313 F4800 ; Print pattern wall
G1 X169.0067 Y165.4332 E1.08313 F4800 ; Print pattern wall
SET_PRESSURE_ADVANCE ADVANCE=0 ; Set pressure advance back to start value
M117 PA 0
G1 E-0.8 F2100 ; Retract
G1 Z1.18 F9000 ; Z hop
G0 Z5.88 F9000 ; Z raise
M104 S0 ; Turn off hotend
M140 S0 ; Turn off bed
M107    ; Turn off fan
;
; End G-code
;
PRINT_END ; End macro. Change name to match yours
;
; FINISH
;
