; generated by SuperSlicer 2.5.59 on 2023-05-09 at 23:27:13 UTC


;
;

;
;
; 

; external perimeters extrusion width = 0.43mm
; perimeters extrusion width = 0.45mm
; infill extrusion width = 0.45mm
; solid infill extrusion width = 0.45mm
; top infill extrusion width = 0.42mm
; support material extrusion width = 0.42mm
; first layer extrusion width = 0.57mm

; object:{"name":"PCB_mount_SB","id":"PCB_mount_SB.stl id:0 copy 0","object_center":[150.000000,148.500000,0.000000],"boundingbox_center":[150.000000,148.500000,7.675180],"boundingbox_size":[11.238501,37.335175,15.350361]}
EXCLUDE_OBJECT_DEFINE NAME=PCB_mount_SB_stl_id_0_copy_0 CENTER=150.000000,148.500000 POLYGON=[[144.380752,136.808112],[145.749808,131.890760],[145.937168,131.618808],[146.113472,131.398776],[147.968560,130.039400],[148.707792,129.832416],[153.913632,132.518008],[154.111856,132.629520],[154.301552,132.755032],[154.305632,132.758104],[154.475264,132.888944],[154.481664,132.893904],[154.487552,132.898968],[154.643408,133.038256],[154.651296,133.045408],[154.658704,133.052752],[154.800464,133.199192],[154.809536,133.208768],[154.818176,133.218616],[154.945632,133.370912],[154.955600,133.383136],[154.965104,133.395672],[155.078192,133.552536],[155.088704,133.567568],[155.098720,133.582992],[155.197440,133.743168],[155.208128,133.761120],[155.218320,133.779560],[155.302800,133.941816],[155.313296,133.962800],[155.323248,133.984328],[155.393712,134.147488],[155.403632,134.171536],[155.412928,134.196216],[155.469712,134.359104],[155.478672,134.386224],[155.486928,134.414080],[155.530448,134.575616],[155.538016,134.605808],[155.544816,134.636752],[155.575568,134.795904],[155.581360,134.829072],[155.586304,134.863072],[155.604848,135.018848],[155.608496,135.054896],[155.611152,135.091824],[155.618160,135.243312],[155.619248,135.282096],[155.619232,135.321760],[155.615424,135.468160],[155.613584,135.509456],[155.610512,135.551680],[155.596656,135.692224],[155.591536,135.735840],[153.439120,152.620704],[151.583104,166.894576],[145.818768,167.167584],[145.818608,167.167584],[145.818096,167.167568],[145.817728,167.159968],[145.814848,167.099504],[145.800928,166.806272],[145.784224,166.453952],[145.763376,166.014096],[145.747872,165.686880],[145.630128,163.200752],[144.417200,137.578272],[144.380752,136.808112]]
; plater:{"center":[150.000000,148.500000,0.000000],"boundingbox_center":[150.000000,148.500000,7.675180],"boundingbox_size":[11.238501,37.335175,15.350361]}

;TYPE:Custom
SET_PRINT_STATS_INFO TOTAL_LAYER=77

M104 S0 ; Stops SuperSlicer from sending temp waits separately

M109 S0

M140 S0

print_start EXTRUDER=255 BED=110 CHAMBER=0
M107
G21 ; set units to millimeters
G90 ; use absolute coordinates
M82 ; use absolute distances for extrusion
G92 E0
; Filament gcode
;_TOOLCHANGE 0
M107
;LAYER_CHANGE
;Z:0.2
;HEIGHT:0.2
TIMELAPSE_TAKE_FRAME
;BEFORE_LAYER_CHANGE
;0.2


G1 Z0.2 F12000
SET_PRINT_STATS_INFO CURRENT_LAYER=1
;AFTER_LAYER_CHANGE
;0.2
G1 E-0.75 F3300
G1 Z0.5 F12000
M204 S1500
G1 X144.032 Y129.717
G1 Z0.2
G1 E0 F3000
;TYPE:Skirt
;WIDTH:0.52
G1 F2700
G1 X143.517 Y130.4 E0.03392
G1 X143.158 Y131.188 E0.06828
G1 X141.788 Y136.082 E0.2699
G1 X141.691 Y136.935 E0.30396
G1 X143.129 Y167.295 E1.50965
G1 X143.488 Y168.516 E1.56015
G1 X144.529 Y169.531 E1.61783
G1 X145.946 Y169.857 E1.67551
G1 X151.71 Y169.584 E1.90443
G1 X152.501 Y169.426 E1.93642
G1 X153.684 Y168.579 E1.9941
G1 X154.253 Y167.242 E2.05178
G1 X158.293 Y135.772 E3.3104
G1 X158.269 Y134.639 E3.35537
G1 X157.976 Y133.377 E3.40677
G1 X157.448 Y132.266 E3.45557
G1 X156.652 Y131.243 E3.50697
G1 X156.022 Y130.683 E3.54041
G1 X155.318 Y130.22 E3.57384
G1 X149.963 Y127.45 E3.81298
G1 X147.999 Y127.251 E3.8913
G1 X147.262 Y127.459 E3.92169
G1 X146.402 Y127.878 E3.95963
G1 X144.525 Y129.25 E4.05187
G1 X144.075 Y129.676 E4.07643
G92 E0
G1 E-0.75 F3300
M204 S6000
G1 Z0.5 F12000
M204 S1500
G1 X144.401 Y130.02
G1 Z0.2
G1 E0 F3000
G1 F2700
G1 X143.929 Y130.64 E0.03092
G1 X143.617 Y131.317 E0.06048
G1 X142.247 Y136.211 E0.26209
G1 X142.168 Y136.913 E0.29012
G1 X143.606 Y167.272 E1.49581
G1 X143.788 Y168.054 E1.52767
G1 X144.65 Y169.05 E1.57988
G1 X145.924 Y169.381 E1.63209
G1 X151.688 Y169.108 E1.86102
G1 X153.23 Y168.376 E1.92874
G1 X153.78 Y167.18 E1.98096
G1 X157.819 Y135.726 E3.23897
G1 X157.797 Y134.713 E3.27917
G1 X157.521 Y133.518 E3.32784
G1 X157.051 Y132.531 E3.37118
G1 X156.298 Y131.563 E3.41985
G1 X155.717 Y131.051 E3.45056
G1 X155.069 Y130.627 E3.48127
G1 X149.745 Y127.874 E3.71904
G1 X148.128 Y127.711 E3.78349
G1 X147.391 Y127.918 E3.81388
G1 X146.683 Y128.263 E3.84509
G1 X144.807 Y129.635 E3.93733
G1 X144.444 Y129.978 E3.95712
G92 E0
G1 E-0.75 F3300
M204 S6000
G1 Z0.5 F12000
M204 S1500
G1 X144.81 Y130.319
G1 Z0.2
G1 E0 F3000
G1 F2700
G1 X144.499 Y130.653 E0.01811
G1 X144.077 Y131.445 E0.05372
G1 X142.707 Y136.339 E0.25533
G1 X142.644 Y136.89 E0.27733
G1 X144.082 Y167.25 E1.48302
G1 X144.788 Y168.568 E1.54234
G1 X145.901 Y168.904 E1.58844
G1 X151.665 Y168.631 E1.81737
G1 X152.781 Y168.155 E1.86547
G1 X153.307 Y167.119 E1.91158
G1 X157.344 Y135.68 E3.16899
G1 X157.256 Y134.337 E3.22234
G1 X156.974 Y133.425 E3.26024
G1 X156.402 Y132.418 E3.30618
G1 X155.762 Y131.708 E3.34408
G1 X154.711 Y130.973 E3.39497
G1 X149.526 Y128.298 E3.6264
G1 X148.258 Y128.17 E3.67697
G1 X147.52 Y128.377 E3.70736
G1 X146.965 Y128.648 E3.73186
G1 X145.088 Y130.02 E3.8241
G1 X144.851 Y130.275 E3.83791
M104 S255 ; set temperature
G92 E0
G1 E-0.75 F3300
M204 S6000
G1 Z0.5 F12000
; printing object PCB_mount_SB.stl id:0 copy 0
EXCLUDE_OBJECT_START NAME=PCB_mount_SB_stl_id_0_copy_0
; acceleration to travel
M204 S6500
G1 X146.165 Y136.068
; decel to extrusion
M204 S1000
G1 X146.376 Y136.998
; end travel
G1 Z0.2
G1 E0 F3000
;TYPE:External perimeter
;WIDTH:0.568
G1 F3600
G1 X146.132 Y131.85 E0.225
G1 X146.271 Y131.681 E0.23458
G1 X146.407 Y131.651 E0.24066
G1 X146.819 Y131.51 E0.25966
G1 X147.2 Y131.312 E0.2784
G1 X147.549 Y131.057 E0.29729
G1 X147.725 Y130.894 E0.30774
G1 X148.002 Y130.572 E0.32628
G1 X148.174 Y130.294 E0.34056
G1 X148.698 Y130.147 E0.36431
G1 X153.777 Y132.767 E0.61381
G1 X154.136 Y132.987 E0.6322
G1 X154.454 Y133.251 E0.65026
G1 X154.731 Y133.558 E0.66832
G1 X154.961 Y133.902 E0.68638
G1 X155.139 Y134.276 E0.70443
G1 X155.261 Y134.671 E0.72249
G1 X155.325 Y135.079 E0.74055
G1 X155.329 Y135.498 E0.75883
G1 X155.31 Y135.694 E0.76742
G1 X155.225 Y136.104 E0.78571
G1 X155.083 Y136.492 E0.80377
G1 X154.887 Y136.856 E0.82182
G1 X154.772 Y137.023 E0.83064
G1 X154.499 Y137.34 E0.84892
G1 X154.187 Y137.611 E0.86694
G1 X153.764 Y137.902 E0.88935
G1 X153.606 Y138.035 E0.8984
G1 X153.342 Y138.325 E0.91551
G1 X153.136 Y138.653 E0.93242
G1 X152.746 Y139.426 E0.97021
G1 X152.674 Y139.624 E0.9794
G1 X152.591 Y140.007 E0.99652
G1 X152.576 Y140.392 E1.01336
G1 X153.154 Y152.609 E1.54735
G1 X151.332 Y166.622 E2.16432
G1 X146.089 Y166.87 E2.3935
G1 X145.956 Y164.069 E2.51595
G1 X147.655 Y163.989 E2.59018
G1 X146.506 Y139.74 E3.65006
G1 X144.808 Y139.821 E3.72429
G1 X144.678 Y137.078 E3.84416
G1 X146.316 Y137.001 E3.91576
;WIPE_START
M204 S6000
G1 X146.776 Y136.979 F12000
;WIPE_END
; acceleration to travel
M204 S6500
G1 X150.053 Y135.283
; decel to extrusion
M204 S1000
G1 X150.557 Y135.023
; end travel
G1 F3600
G1 X150.536 Y135.407 E3.93259
G1 X150.592 Y135.789 E3.94942
G1 X150.723 Y136.151 E3.96624
G1 X150.923 Y136.481 E3.98307
G1 X151.184 Y136.764 E3.9999
G1 X151.496 Y136.99 E4.01673
G1 X151.847 Y137.15 E4.03355
G1 X152.222 Y137.237 E4.05038
G1 X152.608 Y137.248 E4.06721
G1 X152.987 Y137.182 E4.08403
G1 X153.347 Y137.043 E4.10086
G1 X153.671 Y136.835 E4.11769
G1 X153.948 Y136.566 E4.13452
G1 X154.166 Y136.249 E4.15134
G1 X154.317 Y135.894 E4.16817
G1 X154.395 Y135.517 E4.185
G1 X154.396 Y135.131 E4.20182
G1 X154.321 Y134.753 E4.21865
G1 X154.172 Y134.397 E4.23548
G1 X153.956 Y134.078 E4.25231
G1 X153.681 Y133.808 E4.26913
G1 X153.358 Y133.598 E4.28596
G1 X153 Y133.456 E4.30279
G1 X152.627 Y133.389 E4.31932
G1 X152.414 Y133.384 E4.32862
G1 X152.045 Y133.429 E4.34487
G1 X151.679 Y133.551 E4.36168
G1 X151.345 Y133.742 E4.37851
G1 X151.055 Y133.996 E4.39534
G1 X150.821 Y134.303 E4.41217
G1 X150.653 Y134.649 E4.42899
G1 X150.572 Y134.964 E4.4432
;WIPE_START
M204 S6000
G1 X150.189 Y135.18 F12000
;WIPE_END
G92 E0
G1 E-0.75 F3300
G1 Z0.5 F12000
; acceleration to travel
M204 S6500
G1 X149.381 Y150.723
; decel to extrusion
M204 S1000
G1 X149.256 Y153.114
; end travel
G1 Z0.2
G1 E0 F3000
G1 F3600
G1 X149.607 Y153.274 E0.01683
G1 X149.983 Y153.361 E0.03365
G1 X150.368 Y153.372 E0.05048
G1 X150.748 Y153.306 E0.06731
G1 X151.107 Y153.167 E0.08414
G1 X151.431 Y152.959 E0.10096
G1 X151.708 Y152.69 E0.11779
G1 X151.926 Y152.373 E0.13462
G1 X152.077 Y152.018 E0.15144
G1 X152.155 Y151.64 E0.16827
G1 X152.156 Y151.255 E0.1851
G1 X152.081 Y150.877 E0.20192
G1 X151.933 Y150.521 E0.21875
G1 X151.716 Y150.202 E0.23558
G1 X151.441 Y149.932 E0.25241
G1 X151.118 Y149.722 E0.26923
G1 X150.76 Y149.58 E0.28606
G1 X150.387 Y149.513 E0.30259
G1 X150.174 Y149.508 E0.3119
G1 X149.805 Y149.553 E0.32814
G1 X149.44 Y149.675 E0.34496
G1 X149.105 Y149.866 E0.36179
G1 X148.815 Y150.12 E0.37861
G1 X148.582 Y150.427 E0.39544
G1 X148.413 Y150.773 E0.41227
G1 X148.317 Y151.147 E0.42909
G1 X148.296 Y151.531 E0.44592
G1 X148.353 Y151.913 E0.46275
G1 X148.483 Y152.275 E0.47957
G1 X148.683 Y152.605 E0.4964
G1 X148.944 Y152.888 E0.51323
G1 X149.208 Y153.079 E0.52744
;WIPE_START
M204 S6000
G1 X149.268 Y153.514 F12000
;WIPE_END
G92 E0
G1 E-0.75 F3300
G1 Z0.5 F12000
; acceleration to travel
M204 S6500
G1 X149.9 Y138.389
; decel to extrusion
M204 S1500
G1 X150.046 Y134.899
; end travel
G1 Z0.2
G1 E0 F3000
;TYPE:Internal perimeter
G1 F3600
G1 X150.035 Y134.942 E0.00197
G1 X150.009 Y135.432 E0.02338
G1 X150.08 Y135.917 E0.0448
G1 X150.247 Y136.379 E0.06621
G1 X150.501 Y136.798 E0.08763
G1 X150.833 Y137.159 E0.10904
G1 X151.231 Y137.446 E0.13046
G1 X151.677 Y137.65 E0.15187
G1 X152.155 Y137.76 E0.17329
G1 X152.645 Y137.774 E0.1947
G1 X153.122 Y137.692 E0.21581
G1 X152.678 Y138.394 E0.25205
G1 X152.262 Y139.218 E0.29235
G1 X152.169 Y139.478 E0.30444
G1 X152.068 Y139.94 E0.32506
G1 X152.05 Y140.394 E0.34492
G1 X152.517 Y150.252 E0.77581
G1 X151.772 Y149.521 E0.8214
G1 X151.361 Y149.253 E0.84282
G1 X150.905 Y149.073 E0.86424
G1 X150.441 Y148.989 E0.88481
G1 X150.149 Y148.982 E0.89756
G1 X149.689 Y149.038 E0.91779
G1 X149.224 Y149.193 E0.93918
G1 X148.799 Y149.437 E0.9606
G1 X148.43 Y149.76 E0.98201
G1 X148.132 Y150.15 E1.00343
G1 X147.867 Y150.696 E1.02991
G1 X147.548 Y150.63 E1.04416
G1 X147.006 Y139.191 E1.54416
G1 X145.308 Y139.271 E1.61839
G1 X145.227 Y137.578 E1.6924
G1 X146.926 Y137.498 E1.76663
G1 X146.671 Y132.116 E2.00184
G1 X147.027 Y131.994 E2.01829
G1 X147.478 Y131.759 E2.04048
G1 X147.884 Y131.463 E2.06243
G1 X148.104 Y131.259 E2.07552
G1 X148.426 Y130.884 E2.09713
G1 X148.561 Y130.667 E2.10827
G1 X152.26 Y132.575 E2.28998
G1 X152.205 Y132.88 E2.30351
G1 X151.929 Y132.914 E2.31567
G1 X151.464 Y133.069 E2.33706
G1 X151.038 Y133.313 E2.35847
G1 X150.669 Y133.636 E2.37989
G1 X150.372 Y134.026 E2.4013
G1 X150.158 Y134.467 E2.42272
G1 X150.061 Y134.84 E2.43955
G1 X149.536 Y134.775 F12000
G1 F3600
G1 X149.514 Y134.862 E2.44348
G1 X149.482 Y135.457 E2.46948
G1 X149.569 Y136.046 E2.49549
G1 X149.771 Y136.606 E2.52149
G1 X150.079 Y137.115 E2.54749
G1 X150.483 Y137.553 E2.5735
G1 X150.965 Y137.903 E2.5995
G1 X151.507 Y138.149 E2.6255
G1 X152.139 Y138.296 E2.65383
G1 X151.779 Y139.01 E2.68875
G1 X151.663 Y139.333 E2.70373
G1 X151.545 Y139.873 E2.72787
G1 X151.524 Y140.396 E2.75073
G1 X151.932 Y148.998 E3.12673
G1 X151.603 Y148.785 E3.14386
G1 X151.049 Y148.565 E3.16987
G1 X150.494 Y148.465 E3.19448
G1 X150.123 Y148.456 E3.21069
G1 X149.573 Y148.524 E3.23489
G1 X149.009 Y148.711 E3.26086
G1 X148.492 Y149.007 E3.28686
G1 X148.016 Y149.424 E3.31449
G1 X147.505 Y138.642 E3.7858
G1 X145.807 Y138.722 E3.86003
G1 X145.777 Y138.078 E3.88819
G1 X147.475 Y137.997 E3.96242
G1 X147.214 Y132.489 E4.2032
G1 X147.755 Y132.207 E4.22985
G1 X148.218 Y131.869 E4.25486
G1 X148.482 Y131.624 E4.27059
G1 X148.725 Y131.342 E4.28681
G1 X151.196 Y132.617 E4.40823
G1 X150.732 Y132.883 E4.43159
G1 X150.284 Y133.276 E4.45759
G1 X149.923 Y133.749 E4.4836
G1 X149.662 Y134.285 E4.5096
G1 X149.551 Y134.717 E4.52905
G1 X149.026 Y134.651 F12000
G1 F3600
G1 X148.992 Y134.781 E4.53495
G1 X148.955 Y135.481 E4.56554
G1 X149.057 Y136.174 E4.59613
G1 X149.294 Y136.833 E4.62672
G1 X149.658 Y137.433 E4.65731
G1 X150.133 Y137.948 E4.6879
G1 X150.7 Y138.359 E4.71849
G1 X151.349 Y138.654 E4.74964
G1 X151.157 Y139.187 E4.77438
G1 X151.023 Y139.806 E4.80203
G1 X150.999 Y140.398 E4.82789
G1 X151.363 Y148.088 E5.16401
G1 X150.548 Y147.941 E5.20018
G1 X150.098 Y147.93 E5.21983
G1 X149.457 Y148.009 E5.24802
G1 X148.793 Y148.229 E5.27856
G1 X148.493 Y148.401 E5.29365
G1 X147.754 Y132.799 E5.97561
G1 X148.033 Y132.654 E5.98933
G1 X148.552 Y132.275 E6.01741
G1 X148.851 Y131.998 E6.03518
G1 X150.169 Y132.678 E6.09992
G1 X149.898 Y132.916 E6.11564
G1 X149.473 Y133.473 E6.14624
G1 X149.167 Y134.103 E6.17683
G1 X149.041 Y134.593 E6.1989
G92 E0
G1 E-0.75 F3300
M204 S6000
G1 Z0.5 F12000
; acceleration to travel
M204 S6500
G1 X148.971 Y149.991
; decel to extrusion
M204 S1500
G1 X148.955 Y153.544
; end travel
G1 Z0.2
G1 E0 F3000
G1 F3600
G1 X148.991 Y153.57 E0.00197
G1 X149.437 Y153.774 E0.02338
G1 X149.915 Y153.884 E0.0448
G1 X150.406 Y153.898 E0.06621
G1 X150.889 Y153.815 E0.08763
G1 X151.346 Y153.637 E0.10904
G1 X151.759 Y153.372 E0.13046
G1 X152.111 Y153.031 E0.15187
G1 X152.277 Y152.79 E0.16463
G1 X152.586 Y152.908 E0.17908
G1 X150.868 Y166.118 E0.76071
G1 X146.589 Y166.321 E0.94776
G1 X146.506 Y164.569 E1.02436
G1 X148.204 Y164.488 E1.09859
G1 X147.636 Y152.502 E1.62251
G1 X147.949 Y152.406 E1.63677
G1 X148.261 Y152.922 E1.6631
G1 X148.594 Y153.283 E1.68452
G1 X148.906 Y153.509 E1.70135
G1 X148.808 Y154.064 F12000
G1 F3600
G1 X149.268 Y154.273 E1.72342
G1 X149.848 Y154.408 E1.74942
G1 X150.443 Y154.425 E1.77543
G1 X151.03 Y154.323 E1.80143
G1 X151.917 Y153.978 E1.84298
G1 X150.404 Y165.615 E2.35531
G1 X147.088 Y165.772 E2.50024
G1 X147.055 Y165.068 E2.53099
G1 X148.753 Y164.988 E2.60522
G1 X148.217 Y153.658 E3.10045
G1 X148.726 Y154.026 E3.12789
G1 X148.753 Y154.039 E3.1292
G1 X148.788 Y154.632 F12000
G1 F3600
G1 X149.098 Y154.773 E3.14405
G1 X149.781 Y154.931 E3.17464
G1 X150.481 Y154.951 E3.20524
G1 X151.279 Y154.813 E3.2406
G1 X149.94 Y165.111 E3.69401
G1 X149.286 Y165.142 E3.72259
G1 X148.791 Y154.692 E4.17936
; acceleration to travel
M204 S6500
G1 X150.565 Y155.702 F12000
; decel to extrusion
M204 S1500
G1 X150.974 Y155.935
; end travel
;TYPE:Solid infill
G1 F3600
G1 X150.371 Y155.331 E4.21664
G1 X149.731 Y155.313 E4.24457
G1 X149.574 Y155.277 E4.25164
G1 X150.688 Y156.391 E4.32042
G1 X150.602 Y157.048 E4.34935
G1 X149.221 Y155.667 E4.43462
G1 X149.258 Y156.446 E4.46869
G1 X150.517 Y157.705 E4.5464
G1 X150.431 Y158.362 E4.57533
G1 X149.295 Y157.226 E4.64549
G1 X149.332 Y158.005 E4.67956
G1 X150.346 Y159.019 E4.74216
G1 X150.26 Y159.676 E4.77109
G1 X149.369 Y158.785 E4.82613
G1 X149.406 Y159.564 E4.8602
G1 X150.175 Y160.333 E4.90769
G1 X150.089 Y160.99 E4.93662
G1 X149.443 Y160.344 E4.97656
G1 X149.48 Y161.123 E5.01063
G1 X150.004 Y161.648 E5.043
G1 X149.919 Y162.305 E5.07194
G1 X149.517 Y161.903 E5.09676
G1 X149.553 Y162.682 E5.13083
G1 X149.833 Y162.962 E5.14809
G1 X149.748 Y163.619 E5.17703
G1 X149.59 Y163.462 E5.18674
G1 X149.627 Y164.241 E5.22081
G1 X149.864 Y164.478 E5.2354
; acceleration to travel
M204 S6500
G1 X152.01 Y154.842 F12000
; decel to extrusion
M204 S1500
G1 X152.505 Y152.618
; end travel
;TYPE:Gap fill
;WIDTH:0.754958
G1 F3600
G1 X152.519 Y152.56 E5.23894
;WIDTH:0.722863
G1 X152.553 Y152.4 E5.24821
;WIDTH:0.690228
G1 X152.589 Y152.209 E5.25863
;WIDTH:0.63976
G1 X152.614 Y151.932 E5.27247
;WIDTH:0.52014
G1 X152.627 Y151.449 E5.29161
;WIDTH:0.491034
G1 X152.608 Y151.096 E5.30479
;WIDTH:0.520638
G1 X152.597 Y151.005 E5.30845
G1 X152.566 Y150.947 E5.31105
;WIDTH:0.469224
