; generated by SuperSlicer 2.5.59 on 2023-03-20 at 04:10:28 UTC


;
;

;
;
; 

; external perimeters extrusion width = 0.45mm
; perimeters extrusion width = 0.45mm
; infill extrusion width = 0.45mm
; solid infill extrusion width = 0.45mm
; top infill extrusion width = 0.45mm
; support material extrusion width = 0.40mm
; first layer extrusion width = 0.60mm

; object:{"name":"Picobilical_Tilted_Toolhead_Modified2","id":"Picobilical_Tilted_Toolhead_Modified2 id:0 copy 0","object_center":[150.000000,148.500000,0.000000],"boundingbox_center":[150.000000,148.500000,8.843878],"boundingbox_size":[50.340004,59.476212,17.687756]}
EXCLUDE_OBJECT_DEFINE NAME=Picobilical_Tilted_Toolhead_Modified2_id_0_copy_0 CENTER=150.000000,148.500000 POLYGON=[[124.830000,148.436720],[144.893824,118.761896],[155.106176,118.761896],[175.170000,147.729616],[175.170000,152.002688],[166.853008,176.263520],[166.393296,177.098384],[165.321712,178.169984],[164.938128,178.238096],[135.165680,178.238096],[134.663920,178.182464],[133.639616,177.158176],[133.146992,176.263520],[124.830000,151.002688],[124.830000,148.436720]]
; plater:{"center":[150.000000,148.500000,0.000000],"boundingbox_center":[150.000000,148.500000,8.843878],"boundingbox_size":[50.340004,59.476212,17.687756]}

;TYPE:Custom
SET_PRINT_STATS_INFO TOTAL_LAYER=131

M104 S0 ; Stops SuperSlicer from sending temp waits separately

M109 S0

M140 S0

print_start EXTRUDER=250 BED=105 CHAMBER=0
G21 ; set units to millimeters
G90 ; use absolute coordinates
M82 ; use absolute distances for extrusion
G92 E0
; Filament gcode
;_TOOLCHANGE 0
M107
;LAYER_CHANGE
;Z:0.21875
;HEIGHT:0.21875
TIMELAPSE_TAKE_FRAME
;BEFORE_LAYER_CHANGE
;0.21875


G1 E-0.8 F2400
G1 Z0.2 F9000
G1 Z0.21875
SET_PRINT_STATS_INFO CURRENT_LAYER=1
;AFTER_LAYER_CHANGE
;0.21875
G92 E0
G1 Z0.41875
G1 X140.259 Y117.052
G1 Z0.21875
G1 E0.8 F2400
;TYPE:Skirt
;WIDTH:0.54
G1 F2100
G1 X122.203 Y146.986 E2.36758
G1 X121.881 Y148.143 E2.42141
G1 X121.881 Y151.29 E2.56253
G1 X121.994 Y151.992 E2.59442
G1 X130.61 Y178.079 E3.82635
G1 X131.153 Y178.961 E3.87276
G1 X132.994 Y180.802 E3.98954
G1 X134.578 Y181.458 E4.06639
G1 X165.461 Y181.458 E5.45124
G1 X167.044 Y180.802 E5.52809
G1 X168.847 Y178.999 E5.64244
G1 X169.382 Y178.142 E5.68774
G1 X177.998 Y153.016 E6.8788
G1 X178.119 Y152.29 E6.91182
G1 X178.119 Y147.436 E7.12948
G1 X177.778 Y146.249 E7.18486
G1 X159.738 Y117.397 E8.71072
G1 X158.26 Y115.579 E8.81575
G1 X157.41 Y114.945 E8.86329
G1 X155.17 Y113.993 E8.97246
G1 X154.294 Y113.814 E9.01255
G1 X145.332 Y113.814 E9.41441
G1 X144.47 Y113.987 E9.45385
G1 X143.493 Y114.394 E9.50129
G1 X142.011 Y115.28 E9.57873
G1 X141.599 Y115.608 E9.60233
G1 X140.299 Y117.008 E9.68797
G1 X140.752 Y117.282 F9000
G1 F2100
G1 X122.625 Y147.241 E11.25815
G1 X122.374 Y148.143 E11.30014
G1 X122.374 Y151.29 E11.44125
G1 X122.462 Y151.838 E11.46613
G1 X131.078 Y177.925 E12.69806
G1 X131.501 Y178.612 E12.73425
G1 X133.343 Y180.454 E12.85103
G1 X134.578 Y180.965 E12.91097
G1 X165.461 Y180.965 E14.29582
G1 X166.696 Y180.454 E14.35576
G1 X168.499 Y178.651 E14.47011
G1 X168.916 Y177.982 E14.50544
G1 X177.531 Y152.856 E15.6965
G1 X177.626 Y152.29 E15.72225
G1 X177.626 Y147.436 E15.93992
G1 X177.36 Y146.51 E15.98311
G1 X159.32 Y117.658 E17.50897
G1 X157.88 Y115.893 E17.61108
G1 X157.218 Y115.399 E17.64816
G1 X154.977 Y114.446 E17.75733
G1 X154.294 Y114.307 E17.7886
G1 X145.332 Y114.307 E18.19046
G1 X144.659 Y114.442 E18.22122
G1 X143.436 Y114.977 E18.28111
G1 X141.949 Y115.955 E18.3609
G1 X140.935 Y116.98 E18.42556
G1 X140.783 Y117.23 E18.43869
G92 E0
G1 E-0.8 F2400
G1 Z0.41875 F9000
G1 X138.87 Y131.245
G1 Z0.21875
G1 E0 F2400
;WIDTH:0.6
;HEIGHT:0.22
G1 F2100
G1 X139.962 Y132.275 E0.0759
G1 X140.007 Y132.38 E0.08168
G1 X140.007 Y173.346 E2.15299
G1 X140.764 Y174.103 E2.20709
G1 X141.83 Y174.103 E2.261
G1 X141.996 Y174.325 E2.27501
G1 X140.794 Y178.385 E2.4891
G1 X140.647 Y178.495 E2.49839
G1 X134.937 Y178.495 E2.78712
G1 X134.835 Y178.453 E2.79268
G1 X133.502 Y177.12 E2.88802
G1 X133.46 Y177.018 E2.89358
G1 X133.468 Y159.269 E3.79097
G1 X127.108 Y152.704 E4.25313
G1 X125.928 Y152.105 E4.32007
G1 X125.891 Y152.077 E4.32239
G1 X124.885 Y151.039 E4.39551
G1 X124.844 Y150.939 E4.40095
G1 X124.844 Y148.502 E4.52416
G1 X124.886 Y148.401 E4.52972
G1 X126.794 Y146.493 E4.66611
G1 X126.895 Y146.451 E4.67167
G1 X133.662 Y146.451 E5.0138
G1 X133.662 Y136.291 E5.5275
G1 X133.704 Y136.189 E5.53306
G1 X138.645 Y131.248 E5.88637
G1 X138.81 Y131.246 E5.89467
G92 E0
G1 E-0.8 F2400
G1 Z0.41875 F9000
G1 X159.993 Y132.38
G1 Z0.21875
G1 E0 F2400
G1 F2100
G1 X160.038 Y132.275 E0.00577
G1 X161.13 Y131.245 E0.08167
G1 X161.355 Y131.248 E0.09301
G1 X166.296 Y136.189 E0.44633
G1 X166.338 Y136.291 E0.45189
G1 X166.338 Y146.421 E0.96409
G1 X168.532 Y146.421 E1.07504
G1 X169.802 Y145.76 E1.14744
G1 X169.867 Y145.744 E1.15081
G1 X173.105 Y145.744 E1.31451
G1 X173.206 Y145.786 E1.32007
G1 X175.114 Y147.693 E1.45646
G1 X175.156 Y147.795 E1.46202
G1 X175.156 Y151.939 E1.67154
G1 X175.115 Y152.039 E1.67698
G1 X174.109 Y153.077 E1.7501
G1 X174.072 Y153.105 E1.75242
G1 X170.986 Y154.671 E1.92741
G1 X166.532 Y159.269 E2.25109
G1 X166.54 Y177.057 E3.15042
G1 X166.498 Y177.158 E3.15598
G1 X165.203 Y178.453 E3.24858
G1 X165.102 Y178.495 E3.25414
G1 X159.353 Y178.495 E3.54482
G1 X159.206 Y178.385 E3.5541
G1 X158.004 Y174.325 E3.76819
G1 X158.17 Y174.103 E3.7822
G1 X159.236 Y174.103 E3.83611
G1 X159.993 Y173.346 E3.89021
G1 X159.993 Y132.44 E5.9585
G92 E0
G1 E-0.8 F2400
G1 Z0.41875 F9000
G1 X154.194 Y127.661
G1 Z0.21875
G1 E0 F2400
G1 F2100
G1 X154.16 Y127.693 E0.00235
G1 X153.827 Y127.913 E0.02254
G1 X153.664 Y128.103 E0.03519
G1 X153.643 Y128.122 E0.03663
G1 X153.27 Y128.41 E0.06045
G1 X153.12 Y128.502 E0.06935
G1 X152.426 Y129.036 E0.11362
G1 X152.386 Y129.057 E0.11592
G1 X152.256 Y129.101 E0.12283
G1 X152.212 Y129.108 E0.12512
G1 X150.03 Y129.108 E0.23541
G1 X149.316 Y129.181 E0.27169
G1 X149.276 Y129.179 E0.27372
G1 X149.158 Y129.156 E0.27983
G1 X149.12 Y129.143 E0.28186
G1 X148.376 Y128.758 E0.3242
G1 X147.657 Y128.478 E0.36324
G1 X147.614 Y128.452 E0.36575
G1 X147.375 Y128.238 E0.38197
G1 X146.644 Y127.859 E0.4236
G1 X146.613 Y127.837 E0.42552
G1 X146.53 Y127.759 E0.43128
G1 X146.506 Y127.73 E0.43319
G1 X145.846 Y126.64 E0.49761
G1 X145.837 Y126.622 E0.49863
G1 X145.487 Y125.79 E0.54429
G1 X145.478 Y125.762 E0.54576
G1 X145.462 Y125.677 E0.55013
G1 X145.46 Y125.648 E0.55159
G1 X145.471 Y125.077 E0.5805
G1 X145.453 Y124.9 E0.58949
G1 X145.429 Y124.89 E0.59079
G1 X145.286 Y124.858 E0.59823
G1 X144.713 Y124.668 E0.62873
G1 X144.677 Y124.65 E0.63079
G1 X144.472 Y124.505 E0.64349
G1 X143.819 Y124.264 E0.67868
G1 X143.79 Y124.249 E0.68029
G1 X143.71 Y124.197 E0.68512
G1 X143.686 Y124.176 E0.68673
G1 X143.018 Y123.47 E0.7359
G1 X143 Y123.446 E0.7374
G1 X142.817 Y123.144 E0.75524
G1 X142.741 Y123.063 E0.76087
G1 X142.728 Y123.049 E0.76184
G1 X142.238 Y122.362 E0.80448
G1 X142.223 Y122.334 E0.8061
G1 X142.186 Y122.245 E0.81099
G1 X142.177 Y122.214 E0.81263
G1 X141.985 Y120.975 E0.876
G1 X141.984 Y120.94 E0.87777
G1 X142.082 Y119.96 E0.92756
G1 X142.088 Y119.931 E0.92906
G1 X142.551 Y118.502 E1.00504
G1 X142.574 Y118.458 E1.00753
G1 X142.666 Y118.342 E1.01502
G1 X142.703 Y118.309 E1.01751
G1 X143.169 Y118.025 E1.04512
G1 X143.352 Y117.668 E1.06539
G1 X143.373 Y117.637 E1.06728
G1 X143.45 Y117.554 E1.07299
G1 X143.479 Y117.531 E1.07488
G1 X144.542 Y116.871 E1.13814
G1 X144.561 Y116.861 E1.13924
G1 X145.357 Y116.527 E1.18286
G1 X145.383 Y116.519 E1.18426
G1 X145.464 Y116.503 E1.18842
G1 X145.491 Y116.5 E1.18981
G1 X148.063 Y116.5 E1.31986
G1 X148.113 Y116.51 E1.32243
G1 X148.559 Y116.681 E1.34657
G1 X148.782 Y116.728 E1.35807
G1 X148.806 Y116.735 E1.35935
G1 X149.618 Y117.068 E1.40372
G1 X149.66 Y117.095 E1.40627
G1 X149.814 Y117.239 E1.41691
G1 X149.928 Y117.146 E1.42435
G1 X149.967 Y117.123 E1.42667
G1 X150.452 Y116.944 E1.4528
G1 X150.813 Y116.759 E1.47331
G1 X150.852 Y116.746 E1.47538
G1 X151.359 Y116.654 E1.50143
G1 X151.879 Y116.511 E1.52873
G1 X151.916 Y116.506 E1.53059
G1 X154.131 Y116.5 E1.64261
G1 X154.159 Y116.503 E1.64404
G1 X154.242 Y116.52 E1.64827
G1 X154.268 Y116.528 E1.64968
G1 X155.066 Y116.867 E1.69351
G1 X156.191 Y117.345 E1.75531
G1 X156.225 Y117.366 E1.75733
G1 X156.318 Y117.443 E1.76343
G1 X156.345 Y117.473 E1.76545
G1 X156.78 Y118.122 E1.80497
G1 X157.333 Y118.667 E1.84423
G1 X157.358 Y118.702 E1.84641
G1 X157.419 Y118.817 E1.85299
G1 X157.432 Y118.858 E1.85517
G1 X157.805 Y121.04 E1.96708
G1 X157.806 Y121.068 E1.96851
G1 X157.803 Y121.154 E1.97283
G1 X157.799 Y121.182 E1.97427
G1 X157.591 Y122.028 E2.01833
G1 X157.582 Y122.053 E2.0197
G1 X157.498 Y122.232 E2.02968
G1 X157.341 Y122.714 E2.05533
G1 X157.328 Y122.743 E2.05691
G1 X157.28 Y122.823 E2.06165
G1 X157.261 Y122.848 E2.06322
G1 X156.738 Y123.392 E2.10137
G1 X156.425 Y123.839 E2.12894
G1 X156.393 Y123.872 E2.13127
G1 X155.39 Y124.6 E2.19394
G1 X155.356 Y124.618 E2.19588
G1 X155.314 Y124.633 E2.19815
G1 X154.968 Y126.581 E2.29817
G1 X154.959 Y126.612 E2.2998
G1 X154.92 Y126.702 E2.30475
G1 X154.903 Y126.731 E2.30644
G1 X154.23 Y127.613 E2.36254
M104 S250 ; set temperature
; printing object Picobilical_Tilted_Toolhead_Modified2 id:0 copy 0
EXCLUDE_OBJECT_START NAME=Picobilical_Tilted_Toolhead_Modified2_id_0_copy_0
G1 X153.816 Y127.257 F9000
;TYPE:Support material
;HEIGHT:0.21875
G1 F2400
G1 X153.456 Y127.495 E2.38423
G1 X153.283 Y127.702 E2.39779
G1 X152.143 Y128.555 E2.46941
G1 X150.002 Y128.555 E2.5771
G1 X149.321 Y128.624 E2.61155
G1 X148.59 Y128.245 E2.65298
G1 X147.907 Y127.982 E2.68979
G1 X147.695 Y127.781 E2.70445
G1 X146.95 Y127.394 E2.74671
G1 X146.329 Y126.371 E2.80689
G1 X146.014 Y125.616 E2.84807
G1 X146.025 Y125.054 E2.87633
G1 X145.97 Y124.512 E2.90371
G1 X145.593 Y124.36 E2.92415
G1 X145.446 Y124.328 E2.93173
G1 X144.927 Y124.156 E2.95919
G1 X144.735 Y124.012 E2.9713
G1 X144.055 Y123.761 E3.00774
G1 X143.44 Y123.112 E3.05273
G1 X143.26 Y122.806 E3.07057
G1 X143.167 Y122.711 E3.07728
G1 X142.716 Y122.08 E3.11627
G1 X142.538 Y120.959 E3.17336
G1 X142.623 Y120.073 E3.21812
G1 X143.054 Y118.743 E3.28848
G1 X143.59 Y118.415 E3.32004
G1 X143.818 Y117.971 E3.34518
G1 X144.815 Y117.353 E3.40417
G1 X145.532 Y117.053 E3.44328
G1 X148.011 Y117.053 E3.56795
G1 X148.401 Y117.213 E3.58914
G1 X148.62 Y117.257 E3.6004
G1 X149.36 Y117.56 E3.64059
G1 X149.788 Y117.982 E3.67084
G1 X150.204 Y117.626 E3.6984
G1 X150.675 Y117.451 E3.72368
G1 X151.028 Y117.27 E3.74364
G1 X151.48 Y117.195 E3.7667
G1 X151.991 Y117.054 E3.79332
G1 X154.09 Y117.053 E3.89893
G1 X154.85 Y117.376 E3.94043
G1 X155.919 Y117.831 E3.99888
G1 X156.352 Y118.476 E4.03797
G1 X156.898 Y119.015 E4.07656
G1 X157.252 Y121.091 E4.18247
G1 X157.061 Y121.868 E4.22273
G1 X156.984 Y122.026 E4.23158
G1 X156.829 Y122.498 E4.25657
G1 X156.308 Y123.041 E4.29443
G1 X156.03 Y123.452 E4.31937
G1 X155.098 Y124.128 E4.37729
G1 X154.826 Y124.217 E4.39166
G1 X154.432 Y126.436 E4.50506
G1 X153.852 Y127.209 E4.55368
G92 E0
G1 E-0.8
G1 Z0.41875 F9000
G1 X156.637 Y122.499
G1 Z0.21875
G1 E0 F2400
G1 X156.637 Y119.719 E0.13986
G1 X156.548 Y119.198 E0.16645
G1 X156.061 Y118.717 E0.20086
G1 X155.899 Y118.476 E0.21544
G1 X155.899 Y122.974 E0.44165
G1 X155.755 Y123.186 E0.45456
G1 X155.162 Y123.617 E0.49146
G1 X155.162 Y117.918 E0.77815
G1 X154.424 Y117.604 E0.81845
G1 X154.424 Y124.329 E1.15671
G1 X154.078 Y126.282 E1.25649
G1 X153.687 Y126.803 E1.28921
G1 X153.687 Y117.429 E1.76066
G1 X152.95 Y117.43 E1.79775
G1 X152.95 Y127.484 E2.30346
G1 X152.212 Y128.028 E2.34956
G1 X152.212 Y117.43 E2.88264
G1 X152.042 Y117.43 E2.89123
G1 X151.475 Y117.577 E2.92068
G1 X151.475 Y128.179 E3.45396
G1 X150.737 Y128.179 E3.49105
G1 X150.737 Y117.829 E4.01165
G1 X150.397 Y117.955 E4.02988
G1 X150 Y118.296 E4.05621
G1 X150 Y128.179 E4.55335
G1 X149.394 Y128.239 E4.58395
G1 X149.263 Y128.171 E4.59142
G1 X149.263 Y117.992 E5.10337
G1 X149.148 Y117.88 E5.11145
G1 X148.525 Y117.624 E5.14532
G1 X148.525 Y127.823 E5.65831
G1 X148.113 Y127.659 E5.68061
G1 X147.916 Y127.472 E5.69429
G1 X147.788 Y127.406 E5.70155
G1 X147.788 Y117.43 E6.20333
G1 X147.05 Y117.43 E6.24042
G1 X147.05 Y126.835 E6.71349
G1 X146.666 Y126.2 E6.75082
G1 X146.391 Y125.544 E6.7866
G1 X146.401 Y125.039 E6.81202
G1 X146.313 Y124.246 E6.85214
G1 X146.313 Y117.43 E7.19499
G1 X145.608 Y117.43 E7.23046
G1 X145.576 Y117.443 E7.23221
G1 X145.576 Y123.971 E7.56058
G1 X145.104 Y123.819 E7.58553
G1 X144.916 Y123.678 E7.59731
G1 X144.838 Y123.65 E7.60148
G1 X144.838 Y117.781 E7.89667
G1 X144.101 Y118.243 E7.94045
G1 X144.101 Y123.263 E8.19291
G1 X143.742 Y122.884 E8.21914
G1 X143.561 Y122.577 E8.2371
G1 X143.363 Y122.339 E8.25263
G1 X143.363 Y118.716 E8.43488
G92 E0
G1 E-0.8
G1 Z0.41875 F9000
G1 X165.761 Y146.998
G1 Z0.21875
G1 E0 F2400
;TYPE:External perimeter
G1 X168.674 Y146.998 E0.14647
G1 X169.974 Y146.32 E0.22022
G1 X172.925 Y146.32 E0.36868
G1 X174.579 Y147.974 E0.48633
G1 X174.579 Y151.764 E0.67692
G1 X173.746 Y152.624 E0.73716
G1 X170.639 Y154.201 E0.91241
G1 X165.956 Y159.036 E1.25101
G1 X165.964 Y176.877 E2.14839
G1 X164.922 Y177.919 E2.22247
G1 X159.669 Y177.919 E2.48672
G1 X158.71 Y174.679 E2.65664
G1 X159.475 Y174.679 E2.69511
G1 X160.569 Y173.585 E2.77295
G1 X160.569 Y132.566 E4.83612
G1 X161.232 Y131.941 E4.88195
G1 X165.761 Y136.47 E5.20412
G1 X165.761 Y146.938 E5.73062
;WIPE_START
G1 X165.761 Y147.398 F9000
;WIPE_END
G92 E0
G1 E-0.8 F2400
G1 Z0.41875 F9000
G1 X164.272 Y173.42
G1 Z0.21875
G1 E0 F2400
G1 X164.012 Y173.238 E0.01596
G1 X163.554 Y173.037 E0.04114
G1 X163.161 Y172.949 E0.06138
G1 X162.85 Y172.922 E0.07709
G1 X162.537 Y172.949 E0.09289
G1 X162.055 Y173.064 E0.11782
G1 X161.682 Y173.242 E0.1386
G1 X161.351 Y173.481 E0.15912
G1 X161.068 Y173.774 E0.17963
G1 X160.844 Y174.11 E0.19995
G1 X160.712 Y174.393 E0.21566
G1 X160.6 Y174.782 E0.23601
G1 X160.559 Y175.188 E0.25653
G1 X160.59 Y175.594 E0.27705
G1 X160.694 Y175.989 E0.29757
G1 X160.865 Y176.359 E0.31809
G1 X161.1 Y176.693 E0.33862
G1 X161.39 Y176.98 E0.35914
G1 X161.727 Y177.211 E0.37966
G1 X162.099 Y177.378 E0.40018
G1 X162.491 Y177.476 E0.42053
G1 X162.803 Y177.503 E0.43624
G1 X163.206 Y177.476 E0.45656
G1 X163.601 Y177.378 E0.47707
G1 X163.973 Y177.211 E0.49759
G1 X164.314 Y176.977 E0.51837
G1 X164.654 Y176.617 E0.5433
G1 X164.835 Y176.359 E0.55912
G1 X165.006 Y175.989 E0.57963
G1 X165.11 Y175.594 E0.60015
G1 X165.141 Y175.188 E0.62067
G1 X165.1 Y174.782 E0.64118
G1 X164.988 Y174.39 E0.6617
G1 X164.807 Y174.024 E0.68221
G1 X164.565 Y173.696 E0.70271
G1 X164.316 Y173.461 E0.71994
;WIPE_START
G1 X164.326 Y173.024 F9000
;WIPE_END
G92 E0
G1 E-0.8 F2400
G1 Z0.41875 F9000
G1 X174.07 Y151.48
G1 Z0.21875
G1 E0 F2400
G1 X174.176 Y151.09 E0.02032
G1 X174.211 Y150.7 E0.04002
G1 X174.211 Y148.673 E0.14196
G1 X174.176 Y148.283 E0.16165
G1 X174.07 Y147.893 E0.18202
G1 X173.896 Y147.527 E0.20239
G1 X173.662 Y147.198 E0.22268
G1 X173.439 Y146.976 E0.23852
G1 X173.041 Y146.688 E0.26325
G1 X172.667 Y146.521 E0.28383
G1 X172.274 Y146.424 E0.30419
G1 X171.874 Y146.397 E0.32436
G1 X171.563 Y146.424 E0.34008
G1 X171.173 Y146.521 E0.36028
G1 X170.803 Y146.686 E0.38064
G1 X170.468 Y146.914 E0.401
G1 X170.176 Y147.2 E0.42161
G1 X169.903 Y147.608 E0.44629
G1 X169.77 Y147.893 E0.46211
G1 X169.664 Y148.283 E0.48244
G1 X169.629 Y148.673 E0.50214
G1 X169.629 Y150.7 E0.60407
G1 X169.664 Y151.09 E0.62377
G1 X169.77 Y151.481 E0.64414
G1 X169.944 Y151.847 E0.66451
G1 X170.178 Y152.175 E0.68479
G1 X170.401 Y152.398 E0.70063
G1 X170.799 Y152.686 E0.72536
G1 X171.173 Y152.852 E0.74594
G1 X171.566 Y152.95 E0.7663
G1 X171.966 Y152.976 E0.78648
G1 X172.277 Y152.949 E0.80219
G1 X172.667 Y152.852 E0.82239
G1 X173.037 Y152.687 E0.84275
G1 X173.372 Y152.46 E0.86312
G1 X173.664 Y152.173 E0.88372
G1 X173.937 Y151.765 E0.90841
G1 X174.045 Y151.534 E0.92121
;WIPE_START
G1 X174.462 Y151.4 F9000
;WIPE_END
G92 E0
G1 E-0.8 F2400
G1 Z0.41875 F9000
G1 X160.134 Y176.098
G1 Z0.21875
G1 E0 F2400
;TYPE:Internal perimeter
G1 X160.384 Y176.637 E0.02991
G1 X160.897 Y177.366 E0.07472
G1 X160.082 Y177.366 E0.11572
