; generated by SuperSlicer 2.5.59 on 2023-04-08 at 00:31:36 UTC


;
;

;
;
; 

; external perimeters extrusion width = 0.45mm
; perimeters extrusion width = 0.45mm
; infill extrusion width = 0.45mm
; solid infill extrusion width = 0.45mm
; top infill extrusion width = 0.43mm
; support material extrusion width = 0.42mm
; first layer extrusion width = 0.60mm

; object:{"name":"Plenum_LID","id":"Plenum_LID.stl id:0 copy 0","object_center":[150.000000,148.500000,0.000000],"boundingbox_center":[150.000000,148.500000,1.399880],"boundingbox_size":[122.789543,68.537434,2.799761]}
EXCLUDE_OBJECT_DEFINE NAME=Plenum_LID_stl_id_0_copy_0 CENTER=150.000000,148.500000 POLYGON=[[88.605224,160.701280],[88.605472,114.332392],[88.608552,114.306976],[88.617904,114.283904],[88.632704,114.263848],[88.652008,114.248072],[88.674640,114.237544],[88.699216,114.233152],[88.742112,114.231288],[211.294784,114.231288],[211.320640,114.235104],[211.344816,114.244952],[211.365552,114.260736],[211.381440,114.281368],[211.391360,114.305424],[211.394528,114.331280],[211.394768,160.675968],[211.392688,160.702080],[211.200016,161.068832],[210.640656,162.037696],[199.826288,180.768720],[199.569568,181.158848],[199.426368,181.339872],[199.269136,181.516384],[198.933328,181.832880],[198.842880,181.906528],[198.362176,182.232816],[197.838080,182.486080],[197.730272,182.527504],[197.287072,182.660320],[197.056784,182.707952],[196.827808,182.741520],[196.362176,182.768720],[103.623200,182.768720],[103.157592,182.741520],[102.928608,182.707952],[102.698304,182.660320],[102.255128,182.527504],[102.147248,182.486416],[101.623200,182.232816],[101.142752,181.906304],[101.052048,181.832880],[100.716264,181.516384],[100.559024,181.339872],[100.415816,181.158848],[100.159104,180.768720],[88.799976,161.094144],[88.607312,160.727392],[88.605224,160.701280]]
; plater:{"center":[150.000000,148.500000,0.000000],"boundingbox_center":[150.000000,148.500000,1.399880],"boundingbox_size":[122.789543,68.537434,2.799761]}

;TYPE:Custom
SET_PRINT_STATS_INFO TOTAL_LAYER=14

M104 S0 ; Stops SuperSlicer from sending temp waits separately

M109 S0

M140 S0

print_start EXTRUDER=252 BED=105 CHAMBER=0
G21 ; set units to millimeters
G90 ; use absolute coordinates
M83 ; use relative distances for extrusion
; Filament gcode
;_TOOLCHANGE 0
M107
;LAYER_CHANGE
;Z:0.2
;HEIGHT:0.2
TIMELAPSE_TAKE_FRAME
;BEFORE_LAYER_CHANGE
;0.2


G1 Z0.2 F8700
SET_PRINT_STATS_INFO CURRENT_LAYER=1
;AFTER_LAYER_CHANGE
;0.2
G92 E0
G1 E-0.7 F1800
G1 Z0.8 F8700
G1 X85.14 Y108.855
G1 Z0.2
G1 E0.7 F1800
;TYPE:Skirt
;WIDTH:0.54
G1 F2250
G1 X84.268 Y109.578 E0.0468
G1 X82.249 Y112.889 E0.16031
G1 X81.994 Y113.796 E0.03895
G1 X81.99 Y161.512 E1.97221
G1 X82.07 Y162.034 E0.02182
G1 X82.75 Y164.061 E0.08838
G1 X94.831 Y184.962 E0.99783
G1 X96.058 Y186.532 E0.08234
G1 X97.242 Y187.539 E0.06422
G1 X98.301 Y188.233 E0.05235
G1 X99.411 Y188.76 E0.05081
G1 X100.683 Y189.202 E0.05566
G1 X102.865 Y189.492 E0.09098
G1 X197.121 Y189.492 E3.8958
G1 X198.881 Y189.293 E0.07324
G1 X200.352 Y188.848 E0.0635
G1 X201.659 Y188.255 E0.05931
G1 X202.932 Y187.395 E0.06351
G1 X204.216 Y186.213 E0.07215
G1 X205.27 Y184.787 E0.07329
G1 X217.41 Y163.746 E1.00404
G1 X217.602 Y163.251 E0.02193
G1 X217.969 Y161.592 E0.07025
G1 X218.011 Y114.584 E1.94296
G1 X217.929 Y114.056 E0.02208
G1 X217.074 Y111.366 E0.11666
G1 X216.514 Y110.543 E0.04112
G1 X213.387 Y107.993 E0.16678
G1 X212.288 Y107.601 E0.04824
G1 X202.333 Y107.589 E0.41147
G1 X88.809 Y107.589 E4.6922
G1 X88.193 Y107.701 E0.02589
G1 X85.196 Y108.834 E0.13242
G1 X85.372 Y109.299 F8700
G1 F2250
G1 X85.316 Y109.32 E0.00248
G1 X84.693 Y109.836 E0.03345
G1 X82.673 Y113.148 E0.16031
G1 X82.491 Y113.796 E0.02784
G1 X82.487 Y161.512 E1.97221
G1 X83.18 Y163.813 E0.09931
G1 X95.229 Y184.664 E0.99537
G1 X96.383 Y186.156 E0.07796
G1 X97.52 Y187.127 E0.06178
G1 X98.519 Y187.786 E0.04948
G1 X99.574 Y188.291 E0.04837
G1 X100.846 Y188.733 E0.05566
G1 X102.865 Y188.995 E0.08414
G1 X197.121 Y188.995 E3.8958
G1 X198.822 Y188.8 E0.07079
G1 X200.198 Y188.376 E0.0595
G1 X201.449 Y187.804 E0.05687
G1 X202.646 Y186.988 E0.05988
G1 X203.819 Y185.915 E0.0657
G1 X204.839 Y184.538 E0.07083
G1 X216.979 Y163.498 E1.00404
G1 X217.484 Y161.484 E0.08578
G1 X217.514 Y114.584 E1.93852
G1 X216.6 Y111.516 E0.13228
G1 X216.2 Y110.928 E0.02939
G1 X213.073 Y108.378 E0.16678
G1 X212.287 Y108.098 E0.03448
G1 X202.332 Y108.086 E0.41147
G1 X88.809 Y108.086 E4.69217
G1 X88.369 Y108.166 E0.0185
G1 X85.428 Y109.278 E0.12994
G1 X85.598 Y109.746 F8700
G1 F2250
G1 X85.492 Y109.785 E0.00468
G1 X85.117 Y110.095 E0.0201
G1 X83.098 Y113.407 E0.16031
G1 X82.988 Y113.796 E0.01673
G1 X82.984 Y161.512 E1.97221
G1 X83.611 Y163.564 E0.08867
G1 X95.627 Y184.366 E0.99292
G1 X96.708 Y185.78 E0.07358
G1 X97.727 Y186.66 E0.05564
G1 X98.736 Y187.339 E0.05029
G1 X99.738 Y187.821 E0.04593
G1 X101.01 Y188.263 E0.05566
G1 X102.865 Y188.498 E0.07731
G1 X197.121 Y188.498 E3.8958
G1 X198.763 Y188.306 E0.06833
G1 X200.044 Y187.903 E0.0555
G1 X201.24 Y187.354 E0.05442
G1 X202.36 Y186.581 E0.05624
G1 X203.421 Y185.617 E0.05925
G1 X204.409 Y184.29 E0.06837
G1 X216.549 Y163.249 E1.00404
G1 X216.998 Y161.377 E0.07957
G1 X217.017 Y114.584 E1.93409
G1 X216.126 Y111.667 E0.12604
G1 X215.886 Y111.314 E0.01766
G1 X212.759 Y108.763 E0.16678
G1 X212.287 Y108.595 E0.02072
G1 X202.332 Y108.583 E0.41147
G1 X88.809 Y108.583 E4.69214
G1 X85.654 Y109.726 E0.13869
G1 E-0.7 F1800
G1 Z0.8 F8700
G1 X192.257 Y182.028
G1 Z0.2
G1 E0.7 F1800
;WIDTH:0.6
G1 F2250
G1 X196.778 Y182.028 E0.20944
G1 X197.433 Y181.949 E0.03054
G1 X197.712 Y181.858 E0.0136
G1 X197.927 Y181.759 E0.01098
G1 X198.054 Y181.7 E0.00649
G1 X198.362 Y181.483 E0.01746
G1 X198.581 Y181.287 E0.0136
G1 X198.976 Y180.759 E0.03054
G1 X200.697 Y177.777 E0.15951
G1 X201.022 Y178.026 E0.01899
G1 X201.843 Y179.095 E0.06242
G1 X202.358 Y180.34 E0.06242
G1 X202.534 Y181.676 E0.06242
G1 X202.408 Y182.634 E0.04475
G1 X202.358 Y183.012 E0.01767
G1 X201.843 Y184.257 E0.06242
G1 X201.022 Y185.326 E0.06242
G1 X199.953 Y186.147 E0.06242
G1 X198.708 Y186.662 E0.06242
G1 X197.372 Y186.838 E0.06242
G1 X196.414 Y186.712 E0.04475
G1 X196.036 Y186.662 E0.01767
G1 X194.791 Y186.147 E0.06242
G1 X193.722 Y185.326 E0.06242
G1 X192.902 Y184.257 E0.06242
G1 X192.386 Y183.012 E0.06242
G1 X192.264 Y182.088 E0.0432
G1 E-0.7 F1800
G1 Z0.8 F8700
G1 X195.503 Y186.411
G1 Z0.2
G1 E0.7 F1800
G1 F2250
G1 X198.566 Y186.411 E0.14187
G1 X198.638 Y186.402 E0.00339
G1 X199.818 Y185.913 E0.05916
G1 X199.895 Y185.854 E0.00447
G1 X194.849 Y185.854 E0.23371
G1 X194.123 Y185.297 E0.04239
G1 X200.621 Y185.297 E0.30097
G1 X200.832 Y185.136 E0.0123
G1 X201.135 Y184.74 E0.02309
G1 X193.609 Y184.74 E0.3486
G1 X193.182 Y184.183 E0.03253
G1 X201.562 Y184.183 E0.3882
G1 X201.609 Y184.122 E0.00354
G1 X201.815 Y183.626 E0.02489
G1 X192.93 Y183.626 E0.41156
G1 X192.699 Y183.069 E0.02793
G1 X202.045 Y183.069 E0.43294
G1 X202.098 Y182.942 E0.00634
G1 X202.143 Y182.599 E0.01604
G1 X202.154 Y182.512 E0.00408
G1 X192.59 Y182.512 E0.44304
G1 X192.561 Y182.296 E0.0101
G1 X196.794 Y182.296 E0.19606
G1 X197.491 Y182.212 E0.0325
G1 X197.81 Y182.108 E0.01556
G1 X198.039 Y182.001 E0.01172
G1 X198.139 Y181.955 E0.00511
G1 X202.228 Y181.955 E0.18938
G1 X202.264 Y181.676 E0.01301
G1 X202.228 Y181.398 E0.01302
G1 X198.832 Y181.398 E0.15731
G1 X199.2 Y180.907 E0.02842
G1 X199.238 Y180.841 E0.00354
G1 X202.154 Y180.841 E0.1351
G1 X202.098 Y180.41 E0.02012
G1 X202.045 Y180.283 E0.00634
G1 X199.559 Y180.283 E0.11516
G1 X199.881 Y179.726 E0.02979
G1 X201.815 Y179.726 E0.08958
G1 X201.609 Y179.23 E0.02488
G1 X201.562 Y179.169 E0.00355
G1 X200.202 Y179.169 E0.06301
G1 X200.524 Y178.612 E0.02979
G1 X201.437 Y178.612 E0.04231
G1 E-0.7 F1800
G1 Z0.8 F8700
G1 X107.391 Y182.028
G1 Z0.2
G1 E0.7 F1800
G1 F2250
G1 X107.341 Y182.413 E0.018
G1 X107.277 Y182.9 E0.02274
G1 X106.761 Y184.145 E0.06242
G1 X105.941 Y185.214 E0.06242
G1 X104.871 Y186.035 E0.06242
G1 X103.626 Y186.55 E0.06242
G1 X102.29 Y186.726 E0.06242
G1 X101.333 Y186.6 E0.04475
G1 X100.954 Y186.55 E0.01767
G1 X99.709 Y186.035 E0.06242
G1 X98.64 Y185.214 E0.06242
G1 X97.82 Y184.145 E0.06242
G1 X97.304 Y182.9 E0.06242
G1 X97.255 Y182.522 E0.01767
G1 X97.128 Y181.564 E0.04475
G1 X97.304 Y180.228 E0.06242
G1 X97.82 Y178.983 E0.06242
G1 X98.64 Y177.914 E0.06242
G1 X99.144 Y177.528 E0.02939
G1 X101.009 Y180.759 E0.17284
G1 X101.406 Y181.289 E0.03066
G1 X101.7 Y181.543 E0.01799
G1 X101.932 Y181.699 E0.01296
G1 X102.183 Y181.822 E0.01296
G1 X102.55 Y181.949 E0.01799
G1 X102.769 Y181.976 E0.01022
G1 X103.207 Y182.028 E0.02044
G1 X107.331 Y182.028 E0.19102
G1 E-0.7 F1800
G1 Z0.8 F8700
G1 X100.091 Y186.163
G1 Z0.2
G1 E0.7 F1800
G1 F2250
G1 X103.863 Y186.163 E0.17472
G1 X104.737 Y185.801 E0.04378
G1 X104.991 Y185.606 E0.01487
G1 X99.59 Y185.606 E0.25021
G1 X98.864 Y185.048 E0.04239
G1 X105.717 Y185.048 E0.31747
G1 X105.75 Y185.023 E0.0019
G1 X106.158 Y184.491 E0.03107
G1 X98.423 Y184.491 E0.35831
G1 X98.054 Y184.01 E0.02809
G1 X98.022 Y183.934 E0.00381
G1 X106.559 Y183.934 E0.39543
G1 X106.79 Y183.377 E0.02793
G1 X97.791 Y183.377 E0.4168
G1 X97.564 Y182.82 E0.02788
G1 X107.017 Y182.82 E0.43791
G1 X107.076 Y182.379 E0.02063
G1 X107.086 Y182.296 E0.00388
G1 X103.191 Y182.296 E0.18042
G1 X102.921 Y182.263 E0.01263
G1 X97.49 Y182.263 E0.25155
G1 X97.417 Y181.706 E0.02603
G1 X101.48 Y181.706 E0.18821
G1 X101.21 Y181.472 E0.01655
G1 X100.967 Y181.149 E0.01872
G1 X97.453 Y181.149 E0.16279
G1 X97.526 Y180.592 E0.02603
G1 X100.604 Y180.592 E0.14257
G1 X100.282 Y180.035 E0.0298
G1 X97.674 Y180.035 E0.12083
G1 X97.905 Y179.478 E0.02793
G1 X99.961 Y179.478 E0.09524
G1 X99.639 Y178.921 E0.0298
G1 X98.205 Y178.921 E0.06642
G1 X98.633 Y178.364 E0.03253
G1 X99.594 Y178.364 E0.04454
G1 E-0.7 F1800
G1 Z0.8 F8700
G1 X89.458 Y120.607
G1 Z0.2
G1 E0.7 F1800
G1 F2250
G1 X88.621 Y120.497 E0.03909
G1 X88.401 Y120.468 E0.01029
G1 X87.156 Y119.952 E0.06242
G1 X86.086 Y119.132 E0.06242
G1 X85.266 Y118.063 E0.06242
G1 X84.75 Y116.818 E0.06242
G1 X84.701 Y116.44 E0.01767
G1 X84.575 Y115.482 E0.04475
G1 X84.75 Y114.146 E0.06242
G1 X85.266 Y112.901 E0.06242
G1 X86.086 Y111.832 E0.06242
G1 X87.156 Y111.012 E0.06242
G1 X88.401 Y110.496 E0.06242
G1 X89.737 Y110.32 E0.06242
G1 X91.073 Y110.496 E0.06242
G1 X92.318 Y111.012 E0.06242
G1 X93.387 Y111.832 E0.06242
G1 X94.207 Y112.901 E0.06242
G1 X94.723 Y114.146 E0.06242
G1 X94.842 Y115.053 E0.04237
G1 X89.854 Y115.053 E0.23104
G1 X89.617 Y115.142 E0.01173
G1 X89.458 Y115.404 E0.01419
G1 X89.458 Y120.547 E0.23825
G1 X89.43 Y120.069 F8700
G1 F2250
G1 X88.136 Y120.069 E0.05994
G1 X87.29 Y119.719 E0.04238
G1 X87.021 Y119.512 E0.01575
G1 X89.19 Y119.512 E0.1005
G1 X89.19 Y118.955 E0.0258
G1 X86.295 Y118.955 E0.13413
G1 X86.277 Y118.941 E0.00102
G1 X85.86 Y118.398 E0.03174
G1 X89.19 Y118.398 E0.15427
G1 X89.19 Y117.841 E0.0258
G1 X85.463 Y117.841 E0.17264
G1 X85.233 Y117.284 E0.02793
G1 X89.19 Y117.284 E0.18333
G1 X89.19 Y116.726 E0.0258
G1 X85.008 Y116.726 E0.19373
G1 X84.966 Y116.405 E0.01503
G1 X84.935 Y116.169 E0.011
G1 X89.191 Y116.169 E0.19713
G1 X89.191 Y115.612 E0.0258
G1 X84.861 Y115.612 E0.20053
G1 X84.844 Y115.482 E0.00609
G1 X84.9 Y115.055 E0.01994
G1 X89.357 Y115.055 E0.20645
G1 X89.437 Y114.925 E0.00709
G1 X89.805 Y114.785 E0.01825
G1 X94.537 Y114.785 E0.21917
G1 X94.499 Y114.498 E0.01342
G1 X84.974 Y114.498 E0.44123
G1 X85.011 Y114.216 E0.01319
G1 X85.125 Y113.941 E0.01377
G1 X94.348 Y113.941 E0.42725
G1 X94.118 Y113.384 E0.02793
G1 X85.355 Y113.384 E0.40587
G1 X85.5 Y113.036 E0.01746
G1 X85.66 Y112.827 E0.0122
G1 X93.813 Y112.827 E0.37766
G1 X93.386 Y112.27 E0.03253
G1 X86.087 Y112.27 E0.33806
G1 X86.277 Y112.023 E0.01443
G1 X86.681 Y111.713 E0.02358
G1 X92.792 Y111.713 E0.28307
G1 X92.183 Y111.245 E0.03558
G1 X91.967 Y111.156 E0.01083
G1 X87.506 Y111.156 E0.2066
G1 X88.47 Y110.756 E0.04833
G1 X89.669 Y110.599 E0.05601
G1 X91.248 Y110.599 E0.07312
G1 E-0.7 F1800
G1 Z0.8 F8700
G1 X205.022 Y115.056
G1 Z0.2
G1 E0.7 F1800
G1 F2250
G1 X205.16 Y114.005 E0.04911
G1 X205.676 Y112.76 E0.06242
G1 X206.496 Y111.691 E0.06242
G1 X207.565 Y110.87 E0.06242
G1 X208.81 Y110.355 E0.06242
G1 X210.146 Y110.179 E0.06242
G1 X211.482 Y110.355 E0.06242
G1 X212.727 Y110.87 E0.06242
G1 X213.796 Y111.691 E0.06242
G1 X214.617 Y112.76 E0.06242
G1 X215.132 Y114.005 E0.06242
G1 X215.308 Y115.341 E0.06242
G1 X215.182 Y116.299 E0.04475
G1 X215.132 Y116.677 E0.01767
G1 X214.617 Y117.922 E0.06242
G1 X213.796 Y118.991 E0.06242
G1 X212.727 Y119.811 E0.06242
G1 X211.482 Y120.327 E0.06242
G1 X210.546 Y120.45 E0.04372
G1 X210.547 Y115.471 E0.23064
G1 X210.477 Y115.251 E0.0107
G1 X210.246 Y115.062 E0.0138
G1 X205.082 Y115.056 E0.23919
G1 E-0.7 F1800
G1 Z0.8 F8700
G1 X211.658 Y110.457
G1 Z0.2
G1 E0.7 F1800
G1 F2250
G1 X210.079 Y110.457 E0.07312
G1 X208.88 Y110.615 E0.05601
G1 X207.916 Y111.015 E0.04833
G1 X212.376 Y111.015 E0.2066
G1 X212.592 Y111.104 E0.01083
G1 X213.202 Y111.572 E0.03558
G1 X207.091 Y111.572 E0.28307
G1 X206.687 Y111.881 E0.02358
G1 X206.497 Y112.129 E0.01443
G1 X213.795 Y112.129 E0.33806
G1 X214.223 Y112.686 E0.03253
G1 X206.07 Y112.686 E0.37766
G1 X205.91 Y112.895 E0.0122
G1 X205.765 Y113.243 E0.01745
G1 X214.527 Y113.243 E0.40587
G1 X214.758 Y113.8 E0.02793
G1 X205.535 Y113.8 E0.42725
G1 X205.421 Y114.075 E0.01377
G1 X205.384 Y114.357 E0.01319
G1 X214.909 Y114.357 E0.44123
G1 X214.982 Y114.914 E0.02603
G1 X210.487 Y114.914 E0.20824
G1 X210.707 Y115.094 E0.01317
G1 X210.814 Y115.429 E0.01632
G1 X210.814 Y115.471 E0.00193
G1 X215.021 Y115.471 E0.1949
G1 X214.948 Y116.028 E0.02603
G1 X210.814 Y116.028 E0.1915
G1 X210.814 Y116.585 E0.0258
G1 X214.875 Y116.585 E0.1881
G1 X214.872 Y116.607 E0.00102
G1 X214.65 Y117.142 E0.02684
G1 X210.814 Y117.142 E0.1777
G1 X210.814 Y117.699 E0.0258
G1 X214.419 Y117.699 E0.16701
G1 X214.383 Y117.787 E0.00439
G1 X214.023 Y118.257 E0.02742
G1 X210.814 Y118.257 E0.14864
G1 X210.814 Y118.814 E0.0258
G1 X213.588 Y118.814 E0.12851
G1 X212.862 Y119.371 E0.04239
G1 X210.814 Y119.371 E0.09488
G1 X210.814 Y119.928 E0.0258
G1 X212.373 Y119.928 E0.07223
M104 S252 ; set temperature
G1 E-0.7 F1800
G1 Z0.8 F8700
; printing object Plenum_LID.stl id:0 copy 0
EXCLUDE_OBJECT_START NAME=Plenum_LID_stl_id_0_copy_0
G1 X209.968 Y115.641
G1 Z0.2
G1 E0.7 F1800
;TYPE:External perimeter
G1 F2400
G1 X209.959 Y160.567 E2.08105
G1 X198.492 Y180.44 E1.06278
G1 X198.152 Y180.894 E0.0263
G1 X198.001 Y181.029 E0.00937
G1 X197.763 Y181.197 E0.01347
G1 X197.499 Y181.319 E0.01348
G1 X197.307 Y181.382 E0.00937
G1 X196.743 Y181.45 E0.02631
G1 X103.242 Y181.45 E4.3311
G1 X102.681 Y181.382 E0.02617
G1 X102.406 Y181.287 E0.0135
G1 X102.222 Y181.197 E0.00948
G1 X102.052 Y181.083 E0.00947
G1 X101.832 Y180.892 E0.0135
G1 X101.493 Y180.44 E0.02617
G1 X90.062 Y160.641 E1.05898
G1 X90.033 Y160.547 E0.00455
G1 X90.037 Y115.631 E2.08058
G1 X97.905 Y115.639 E0.36447
G1 X99.089 Y115.669 E0.05488
G1 X100.572 Y115.78 E0.06887
G1 X102.047 Y115.966 E0.06887
G1 X103.511 Y116.225 E0.06887
G1 X104.96 Y116.557 E0.06888
G1 X106.391 Y116.962 E0.06889
G1 X107.801 Y117.437 E0.06888
G1 X110.705 Y118.586 E0.14469
G1 X112.251 Y119.119 E0.07574
G1 X113.82 Y119.58 E0.07575
G1 X115.408 Y119.97 E0.07576
G1 X117.013 Y120.288 E0.07576
G1 X118.63 Y120.532 E0.07577
G1 X120.257 Y120.701 E0.07577
G1 X121.892 Y120.796 E0.07585
G1 X124.409 Y120.796 E0.11659
G1 X126.044 Y120.701 E0.07586
G1 X127.67 Y120.532 E0.07577
G1 X129.288 Y120.288 E0.07577
G1 X130.893 Y119.971 E0.07577
G1 X132.481 Y119.581 E0.07576
G1 X134.05 Y119.119 E0.07575
G1 X135.595 Y118.586 E0.07574
G1 X138.5 Y117.437 E0.14469
G1 X139.909 Y116.962 E0.06889
G1 X141.34 Y116.557 E0.06889
G1 X142.79 Y116.225 E0.06888
G1 X144.254 Y115.966 E0.06887
G1 X145.729 Y115.78 E0.06887
G1 X147.211 Y115.669 E0.06887
G1 X148.701 Y115.631 E0.06904
G1 X151.312 Y115.631 E0.12093
G1 X152.802 Y115.669 E0.06905
G1 X154.285 Y115.78 E0.06888
G1 X155.76 Y115.966 E0.06888
G1 X157.225 Y116.225 E0.06888
G1 X158.674 Y116.557 E0.06889
G1 X160.105 Y116.962 E0.0689
G1 X161.515 Y117.438 E0.0689
G1 X164.419 Y118.586 E0.14467
G1 X165.964 Y119.119 E0.0757
