; generated by SuperSlicer 2.5.59 on 2023-03-19 at 03:52:46 UTC


;
;

;
;
; 

; external perimeters extrusion width = 0.45mm
; perimeters extrusion width = 0.45mm
; infill extrusion width = 0.45mm
; solid infill extrusion width = 0.45mm
; top infill extrusion width = 0.45mm
; first layer extrusion width = 0.60mm

; object:{"name":"power_inlet_IECGS_1mm","id":"power_inlet_IECGS_1mm.stl id:0 copy 0","object_center":[150.000000,148.500000,0.000000],"boundingbox_center":[150.000000,148.500000,10.000000],"boundingbox_size":[117.999580,66.800110,20.000000]}
EXCLUDE_OBJECT_DEFINE NAME=power_inlet_IECGS_1mm_stl_id_0_copy_0 CENTER=150.000000,148.500000 POLYGON=[[91.000208,169.579392],[91.027096,169.252592],[91.107008,168.934576],[91.237824,168.633888],[114.350568,127.383160],[114.376736,127.339240],[114.607040,126.998928],[114.640048,126.955784],[114.906104,126.646832],[114.946104,126.605496],[115.243776,126.331552],[115.290760,126.293104],[115.615536,126.057312],[115.669344,126.022840],[116.016440,125.827768],[116.076744,125.798344],[137.892224,116.117928],[138.182176,115.997824],[138.487328,115.924568],[138.800208,115.899944],[157.799792,115.099944],[195.699792,115.099944],[195.778192,115.103792],[206.999792,115.899944],[207.312656,115.924568],[207.617824,115.997824],[207.907776,116.117928],[208.175360,116.281904],[208.414000,116.485728],[208.617824,116.724376],[208.781792,116.991960],[208.901904,117.281904],[208.975152,117.587072],[208.999792,117.899944],[208.999792,179.900048],[208.990160,180.096080],[208.975152,180.212928],[208.961360,180.290240],[208.913664,180.480624],[208.901904,180.518096],[208.847552,180.665424],[208.781792,180.808048],[208.763648,180.842848],[208.662720,181.011200],[208.617824,181.075616],[208.545808,181.168832],[208.414000,181.314272],[208.268592,181.446080],[208.175360,181.518096],[208.110928,181.562992],[207.942576,181.663888],[207.907776,181.682064],[207.765168,181.747808],[207.617824,181.802176],[207.580352,181.813936],[207.389968,181.861632],[207.312656,181.875424],[207.195824,181.890432],[206.999792,181.900048],[93.000208,181.900048],[92.804168,181.890432],[92.687344,181.875424],[92.610032,181.861632],[92.419640,181.813936],[92.382168,181.802176],[92.234840,181.747808],[92.092224,181.682064],[92.057416,181.663888],[91.889072,181.562992],[91.824640,181.518096],[91.731424,181.446080],[91.585992,181.314272],[91.454184,181.168832],[91.382168,181.075616],[91.337264,181.011200],[91.236368,180.842848],[91.218192,180.808048],[91.152448,180.665424],[91.098088,180.518096],[91.086328,180.480624],[91.038632,180.290240],[91.024832,180.212928],[91.009840,180.096080],[91.000208,179.900048],[91.000208,169.579392]]
; plater:{"center":[150.000000,148.500000,0.000000],"boundingbox_center":[150.000000,148.500000,10.000000],"boundingbox_size":[117.999580,66.800110,20.000000]}

;TYPE:Custom
M104 S0 ; Stops SuperSlicer from sending temp waits separately

M109 S0

M140 S0

print_start EXTRUDER=245 BED=105 CHAMBER=0
G21 ; set units to millimeters
G90 ; use absolute coordinates
M82 ; use absolute distances for extrusion
G92 E0
; Filament gcode
;_TOOLCHANGE 0
M107
;LAYER_CHANGE
;Z:0.21875
;HEIGHT:0.21875
TIMELAPSE_TAKE_FRAME
;BEFORE_LAYER_CHANGE
;0.21875


G1 E-0.8 F2400
G1 Z0.2 F8400
G1 Z0.21875
;AFTER_LAYER_CHANGE
;0.21875
G92 E0
G1 Z0.41875
G1 X113.111 Y124.284
G1 Z0.21875
G1 E0.8 F2400
;TYPE:Skirt
;WIDTH:0.54
G1 F1800
G1 X112.466 Y124.959 E0.84188
G1 X111.713 Y126.055 E0.90145
G1 X88.556 Y167.404 E3.02657
G1 X88.261 Y168.159 E3.06295
G1 X88.059 Y169.355 E3.11732
G1 X88.052 Y175.96 E3.41349
G1 X88.188 Y177.04 E3.46233
G1 X88.588 Y178.138 E3.51471
G1 X89.265 Y179.144 E3.56909
G1 X90.372 Y180.089 E3.63435
G1 X91.517 Y180.62 E3.69097
G1 X92.941 Y180.849 E3.75561
G1 X207.059 Y180.849 E8.87286
G1 X208.14 Y180.712 E8.92169
G1 X209.249 Y180.307 E8.97466
G1 X210.411 Y179.482 E9.03854
G1 X211.228 Y178.469 E9.09692
G1 X211.72 Y177.383 E9.15036
G1 X211.948 Y175.96 E9.21501
G1 X211.948 Y117.858 E11.82038
G1 X211.841 Y116.881 E11.86445
G1 X211.6 Y116.08 E11.90194
G1 X211.189 Y115.271 E11.94263
G1 X210.582 Y114.488 E11.98704
G1 X209.948 Y113.928 E12.025
G1 X208.82 Y113.299 E12.08292
G1 X208.02 Y113.059 E12.12036
G1 X207.129 Y112.958 E12.16056
G1 X138.154 Y112.995 E15.25349
G1 X136.992 Y113.294 E15.30732
G1 X114.5 Y123.295 E16.4111
G1 X113.16 Y124.249 E16.48488
G1 X113.462 Y124.629 F8400
G1 F1800
G1 X112.852 Y125.265 E16.52436
G1 X112.143 Y126.295 E16.58046
G1 X89.008 Y167.6 E18.70336
G1 X88.739 Y168.279 E18.73612
G1 X88.55 Y169.395 E18.78687
G1 X88.544 Y175.96 E19.08124
G1 X88.664 Y176.913 E19.1243
G1 X89.037 Y177.935 E19.17312
G1 X89.622 Y178.803 E19.22005
G1 X90.657 Y179.688 E19.28112
G1 X91.645 Y180.144 E19.32989
G1 X92.941 Y180.356 E19.38877
G1 X207.059 Y180.356 E24.50601
G1 X208.012 Y180.236 E24.54908
G1 X209.047 Y179.858 E24.59848
G1 X210.055 Y179.142 E24.6539
G1 X210.819 Y178.193 E24.70854
G1 X211.244 Y177.256 E24.7547
G1 X211.456 Y175.96 E24.81358
G1 X211.456 Y117.858 E27.41896
G1 X211.364 Y117.005 E27.45743
G1 X211.151 Y116.282 E27.49119
G1 X210.788 Y115.557 E27.52757
G1 X210.242 Y114.845 E27.5678
G1 X209.673 Y114.336 E27.60202
G1 X208.617 Y113.749 E27.6562
G1 X207.896 Y113.536 E27.68991
G1 X207.129 Y113.451 E27.72452
G1 X138.196 Y113.486 E30.81558
G1 X137.192 Y113.745 E30.86208
G1 X114.751 Y123.718 E31.96326
G1 X113.511 Y124.595 E32.03135
G92 E0
G1 E-0.8 F2400
G1 Z0.41875 F8400
G1 X115.182 Y126.404
G1 Z0.21875
G1 E0 F2400
;WIDTH:0.6
;HEIGHT:0.22
G1 F1800
G1 X115.196 Y126.391 E0.00098
G1 X115.56 Y126.111 E0.02417
G1 X115.982 Y125.861 E0.04896
G1 X116.4 Y125.676 E0.07209
G1 X116.853 Y125.536 E0.09605
G1 X117.335 Y125.449 E0.12084
G1 X117.796 Y125.422 E0.14417
G1 X133.792 Y125.422 E0.95292
G1 X134.171 Y125.399 E0.97216
G1 X134.434 Y125.351 E0.98568
G1 X134.893 Y125.216 E1.00983
G1 X135.227 Y125.062 E1.02844
G1 X135.543 Y124.866 E1.04722
G1 X135.833 Y124.631 E1.06611
G1 X136.022 Y124.443 E1.07958
G1 X136.315 Y124.065 E1.1038
G1 X136.453 Y123.836 E1.11729
G1 X136.608 Y123.501 E1.13598
G1 X136.743 Y123.042 E1.16013
G1 X136.791 Y122.779 E1.17365
G1 X136.814 Y122.399 E1.19289
G1 X136.814 Y117.894 E1.42069
G1 X136.841 Y117.577 E1.43675
G1 X136.845 Y117.554 E1.43793
G1 X136.923 Y117.253 E1.4537
G1 X136.931 Y117.23 E1.45489
G1 X137.059 Y116.946 E1.47065
G1 X137.07 Y116.926 E1.47184
G1 X137.245 Y116.667 E1.4876
G1 X137.259 Y116.649 E1.48878
G1 X137.475 Y116.422 E1.50461
G1 X137.495 Y116.405 E1.50594
G1 X137.821 Y116.173 E1.52618
G1 X137.845 Y116.159 E1.52755
G1 X138.131 Y116.031 E1.54341
G1 X138.153 Y116.023 E1.54459
G1 X138.455 Y115.944 E1.56036
G1 X138.478 Y115.941 E1.56154
G1 X138.794 Y115.914 E1.57761
G1 X207.091 Y115.921 E5.03077
G1 X207.323 Y115.941 E5.04251
G1 X207.345 Y115.945 E5.04368
G1 X207.647 Y116.023 E5.05943
G1 X207.669 Y116.031 E5.06062
G1 X207.954 Y116.159 E5.07638
G1 X207.974 Y116.17 E5.07757
G1 X208.233 Y116.344 E5.09333
G1 X208.251 Y116.359 E5.09452
G1 X208.477 Y116.575 E5.11035
G1 X208.495 Y116.595 E5.11167
G1 X208.727 Y116.921 E5.13192
G1 X208.74 Y116.945 E5.13329
G1 X208.869 Y117.23 E5.14914
G1 X208.877 Y117.253 E5.15033
G1 X208.955 Y117.554 E5.16609
G1 X208.959 Y117.577 E5.16728
G1 X208.986 Y117.894 E5.18334
G1 X208.986 Y175.908 E8.11659
G1 X208.938 Y176.314 E8.13722
G1 X208.934 Y176.333 E8.13822
G1 X208.876 Y176.549 E8.14953
G1 X208.869 Y176.57 E8.15066
G1 X208.741 Y176.854 E8.1664
G1 X208.73 Y176.874 E8.16758
G1 X208.555 Y177.133 E8.18334
G1 X208.541 Y177.151 E8.18453
G1 X208.325 Y177.378 E8.20036
G1 X208.305 Y177.395 E8.20169
G1 X207.979 Y177.627 E8.22193
G1 X207.955 Y177.641 E8.2233
G1 X207.67 Y177.769 E8.23913
G1 X207.649 Y177.777 E8.24026
G1 X207.433 Y177.835 E8.25157
G1 X207.413 Y177.838 E8.25256
G1 X207.008 Y177.886 E8.27319
G1 X92.992 Y177.886 E14.03795
G1 X92.587 Y177.838 E14.05858
G1 X92.567 Y177.835 E14.05958
G1 X92.351 Y177.777 E14.07089
G1 X92.33 Y177.769 E14.07202
G1 X92.045 Y177.641 E14.08785
G1 X92.021 Y177.627 E14.08922
G1 X91.695 Y177.395 E14.10946
G1 X91.675 Y177.378 E14.11079
G1 X91.459 Y177.151 E14.12662
G1 X91.445 Y177.133 E14.1278
G1 X91.27 Y176.874 E14.14356
G1 X91.259 Y176.854 E14.14475
G1 X91.131 Y176.57 E14.16049
G1 X91.124 Y176.549 E14.16162
G1 X91.066 Y176.333 E14.17293
G1 X91.062 Y176.314 E14.17392
G1 X91.014 Y175.908 E14.19455
G1 X91.015 Y169.562 E14.51541
G1 X91.039 Y169.266 E14.53044
G1 X91.043 Y169.244 E14.53159
G1 X91.117 Y168.95 E14.5469
G1 X91.124 Y168.928 E14.54805
G1 X91.245 Y168.651 E14.56337
G1 X91.256 Y168.631 E14.56452
G1 X91.42 Y168.376 E14.57984
G1 X91.434 Y168.358 E14.58098
G1 X91.638 Y168.134 E14.5963
G1 X91.655 Y168.119 E14.59745
G1 X91.893 Y167.931 E14.61277
G1 X91.912 Y167.919 E14.61391
G1 X92.182 Y167.77 E14.62952
G1 X118.715 Y155.863 E16.09995
G1 X119.425 Y155.516 E16.13989
G1 X120.107 Y155.126 E16.1796
G1 X120.761 Y154.692 E16.21933
G1 X121.214 Y154.348 E16.24807
G1 X121.98 Y153.699 E16.29882
G1 X122.536 Y153.147 E16.33845
G1 X123.056 Y152.559 E16.37816
G1 X123.537 Y151.937 E16.41787
G1 X123.976 Y151.286 E16.45759
G1 X124.372 Y150.607 E16.49734
G1 X124.628 Y150.099 E16.52607
G1 X125.026 Y149.179 E16.57679
G1 X125.281 Y148.436 E16.61648
G1 X125.434 Y147.889 E16.6452
G1 X125.644 Y146.908 E16.69592
G1 X125.75 Y146.131 E16.73561
G1 X125.794 Y145.564 E16.76433
G1 X125.808 Y144.561 E16.81504
G1 X125.76 Y143.777 E16.85475
G1 X125.694 Y143.213 E16.88346
G1 X125.511 Y142.226 E16.93423
G1 X125.372 Y141.675 E16.96295
G1 X125.137 Y140.925 E17.00272
G1 X124.853 Y140.193 E17.04243
G1 X124.522 Y139.48 E17.08215
G1 X124.145 Y138.791 E17.12186
G1 X123.724 Y138.128 E17.16157
G1 X123.26 Y137.494 E17.20128
G1 X122.756 Y136.892 E17.241
G1 X122.213 Y136.324 E17.28071
G1 X121.635 Y135.792 E17.32042
G1 X121.023 Y135.3 E17.36014
G1 X120.381 Y134.848 E17.39985
G1 X119.71 Y134.44 E17.43957
G1 X119.014 Y134.076 E17.47928
G1 X118.295 Y133.758 E17.519
G1 X117.556 Y133.488 E17.55878
G1 X116.364 Y133.126 E17.62178
G1 X116.346 Y133.119 E17.62273
G1 X115.915 Y132.92 E17.64675
G1 X115.512 Y132.671 E17.67071
G1 X115.141 Y132.377 E17.69467
G1 X114.817 Y132.051 E17.71787
G1 X114.804 Y132.036 E17.71885
G1 X114.455 Y131.569 E17.74837
G1 X114.271 Y131.26 E17.76655
G1 X114.083 Y130.844 E17.78964
G1 X113.935 Y130.376 E17.81443
G1 X113.847 Y129.911 E17.83838
G1 X113.816 Y129.455 E17.8615
G1 X113.839 Y128.98 E17.88551
G1 X113.841 Y128.962 E17.88646
G1 X113.949 Y128.386 E17.91607
G1 X113.954 Y128.368 E17.91702
G1 X114.098 Y127.933 E17.9402
G1 X114.299 Y127.504 E17.96415
G1 X114.55 Y127.102 E17.98807
G1 X114.762 Y126.831 E18.0055
G1 X115.14 Y126.446 E18.03275
M104 S245 ; set temperature
G92 E0
G1 E-0.8 F2400
G1 Z0.41875 F8400
; printing object power_inlet_IECGS_1mm.stl id:0 copy 0
EXCLUDE_OBJECT_START NAME=power_inlet_IECGS_1mm_stl_id_0_copy_0
G1 X114.786 Y131
G1 Z0.21875
G1 E0 F2400
;TYPE:External perimeter
;HEIGHT:0.21875
G1 F1800
G1 X114.618 Y130.629 E0.02045
G1 X114.496 Y130.243 E0.04083
G1 X114.42 Y129.845 E0.0612
G1 X114.393 Y129.441 E0.08158
G1 X114.413 Y129.039 E0.10183
G1 X114.51 Y128.522 E0.1283
G1 X114.637 Y128.14 E0.14855
G1 X114.81 Y127.773 E0.16892
G1 X115.026 Y127.429 E0.18938
G1 X115.2 Y127.207 E0.20357
G1 X115.571 Y126.829 E0.2302
G1 X115.89 Y126.585 E0.25042
G1 X116.239 Y126.378 E0.27081
G1 X116.609 Y126.214 E0.29119
G1 X116.997 Y126.095 E0.31157
G1 X117.396 Y126.023 E0.33195
G1 X117.809 Y125.999 E0.35279
G1 X133.809 Y125.999 E1.15757
G1 X134.241 Y125.972 E1.17934
G1 X134.568 Y125.912 E1.19603
G1 X135.096 Y125.757 E1.2237
G1 X135.501 Y125.57 E1.24614
G1 X135.877 Y125.337 E1.26841
G1 X136.219 Y125.061 E1.29054
G1 X136.455 Y124.825 E1.30729
G1 X136.791 Y124.392 E1.33489
G1 X136.963 Y124.107 E1.35162
G1 X137.15 Y123.704 E1.37397
G1 X137.304 Y123.176 E1.40163
G1 X137.364 Y122.849 E1.41833
G1 X137.391 Y122.417 E1.4401
G1 X137.391 Y117.913 E1.66667
G1 X137.412 Y117.663 E1.67926
G1 X137.472 Y117.433 E1.6912
G1 X137.569 Y117.217 E1.70315
G1 X137.702 Y117.02 E1.71509
G1 X137.864 Y116.851 E1.72687
G1 X138.121 Y116.667 E1.74275
G1 X138.334 Y116.571 E1.7545
G1 X138.564 Y116.512 E1.76644
G1 X138.813 Y116.491 E1.77903
G1 X207.072 Y116.497 E5.21234
G1 X207.236 Y116.512 E5.22062
G1 X207.466 Y116.571 E5.23258
G1 X207.683 Y116.669 E5.24453
G1 X207.88 Y116.802 E5.25647
G1 X208.049 Y116.963 E5.26825
G1 X208.232 Y117.22 E5.28413
G1 X208.328 Y117.433 E5.29587
G1 X208.388 Y117.663 E5.30782
G1 X208.409 Y117.913 E5.32041
G1 X208.409 Y175.882 E8.23616
G1 X208.369 Y176.214 E8.25297
G1 X208.329 Y176.366 E8.26086
G1 X208.231 Y176.583 E8.27287
G1 X208.098 Y176.78 E8.28481
G1 X207.936 Y176.95 E8.29659
G1 X207.679 Y177.133 E8.31247
G1 X207.465 Y177.229 E8.32428
G1 X207.314 Y177.27 E8.33217
G1 X206.982 Y177.309 E8.34898
G1 X93.018 Y177.309 E14.08113
G1 X92.686 Y177.27 E14.09794
G1 X92.535 Y177.229 E14.10583
G1 X92.321 Y177.133 E14.11764
G1 X92.064 Y176.949 E14.13352
G1 X91.902 Y176.78 E14.1453
G1 X91.769 Y176.583 E14.15724
G1 X91.671 Y176.366 E14.16925
G1 X91.631 Y176.214 E14.17714
G1 X91.591 Y175.882 E14.19395
G1 X91.591 Y169.592 E14.51034
G1 X91.611 Y169.349 E14.52258
G1 X91.667 Y169.125 E14.53419
G1 X91.759 Y168.914 E14.54581
G1 X91.885 Y168.72 E14.55742
G1 X92.04 Y168.549 E14.56904
G1 X92.221 Y168.406 E14.58065
G1 X92.434 Y168.289 E14.59289
G1 X118.96 Y156.385 E16.05524
G1 X119.695 Y156.026 E16.0964
G1 X120.409 Y155.617 E16.1378
G1 X121.095 Y155.162 E16.1792
G1 X121.575 Y154.798 E16.2095
G1 X122.37 Y154.124 E16.2619
G1 X122.956 Y153.543 E16.30341
G1 X123.501 Y152.926 E16.34481
G1 X124.005 Y152.275 E16.38621
G1 X124.465 Y151.593 E16.42762
G1 X124.879 Y150.882 E16.46898
G1 X125.15 Y150.344 E16.4993
G1 X125.564 Y149.387 E16.55173
G1 X125.832 Y148.608 E16.59317
G1 X125.994 Y148.027 E16.6235
G1 X126.213 Y147.008 E16.67594
G1 X126.324 Y146.192 E16.71736
G1 X126.37 Y145.591 E16.74769
G1 X126.385 Y144.548 E16.80015
G1 X126.335 Y143.726 E16.84155
G1 X126.264 Y143.127 E16.87188
G1 X126.075 Y142.103 E16.92427
G1 X125.927 Y141.518 E16.9546
G1 X125.681 Y140.734 E16.99594
G1 X125.383 Y139.967 E17.03735
G1 X125.036 Y139.22 E17.07875
G1 X124.641 Y138.498 E17.12015
G1 X124.2 Y137.803 E17.16156
G1 X123.714 Y137.139 E17.20296
G1 X123.186 Y136.508 E17.24436
G1 X122.617 Y135.912 E17.28577
G1 X122.011 Y135.355 E17.32717
G1 X121.37 Y134.839 E17.36858
G1 X120.696 Y134.366 E17.40998
G1 X119.993 Y133.938 E17.45139
G1 X119.264 Y133.556 E17.49279
G1 X118.511 Y133.224 E17.53419
G1 X117.739 Y132.941 E17.57553
G1 X116.56 Y132.583 E17.63751
G1 X116.194 Y132.415 E17.65776
G1 X115.849 Y132.203 E17.67815
G1 X115.531 Y131.952 E17.69853
G1 X115.247 Y131.667 E17.71875
G1 X114.93 Y131.242 E17.74539
G1 X114.817 Y131.051 E17.75656
;WIPE_START
G1 X115.007 Y130.666 F8400
;WIPE_END
G92 E0
G1 E-0.8 F2400
G1 Z0.41875 F8400
G1 X117.614 Y132.075
G1 Z0.21875
G1 E0 F2400
G1 F1800
G1 X117.987 Y132.075 E0.01876
G1 X118.356 Y132.023 E0.03752
G1 X118.714 Y131.92 E0.05627
G1 X119.055 Y131.768 E0.07503
G1 X119.371 Y131.571 E0.09379
G1 X119.657 Y131.331 E0.11255
G1 X119.907 Y131.054 E0.13131
G1 X120.115 Y130.745 E0.15006
G1 X120.279 Y130.409 E0.16882
G1 X120.394 Y130.055 E0.18758
G1 X120.459 Y129.687 E0.20634
G1 X120.472 Y129.315 E0.2251
G1 X120.433 Y128.944 E0.24386
G1 X120.343 Y128.582 E0.26261
G1 X120.203 Y128.236 E0.28137
G1 X120.016 Y127.913 E0.30013
G1 X119.787 Y127.619 E0.31889
G1 X119.518 Y127.36 E0.33765
G1 X119.217 Y127.141 E0.3564
G1 X118.887 Y126.966 E0.37516
G1 X118.537 Y126.838 E0.39392
G1 X118.172 Y126.761 E0.41268
G1 X117.8 Y126.735 E0.43144
G1 X117.428 Y126.761 E0.4502
G1 X117.063 Y126.838 E0.46895
G1 X116.713 Y126.966 E0.48771
G1 X116.384 Y127.141 E0.50647
G1 X116.082 Y127.36 E0.52523
G1 X115.814 Y127.619 E0.54399
G1 X115.584 Y127.913 E0.56274
G1 X115.398 Y128.236 E0.5815
G1 X115.258 Y128.582 E0.60026
G1 X115.168 Y128.944 E0.61902
G1 X115.129 Y129.315 E0.63778
G1 X115.142 Y129.687 E0.65653
G1 X115.206 Y130.055 E0.67529
G1 X115.322 Y130.409 E0.69405
G1 X115.485 Y130.745 E0.71281
G1 X115.694 Y131.054 E0.73157
G1 X115.943 Y131.331 E0.75033
G1 X116.229 Y131.571 E0.76908
G1 X116.545 Y131.768 E0.78784
G1 X116.886 Y131.92 E0.8066
G1 X117.244 Y132.023 E0.82536
G1 X117.554 Y132.066 E0.8411
;WIPE_START
G1 X117.797 Y132.43 F8400
