; generated by SuperSlicer 2.4 on 2023-01-19 at 03:56:30 UTC


;
;

;
;
; 

; external perimeters extrusion width = 0.42mm
; perimeters extrusion width = 0.45mm
; infill extrusion width = 0.45mm
; solid infill extrusion width = 0.45mm
; top infill extrusion width = 0.42mm
; first layer extrusion width = 0.62mm

; external perimeters extrusion width = 0.42mm
; perimeters extrusion width = 0.45mm
; infill extrusion width = 0.45mm
; solid infill extrusion width = 0.45mm
; top infill extrusion width = 0.42mm
; first layer extrusion width = 0.62mm

; external perimeters extrusion width = 0.42mm
; perimeters extrusion width = 0.45mm
; infill extrusion width = 0.45mm
; solid infill extrusion width = 0.45mm
; top infill extrusion width = 0.42mm
; first layer extrusion width = 0.62mm

; external perimeters extrusion width = 0.42mm
; perimeters extrusion width = 0.45mm
; infill extrusion width = 0.45mm
; solid infill extrusion width = 0.45mm
; top infill extrusion width = 0.42mm
; first layer extrusion width = 0.62mm

; object:{"name":"probe-heatset","id":"probe-heatset.stl id:0 copy 0","object_center":[128.895136,137.034803,0.000000],"boundingbox_center":[128.895136,137.034803,3.150000],"boundingbox_size":[19.881413,17.000000,6.300000]}
; object:{"name":"probe-heatset-XL","id":"probe-heatset-XL.stl id:1 copy 0","object_center":[128.812865,160.034803,0.000000],"boundingbox_center":[128.812865,160.034803,3.150000],"boundingbox_size":[19.881413,17.000000,6.300000]}
; object:{"name":"dock-front_insert","id":"dock-front_insert.stl id:2 copy 0","object_center":[162.884283,136.003229,0.000000],"boundingbox_center":[162.884283,136.003229,5.250005],"boundingbox_size":[36.485142,19.455113,10.500010]}
; object:{"name":"dock-front_insert","id":"dock-front_insert.stl id:3 copy 0","object_center":[162.881055,161.231806,0.000000],"boundingbox_center":[162.881055,161.231806,5.250005],"boundingbox_size":[36.255005,19.000000,10.500010]}
; plater:{"center":[149.999506,148.503739,0.000000],"boundingbox_center":[149.999506,148.503739,5.250005],"boundingbox_size":[62.254696,44.456134,10.500010]}

;TYPE:Custom
M104 S0 ; Stops SuperSlicer from sending temp waits separately

M140 S0

print_start EXTRUDER=248 BED=105 CHAMBER=0
G21 ; set units to millimeters
G90 ; use absolute coordinates
M83 ; use relative distances for extrusion
; Filament gcode
;_TOOLCHANGE 0
M107
;LAYER_CHANGE
;Z:0.2
;HEIGHT:0.2
TIMELAPSE_TAKE_FRAME
;BEFORE_LAYER_CHANGE
;0.2


G1 E-0.8 F3000
G1 Z0.3 F9000
;AFTER_LAYER_CHANGE
;0.2
G92 E0
G1 Z0.5
G1 X121.047 Y126.678
G1 Z0.2
G1 E0.8 F1800
;TYPE:Skirt
;WIDTH:0.52
G1 F1950
G1 X120.321 Y127.449 E0.042
G1 X119.89 Y128.374 E0.04047
G1 X116.272 Y141.945 E0.55716
G1 X116.19 Y152.684 E0.42604
G1 X116.241 Y155.503 E0.11183
G1 X119.808 Y168.696 E0.54214
G1 X120.023 Y169.253 E0.0237
G1 X120.586 Y170.055 E0.03886
G1 X121.483 Y170.713 E0.04414
G1 X121.999 Y170.912 E0.02193
G1 X122.62 Y171.021 E0.02502
G1 X147.608 Y173.321 E0.99543
G1 X178.055 Y173.325 E1.20783
G1 X178.866 Y173.262 E0.03226
G1 X180.462 Y172.948 E0.0645
G1 X181.275 Y172.491 E0.03702
G1 X181.667 Y171.491 E0.04262
G1 X181.79 Y145.114 E1.04635
G1 X181.536 Y125.487 E0.77867
G1 X181.211 Y124.575 E0.0384
G1 X180.283 Y124.033 E0.04262
G1 X177.999 Y123.718 E0.09149
G1 X147.459 Y124.114 E1.21158
G1 X122.724 Y126.047 E0.9842
G1 X122.081 Y126.157 E0.02589
G1 X121.566 Y126.357 E0.02193
G1 X121.098 Y126.647 E0.02182
G1 X121.322 Y127.072 F9000
G1 F1950
G1 X121.299 Y127.084 E0.00103
G1 X120.694 Y127.747 E0.0356
G1 X120.351 Y128.498 E0.03277
G1 X116.749 Y141.948 E0.55236
G1 X116.702 Y155.378 E0.53276
G1 X120.269 Y168.571 E0.54214
G1 X120.612 Y169.323 E0.03277
G1 X121.217 Y169.986 E0.0356
G1 X121.735 Y170.307 E0.0242
G1 X122.664 Y170.546 E0.03806
G1 X147.639 Y172.845 E0.99495
G1 X178.055 Y172.847 E1.20657
G1 X178.774 Y172.794 E0.0286
G1 X180.37 Y172.48 E0.0645
G1 X180.805 Y172.279 E0.01904
G1 X181.189 Y171.488 E0.03487
G1 X181.313 Y145.112 E1.04635
G1 X181.059 Y125.493 E0.77833
G1 X180.928 Y125.006 E0.02
G1 X180.207 Y124.504 E0.03487
G1 X177.974 Y124.195 E0.08943
G1 X147.496 Y124.589 E1.20912
G1 X122.762 Y126.522 E0.9842
G1 X122.168 Y126.626 E0.02391
G1 X121.375 Y127.044 E0.03555
G1 X121.623 Y127.444 F9000
G1 F1950
G1 X121.551 Y127.489 E0.0034
G1 X121.067 Y128.045 E0.02922
G1 X120.811 Y128.623 E0.02507
G1 X117.226 Y141.952 E0.54756
G1 X117.162 Y155.254 E0.52768
G1 X120.729 Y168.447 E0.54214
G1 X120.985 Y169.025 E0.02507
G1 X121.468 Y169.58 E0.02922
G1 X121.986 Y169.902 E0.0242
G1 X122.708 Y170.071 E0.0294
G1 X147.671 Y172.369 E0.99446
G1 X178.055 Y172.37 E1.20531
G1 X178.682 Y172.325 E0.02494
G1 X180.278 Y172.012 E0.0645
G1 X180.712 Y171.486 E0.02707
G1 X180.836 Y145.11 E1.04635
G1 X180.582 Y125.499 E0.778
G1 X180.13 Y124.975 E0.02747
G1 X177.949 Y124.671 E0.08738
G1 X147.534 Y125.065 E1.20665
G1 X122.799 Y126.998 E0.9842
G1 X122.069 Y127.168 E0.02973
G1 X121.674 Y127.412 E0.01841
G1 E-0.8 F3000
G1 Z0.5 F9000
G1 X146.537 Y151.649
G1 Z0.2
G1 E0.8 F1800
;WIDTH:0.62
G1 F1950
G1 X146.721 Y151.506 E0.01117
G1 X147.074 Y151.339 E0.01874
G1 X147.215 Y151.295 E0.00707
G1 X147.743 Y151.241 E0.0255
G1 X150.969 Y151.24 E0.15476
G1 X151.259 Y151.307 E0.0143
G1 X151.477 Y151.429 E0.01199
G1 X151.692 Y151.655 E0.01497
G1 X151.811 Y151.889 E0.01263
G1 X151.835 Y151.974 E0.00421
G1 X153.234 Y163.966 E0.57935
G1 X172.525 Y163.966 E0.92567
G1 X173.903 Y152.069 E0.5747
G1 X173.99 Y151.774 E0.01475
G1 X174.032 Y151.694 E0.00433
G1 X174.204 Y151.486 E0.01297
G1 X174.393 Y151.352 E0.01109
G1 X174.638 Y151.259 E0.0126
G1 X174.725 Y151.244 E0.0042
G1 X178.062 Y151.242 E0.16014
G1 X178.499 Y151.286 E0.02109
G1 X178.642 Y151.322 E0.00707
G1 X179.107 Y151.548 E0.02478
G1 X179.276 Y151.707 E0.01117
G1 X179.44 Y151.95 E0.01405
G1 X179.477 Y152.027 E0.00411
G1 X179.539 Y152.276 E0.01232
G1 X179.539 Y170.453 E0.8722
G1 X179.472 Y170.642 E0.00963
G1 X179.213 Y170.957 E0.01955
G1 X179.041 Y171.06 E0.00963
G1 X178.514 Y171.163 E0.02576
G1 X178.015 Y171.197 E0.024
G1 X147.747 Y171.197 E1.45237
G1 X147.248 Y171.163 E0.024
G1 X146.721 Y171.06 E0.02576
G1 X146.549 Y170.957 E0.00963
G1 X146.29 Y170.642 E0.01955
G1 X146.223 Y170.453 E0.00963
G1 X146.223 Y152.276 E0.8722
G1 X146.235 Y152.192 E0.00411
G1 X146.322 Y151.95 E0.01232
G1 X146.503 Y151.698 E0.01487
G1 X146.943 Y152.062 F9000
G1 F1950
G1 X147.002 Y152.011 E0.00374
G1 X147.298 Y151.871 E0.0157
G1 X147.345 Y151.858 E0.00236
G1 X147.751 Y151.818 E0.01957
G1 X150.91 Y151.814 E0.1516
G1 X150.949 Y151.82 E0.00188
G1 X151.064 Y151.851 E0.00573
G1 X151.136 Y151.896 E0.00402
G1 X151.231 Y152.004 E0.0069
G1 X151.267 Y152.084 E0.00424
G1 X152.72 Y164.543 E0.60189
G1 X173.039 Y164.543 E0.97498
G1 X174.474 Y152.151 E0.59863
G1 X174.481 Y152.121 E0.00148
G1 X174.521 Y152.003 E0.00595
G1 X174.576 Y151.931 E0.00435
G1 X174.691 Y151.848 E0.00682
G1 X174.775 Y151.821 E0.00423
G1 X175.325 Y151.814 E0.02636
G1 X178.011 Y151.818 E0.1289
G1 X178.417 Y151.858 E0.01956
G1 X178.464 Y151.871 E0.00236
G1 X178.76 Y152.011 E0.0157
G1 X178.819 Y152.062 E0.00374
G1 X178.937 Y152.237 E0.01014
G1 X178.962 Y152.319 E0.00413
G1 X178.962 Y170.353 E0.86534
G1 X178.831 Y170.513 E0.00993
G1 X178.43 Y170.592 E0.01962
G1 X178.411 Y170.594 E0.00088
G1 X178.01 Y170.62 E0.01931
G1 X147.752 Y170.62 E1.45191
G1 X147.351 Y170.594 E0.01931
G1 X147.332 Y170.592 E0.00088
G1 X146.931 Y170.513 E0.01962
G1 X146.8 Y170.353 E0.00993
G1 X146.8 Y152.319 E0.86534
G1 X146.825 Y152.237 E0.00413
G1 X146.909 Y152.111 E0.00726
G1 E-0.8 F3000
G1 Z0.5 F9000
G1 X139.309 Y152.774
G1 Z0.2
G1 E0.8 F1800
G1 F1950
G1 X139.31 Y154.952 E0.10451
G1 X139.29 Y155.103 E0.00732
G1 X135.785 Y168.068 E0.64445
G1 X135.7 Y168.287 E0.01124
G1 X135.64 Y168.395 E0.00595
G1 X135.509 Y168.564 E0.01023
G1 X135.402 Y168.665 E0.00709
G1 X135.216 Y168.785 E0.01061
G1 X135.016 Y168.862 E0.01031
G1 X134.761 Y168.9 E0.01235
G1 X133.779 Y168.906 E0.04713
G1 X133.341 Y168.93 E0.02106
G1 X132.784 Y169 E0.02693
G1 X124.843 Y169 E0.38104
G1 X124.286 Y168.93 E0.02693
G1 X123.848 Y168.906 E0.02106
G1 X122.84 Y168.899 E0.04836
G1 X122.611 Y168.862 E0.01113
G1 X122.411 Y168.785 E0.01031
G1 X122.225 Y168.665 E0.01061
G1 X122.117 Y168.564 E0.00709
G1 X122.01 Y168.429 E0.00825
G1 X121.926 Y168.287 E0.00793
G1 X121.842 Y168.068 E0.01124
G1 X118.337 Y155.103 E0.64445
G1 X118.317 Y154.952 E0.00731
G1 X118.318 Y152.761 E0.10515
G1 X118.369 Y152.448 E0.01524
G1 X118.423 Y152.308 E0.00715
G1 X118.529 Y152.118 E0.01046
G1 X118.683 Y151.941 E0.01127
G1 X118.879 Y151.799 E0.01158
G1 X119.05 Y151.726 E0.00894
G1 X119.366 Y151.669 E0.0154
G1 X123.839 Y151.664 E0.21463
G1 X124.281 Y151.638 E0.02127
G1 X124.841 Y151.571 E0.02704
G1 X132.837 Y151.573 E0.38369
G1 X133.397 Y151.643 E0.02708
G1 X133.837 Y151.668 E0.02116
G1 X138.382 Y151.68 E0.21808
G1 X138.545 Y151.718 E0.00805
G1 X138.732 Y151.795 E0.00969
G1 X138.927 Y151.925 E0.01124
G1 X139.059 Y152.065 E0.00921
G1 X139.133 Y152.174 E0.00636
G1 X139.218 Y152.342 E0.00902
G1 X139.273 Y152.509 E0.00845
G1 X139.301 Y152.715 E0.00994
G1 X138.73 Y152.763 F9000
G1 F1950
G1 X138.732 Y152.786 E0.00113
G1 X138.733 Y154.933 E0.10302
G1 X138.728 Y154.971 E0.00183
G1 X135.23 Y167.909 E0.64311
G1 X135.224 Y167.926 E0.00086
G1 X135.174 Y168.049 E0.0064
G1 X135.153 Y168.085 E0.00199
G1 X135.074 Y168.184 E0.00608
G1 X135.037 Y168.217 E0.00237
G1 X134.934 Y168.28 E0.00579
G1 X134.884 Y168.3 E0.00259
G1 X134.77 Y168.321 E0.00554
G1 X134.745 Y168.323 E0.00123
G1 X133.761 Y168.329 E0.04722
G1 X133.286 Y168.355 E0.02284
G1 X132.793 Y168.422 E0.02384
G1 X132.774 Y168.423 E0.00093
G1 X124.853 Y168.423 E0.38011
G1 X124.833 Y168.422 E0.00093
G1 X124.341 Y168.355 E0.02384
G1 X123.866 Y168.329 E0.02284
G1 X122.882 Y168.323 E0.04722
G1 X122.856 Y168.321 E0.00123
G1 X122.742 Y168.3 E0.00554
G1 X122.692 Y168.28 E0.00259
G1 X122.59 Y168.217 E0.00579
G1 X122.553 Y168.184 E0.00237
G1 X122.474 Y168.085 E0.00608
G1 X122.453 Y168.049 E0.00199
G1 X122.402 Y167.926 E0.0064
G1 X122.397 Y167.909 E0.00086
G1 X118.899 Y154.971 E0.64311
G1 X118.894 Y154.933 E0.00183
G1 X118.894 Y152.797 E0.10251
G1 X118.896 Y152.773 E0.00115
G1 X118.922 Y152.615 E0.00766
G1 X118.939 Y152.568 E0.00239
G1 X119.019 Y152.426 E0.00786
G1 X119.057 Y152.381 E0.00283
G1 X119.152 Y152.309 E0.00571
G1 X119.208 Y152.282 E0.00299
G1 X119.351 Y152.25 E0.00701
G1 X119.382 Y152.246 E0.00154
G1 X123.856 Y152.241 E0.21464
G1 X124.335 Y152.213 E0.02303
G1 X124.831 Y152.149 E0.02402
G1 X124.85 Y152.148 E0.00089
G1 X132.827 Y152.15 E0.38278
G1 X132.846 Y152.151 E0.00092
G1 X133.342 Y152.218 E0.02401
G1 X133.82 Y152.245 E0.02299
G1 X138.297 Y152.252 E0.21483
G1 X138.352 Y152.263 E0.00269
G1 X138.486 Y152.318 E0.00694
G1 X138.535 Y152.35 E0.00282
G1 X138.603 Y152.419 E0.00463
G1 X138.629 Y152.455 E0.00212
G1 X138.694 Y152.584 E0.0069
G1 X138.707 Y152.625 E0.00212
G1 X138.72 Y152.703 E0.00379
G1 E-0.8 F3000
G1 Z0.5 F9000
G1 X146.667 Y145.798
G1 Z0.2
G1 E0.8 F1800
G1 F1950
G1 X146.448 Y145.5 E0.01775
G1 X146.411 Y145.423 E0.00411
G1 X146.345 Y145.175 E0.01232
G1 X146.109 Y127 E0.8722
G1 X146.174 Y126.81 E0.00963
G1 X146.429 Y126.492 E0.01955
G1 X146.6 Y126.387 E0.00963
G1 X147.126 Y126.277 E0.02576
G1 X147.624 Y126.236 E0.024
G1 X177.898 Y125.844 E1.45282
G1 X178.304 Y125.866 E0.01949
G1 X178.903 Y125.963 E0.02914
G1 X179.081 Y126.063 E0.00977
G1 X179.351 Y126.376 E0.01985
G1 X179.423 Y126.567 E0.00977
G1 X179.659 Y144.743 E0.87227
G1 X179.647 Y144.828 E0.00411
G1 X179.563 Y145.071 E0.01232
G1 X179.352 Y145.375 E0.01775
G1 X179.171 Y145.521 E0.01117
G1 X178.82 Y145.692 E0.01874
G1 X178.679 Y145.737 E0.00707
G1 X178.195 Y145.796 E0.02344
G1 X174.922 Y145.844 E0.15707
G1 X174.689 Y145.799 E0.01136
G1 X174.435 Y145.68 E0.01349
G1 X174.248 Y145.51 E0.01213
G1 X174.129 Y145.333 E0.01023
G1 X174.035 Y145.083 E0.01278
G1 X172.493 Y133.145 E0.57759
G1 X153.204 Y133.395 E0.92564
G1 X151.981 Y145.316 E0.575
G1 X151.952 Y145.445 E0.00638
G1 X151.877 Y145.64 E0.01002
G1 X151.767 Y145.802 E0.00938
G1 X151.578 Y145.978 E0.01238
G1 X151.387 Y146.081 E0.01046
G1 X151.104 Y146.15 E0.01397
G1 X147.864 Y146.191 E0.15545
G1 X147.349 Y146.143 E0.02482
G1 X147.208 Y146.101 E0.00707
G1 X146.852 Y145.939 E0.01874
G1 X146.715 Y145.834 E0.00829
G1 X147.084 Y145.394 F9000
G1 F1950
G1 X147.068 Y145.38 E0.00101
G1 X146.947 Y145.207 E0.01014
G1 X146.921 Y145.125 E0.00413
G1 X146.687 Y127.092 E0.86534
G1 X146.817 Y126.931 E0.00993
G1 X147.217 Y126.847 E0.01962
G1 X147.235 Y126.844 E0.00088
G1 X147.636 Y126.813 E0.0193
G1 X177.892 Y126.421 E1.45191
G1 X178.234 Y126.439 E0.01647
G1 X178.71 Y126.517 E0.02313
G1 X178.847 Y126.676 E0.01008
G1 X179.081 Y144.708 E0.86533
G1 X179.057 Y144.791 E0.00413
G1 X178.941 Y144.967 E0.01014
G1 X178.883 Y145.019 E0.00374
G1 X178.589 Y145.162 E0.0157
G1 X178.541 Y145.176 E0.00236
G1 X178.136 Y145.222 E0.01956
G1 X174.943 Y145.267 E0.15323
G1 X174.885 Y145.256 E0.00285
G1 X174.769 Y145.207 E0.00602
G1 X174.703 Y145.153 E0.00407
G1 X174.627 Y145.039 E0.0066
G1 X174.603 Y144.976 E0.00321
G1 X173 Y132.562 E0.60065
G1 X152.683 Y132.825 E0.97498
G1 X151.408 Y145.24 E0.59887
G1 X151.401 Y145.273 E0.0016
G1 X151.37 Y145.362 E0.00454
G1 X151.335 Y145.418 E0.00314
G1 X151.253 Y145.5 E0.00561
G1 X151.19 Y145.538 E0.0035
G1 X151.077 Y145.571 E0.00566
G1 X151.038 Y145.576 E0.00188
G1 X147.879 Y145.614 E0.1516
G1 X147.473 Y145.579 E0.01957
G1 X147.425 Y145.566 E0.00236
G1 X147.13 Y145.432 E0.01555
G1 E-0.8 F3000
G1 Z0.5 F9000
G1 X139.386 Y144.345
G1 Z0.2
G1 E0.8 F1800
G1 F1950
G1 X139.356 Y144.559 E0.01039
G1 X139.309 Y144.707 E0.00742
G1 X139.137 Y145.009 E0.0167
G1 X139.01 Y145.142 E0.0088
G1 X138.814 Y145.278 E0.01147
G1 X138.647 Y145.347 E0.00866
G1 X138.373 Y145.399 E0.01336
G1 X133.879 Y145.405 E0.21567
G1 X133.435 Y145.428 E0.02133
G1 X132.91 Y145.49 E0.02537
G1 X132.375 Y145.5 E0.02568
G1 X125.419 Y145.5 E0.33377
G1 X124.881 Y145.49 E0.02581
G1 X124.356 Y145.428 E0.02537
G1 X123.912 Y145.405 E0.02133
G1 X119.448 Y145.4 E0.21421
G1 X119.321 Y145.386 E0.00615
G1 X119.074 Y145.323 E0.01224
G1 X118.908 Y145.238 E0.00894
G1 X118.765 Y145.129 E0.00862
G1 X118.645 Y145 E0.00847
G1 X118.505 Y144.761 E0.01327
G1 X118.439 Y144.574 E0.00953
G1 X118.404 Y144.356 E0.01058
G1 X118.399 Y142.117 E0.10743
G1 X118.419 Y141.966 E0.00731
G1 X121.924 Y129.001 E0.64445
G1 X122.009 Y128.783 E0.01124
G1 X122.092 Y128.64 E0.00793
G1 X122.2 Y128.506 E0.00825
G1 X122.307 Y128.405 E0.00709
G1 X122.493 Y128.285 E0.01061
G1 X122.693 Y128.207 E0.01031
G1 X122.925 Y128.17 E0.01126
G1 X124.942 Y128.168 E0.0968
G1 X126.429 Y128.146 E0.07133
G1 X131.882 Y128.147 E0.2617
G1 X132.88 Y128.17 E0.04786
G1 X134.959 Y128.178 E0.09977
G1 X135.134 Y128.221 E0.00864
G1 X135.419 Y128.357 E0.01518
G1 X135.579 Y128.49 E0.00997
G1 X135.699 Y128.64 E0.00922
G1 X135.782 Y128.783 E0.00793
G1 X135.867 Y129.001 E0.01124
G1 X139.372 Y141.966 E0.64445
G1 X139.392 Y142.117 E0.00731
G1 X139.391 Y144.285 E0.10403
G1 X138.815 Y144.273 F9000
G1 F1950
G1 X138.813 Y144.295 E0.00109
G1 X138.79 Y144.444 E0.00722
G1 X138.773 Y144.493 E0.00248
G1 X138.684 Y144.649 E0.00862
G1 X138.644 Y144.695 E0.00294
G1 X138.548 Y144.765 E0.00568
G1 X138.493 Y144.79 E0.0029
G1 X138.357 Y144.82 E0.0067
G1 X138.326 Y144.823 E0.00149
G1 X133.864 Y144.828 E0.21412
G1 X133.385 Y144.853 E0.023
G1 X132.877 Y144.914 E0.02456
G1 X132.369 Y144.923 E0.02436
G1 X125.422 Y144.923 E0.33339
G1 X124.914 Y144.914 E0.02436
G1 X124.406 Y144.853 E0.02456
G1 X123.927 Y144.828 E0.023
G1 X119.465 Y144.823 E0.21413
G1 X119.433 Y144.82 E0.00154
G1 X119.29 Y144.787 E0.00702
G1 X119.234 Y144.761 E0.00299
G1 X119.139 Y144.689 E0.00571
G1 X119.101 Y144.644 E0.00283
G1 X119.021 Y144.501 E0.00786
G1 X119.004 Y144.454 E0.00239
G1 X118.978 Y144.297 E0.00766
G1 X118.976 Y144.273 E0.00115
G1 X118.976 Y142.136 E0.10251
G1 X118.981 Y142.099 E0.00183
G1 X122.479 Y129.161 E0.64311
G1 X122.485 Y129.144 E0.00086
G1 X122.535 Y129.02 E0.0064
G1 X122.556 Y128.984 E0.00199
G1 X122.635 Y128.886 E0.00608
G1 X122.672 Y128.853 E0.00237
G1 X122.774 Y128.789 E0.00579
G1 X122.825 Y128.77 E0.00259
G1 X122.939 Y128.749 E0.00556
