; generated by SuperSlicer 2.4 on 2023-02-01 at 19:40:08 UTC


;
;

;
;
; 

; external perimeters extrusion width = 0.42mm
; perimeters extrusion width = 0.46mm
; infill extrusion width = 0.44mm
; solid infill extrusion width = 0.46mm
; top infill extrusion width = 0.44mm
; first layer extrusion width = 0.60mm

; external perimeters extrusion width = 0.42mm
; perimeters extrusion width = 0.46mm
; infill extrusion width = 0.44mm
; solid infill extrusion width = 0.46mm
; top infill extrusion width = 0.44mm
; first layer extrusion width = 0.60mm

; object:{"name":"Pulley_Jig_V02","id":"Pulley_Jig_V02.stl id:0 copy 0","object_center":[155.449836,137.448935,0.000000],"boundingbox_center":[155.449836,137.448935,3.000000],"boundingbox_size":[44.933426,38.300423,6.000000]}
; object:{"name":"BMG_Shaft_Mod_Spacer_x1","id":"BMG_Shaft_Mod_Spacer_x1.STL id:1 copy 0","object_center":[137.082145,166.701278,0.000000],"boundingbox_center":[137.082145,166.701278,1.400000],"boundingbox_size":[29.997391,30.000000,2.800000]}
; plater:{"center":[149.999999,150.000001,0.000000],"boundingbox_center":[149.999999,150.000001,3.000000],"boundingbox_size":[55.833099,63.402554,6.000000]}

;TYPE:Custom
M104 S0 ; Stops SuperSlicer from sending temp waits separately


; Pre-Processed for Cancel-Object support by preprocess_cancellation v0.2.0
; 2 known objects
EXCLUDE_OBJECT_DEFINE NAME=Pulley_Jig_V02_stl_id_0_copy_0 CENTER=156.908,138.258 POLYGON=[[133.193,118.509],[133.193,156.389],[177.707,156.389],[177.707,118.509]]
EXCLUDE_OBJECT_DEFINE NAME=BMG_Shaft_Mod_Spacer_x1_STL_id_1_copy_0 CENTER=137.082,166.609 POLYGON=[[122.294,151.911],[122.294,181.491],[151.871,181.491],[151.871,151.911]]

M140 S0

print_start EXTRUDER=245 BED=100 CHAMBER=0
M107
G21 ; set units to millimeters
G90 ; use absolute coordinates
M82 ; use absolute distances for extrusion
G92 E0
; Filament gcode
;_TOOLCHANGE 0
M107
;LAYER_CHANGE
;Z:0.3
;HEIGHT:0.3
TIMELAPSE_TAKE_FRAME
;BEFORE_LAYER_CHANGE
;0.3

G1 Z0.3 F7800
;AFTER_LAYER_CHANGE
;0.3
G1 E-0.8 F3000
G1 X132.016 Y119.314 F7800
G1 E0 F1800
;TYPE:Skirt
;WIDTH:0.44
G1 X131.002 Y120.65 E0.07861
G1 X126.097 Y129.35 E0.54651
G1 X125.655 Y130.319 E0.59641
G1 X115.244 Y159.688 E2.05624
G1 X114.823 Y161.167 E2.12827
G1 X114.411 Y163.221 E2.2264
G1 X114.229 Y164.748 E2.29843
G1 X114.146 Y166.841 E2.39657
G1 X114.207 Y168.377 E2.4686
G1 X114.455 Y170.457 E2.56673
G1 X115.066 Y173.135 E2.69544
G1 X115.436 Y174.288 E2.75217
G1 X116.219 Y176.231 E2.8503
G1 X117.508 Y178.657 E2.97901
G1 X118.166 Y179.674 E3.03574
G1 X119.428 Y181.345 E3.13387
G1 X121.306 Y183.351 E3.26258
G1 X122.89 Y184.721 E3.36071
G1 X123.861 Y185.445 E3.41745
G1 X126.197 Y186.891 E3.54615
G1 X128.084 Y187.8 E3.64428
G1 X129.21 Y188.245 E3.70101
G1 X131.525 Y188.955 E3.81444
G1 X134.225 Y189.46 E3.94314
G1 X135.43 Y189.579 E3.99987
G1 X137.524 Y189.634 E4.09801
G1 X140.263 Y189.417 E4.22671
G1 X141.457 Y189.217 E4.28344
G1 X143.493 Y188.724 E4.38158
G1 X145.779 Y187.926 E4.495
G1 X148.254 Y186.734 E4.6237
G1 X150.035 Y185.631 E4.72184
G1 X151.26 Y184.732 E4.79302
G1 X177.993 Y162.961 E6.40823
G1 X179.254 Y161.566 E6.49633
G1 X184.837 Y153.086 E6.972
G1 X185.464 Y151.852 E7.03686
G1 X185.857 Y149.671 E7.14067
G1 X185.841 Y141.958 E7.50199
G1 X185.611 Y140.297 E7.58055
G1 X180.678 Y122.737 E8.4351
G1 X180.098 Y121.223 E8.51103
G1 X178.797 Y119.256 E8.62151
G1 X172.51 Y112.852 E9.04196
G1 X171.189 Y111.828 E9.12028
G1 X170.104 Y111.202 E9.17896
G1 X167.013 Y110.373 E9.32887
G1 X144.229 Y110.361 E10.39632
G1 X142.624 Y110.572 E10.47215
G1 X141.676 Y110.825 E10.51811
G1 X138.902 Y112.427 E10.66817
G1 X132.059 Y119.271 E11.12161
G92 E0
G1 E-0.8 F3000
G1 X135.4 Y150.69 F7800
G1 E0 F1800
;WIDTH:0.604
G1 X136.247 Y150.624 E0.0572
G1 X137.097 Y150.602 E0.1144
G1 X137.932 Y150.625 E0.17063
G1 X138.779 Y150.692 E0.22782
G1 X139.621 Y150.804 E0.28503
G1 X140.457 Y150.96 E0.34223
G1 X141.269 Y151.156 E0.39848
G1 X142.084 Y151.399 E0.45568
G1 X142.884 Y151.684 E0.51288
G1 X143.662 Y152.008 E0.56961
G1 X144.467 Y152.396 E0.62972
G1 X145.206 Y152.802 E0.68645
G1 X145.934 Y153.254 E0.74414
G1 X146.625 Y153.736 E0.80085
G1 X147.296 Y154.257 E0.85806
G1 X147.928 Y154.804 E0.9143
G1 X148.541 Y155.393 E0.97151
G1 X149.122 Y156.014 E1.02871
G1 X149.66 Y156.652 E1.08494
G1 X150.173 Y157.33 E1.14212
G1 X150.645 Y158.028 E1.19885
G1 X151.087 Y158.762 E1.25653
G1 X151.484 Y159.506 E1.31326
G1 X151.861 Y160.316 E1.37337
G1 X152.175 Y161.098 E1.4301
G1 X152.449 Y161.902 E1.4873
G1 X152.681 Y162.72 E1.5445
G1 X152.869 Y163.549 E1.60171
G1 X153.014 Y164.386 E1.6589
G1 X153.113 Y165.216 E1.71513
G1 X153.169 Y166.064 E1.77233
G1 X153.18 Y166.914 E1.82953
G1 X153.146 Y167.763 E1.88674
G1 X153.069 Y168.595 E1.94298
G1 X152.947 Y169.436 E2.00018
G1 X152.782 Y170.262 E2.0569
G1 X152.571 Y171.093 E2.11458
G1 X152.319 Y171.898 E2.17132
G1 X152.008 Y172.735 E2.23143
G1 X151.672 Y173.507 E2.28815
G1 X151.292 Y174.268 E2.34536
G1 X150.88 Y174.995 E2.4016
G1 X150.423 Y175.712 E2.45881
G1 X149.929 Y176.403 E2.51601
G1 X149.399 Y177.068 E2.57321
G1 X148.845 Y177.693 E2.62944
G1 X148.249 Y178.298 E2.68663
G1 X147.621 Y178.871 E2.74384
G1 X146.964 Y179.411 E2.80104
G1 X146.28 Y179.914 E2.85824
G1 X145.576 Y180.378 E2.91497
G1 X144.804 Y180.827 E2.97508
G1 X144.054 Y181.212 E3.03182
G1 X143.272 Y181.563 E3.08949
G1 X142.486 Y181.866 E3.14621
G1 X141.678 Y182.13 E3.20342
G1 X140.857 Y182.351 E3.26062
G1 X140.04 Y182.526 E3.31686
G1 X139.215 Y182.658 E3.37309
G1 X138.37 Y182.749 E3.43028
G1 X137.522 Y182.794 E3.48748
G1 X136.679 Y182.795 E3.54421
G1 X135.787 Y182.748 E3.60432
G1 X134.949 Y182.658 E3.66105
G1 X134.103 Y182.522 E3.71874
G1 X133.279 Y182.345 E3.77546
G1 X132.459 Y182.122 E3.83266
G1 X131.651 Y181.857 E3.88985
G1 X130.872 Y181.555 E3.94608
G1 X130.11 Y181.212 E4.00232
G1 X129.354 Y180.824 E4.05952
G1 X128.619 Y180.397 E4.11673
G1 X127.914 Y179.935 E4.17345
G1 X127.195 Y179.406 E4.23356
G1 X126.543 Y178.871 E4.2903
G1 X125.91 Y178.293 E4.34798
G1 X125.319 Y177.693 E4.4047
G1 X124.755 Y177.057 E4.4619
G1 X124.226 Y176.392 E4.51909
G1 X123.741 Y175.712 E4.57532
G1 X123.291 Y175.007 E4.63156
G1 X122.872 Y174.268 E4.68877
G1 X122.493 Y173.507 E4.74597
G1 X122.156 Y172.735 E4.80269
G1 X121.856 Y171.932 E4.86037
G1 X121.602 Y171.121 E4.91758
G1 X121.39 Y170.298 E4.97478
G1 X121.223 Y169.472 E5.03151
G1 X121.098 Y168.624 E5.08918
G1 X121.02 Y167.785 E5.14592
G1 X120.984 Y166.892 E5.20603
G1 X120.996 Y166.049 E5.26276
G1 X121.053 Y165.202 E5.31994
G1 X121.152 Y164.372 E5.37618
G1 X121.298 Y163.535 E5.43338
G1 X121.483 Y162.72 E5.48962
G1 X121.715 Y161.902 E5.54683
G1 X121.99 Y161.098 E5.60402
G1 X122.304 Y160.316 E5.66075
G1 X122.664 Y159.538 E5.71843
G1 X123.059 Y158.794 E5.77516
G1 X123.519 Y158.028 E5.83527
G1 X123.992 Y157.33 E5.892
G1 X124.504 Y156.652 E5.9492
G1 X125.052 Y156.003 E6.00641
G1 X125.634 Y155.383 E6.06361
G1 X126.247 Y154.794 E6.12082
G1 X126.89 Y154.239 E6.178
G1 X127.551 Y153.727 E6.23424
G1 X128.249 Y153.242 E6.29143
G1 X128.971 Y152.795 E6.34864
G1 X129.704 Y152.393 E6.40488
G1 X130.469 Y152.023 E6.46208
G1 X131.246 Y151.697 E6.51881
G1 X132.087 Y151.397 E6.57892
G1 X132.895 Y151.156 E6.63566
G1 X133.728 Y150.955 E6.69334
G1 X134.557 Y150.801 E6.75005
G1 X135.34 Y150.698 E6.80322
G1 X135.411 Y151.233 F7800
G1 F1800
G1 X135.449 Y151.228 E6.80582
G1 X136.268 Y151.163 E6.86111
G1 X137.089 Y151.142 E6.9164
G1 X137.896 Y151.163 E6.97072
G1 X138.715 Y151.228 E7.02601
G1 X139.529 Y151.336 E7.0813
G1 X140.337 Y151.486 E7.13658
G1 X141.135 Y151.679 E7.19187
G1 X141.923 Y151.914 E7.24716
G1 X142.696 Y152.19 E7.30244
G1 X143.448 Y152.504 E7.35725
G1 X144.213 Y152.872 E7.41445
G1 X144.927 Y153.264 E7.46926
G1 X145.631 Y153.701 E7.52503
G1 X146.3 Y154.166 E7.57983
G1 X146.949 Y154.67 E7.63512
G1 X147.57 Y155.208 E7.6904
G1 X148.162 Y155.777 E7.74569
G1 X148.723 Y156.377 E7.80098
G1 X149.243 Y156.995 E7.85531
G1 X149.738 Y157.65 E7.91059
G1 X150.194 Y158.324 E7.9654
G1 X150.621 Y159.034 E8.02117
G1 X151.004 Y159.753 E8.07597
G1 X151.363 Y160.524 E8.13317
G1 X151.666 Y161.279 E8.18798
G1 X151.932 Y162.056 E8.24327
G1 X152.157 Y162.847 E8.29856
G1 X152.339 Y163.648 E8.35384
G1 X152.479 Y164.457 E8.40913
G1 X152.575 Y165.259 E8.46346
G1 X152.629 Y166.078 E8.51874
G1 X152.64 Y166.9 E8.57403
G1 X152.608 Y167.72 E8.62932
G1 X152.533 Y168.538 E8.6846
G1 X152.414 Y169.351 E8.73989
G1 X152.255 Y170.15 E8.7947
G1 X152.05 Y170.952 E8.85046
G1 X151.807 Y171.73 E8.90527
G1 X151.51 Y172.526 E8.96247
G1 X151.186 Y173.273 E9.01728
G1 X150.819 Y174.008 E9.07257
G1 X150.414 Y174.723 E9.12785
G1 X149.972 Y175.415 E9.18314
G1 X149.495 Y176.084 E9.23843
G1 X148.982 Y176.726 E9.29371
G1 X148.446 Y177.329 E9.34804
G1 X147.869 Y177.914 E9.40333
G1 X147.263 Y178.468 E9.45861
G1 X146.627 Y178.989 E9.5139
G1 X145.966 Y179.475 E9.56919
G1 X145.285 Y179.923 E9.62399
G1 X144.551 Y180.351 E9.6812
G1 X143.827 Y180.723 E9.73601
G1 X143.071 Y181.062 E9.79177
G1 X142.311 Y181.356 E9.84658
G1 X141.53 Y181.611 E9.90187
G1 X140.737 Y181.825 E9.95715
G1 X139.934 Y181.997 E10.01244
G1 X139.137 Y182.124 E10.06677
G1 X138.32 Y182.211 E10.12205
G1 X137.5 Y182.255 E10.17733
G1 X136.686 Y182.256 E10.23214
G1 X135.837 Y182.211 E10.28935
G1 X135.027 Y182.124 E10.34415
G1 X134.209 Y181.993 E10.39992
G1 X133.413 Y181.822 E10.45473
G1 X132.62 Y181.607 E10.51001
G1 X131.84 Y181.351 E10.5653
G1 X131.087 Y181.059 E10.61963
G1 X130.338 Y180.723 E10.67491
G1 X129.607 Y180.347 E10.7302
G1 X128.897 Y179.934 E10.78549
G1 X128.216 Y179.488 E10.8403
G1 X127.531 Y178.984 E10.8975
G1 X126.902 Y178.468 E10.95231
G1 X126.29 Y177.909 E11.00807
G1 X125.718 Y177.329 E11.06288
G1 X125.173 Y176.715 E11.11816
G1 X124.661 Y176.072 E11.17345
G1 X124.192 Y175.415 E11.22778
G1 X123.75 Y174.723 E11.28306
G1 X123.345 Y174.008 E11.33835
G1 X122.979 Y173.273 E11.39364
G1 X122.654 Y172.526 E11.44845
G1 X122.365 Y171.75 E11.50421
G1 X122.119 Y170.966 E11.5595
G1 X121.914 Y170.171 E11.61478
G1 X121.754 Y169.372 E11.66959
G1 X121.633 Y168.552 E11.72536
G1 X121.558 Y167.742 E11.78016
G1 X121.524 Y166.892 E11.83737
G1 X121.535 Y166.078 E11.89217
G1 X121.59 Y165.259 E11.94746
G1 X121.685 Y164.457 E12.00179
G1 X121.825 Y163.648 E12.05708
G1 X122.008 Y162.847 E12.11236
G1 X122.232 Y162.056 E12.16765
G1 X122.498 Y161.279 E12.22293
G1 X122.802 Y160.524 E12.27774
G1 X123.151 Y159.772 E12.33351
G1 X123.532 Y159.053 E12.38831
G1 X123.97 Y158.324 E12.44552
G1 X124.426 Y157.65 E12.50033
G1 X124.922 Y156.995 E12.55561
G1 X125.451 Y156.366 E12.6109
G1 X126.013 Y155.767 E12.66619
G1 X126.605 Y155.198 E12.72147
G1 X127.227 Y154.661 E12.77676
G1 X127.864 Y154.166 E12.83109
G1 X128.539 Y153.697 E12.88637
G1 X129.237 Y153.264 E12.94166
G1 X129.957 Y152.869 E12.99694
G1 X130.697 Y152.512 E13.05223
G1 X131.448 Y152.198 E13.10704
G1 X132.249 Y151.912 E13.16424
G1 X133.029 Y151.679 E13.21905
G1 X133.834 Y151.485 E13.27481
G1 X134.635 Y151.336 E13.32962
G1 X135.351 Y151.241 E13.37827
G1 X135.422 Y151.775 F7800
G1 F1800
G1 X135.503 Y151.765 E13.38371
G1 X136.293 Y151.702 E13.43708
G1 X137.086 Y151.681 E13.49045
G1 X137.878 Y151.703 E13.54382
G1 X138.662 Y151.765 E13.59671
G1 X139.448 Y151.869 E13.65008
G1 X140.227 Y152.014 E13.70345
G1 X140.998 Y152.201 E13.75682
G1 X141.758 Y152.428 E13.81018
G1 X142.505 Y152.694 E13.86355
G1 X143.236 Y153 E13.91692
G1 X143.951 Y153.344 E13.97029
G1 X144.646 Y153.725 E14.02366
G1 X145.32 Y154.142 E14.07703
G1 X145.977 Y154.599 E14.13088
G1 X146.604 Y155.085 E14.18425
G1 X147.204 Y155.604 E14.23762
G1 X147.775 Y156.154 E14.29099
G1 X148.317 Y156.733 E14.34435
G1 X148.827 Y157.339 E14.39772
G1 X149.305 Y157.972 E14.45109
G1 X149.749 Y158.629 E14.50446
G1 X150.154 Y159.303 E14.55735
G1 X150.526 Y160.003 E14.61072
G1 X150.861 Y160.722 E14.66409
G1 X151.159 Y161.464 E14.71794
G1 X151.416 Y162.214 E14.77131
G1 X151.633 Y162.977 E14.82468
G1 X151.809 Y163.75 E14.87805
G1 X151.944 Y164.532 E14.93141
G1 X152.038 Y165.312 E14.98431
G1 X152.09 Y166.103 E15.03767
G1 X152.101 Y166.896 E15.09104
G1 X152.07 Y167.688 E15.14441
G1 X151.997 Y168.478 E15.19778
G1 X151.882 Y169.263 E15.25115
G1 X151.726 Y170.04 E15.30452
G1 X151.53 Y170.808 E15.35789
G1 X151.29 Y171.572 E15.41174
G1 X151.014 Y172.315 E15.46511
G1 X150.698 Y173.042 E15.51848
G1 X150.344 Y173.752 E15.57184
G1 X149.954 Y174.442 E15.62521
G1 X149.527 Y175.111 E15.67858
G1 X149.066 Y175.756 E15.73195
G1 X148.572 Y176.375 E15.78532
G1 X148.05 Y176.963 E15.83821
G1 X147.493 Y177.528 E15.89158
G1 X146.907 Y178.062 E15.94495
G1 X146.294 Y178.565 E15.99832
G1 X145.655 Y179.034 E16.05169
G1 X144.992 Y179.47 E16.10506
G1 X144.307 Y179.869 E16.15843
G1 X143.602 Y180.232 E16.2118
G1 X142.879 Y180.557 E16.26516
G1 X142.14 Y180.844 E16.31853
G1 X141.386 Y181.091 E16.3719
G1 X140.621 Y181.298 E16.42527
G1 X139.846 Y181.465 E16.47864
G1 X139.055 Y181.591 E16.53249
G1 X138.267 Y181.674 E16.58586
G1 X137.475 Y181.716 E16.63923
G1 X136.689 Y181.716 E16.69212
G1 X135.897 Y181.674 E16.74549
G1 X135.109 Y181.591 E16.79885
G1 X134.326 Y181.466 E16.85223
G1 X133.55 Y181.3 E16.90559
G1 X132.785 Y181.093 E16.95896
G1 X132.025 Y180.844 E17.01281
G1 X131.285 Y180.557 E17.06618
G1 X130.562 Y180.232 E17.11955
G1 X129.857 Y179.869 E17.17292
G1 X129.178 Y179.473 E17.22581
G1 X128.515 Y179.038 E17.27918
G1 X127.876 Y178.569 E17.33255
G1 X127.263 Y178.067 E17.38591
G1 X126.676 Y177.533 E17.43928
G1 X126.119 Y176.968 E17.49265
G1 X125.593 Y176.375 E17.54602
G1 X125.098 Y175.756 E17.59939
G1 X124.637 Y175.111 E17.65276
G1 X124.207 Y174.436 E17.70661
G1 X123.817 Y173.746 E17.75998
G1 X123.463 Y173.036 E17.81335
G1 X123.148 Y172.308 E17.86672
G1 X122.872 Y171.565 E17.92009
G1 X122.635 Y170.808 E17.97346
G1 X122.438 Y170.04 E18.02682
G1 X122.284 Y169.27 E18.07972
G1 X122.169 Y168.485 E18.13308
G1 X122.095 Y167.695 E18.18645
G1 X122.064 Y166.903 E18.23982
G1 X122.074 Y166.103 E18.29367
G1 X122.127 Y165.312 E18.34704
G1 X122.221 Y164.525 E18.40041
G1 X122.356 Y163.743 E18.45378
G1 X122.533 Y162.97 E18.50715
G1 X122.75 Y162.208 E18.56051
G1 X123.007 Y161.458 E18.61388
G1 X123.304 Y160.722 E18.66725
G1 X123.635 Y160.01 E18.72014
G1 X124.007 Y159.309 E18.77351
G1 X124.416 Y158.629 E18.82688
G1 X124.859 Y157.972 E18.88025
G1 X125.337 Y157.339 E18.93362
G1 X125.847 Y156.733 E18.98699
G1 X126.389 Y156.154 E19.04036
G1 X126.961 Y155.604 E19.09373
G1 X127.56 Y155.085 E19.1471
G1 X128.187 Y154.599 E19.20047
G1 X128.838 Y154.146 E19.25383
G1 X129.518 Y153.725 E19.30768
G1 X130.214 Y153.344 E19.36105
G1 X130.928 Y153 E19.41442
G1 X131.653 Y152.697 E19.46731
G1 X132.4 Y152.43 E19.52068
G1 X133.159 Y152.203 E19.57405
G1 X133.93 Y152.016 E19.62742
G1 X134.709 Y151.87 E19.68079
G1 X135.363 Y151.783 E19.72516
G92 E0
G1 E-0.8 F3000
G1 X135.366 Y140.696 F7800
G1 E0 F1800
G1 X133.495 Y140.696 E0.12592
G1 X133.275 Y140.664 E0.14088
G1 X132.807 Y140.514 E0.17396
G1 X132.518 Y140.321 E0.19734
G1 X132.153 Y139.923 E0.23365
G1 X132.003 Y139.62 E0.25642
G1 X131.916 Y139.297 E0.27894
G1 X131.884 Y139.052 E0.29557
G1 X131.884 Y133.546 E0.66615
G1 X131.919 Y133.291 E0.68347
G1 X132.068 Y132.823 E0.71656
G1 X132.261 Y132.534 E0.73994
G1 X132.659 Y132.169 E0.77625
G1 X132.965 Y132.018 E0.79921
G1 X133.326 Y131.924 E0.8243
G1 X133.533 Y131.9 E0.83836
G1 X136.789 Y131.9 E1.0575
G1 X136.789 Y124.846 E1.53226
G1 X136.824 Y124.591 E1.54959
G1 X136.973 Y124.123 E1.58267
G1 X137.166 Y123.834 E1.60606
G1 X137.564 Y123.469 E1.64237
G1 X137.878 Y123.315 E1.66593
G1 X138.324 Y123.21 E1.69674
G1 X142.789 Y123.2 E1.99729
G1 X142.794 Y118.766 E2.29572
G1 X142.824 Y118.588 E2.30791
G1 X142.973 Y118.122 E2.34079
G1 X143.166 Y117.834 E2.36417
G1 X143.564 Y117.469 E2.40048
G1 X143.867 Y117.318 E2.42325
G1 X144.19 Y117.232 E2.44578
G1 X144.436 Y117.2 E2.46244
G1 X166.58 Y117.212 E3.95288
G1 X166.994 Y117.313 E3.98154
G1 X167.065 Y117.343 E3.98673
G1 X167.525 Y117.636 E4.02342
G1 X167.749 Y117.89 E4.04619
G1 X167.929 Y118.203 E4.0705
G1 X168.037 Y118.504 E4.09205
G1 X168.082 Y118.866 E4.1166
G1 X168.082 Y123.2 E4.4083
G1 X172.433 Y123.2 E4.70114
G1 X172.641 Y123.224 E4.71521
