; generated by SuperSlicer 2.4 on 2023-02-04 at 05:39:55 UTC


;
;

;
;
; 

; external perimeters extrusion width = 0.43mm
; perimeters extrusion width = 0.45mm
; infill extrusion width = 0.45mm
; solid infill extrusion width = 0.44mm
; top infill extrusion width = 0.44mm
; support material extrusion width = 0.42mm
; first layer extrusion width = 0.56mm

; object:{"name":"Rail Centering Clamp 14","id":"Rail Centering Clamp 14.40 mm_x2.stl id:0 copy 0","object_center":[150.000000,148.500000,0.000000],"boundingbox_center":[150.000000,148.500000,10.000000],"boundingbox_size":[20.599999,19.242847,20.000000]}
; plater:{"center":[150.000000,148.500000,0.000000],"boundingbox_center":[150.000000,148.500000,10.000000],"boundingbox_size":[20.599999,19.242847,20.000000]}

;TYPE:Custom
M104 S0 ; Stops SuperSlicer from sending temp waits separately


; Pre-Processed for Cancel-Object support by preprocess_cancellation v0.2.0
; 1 known objects
EXCLUDE_OBJECT_DEFINE NAME=Rail_Centering_Clamp_14_40_mm_x2_stl_id_0_copy_0 CENTER=149.858,152.177 POLYGON=[[139.916,139.095],[139.916,157.905],[160.084,157.905],[160.084,139.095]]

M140 S0

print_start EXTRUDER=245 BED=105 CHAMBER=50
M107
G21 ; set units to millimeters
G90 ; use absolute coordinates
M83 ; use relative distances for extrusion
; Filament gcode
; Macro syntax: https://help.prusa3d.com/article/macros_1775

; Set pressure advance per-filament
;SET_PRESSURE_ADVANCE ADVANCE=0.0x

; Set pressure advance per-filament for different nozzle sizes
;SET_PRESSURE_ADVANCE ADVANCE=0.0x
;

;_TOOLCHANGE 0
M107
;LAYER_CHANGE
;Z:0.2
;HEIGHT:0.2
TIMELAPSE_TAKE_FRAME
;BEFORE_LAYER_CHANGE
;0.2


G1 Z0.2 F8700
;AFTER_LAYER_CHANGE
;0.2
G92 E0
G1 E-0.8 F3000
G1 Z1 F8700
G1 X136.752 Y136.738
G1 Z0.2
G1 E0.8 F1800
;TYPE:Skirt
;WIDTH:0.52
G1 X136.103 Y137.938 E0.05002
G1 X135.857 Y139.345 E0.05233
G1 X135.853 Y153.254 E0.50983
G1 X135.93 Y154.08 E0.03042
G1 X136.259 Y155.195 E0.04259
G1 X136.665 Y155.943 E0.03122
G1 X137.153 Y156.56 E0.02883
G1 X141.26 Y160.809 E0.2166
G1 X141.976 Y161.314 E0.03211
G1 X142.716 Y161.663 E0.03
G1 X143.69 Y161.91 E0.03683
G1 X144.406 Y161.968 E0.02634
G1 X155.595 Y161.968 E0.41012
G1 X156.854 Y161.799 E0.04654
G1 X157.963 Y161.344 E0.04393
G1 X159.039 Y160.53 E0.04947
G1 X162.866 Y156.532 E0.20287
G1 X163.462 Y155.738 E0.03638
G1 X163.86 Y154.897 E0.03411
G1 X164.115 Y153.772 E0.04229
G1 X164.147 Y139.387 E0.52727
G1 X164.09 Y138.704 E0.0251
G1 X163.605 Y137.286 E0.05495
G1 X162.641 Y136.097 E0.05612
G1 X160.805 Y135.159 E0.07557
G1 X159.788 Y135.032 E0.03759
G1 X140.173 Y135.036 E0.71896
G1 X138.231 Y135.517 E0.07336
G1 X136.799 Y136.7 E0.06808
G1 X137.129 Y137.031 F8700
G1 F1800
G1 X136.554 Y138.093 E0.04427
G1 X136.334 Y139.345 E0.04658
G1 X136.33 Y153.254 E0.50983
G1 X136.402 Y154.01 E0.02782
G1 X136.7 Y155.011 E0.03827
G1 X137.066 Y155.684 E0.02811
G1 X137.498 Y156.23 E0.02551
G1 X141.573 Y160.449 E0.21502
G1 X142.222 Y160.905 E0.02904
G1 X142.877 Y161.214 E0.02655
G1 X143.751 Y161.437 E0.03309
G1 X144.406 Y161.491 E0.02409
G1 X155.595 Y161.491 E0.41012
G1 X156.723 Y161.34 E0.04172
G1 X157.72 Y160.933 E0.03948
G1 X158.694 Y160.2 E0.04467
G1 X162.522 Y156.202 E0.20287
G1 X163.049 Y155.499 E0.03219
G1 X163.409 Y154.741 E0.03077
G1 X163.641 Y153.712 E0.03866
G1 X163.62 Y138.783 E0.54723
G1 X163.186 Y137.513 E0.0492
G1 X162.332 Y136.461 E0.04966
G1 X160.688 Y135.621 E0.06767
G1 X159.788 Y135.509 E0.03326
G1 X140.173 Y135.513 E0.71895
G1 X138.441 Y135.945 E0.06543
G1 X137.175 Y136.993 E0.06023
G1 X137.541 Y137.278 F8700
G1 F1800
G1 X137.005 Y138.248 E0.04064
G1 X136.811 Y139.345 E0.04083
G1 X136.807 Y153.254 E0.50983
G1 X136.874 Y153.939 E0.02522
G1 X137.14 Y154.827 E0.03396
G1 X137.467 Y155.425 E0.02501
G1 X137.842 Y155.9 E0.0222
G1 X141.887 Y160.09 E0.21344
G1 X142.467 Y160.495 E0.02596
G1 X143.037 Y160.765 E0.0231
G1 X143.812 Y160.964 E0.02935
G1 X144.406 Y161.014 E0.02185
G1 X155.595 Y161.014 E0.41012
G1 X156.593 Y160.881 E0.03689
G1 X157.478 Y160.522 E0.03502
G1 X158.349 Y159.87 E0.03988
G1 X162.177 Y155.872 E0.20287
G1 X162.636 Y155.261 E0.02801
G1 X162.958 Y154.586 E0.02742
G1 X163.146 Y153.832 E0.02846
G1 X163.193 Y153.256 E0.02118
G1 X163.193 Y139.387 E0.50838
G1 X163.137 Y138.789 E0.02201
G1 X162.766 Y137.74 E0.04079
G1 X161.961 Y136.771 E0.04617
G1 X160.571 Y136.083 E0.05684
G1 X159.788 Y135.986 E0.02894
G1 X140.173 Y135.99 E0.71895
G1 X138.765 Y136.318 E0.05302
G1 X137.589 Y137.241 E0.05479
G1 X137.918 Y137.571 F8700
G1 F1800
G1 X137.457 Y138.403 E0.03488
G1 X137.288 Y139.345 E0.03508
G1 X137.284 Y153.254 E0.50983
G1 X137.346 Y153.868 E0.02262
G1 X137.58 Y154.643 E0.02964
G1 X138.187 Y155.57 E0.04064
G1 X142.2 Y159.73 E0.21186
G1 X143.197 Y160.315 E0.04238
G1 X144.406 Y160.537 E0.04507
G1 X155.595 Y160.537 E0.41012
G1 X156.463 Y160.422 E0.03207
G1 X157.236 Y160.111 E0.03057
G1 X158.005 Y159.54 E0.03509
G1 X161.833 Y155.542 E0.20287
G1 X162.223 Y155.022 E0.02382
G1 X162.507 Y154.43 E0.02408
G1 X162.716 Y153.256 E0.0437
G1 X162.716 Y139.387 E0.50838
G1 X162.667 Y138.868 E0.01912
G1 X162.346 Y137.967 E0.03503
G1 X161.652 Y137.135 E0.03971
G1 X160.454 Y136.546 E0.04894
G1 X159.788 Y136.463 E0.02461
G1 X140.173 Y136.467 E0.71894
G1 X138.975 Y136.746 E0.04509
G1 X137.965 Y137.534 E0.04695
G1 X138.294 Y137.864 F8700
G1 F1800
G1 X137.908 Y138.558 E0.02913
G1 X137.766 Y139.345 E0.02933
G1 X137.761 Y153.254 E0.50983
G1 X137.818 Y153.798 E0.02002
G1 X138.02 Y154.459 E0.02532
G1 X138.531 Y155.241 E0.03425
G1 X142.513 Y159.37 E0.21028
G1 X143.357 Y159.866 E0.03588
G1 X144.406 Y160.06 E0.03911
G1 X155.595 Y160.06 E0.41012
G1 X156.332 Y159.963 E0.02725
G1 X156.994 Y159.7 E0.02612
G1 X157.66 Y159.21 E0.03029
G1 X161.488 Y155.212 E0.20287
G1 X161.809 Y154.784 E0.01964
G1 X162.056 Y154.275 E0.02073
G1 X162.239 Y153.256 E0.03792
G1 X162.239 Y139.387 E0.50838
G1 X162.196 Y138.946 E0.01623
G1 X161.927 Y138.194 E0.02928
G1 X161.344 Y137.499 E0.03326
G1 X160.337 Y137.008 E0.04105
G1 X159.788 Y136.94 E0.02029
G1 X140.174 Y136.944 E0.71894
G1 X139.186 Y137.174 E0.03717
G1 X138.342 Y137.827 E0.03911
M104 S245 ; set temperature
G1 E-0.8 F3000
G1 Z1 F8700
; printing object Rail Centering Clamp 14.40 mm_x2.stl id:0 copy 0
EXCLUDE_OBJECT_START NAME=Rail_Centering_Clamp_14_40_mm_x2_stl_id_0_copy_0
G1 X147.523 Y157.024
G1 Z0.2
G1 E0.8 F1800
;TYPE:Internal perimeter
;WIDTH:0.56
G1 X148.068 Y156.521 E0.02948
G1 X148.283 Y156.219 E0.01473
G1 X151.71 Y156.224 E0.13617
G1 X152.035 Y156.625 E0.02049
G1 X152.512 Y157.024 E0.0247
G1 X147.583 Y157.024 E0.19582
G1 E-0.8 F3000
G1 Z1 F8700
G1 X156.127 Y154.602
G1 Z0.2
G1 E0.8 F1800
G1 X155.729 Y153.733 E0.03799
G1 X155.573 Y153.545 E0.00971
G1 X155.778 Y153.282 E0.01325
G1 X156.438 Y153.601 E0.02911
G1 X156.998 Y153.715 E0.0227
G1 X156.446 Y154.229 E0.02996
G1 X156.166 Y154.557 E0.01712
G1 X154.597 Y152.22 F8700
G1 F1800
G1 X155.505 Y152.219 E0.03605
G1 X155.756 Y152.549 E0.0165
G1 X156.178 Y152.901 E0.02182
G1 X156.605 Y153.107 E0.01884
G1 X157.153 Y153.219 E0.02222
G1 X157.618 Y153.2 E0.01847
G1 X158.102 Y153.065 E0.01997
G1 X158.554 Y152.81 E0.02063
G1 X159.203 Y152.193 E0.03558
G1 X159.203 Y153.186 E0.03948
G1 X158.983 Y153.25 E0.00909
G1 X158.46 Y153.444 E0.02215
G1 X157.947 Y153.703 E0.02284
G1 X157.477 Y154.011 E0.02233
G1 X157.231 Y154.205 E0.01243
G1 X156.82 Y154.588 E0.02233
G1 X156.454 Y155.015 E0.02233
G1 X156.272 Y155.269 E0.01243
G1 X155.99 Y155.74 E0.02183
G1 X155.852 Y156.022 E0.01243
G1 X155.651 Y156.542 E0.02218
G1 X155.52 Y157.024 E0.01984
G1 X154.547 Y157.024 E0.03867
G1 X155.082 Y156.5 E0.02979
G1 X155.281 Y156.239 E0.01303
G1 X155.504 Y155.754 E0.02121
G1 X155.576 Y155.433 E0.01305
G1 X155.602 Y155.044 E0.01549
G1 X155.506 Y154.489 E0.02238
G1 X155.287 Y154.01 E0.0209
G1 X154.929 Y153.579 E0.02228
G1 X154.597 Y153.326 E0.01658
G1 X154.597 Y152.28 E0.04155
G1 E-0.8 F3000
G1 Z1 F8700
G1 X159.203 Y140.419
G1 Z0.2
G1 E0.8 F1800
G1 X159.203 Y150.049 E0.38259
G1 X158.609 Y149.478 E0.03276
G1 X158.304 Y149.283 E0.01439
G1 X158.303 Y143.72 E0.22102
G1 X158.347 Y142.97 E0.02981
G1 X158.433 Y142.231 E0.02956
G1 X158.647 Y141.112 E0.0453
G1 X158.843 Y140.372 E0.03037
G1 X159.143 Y140.411 E0.01205
G1 E-0.8 F3000
G1 Z1 F8700
G1 X140.801 Y140.422
G1 Z0.2
G1 E0.8 F1800
G1 X141.16 Y140.375 E0.01439
G1 X141.258 Y140.738 E0.01497
G1 X141.506 Y141.855 E0.04544
G1 X141.653 Y142.971 E0.04472
G1 X141.703 Y144.115 E0.04549
G1 X141.703 Y149.275 E0.20499
G1 X141.542 Y149.371 E0.00744
G1 X141.264 Y149.589 E0.01405
G1 X140.798 Y150.122 E0.02811
G1 X140.801 Y140.482 E0.38295
G1 E-0.8 F3000
G1 Z1 F8700
G1 X143.907 Y154.642
G1 Z0.2
G1 E0.8 F1800
G1 X143.554 Y154.229 E0.02156
G1 X143.051 Y153.761 E0.02731
G1 X143.747 Y153.52 E0.02928
G1 X144.222 Y153.272 E0.02125
G1 X144.434 Y153.536 E0.01346
G1 X144.295 Y153.704 E0.00867
G1 X144.099 Y154.079 E0.01681
G1 X143.926 Y154.585 E0.02125
G1 X145.401 Y152.219 F8700
G1 F1800
G1 X145.403 Y153.326 E0.044
G1 X145.071 Y153.579 E0.01658
G1 X144.728 Y153.992 E0.02133
G1 X144.576 Y154.283 E0.01305
G1 X144.457 Y154.631 E0.01459
G1 X144.406 Y154.991 E0.01446
G1 X144.407 Y155.303 E0.01237
G1 X144.485 Y155.716 E0.01673
G1 X144.629 Y156.078 E0.01545
G1 X144.863 Y156.439 E0.0171
G1 X145.436 Y157.024 E0.03255
G1 X144.48 Y157.024 E0.03801
G1 X144.426 Y156.805 E0.00897
G1 X144.254 Y156.275 E0.02214
G1 X144.017 Y155.751 E0.02284
G1 X143.728 Y155.269 E0.02233
G1 X143.546 Y155.015 E0.01243
G1 X143.18 Y154.588 E0.02233
G1 X142.76 Y154.196 E0.02284
G1 X142.302 Y153.857 E0.02262
G1 X141.795 Y153.564 E0.02326
G1 X141.281 Y153.34 E0.02227
G1 X140.797 Y153.18 E0.02026
G1 X140.797 Y152.114 E0.04235
G1 X141.222 Y152.613 E0.02601
G1 X141.453 Y152.81 E0.01208
G1 X141.763 Y153.002 E0.01446
G1 X142.101 Y153.133 E0.01443
G1 X142.398 Y153.199 E0.01208
G1 X142.77 Y153.221 E0.01479
G1 X143.194 Y153.164 E0.01701
G1 X143.542 Y153.043 E0.01464
G1 X143.833 Y152.892 E0.01301
G1 X144.244 Y152.549 E0.02127
G1 X144.496 Y152.219 E0.0165
G1 X145.341 Y152.219 E0.0336
G1 E-0.8 F3000
G1 Z1 F8700
G1 X159.72 Y139.459
G1 Z0.2
G1 E0.8 F1800
;TYPE:External perimeter
G1 X159.72 Y153.239 E0.54746
G1 X159.705 Y153.357 E0.00473
G1 X159.638 Y153.501 E0.00631
G1 X159.531 Y153.608 E0.00601
G1 X159.442 Y153.656 E0.004
G1 X159.145 Y153.741 E0.0123
G1 X158.667 Y153.918 E0.02023
G1 X158.207 Y154.151 E0.02052
G1 X157.779 Y154.432 E0.0203
G1 X157.568 Y154.598 E0.01069
G1 X157.194 Y154.946 E0.0203
G1 X156.861 Y155.334 E0.0203
G1 X156.704 Y155.553 E0.01069
G1 X156.445 Y155.987 E0.02009
G1 X156.327 Y156.229 E0.01069
G1 X156.143 Y156.704 E0.02024
G1 X155.989 Y157.272 E0.02337
G1 X155.936 Y157.368 E0.00435
G1 X155.867 Y157.441 E0.00399
G1 X155.758 Y157.505 E0.00501
G1 X155.569 Y157.541 E0.00768
G1 X144.424 Y157.541 E0.44273
G1 X144.287 Y157.524 E0.00549
G1 X144.16 Y157.461 E0.00563
G1 X144.05 Y157.346 E0.00635
G1 X144.002 Y157.249 E0.00431
G1 X143.928 Y156.946 E0.01236
G1 X143.771 Y156.462 E0.02022
G1 X143.558 Y155.992 E0.02052
G1 X143.296 Y155.553 E0.0203
G1 X143.139 Y155.334 E0.01069
G1 X142.806 Y154.946 E0.0203
G1 X142.428 Y154.594 E0.02052
G1 X142.018 Y154.29 E0.0203
G1 X141.561 Y154.026 E0.02094
G1 X141.096 Y153.823 E0.02015
G1 X140.489 Y153.623 E0.0254
G1 X140.377 Y153.525 E0.00593
G1 X140.302 Y153.379 E0.0065
G1 X140.28 Y153.234 E0.00583
G1 X140.284 Y139.463 E0.54712
G1 X141.448 Y139.463 E0.04625
G1 X141.761 Y140.615 E0.04742
G1 X142.016 Y141.765 E0.04682
G1 X142.169 Y142.926 E0.04651
G1 X142.22 Y144.104 E0.04684
G1 X142.22 Y149.307 E0.2067
G1 X142.198 Y149.454 E0.00592
G1 X142.119 Y149.602 E0.00664
G1 X142.045 Y149.673 E0.00408
G1 X141.835 Y149.798 E0.00971
G1 X141.621 Y149.966 E0.01082
G1 X141.409 Y150.208 E0.01279
G1 X141.293 Y150.403 E0.00901
G1 X141.187 Y150.661 E0.01108
G1 X141.125 Y150.982 E0.01296
G1 X141.125 Y151.268 E0.01138
G1 X141.188 Y151.588 E0.01296
G1 X141.296 Y151.845 E0.01107
G1 X141.411 Y152.037 E0.00888
G1 X141.589 Y152.246 E0.01091
G1 X141.759 Y152.391 E0.00888
G1 X141.994 Y152.537 E0.011
G1 X142.252 Y152.637 E0.01098
G1 X142.47 Y152.686 E0.00888
G1 X142.75 Y152.702 E0.01114
G1 X143.074 Y152.659 E0.01296
G1 X143.337 Y152.567 E0.01107
G1 X143.544 Y152.459 E0.00928
G1 X143.868 Y152.189 E0.01675
G1 X144.156 Y151.811 E0.01889
G1 X144.329 Y151.717 E0.00783
G1 X144.456 Y151.701 E0.00507
G1 X145.715 Y151.701 E0.05001
G1 X145.808 Y151.719 E0.00379
G1 X145.859 Y151.75 E0.00236
G1 X145.893 Y151.795 E0.00224
G1 X145.918 Y151.889 E0.00385
G1 X145.92 Y153.366 E0.05867
G1 X145.904 Y153.492 E0.00506
G1 X145.81 Y153.666 E0.00783
G1 X145.431 Y153.955 E0.01894
G1 X145.161 Y154.28 E0.01682
G1 X145.052 Y154.488 E0.00929
G1 X144.962 Y154.752 E0.01109
G1 X144.923 Y155.027 E0.01103
G1 X144.924 Y155.253 E0.00901
G1 X144.984 Y155.572 E0.01286
G1 X145.091 Y155.839 E0.01145
G1 X145.269 Y156.115 E0.01302
G1 X145.465 Y156.315 E0.01114
G1 X145.645 Y156.452 E0.009
G1 X145.934 Y156.598 E0.01286
G1 X146.212 Y156.677 E0.01145
G1 X146.54 Y156.703 E0.0131
G1 X146.878 Y156.659 E0.01351
G1 X147.274 Y156.5 E0.01698
G1 X147.469 Y156.37 E0.0093
G1 X147.678 Y156.178 E0.01128
G1 X147.884 Y155.887 E0.01419
G1 X147.987 Y155.787 E0.00569
G1 X148.113 Y155.724 E0.0056
G1 X148.261 Y155.701 E0.00593
G1 X151.819 Y155.708 E0.14138
G1 X151.916 Y155.732 E0.00395
G1 X152.031 Y155.799 E0.00529
G1 X152.405 Y156.261 E0.02362
G1 X152.577 Y156.405 E0.00889
G1 X152.819 Y156.549 E0.0112
G1 X153.13 Y156.66 E0.0131
G1 X153.46 Y156.703 E0.01323
G1 X153.788 Y156.677 E0.0131
G1 X154.06 Y156.6 E0.0112
G1 X154.263 Y156.506 E0.00889
G1 X154.495 Y156.351 E0.01109
G1 X154.693 Y156.157 E0.01103
G1 X154.835 Y155.971 E0.00928
G1 X155.011 Y155.587 E0.01677
G1 X155.062 Y155.359 E0.00929
G1 X155.082 Y155.071 E0.01147
G1 X155.008 Y154.643 E0.01726
G1 X154.846 Y154.288 E0.0155
G1 X154.569 Y153.955 E0.01722
G1 X154.19 Y153.666 E0.01894
G1 X154.096 Y153.492 E0.00783
G1 X154.08 Y153.366 E0.00507
G1 X154.08 Y151.907 E0.05796
G1 X154.098 Y151.813 E0.00379
G1 X154.129 Y151.763 E0.00236
G1 X154.174 Y151.729 E0.00224
G1 X154.268 Y151.703 E0.00385
G1 X155.544 Y151.701 E0.05072
G1 X155.671 Y151.717 E0.00505
G1 X155.844 Y151.811 E0.00783
G1 X156.132 Y152.189 E0.01889
G1 X156.46 Y152.463 E0.01698
G1 X156.772 Y152.614 E0.01374
G1 X157.195 Y152.7 E0.01715
G1 X157.536 Y152.686 E0.01358
G1 X157.902 Y152.584 E0.0151
G1 X158.244 Y152.391 E0.01559
G1 X158.524 Y152.124 E0.01537
G1 X158.752 Y151.753 E0.01729
G1 X158.854 Y151.422 E0.01374
G1 X158.877 Y150.991 E0.01715
G1 X158.813 Y150.659 E0.01345
G1 X158.683 Y150.354 E0.01318
G1 X158.495 Y150.085 E0.01304
G1 X158.288 Y149.886 E0.01142
G1 X157.959 Y149.676 E0.01549
G1 X157.875 Y149.597 E0.00459
G1 X157.823 Y149.511 E0.00398
G1 X157.786 Y149.383 E0.00527
G1 X157.786 Y143.705 E0.22561
G1 X157.831 Y142.925 E0.03101
G1 X157.922 Y142.153 E0.0309
G1 X158.143 Y140.997 E0.04676
G1 X158.549 Y139.459 E0.0632
G1 X159.66 Y139.459 E0.04413
;WIPE_START
G1 X159.52 Y139.805 F8700
;WIPE_END
G1 X159.482 Y139.945
;TYPE:Gap fill
;WIDTH:0.56367
G1 F1800
G1 X159.361 Y139.942 E0.00485
;WIDTH:0.527386
G1 X159.239 Y139.939 E0.00451
G1 X159.071 Y139.928 E0.00628
;WIDTH:0.483812
G1 X158.902 Y139.917 E0.00572
G1 X158.789 Y139.915 E0.00384
;WIDTH:0.403473
G1 X158.676 Y139.913 E0.00314
G1 X158.916 Y141.235 F8700
;WIDTH:0.15044
G1 F1800
G1 X158.911 Y141.289 E0.00044
G1 X158.892 Y141.489 E0.00166
;WIDTH:0.197931
G1 X158.873 Y141.689 E0.0024
;WIDTH:0.245422
G1 X158.854 Y141.89 E0.00313
;WIDTH:0.292913
G1 X158.835 Y142.09 E0.00387
;WIDTH:0.340404
G1 X158.816 Y142.29 E0.0046
G1 X158.795 Y142.649 E0.00821
;WIDTH:0.423976
G1 X158.774 Y143.008 E0.01052
G1 X158.763 Y143.37 E0.01062
;WIDTH:0.465584
G1 X158.753 Y143.733 E0.01177
G1 X158.753 Y146.384 E0.08611
G1 X158.753 Y149.036 E0.08611
;WIDTH:0.427844
G1 X158.756 Y149.123 E0.00258
;WIDTH:0.394423
G1 X158.756 Y149.289 E0.00447
G1 X158.92 Y150.113 F8700
;WIDTH:0.299758
G1 F1800
G1 X159.024 Y150.26 E0.00355
G1 X159.064 Y150.318 E0.0014
G1 X159.136 Y150.447 E0.00291
G1 X159.208 Y150.576 E0.00291
G1 X159.219 Y150.596 E0.00046
G1 X159.248 Y150.666 E0.00149
;WIDTH:0.423766
G1 X159.278 Y150.735 E0.00221
G1 X159.288 Y150.838 E0.00301
G1 X159.298 Y150.94 E0.00301
