; generated by SuperSlicer 2.5.59 on 2023-04-15 at 07:36:55 UTC


;
;

;
;
; 

; external perimeters extrusion width = 0.46mm
; perimeters extrusion width = 0.46mm
; infill extrusion width = 0.46mm
; solid infill extrusion width = 0.46mm
; top infill extrusion width = 0.46mm
; support material extrusion width = 0.46mm
; first layer extrusion width = 0.58mm

; external perimeters extrusion width = 0.46mm
; perimeters extrusion width = 0.46mm
; infill extrusion width = 0.46mm
; solid infill extrusion width = 0.46mm
; top infill extrusion width = 0.46mm
; support material extrusion width = 0.46mm
; first layer extrusion width = 0.58mm

; object:{"name":"Revo Stealth CW2 PTFE Jig","id":"Revo Stealth CW2 PTFE Jig.stl id:0 copy 0","object_center":[150.000000,154.800000,0.000000],"boundingbox_center":[150.000000,154.800000,4.150000],"boundingbox_size":[36.400002,12.700000,8.300000]}
EXCLUDE_OBJECT_DEFINE NAME=Revo_Stealth_CW2_PTFE_Jig_stl_id_0_copy_0 CENTER=150.000000,154.800000 POLYGON=[[131.800000,149.450000],[131.801576,149.393936],[131.806288,149.338048],[131.814136,149.282496],[131.825072,149.227472],[131.839080,149.173168],[131.856112,149.119728],[131.876128,149.067328],[131.899032,149.016112],[131.924776,148.966272],[131.953280,148.917968],[131.984440,148.871344],[132.018176,148.826512],[132.054352,148.783664],[132.092896,148.742896],[132.133656,148.704368],[132.176512,148.668160],[132.221328,148.634448],[132.267976,148.603264],[132.316288,148.574784],[132.366120,148.549040],[132.417312,148.526128],[132.469728,148.506112],[132.523160,148.489088],[132.577488,148.475088],[132.632496,148.464128],[132.688032,148.456288],[132.743928,148.451568],[132.800000,148.450000],[167.200000,148.450000],[167.249072,148.451200],[167.256080,148.451568],[167.298016,148.454816],[167.311968,148.456288],[167.346720,148.460832],[167.367504,148.464128],[167.395104,148.469216],[167.422512,148.475088],[167.442976,148.479968],[167.476832,148.489088],[167.490288,148.493056],[167.530272,148.506112],[167.536896,148.508448],[167.582688,148.526128],[167.627568,148.546016],[167.633888,148.549040],[167.671408,148.568080],[167.683712,148.574784],[167.714112,148.592272],[167.732032,148.603264],[167.755568,148.618528],[167.778672,148.634448],[167.795696,148.646784],[167.823488,148.668160],[167.834400,148.676992],[167.866352,148.704368],[167.871552,148.709040],[167.907104,148.742896],[167.940944,148.778448],[167.945648,148.783664],[167.973008,148.815616],[167.981824,148.826512],[168.003200,148.854304],[168.015568,148.871344],[168.031472,148.894448],[168.046720,148.917968],[168.057728,148.935904],[168.070080,148.957104],[168.075232,148.966272],[168.081920,148.978608],[168.093232,149.000400],[168.100960,149.016112],[168.103984,149.022448],[168.114208,149.044768],[168.123872,149.067328],[168.132992,149.090096],[168.141536,149.113120],[168.143888,149.119728],[168.149536,149.136320],[168.156944,149.159712],[168.160912,149.173168],[168.163776,149.183296],[168.170032,149.207024],[168.174928,149.227472],[168.175712,149.230896],[168.180784,149.254912],[168.185280,149.279040],[168.185872,149.282496],[168.189184,149.303264],[168.192480,149.327584],[168.193712,149.338048],[168.195184,149.351984],[168.197296,149.376432],[168.198432,149.393936],[168.198784,149.400944],[168.199712,149.425456],[168.200000,149.450000],[168.200000,161.150016],[132.800000,161.150016],[132.743928,161.148432],[132.688032,161.143728],[132.632496,161.135872],[132.577488,161.124928],[132.523160,161.110912],[132.469728,161.093888],[132.417312,161.073888],[132.366120,161.050960],[132.316288,161.025216],[132.267976,160.996736],[132.221328,160.965568],[132.176512,160.931840],[132.133656,160.895648],[132.092896,160.857120],[132.054352,160.816352],[132.018176,160.773504],[131.984440,160.728672],[131.953280,160.682032],[131.924776,160.633728],[131.899032,160.583888],[131.876128,160.532688],[131.856112,160.480288],[131.839080,160.426832],[131.825072,160.372528],[131.814136,160.317504],[131.806288,160.261968],[131.801576,160.206064],[131.800000,160.150016],[131.800000,149.450000]]
; object:{"name":"StealthRuler","id":"StealthRuler.stl id:1 copy 0","object_center":[150.000001,139.150000,0.000000],"boundingbox_center":[150.000001,139.150000,7.500000],"boundingbox_size":[129.646454,6.600000,15.000000]}
EXCLUDE_OBJECT_DEFINE NAME=StealthRuler_stl_id_1_copy_0 CENTER=150.000001,139.150000 POLYGON=[[85.176776,136.549984],[85.250000,136.373216],[85.788912,136.150000],[94.823224,135.849984],[194.823232,135.849984],[214.423216,136.150000],[214.623232,136.349984],[214.823232,136.549984],[214.823232,141.750000],[214.623232,141.950000],[214.423216,142.150000],[194.823232,142.450000],[94.823224,142.450000],[85.788912,142.150000],[85.250000,141.926768],[85.176776,141.750000],[85.176776,136.549984]]
; plater:{"center":[150.000001,148.500000,0.000000],"boundingbox_center":[150.000001,148.500000,7.500000],"boundingbox_size":[129.646454,25.300000,15.000000]}

;TYPE:Custom
SET_PRINT_STATS_INFO TOTAL_LAYER=75

M104 S0 ; Stops SuperSlicer from sending temp waits separately

M109 S0

M140 S0

print_start EXTRUDER=249 BED=105 CHAMBER=0
M107
G21 ; set units to millimeters
G90 ; use absolute coordinates
M82 ; use absolute distances for extrusion
G92 E0
; Filament gcode
;_TOOLCHANGE 0
M107
;LAYER_CHANGE
;Z:0.2
;HEIGHT:0.2
TIMELAPSE_TAKE_FRAME
;BEFORE_LAYER_CHANGE
;0.2


G1 Z0.2 F12000
SET_PRINT_STATS_INFO CURRENT_LAYER=1
;AFTER_LAYER_CHANGE
;0.2
G1 E-0.7 F2520
G1 Z0.4 F12000
M204 S2000
G1 X83.964 Y134.011
G1 Z0.2
G1 E0 F2340
;TYPE:Skirt
;WIDTH:0.54
G1 F3600
G1 X83.615 Y134.257 E0.01764
G1 X82.849 Y135.082 E0.06419
G1 X82.456 Y136.496 E0.12486
G1 X82.456 Y141.804 E0.34421
G1 X82.688 Y142.906 E0.39077
G1 X83.615 Y144.043 E0.45143
G1 X84.516 Y144.591 E0.49501
G1 X131.947 Y163.792 E2.60999
G1 X132.8 Y163.893 E2.64548
G1 X168.2 Y163.893 E4.10864
G1 X169.245 Y163.686 E4.1527
G1 X215.569 Y144.586 E6.22371
G1 X216.663 Y143.789 E6.27963
G1 X217.466 Y141.85 E6.3664
G1 X217.466 Y136.45 E6.58959
G1 X216.663 Y134.511 E6.67636
G1 X216.463 Y134.311 E6.68805
G1 X214.523 Y133.507 E6.77481
G1 X85.547 Y133.507 E12.10568
G1 X84.021 Y133.992 E12.17187
G1 X84.251 Y134.416 F12000
G1 F3600
G1 X83.344 Y135.23 E12.22222
G1 X82.953 Y136.496 E12.277
G1 X82.953 Y141.804 E12.49636
G1 X83.094 Y142.587 E12.52925
G1 X83.902 Y143.637 E12.58402
G1 X84.703 Y144.131 E12.6229
G1 X132.072 Y163.31 E14.73515
G1 X132.8 Y163.396 E14.76547
G1 X168.2 Y163.396 E16.22863
G1 X169.056 Y163.226 E16.2647
G1 X215.379 Y144.126 E18.33571
G1 X216.311 Y143.438 E18.3836
G1 X216.969 Y141.85 E18.45464
G1 X216.969 Y136.45 E18.67783
G1 X216.311 Y134.862 E18.74887
G1 X216.111 Y134.662 E18.76056
G1 X214.523 Y134.004 E18.8316
G1 X85.547 Y134.004 E24.16247
G1 X84.308 Y134.398 E24.21622
G1 X84.538 Y134.822 F12000
G1 F3600
G1 X84.189 Y135.069 E24.23386
G1 X83.45 Y136.496 E24.30031
G1 X83.45 Y141.804 E24.51966
G1 X84.189 Y143.231 E24.58611
G1 X84.89 Y143.67 E24.62027
G1 X132.196 Y162.829 E26.7298
G1 X132.8 Y162.899 E26.75495
G1 X168.2 Y162.899 E28.21811
G1 X168.867 Y162.767 E28.24619
G1 X215.19 Y143.667 E30.31721
G1 X215.96 Y143.086 E30.35705
G1 X216.472 Y141.85 E30.41237
G1 X216.472 Y136.45 E30.63556
G1 X215.96 Y135.214 E30.69088
G1 X215.76 Y135.014 E30.70257
G1 X214.523 Y134.501 E30.75788
G1 X85.547 Y134.501 E36.08875
G1 X84.595 Y134.804 E36.13005
M104 S249 ; set temperature
G92 E0
G1 E-0.7 F2520
M204 S6000
G1 Z0.4 F12000
; printing object Revo Stealth CW2 PTFE Jig.stl id:0 copy 0
EXCLUDE_OBJECT_START NAME=Revo_Stealth_CW2_PTFE_Jig_stl_id_0_copy_0
; acceleration to travel
M204 S7000
G1 X146.026 Y146.479
; decel to extrusion
M204 S2000
G1 X163.577 Y149.814
; end travel
G1 Z0.2
G1 E0 F2340
;TYPE:Internal perimeter
;WIDTH:0.58
G1 F3600
G1 X162.836 Y150.741 E0.05301
G1 X162.836 Y159.786 E0.45693
G1 X133.164 Y159.786 E1.78202
G1 X133.166 Y149.814 E2.22733
G1 X150.002 Y149.814 E2.97922
G1 X163.517 Y149.814 E3.58279
; acceleration to travel
M204 S7000
G1 X164.433 Y149.397 F12000
; decel to extrusion
M204 S2000
G1 X164.695 Y149.277
; end travel
G1 F3600
G1 X163.373 Y150.93 E3.67729
G1 X163.373 Y160.323 E4.09678
G1 X132.852 Y160.323 E5.4598
G1 X132.659 Y160.291 E5.46853
G1 X132.627 Y160.094 E5.47742
G1 X132.629 Y149.314 E5.95886
G1 X132.856 Y149.277 E5.96913
G1 X150.002 Y149.277 E6.73486
G1 X164.635 Y149.277 E7.38834
; acceleration to travel
M204 S7000
G1 X165.718 Y149.696 F12000
; decel to extrusion
M204 S2000
G1 X166.023 Y149.814
; end travel
G1 F3300
G1 X166.834 Y149.814 E7.42459
G1 X166.834 Y150.369 E7.44936
G1 X166.547 Y150.47 E7.46296
G1 X166.06 Y149.861 E7.49777
; acceleration to travel
M204 S7000
G1 X165.165 Y149.409 F12000
; decel to extrusion
M204 S2000
G1 X164.905 Y149.277
; end travel
G1 F3600
G1 X167.158 Y149.277 E7.59835
G1 X167.371 Y149.302 E7.60796
G1 X167.373 Y160.323 E8.10015
G1 X166.943 Y160.323 E8.11937
G1 X166.227 Y159.607 E8.16456
G1 X166.227 Y150.93 E8.55209
G1 X164.943 Y149.324 E8.64392
M204 S1000
G1 X164.8 Y150.006 F12000
;TYPE:External perimeter
G1 F3600
G1 X163.91 Y151.118 E8.70754
G1 X163.91 Y160.86 E9.1426
G1 X132.808 Y160.86 E10.53157
G1 X132.574 Y160.821 E10.54217
G1 X132.383 Y160.723 E10.55173
G1 X132.227 Y160.567 E10.56161
G1 X132.129 Y160.376 E10.57118
G1 X132.09 Y160.138 E10.58196
G1 X132.092 Y149.423 E11.06049
G1 X132.133 Y149.216 E11.06987
G1 X132.227 Y149.033 E11.07907
G1 X132.383 Y148.877 E11.08895
G1 X132.574 Y148.779 E11.09851
G1 X132.812 Y148.74 E11.1093
G1 X150.002 Y148.74 E11.87697
G1 X167.188 Y148.74 E12.64447
G1 X167.361 Y148.76 E12.65226
G1 X167.574 Y148.848 E12.66252
G1 X167.704 Y148.952 E12.66996
G1 X167.839 Y149.142 E12.68039
G1 X167.88 Y149.25 E12.68553
G1 X167.908 Y149.418 E12.69316
G1 X167.91 Y160.86 E13.20412
G1 X166.72 Y160.86 E13.25726
G1 X165.69 Y159.83 E13.32232
G1 X165.69 Y151.118 E13.71138
G1 X164.837 Y150.052 E13.77232
;WIPE_START
M204 S6000
G1 X164.507 Y149.733 F12000
;WIPE_END
; acceleration to travel
M204 S7000
G1 X163.115 Y150.399
; decel to extrusion
M204 S2000
G1 X162.717 Y150.589
; end travel
;TYPE:Solid infill
G1 F3600
G1 X162.361 Y150.233 E13.79481
G1 X161.601 Y150.233 E13.82873
G1 X162.417 Y151.049 E13.88026
G1 X162.417 Y151.809 E13.91418
G1 X160.842 Y150.233 E14.01367
G1 X160.082 Y150.233 E14.04759
G1 X162.417 Y152.568 E14.19506
G1 X162.417 Y153.328 E14.22898
G1 X159.322 Y150.233 E14.42442
G1 X158.563 Y150.233 E14.45834
G1 X162.417 Y154.087 E14.70175
G1 X162.417 Y154.847 E14.73567
G1 X157.803 Y150.233 E15.02704
G1 X157.044 Y150.233 E15.06096
G1 X162.417 Y155.606 E15.40031
G1 X162.417 Y156.366 E15.43423
G1 X156.284 Y150.233 E15.82155
G1 X155.525 Y150.233 E15.85547
G1 X162.417 Y157.125 E16.29076
G1 X162.417 Y157.885 E16.32468
G1 X154.765 Y150.233 E16.80794
G1 X154.006 Y150.233 E16.84186
G1 X162.417 Y158.644 E17.37309
G1 X162.417 Y159.367 E17.40535
G1 X162.38 Y159.367 E17.40701
G1 X153.246 Y150.233 E17.98387
G1 X152.487 Y150.233 E18.01779
G1 X161.62 Y159.367 E18.59465
G1 X160.861 Y159.367 E18.62857
G1 X151.727 Y150.233 E19.20542
G1 X150.967 Y150.233 E19.23934
G1 X160.101 Y159.367 E19.8162
G1 X159.342 Y159.367 E19.85012
G1 X150.208 Y150.233 E20.42698
G1 X149.448 Y150.233 E20.4609
G1 X158.582 Y159.367 E21.03776
G1 X157.823 Y159.367 E21.07168
G1 X148.689 Y150.233 E21.64854
G1 X147.929 Y150.233 E21.68246
G1 X157.063 Y159.367 E22.25932
G1 X156.303 Y159.367 E22.29324
G1 X147.17 Y150.233 E22.87009
G1 X146.41 Y150.233 E22.90401
G1 X155.544 Y159.367 E23.48087
G1 X154.784 Y159.367 E23.51479
G1 X145.651 Y150.233 E24.09165
G1 X144.891 Y150.233 E24.12557
G1 X154.025 Y159.367 E24.70243
G1 X153.265 Y159.367 E24.73635
G1 X144.131 Y150.233 E25.31321
G1 X143.372 Y150.233 E25.34713
G1 X152.506 Y159.367 E25.92398
G1 X151.746 Y159.367 E25.9579
G1 X142.612 Y150.233 E26.53476
G1 X141.853 Y150.233 E26.56868
G1 X150.987 Y159.367 E27.14554
G1 X150.227 Y159.367 E27.17946
G1 X141.093 Y150.233 E27.75632
G1 X140.334 Y150.233 E27.79024
G1 X149.468 Y159.367 E28.3671
G1 X148.708 Y159.367 E28.40102
G1 X139.574 Y150.233 E28.97787
G1 X138.815 Y150.233 E29.0118
G1 X147.948 Y159.367 E29.58865
G1 X147.189 Y159.367 E29.62257
G1 X138.055 Y150.233 E30.19943
G1 X137.296 Y150.233 E30.23335
G1 X146.429 Y159.367 E30.81021
G1 X145.67 Y159.367 E30.84413
G1 X136.536 Y150.233 E31.42099
G1 X135.776 Y150.233 E31.45491
G1 X144.91 Y159.367 E32.03177
G1 X144.151 Y159.367 E32.06569
G1 X135.017 Y150.233 E32.64254
G1 X134.257 Y150.233 E32.67646
G1 X143.391 Y159.367 E33.25332
G1 X142.632 Y159.367 E33.28724
G1 X133.584 Y150.32 E33.85863
G1 X133.584 Y151.079 E33.89254
G1 X141.872 Y159.367 E34.41596
G1 X141.113 Y159.367 E34.44988
G1 X133.584 Y151.839 E34.92534
G1 X133.584 Y152.598 E34.95926
G1 X140.353 Y159.367 E35.38675
G1 X139.593 Y159.367 E35.42067
G1 X133.584 Y153.357 E35.8002
G1 X133.584 Y154.117 E35.83412
G1 X138.834 Y159.367 E36.16568
G1 X138.074 Y159.367 E36.1996
G1 X133.584 Y154.876 E36.48321
G1 X133.584 Y155.636 E36.51712
G1 X137.315 Y159.367 E36.75277
G1 X136.555 Y159.367 E36.78669
G1 X133.584 Y156.395 E36.97436
G1 X133.583 Y157.155 E37.00828
G1 X135.796 Y159.367 E37.14799
G1 X135.036 Y159.367 E37.18191
G1 X133.583 Y157.914 E37.27366
G1 X133.583 Y158.673 E37.30758
G1 X134.508 Y159.598 E37.36595
G92 E0
G1 E-0.7 F2520
M204 S6000
G1 Z0.4 F12000
; acceleration to travel
M204 S7000
G1 X159.739 Y159.893
; decel to extrusion
M204 S2000
G1 X166.947 Y159.978
; end travel
G1 Z0.2
G1 E0 F2340
;TYPE:Gap fill
;WIDTH:0.384597
G1 F3600
G1 X166.896 Y159.802 E0.00519
;WIDTH:0.436032
G1 X166.88 Y159.73 E0.0076
;WIDTH:0.487467
G1 X166.864 Y159.658 E0.01033
;WIDTH:0.538902
G1 X166.848 Y159.586 E0.01337
;WIDTH:0.590337
G1 X166.832 Y159.514 E0.01673
;WIDTH:0.641771
G1 X166.816 Y159.442 E0.0204
;WIDTH:0.692086
G1 X166.8 Y159.37 E0.02438
G1 X166.802 Y150.884 E0.48247
;WIDTH:0.608774
G1 X166.798 Y150.644 E0.49374
G92 E0
G1 E-0.7 F2520
M204 S6000
G1 Z0.4 F12000
; stop printing object Revo Stealth CW2 PTFE Jig.stl id:0 copy 0
EXCLUDE_OBJECT_END NAME=Revo_Stealth_CW2_PTFE_Jig_stl_id_0_copy_0
; printing object StealthRuler.stl id:1 copy 0
EXCLUDE_OBJECT_START NAME=StealthRuler_stl_id_1_copy_0
; acceleration to travel
M204 S7000
G1 X202.857 Y142.743
; decel to extrusion
M204 S2000
G1 X213.159 Y140.486
; end travel
G1 Z0.2
G1 E0 F2340
;TYPE:Internal perimeter
;WIDTH:0.58
G1 F3600
G1 X86.646 Y140.486 E5.64987
G1 X86.646 Y137.814 E5.76918
G1 X213.159 Y137.814 E11.41905
G1 X213.159 Y140.426 E11.53568
G1 X213.696 Y141.023 F12000
G1 F3600
G1 X86.109 Y141.023 E17.23352
G1 X86.109 Y137.277 E17.4008
G1 X213.696 Y137.277 E23.09864
G1 X213.696 Y140.963 E23.26324
M204 S1000
G1 X214.233 Y141.56 F12000
;TYPE:External perimeter
G1 F3600
G1 X85.572 Y141.56 E29.00905
G1 X85.572 Y136.74 E29.2243
G1 X214.233 Y136.74 E34.97011
G1 X214.233 Y141.5 E35.18268
;WIPE_START
M204 S6000
G1 X213.887 Y141.36 F12000
;WIPE_END
G92 E0
G1 E-0.7 F2520
G1 Z0.4 F12000
; acceleration to travel
M204 S7000
G1 X213.175 Y139.593
; decel to extrusion
M204 S2000
G1 X212.971 Y139.088
; end travel
G1 Z0.2
G1 E0 F2340
;TYPE:Solid infill
G1 F3600
G1 X212.116 Y138.233 E0.05398
G1 X211.357 Y138.233 E0.0879
G1 X212.74 Y139.616 E0.17527
G1 X212.74 Y140.067 E0.19539
G1 X212.431 Y140.067 E0.20919
G1 X210.597 Y138.233 E0.32501
G1 X209.838 Y138.233 E0.35893
G1 X211.672 Y140.067 E0.47475
G1 X210.912 Y140.067 E0.50867
G1 X209.078 Y138.233 E0.62449
G1 X208.319 Y138.233 E0.65841
G1 X210.153 Y140.067 E0.77423
G1 X209.393 Y140.067 E0.80815
G1 X207.559 Y138.233 E0.92398
G1 X206.8 Y138.233 E0.9579
G1 X208.633 Y140.067 E1.07372
G1 X207.874 Y140.067 E1.10764
G1 X206.04 Y138.233 E1.22346
G1 X205.28 Y138.233 E1.25738
G1 X207.114 Y140.067 E1.3732
G1 X206.355 Y140.067 E1.40712
G1 X204.521 Y138.233 E1.52294
G1 X203.761 Y138.233 E1.55686
G1 X205.595 Y140.067 E1.67268
G1 X204.836 Y140.067 E1.7066
G1 X203.002 Y138.233 E1.82243
G1 X202.242 Y138.233 E1.85635
G1 X204.076 Y140.067 E1.97217
G1 X203.317 Y140.067 E2.00609
G1 X201.483 Y138.233 E2.12191
G1 X200.723 Y138.233 E2.15583
G1 X202.557 Y140.067 E2.27165
G1 X201.798 Y140.067 E2.30557
G1 X199.964 Y138.233 E2.42139
G1 X199.204 Y138.233 E2.45531
G1 X201.038 Y140.067 E2.57113
G1 X200.278 Y140.067 E2.60505
