; generated by SuperSlicer 2.5.59 on 2023-05-12 at 00:07:06 UTC


;
;

;
;
; 

; external perimeters extrusion width = 0.43mm
; perimeters extrusion width = 0.45mm
; infill extrusion width = 0.45mm
; solid infill extrusion width = 0.45mm
; top infill extrusion width = 0.42mm
; support material extrusion width = 0.42mm
; first layer extrusion width = 0.57mm

; object:{"name":"Right Belt Cover","id":"Right Belt Cover.stl id:0 copy 0","object_center":[150.000000,148.500000,0.000000],"boundingbox_center":[150.000000,148.500000,2.500001],"boundingbox_size":[44.366127,46.907074,5.000002]}
EXCLUDE_OBJECT_DEFINE NAME=Right_Belt_Cover_stl_id_0_copy_0 CENTER=150.000000,148.500000 POLYGON=[[127.816936,168.884080],[127.818520,168.827824],[127.818544,168.827328],[129.915528,126.033360],[129.919248,125.959288],[129.928448,125.885696],[129.943072,125.813000],[129.963040,125.741576],[129.988264,125.671848],[130.018568,125.604160],[130.053816,125.538912],[130.093800,125.476456],[130.138304,125.417128],[130.187072,125.361280],[130.239856,125.309192],[130.296360,125.261136],[130.356264,125.217424],[130.419232,125.178272],[130.484936,125.143872],[130.553008,125.114456],[130.623080,125.090168],[130.694752,125.071120],[130.767640,125.057448],[130.841336,125.049224],[130.915440,125.046464],[153.783440,125.046464],[153.846368,125.048448],[153.886160,125.051760],[161.751104,125.923888],[161.848160,125.938296],[161.943360,125.962144],[162.035744,125.995208],[162.124464,126.037152],[162.208656,126.087616],[162.287456,126.146072],[162.360192,126.211976],[162.426080,126.284680],[167.700768,132.905440],[168.453536,133.894576],[169.143632,134.928432],[169.768368,136.003024],[170.325392,137.114240],[170.333504,137.131824],[170.812544,138.257808],[170.818144,138.272992],[171.227952,139.429360],[171.232048,139.443280],[171.570016,140.624368],[171.572912,140.636000],[171.837456,141.838272],[171.838768,141.845760],[172.029216,143.066384],[172.144560,144.304048],[172.183056,145.546448],[172.131216,146.988032],[171.975936,148.422160],[171.718016,149.841440],[171.358832,151.238528],[170.900176,152.606192],[170.344464,153.937360],[169.694544,155.225168],[168.953792,156.462976],[168.126032,157.644368],[167.215552,158.763232],[156.037808,171.609696],[156.006768,171.643744],[155.972144,171.678320],[155.900272,171.740368],[155.822848,171.795328],[155.782560,171.819824],[155.740576,171.842704],[155.740544,171.842720],[155.698128,171.863264],[155.654160,171.882064],[155.609984,171.898496],[155.564432,171.913024],[155.518784,171.925232],[155.472160,171.935360],[155.425424,171.943200],[155.378176,171.948832],[155.330896,171.952224],[155.283344,171.953360],[128.816952,171.953536],[128.718936,171.948720],[128.621872,171.934320],[128.526672,171.910480],[128.434264,171.877408],[128.345568,171.835472],[128.261384,171.785008],[128.182560,171.726544],[128.109848,171.660640],[128.043944,171.587936],[127.985480,171.509104],[127.935032,171.424944],[127.893072,171.336224],[127.860008,171.243824],[127.836168,171.148640],[127.821760,171.051552],[127.816952,170.953536],[127.816936,168.884080]]
; plater:{"center":[150.000000,148.500000,0.000000],"boundingbox_center":[150.000000,148.500000,2.500001],"boundingbox_size":[44.366127,46.907074,5.000002]}

;TYPE:Custom
SET_PRINT_STATS_INFO TOTAL_LAYER=25

M104 S0 ; Stops SuperSlicer from sending temp waits separately

M109 S0

M140 S0

print_start EXTRUDER=250 BED=105 CHAMBER=0
M107
G21 ; set units to millimeters
G90 ; use absolute coordinates
M82 ; use absolute distances for extrusion
G92 E0
; Filament gcode
;_TOOLCHANGE 0
M107
;LAYER_CHANGE
;Z:0.2
;HEIGHT:0.2
TIMELAPSE_TAKE_FRAME
;BEFORE_LAYER_CHANGE
;0.2


G1 Z0.2 F12000
SET_PRINT_STATS_INFO CURRENT_LAYER=1
;AFTER_LAYER_CHANGE
;0.2
G1 E-0.7 F3300
G1 Z0.5 F12000
M204 S1500
G1 X128.147 Y123.615
G1 Z0.2
G1 E0 F2700
;TYPE:Skirt
;WIDTH:0.52
G1 X127.557 Y124.53 E0.04321
G1 X127.261 Y125.578 E0.08642
G1 X127.228 Y125.975 E0.10223
G1 X125.126 Y168.832 E1.80435
G1 X125.129 Y171.055 E1.89257
G1 X125.219 Y171.769 E1.92111
G1 X125.551 Y172.66 E1.95884
G1 X125.99 Y173.317 E1.99018
G1 X126.85 Y174.074 E2.03561
G1 X127.715 Y174.47 E2.07334
G1 X128.817 Y174.646 E2.11762
G1 X155.283 Y174.646 E3.16753
G1 X156.411 Y174.466 E3.21283
G1 X157.244 Y174.074 E3.24934
G1 X158.069 Y173.377 E3.29219
G1 X169.304 Y160.463 E3.97123
G1 X171.159 Y158.008 E4.09328
G1 X172.098 Y156.438 E4.16585
G1 X173.385 Y153.644 E4.2879
G1 X173.967 Y151.909 E4.36047
G1 X174.367 Y150.323 E4.42537
G1 X174.653 Y148.712 E4.49027
G1 X174.874 Y145.643 E4.61232
G1 X174.71 Y142.817 E4.72464
G1 X174.2 Y140.045 E4.83643
G1 X173.351 Y137.358 E4.94821
G1 X172.176 Y134.797 E5.06
G1 X171.383 Y133.434 E5.12254
G1 X169.844 Y131.275 E5.22774
G1 X164.532 Y124.607 E5.56592
G1 X164.017 Y124.092 E5.5948
G1 X163.095 Y123.528 E5.6377
G1 X162.338 Y123.299 E5.66904
G1 X153.785 Y122.354 E6.01042
G1 X130.616 Y122.37 E6.9295
G1 X129.719 Y122.562 E6.9659
G1 X128.832 Y123.003 E7.00521
G1 X128.192 Y123.575 E7.03924
G92 E0
G1 E-0.7 F3300
M204 S6000
G1 Z0.5 F12000
M204 S1500
G1 X128.518 Y123.915
G1 Z0.2
G1 E0 F2700
G1 X128 Y124.709 E0.03762
G1 X127.736 Y125.62 E0.07524
G1 X127.704 Y125.999 E0.09032
G1 X125.603 Y168.831 E1.7915
G1 X125.606 Y171.055 E1.87971
G1 X125.687 Y171.676 E1.90457
G1 X125.983 Y172.456 E1.93767
G1 X126.344 Y172.997 E1.96346
G1 X127.115 Y173.678 E2.00425
G1 X127.875 Y174.02 E2.03736
G1 X128.817 Y174.169 E2.07517
G1 X155.283 Y174.169 E3.12507
G1 X156.277 Y174.008 E3.165
G1 X157.006 Y173.66 E3.19704
G1 X157.709 Y173.064 E3.23362
G1 X168.887 Y160.218 E3.90914
G1 X169.845 Y159.043 E3.96926
G1 X170.768 Y157.734 E4.03279
G1 X171.673 Y156.223 E4.10265
G1 X172.945 Y153.46 E4.22334
G1 X173.505 Y151.79 E4.29319
G1 X173.898 Y150.238 E4.35673
G1 X174.179 Y148.661 E4.42027
G1 X174.397 Y145.626 E4.54096
G1 X174.235 Y142.861 E4.65084
G1 X173.734 Y140.148 E4.76028
G1 X172.901 Y137.518 E4.86973
G1 X171.749 Y135.011 E4.97918
G1 X170.987 Y133.699 E5.03937
G1 X169.464 Y131.564 E5.1434
G1 X164.159 Y124.904 E5.48116
G1 X163.697 Y124.446 E5.50698
G1 X162.891 Y123.959 E5.54433
G1 X162.268 Y123.771 E5.57012
G1 X153.785 Y122.831 E5.90872
G1 X130.669 Y122.845 E6.82569
G1 X129.892 Y123.006 E6.8572
G1 X129.113 Y123.389 E6.89161
G1 X128.563 Y123.875 E6.92074
G92 E0
G1 E-0.7 F3300
M204 S6000
G1 Z0.5 F12000
M204 S1500
G1 X128.889 Y124.215
G1 Z0.2
G1 E0 F2700
G1 X128.442 Y124.888 E0.03203
G1 X128.181 Y126.022 E0.07822
G1 X126.08 Y168.83 E1.77843
G1 X126.083 Y171.054 E1.86665
G1 X126.155 Y171.583 E1.88782
G1 X126.414 Y172.252 E1.91629
G1 X126.697 Y172.677 E1.93653
G1 X127.38 Y173.281 E1.97269
G1 X128.036 Y173.571 E2.00117
G1 X128.817 Y173.692 E2.03251
G1 X155.283 Y173.692 E3.08241
G1 X156.143 Y173.55 E3.11697
G1 X156.768 Y173.247 E3.14452
G1 X157.349 Y172.751 E3.17485
G1 X168.527 Y159.904 E3.85036
G1 X169.475 Y158.742 E3.90986
G1 X170.378 Y157.461 E3.97204
G1 X171.247 Y156.008 E4.03917
G1 X172.505 Y153.276 E4.1585
G1 X173.043 Y151.671 E4.22564
G1 X173.429 Y150.152 E4.28782
G1 X173.704 Y148.609 E4.34999
G1 X173.92 Y145.609 E4.46933
G1 X173.76 Y142.905 E4.57677
G1 X173.268 Y140.251 E4.68387
G1 X172.451 Y137.677 E4.79097
G1 X171.323 Y135.224 E4.89808
G1 X170.59 Y133.964 E4.95593
G1 X169.084 Y131.853 E5.05878
G1 X163.786 Y125.201 E5.39612
G1 X163.376 Y124.799 E5.41889
G1 X162.687 Y124.391 E5.45069
G1 X162.198 Y124.242 E5.47093
G1 X153.785 Y123.308 E5.80674
G1 X130.722 Y123.319 E6.72162
G1 X130.065 Y123.451 E6.74823
G1 X129.394 Y123.774 E6.77775
G1 X128.934 Y124.176 E6.80198
M104 S250 ; set temperature
G92 E0
G1 E-0.7 F3300
M204 S6000
G1 Z0.5 F12000
; printing object Right Belt Cover.stl id:0 copy 0
EXCLUDE_OBJECT_START NAME=Right_Belt_Cover_stl_id_0_copy_0
; acceleration to travel
M204 S6500
G1 X130.028 Y125.83
; decel to extrusion
M204 S1000
G1 X130.203 Y126.095
; end travel
G1 Z0.2
G1 E0 F2700
;TYPE:External perimeter
;WIDTH:0.568
G1 F3600
G1 X130.222 Y125.88 E0.00943
G1 X130.301 Y125.685 E0.01864
G1 X130.437 Y125.517 E0.02807
G1 X130.557 Y125.43 E0.03453
G1 X130.763 Y125.349 E0.0442
G1 X130.931 Y125.33 E0.05158
G1 X153.763 Y125.331 E1.04842
G1 X154.007 Y125.369 E1.05922
G1 X154.136 Y125.425 E1.06535
G1 X154.259 Y125.513 E1.07195
G1 X154.473 Y125.73 E1.08525
G1 X154.752 Y125.942 E1.10057
G1 X155.076 Y126.099 E1.11627
G1 X155.417 Y126.185 E1.13165
G1 X155.603 Y126.203 E1.13979
G1 X161.632 Y126.203 E1.40304
G1 X161.86 Y126.237 E1.4131
G1 X162.049 Y126.326 E1.42223
G1 X162.209 Y126.472 E1.43167
G1 X162.283 Y126.582 E1.43748
G1 X162.334 Y126.705 E1.44329
G1 X162.369 Y126.941 E1.4537
G1 X162.377 Y128.084 E1.50361
G1 X162.484 Y128.456 E1.52052
G1 X162.654 Y128.73 E1.5346
G1 X162.874 Y128.941 E1.54789
G1 X163.954 Y129.697 E1.60545
G1 X164.913 Y130.46 E1.65896
G1 X165.822 Y131.281 E1.71245
G1 X166.679 Y132.157 E1.76596
G1 X167.48 Y133.085 E1.81946
G1 X168.222 Y134.06 E1.87297
G1 X168.903 Y135.079 E1.92648
G1 X169.519 Y136.139 E1.97998
G1 X170.068 Y137.234 E2.03348
G1 X170.548 Y138.361 E2.08698
G1 X170.957 Y139.516 E2.14048
G1 X171.295 Y140.694 E2.19398
G1 X171.558 Y141.891 E2.24748
G1 X171.747 Y143.102 E2.30098
G1 X171.861 Y144.322 E2.35448
G1 X171.899 Y145.546 E2.40795
G1 X171.848 Y146.968 E2.47007
G1 X171.695 Y148.381 E2.53215
G1 X171.44 Y149.781 E2.59424
G1 X171.086 Y151.158 E2.65633
G1 X170.634 Y152.506 E2.71842
G1 X170.086 Y153.819 E2.78051
G1 X169.446 Y155.088 E2.8426
G1 X168.715 Y156.308 E2.90469
G1 X167.899 Y157.473 E2.96678
G1 X167.002 Y158.576 E3.02887
G1 X166.027 Y159.612 E3.09096
G1 X164.981 Y160.575 E3.15305
G1 X163.868 Y161.46 E3.21513
G1 X162.694 Y162.263 E3.27722
G1 X161.466 Y162.98 E3.33931
G1 X160.184 Y163.609 E3.40164
G1 X157.234 Y164.939 E3.54296
G1 X156.953 Y165.117 E3.55749
G1 X156.599 Y165.443 E3.5785
G1 X156.398 Y165.709 E3.59303
G1 X156.24 Y165.996 E3.60735
G1 X156.123 Y166.308 E3.62189
G1 X156.038 Y166.781 E3.64288
G1 X156.032 Y169.514 E3.76218
G1 X155.99 Y171.054 E3.82945
G1 X155.931 Y171.251 E3.83844
G1 X155.818 Y171.427 E3.84758
G1 X155.729 Y171.511 E3.8529
G1 X155.541 Y171.619 E3.86238
G1 X155.417 Y171.655 E3.868
G1 X155.27 Y171.669 E3.87447
G1 X128.831 Y171.67 E5.02881
G1 X128.685 Y171.655 E5.03523
G1 X128.474 Y171.58 E5.04499
G1 X128.369 Y171.51 E5.05049
G1 X128.224 Y171.35 E5.05993
G1 X128.132 Y171.154 E5.06938
G1 X128.106 Y171.023 E5.07519
G1 X128.103 Y168.852 E5.17001
G1 X128.131 Y168.686 E5.17736
G1 X128.194 Y168.534 E5.18454
G1 X128.347 Y168.344 E5.19519
G1 X129.397 Y167.47 E5.25482
G1 X130.379 Y166.57 E5.31302
G1 X131.317 Y165.623 E5.37121
G1 X132.209 Y164.632 E5.42941
G1 X133.052 Y163.599 E5.48761
G1 X133.845 Y162.528 E5.5458
G1 X134.585 Y161.419 E5.604
G1 X135.272 Y160.276 E5.66225
G1 X135.43 Y159.975 E5.6771
G1 X135.572 Y159.659 E5.6922
G1 X135.785 Y159.02 E5.72159
G1 X135.864 Y158.679 E5.7369
G1 X135.951 Y158.011 E5.76629
G1 X135.962 Y157.661 E5.78159
G1 X135.919 Y156.992 E5.81085
G1 X135.863 Y156.648 E5.82608
G1 X135.691 Y155.995 E5.85554
G1 X135.437 Y155.37 E5.885
G1 X134.727 Y154.016 E5.95176
G1 X134.241 Y152.936 E6.00349
G1 X133.822 Y151.827 E6.05522
G1 X133.471 Y150.695 E6.10695
G1 X133.191 Y149.544 E6.15868
G1 X132.982 Y148.378 E6.21041
G1 X132.844 Y147.201 E6.26214
G1 X132.779 Y146.018 E6.31387
G1 X132.787 Y144.833 E6.3656
G1 X132.867 Y143.651 E6.41733
G1 X133.019 Y142.476 E6.46906
G1 X133.243 Y141.313 E6.52079
G1 X133.537 Y140.165 E6.57252
G1 X133.901 Y139.038 E6.62425
G1 X134.334 Y137.935 E6.67598
G1 X134.966 Y136.577 E6.74137
G1 X135.175 Y136.002 E6.76809
G1 X135.317 Y135.402 E6.79499
G1 X135.388 Y134.796 E6.82162
G1 X135.384 Y134.121 E6.85113
G1 X135.342 Y133.733 E6.86813
G1 X135.186 Y133.01 E6.90045
G1 X134.928 Y132.311 E6.93299
G1 X134.576 Y131.66 E6.96527
G1 X133.65 Y130.292 E7.03743
G1 X132.647 Y128.985 E7.10934
G1 X131.568 Y127.74 E7.18125
G1 X130.324 Y126.447 E7.25961
G1 X130.229 Y126.241 E7.26952
G1 X130.214 Y126.154 E7.27336
;WIPE_START
M204 S6000
G1 X130.55 Y125.896 F12000
;WIPE_END
M204 S1500
G1 X130.483 Y125.856
;TYPE:Internal perimeter
G1 F3600
G1 X153.722 Y125.856 E8.28798
G1 X153.885 Y125.881 E8.29517
G1 X154.125 Y126.125 E8.31009
G1 X154.476 Y126.392 E8.32936
G1 X154.895 Y126.595 E8.3497
G1 X155.327 Y126.704 E8.36914
G1 X155.577 Y126.728 E8.38013
G1 X161.593 Y126.728 E8.64279
G1 X161.812 Y126.761 E8.65242
G1 X161.844 Y126.982 E8.66218
G1 X161.852 Y128.16 E8.71361
G1 X161.999 Y128.672 E8.73688
G1 X162.243 Y129.063 E8.75702
G1 X162.539 Y129.348 E8.77495
G1 X163.64 Y130.118 E8.83358
G1 X164.573 Y130.861 E8.88566
G1 X165.458 Y131.66 E8.93774
G1 X166.292 Y132.513 E8.98982
G1 X167.072 Y133.416 E9.04191
G1 X167.795 Y134.365 E9.094
G1 X168.457 Y135.357 E9.14608
G1 X169.057 Y136.388 E9.19817
G1 X169.591 Y137.455 E9.25024
G1 X170.058 Y138.552 E9.30232
G1 X170.457 Y139.676 E9.3544
G1 X170.785 Y140.823 E9.40648
G1 X171.042 Y141.988 E9.45856
G1 X171.226 Y143.167 E9.51064
G1 X171.337 Y144.354 E9.56272
G1 X171.374 Y145.544 E9.6147
G1 X171.324 Y146.93 E9.67523
G1 X171.175 Y148.306 E9.73567
G1 X170.927 Y149.668 E9.79611
G1 X170.582 Y151.009 E9.85655
G1 X170.142 Y152.321 E9.91699
G1 X169.609 Y153.599 E9.97743
G1 X168.985 Y154.835 E10.03787
G1 X168.274 Y156.023 E10.09831
G1 X167.48 Y157.156 E10.15875
G1 X166.606 Y158.23 E10.21919
G1 X165.658 Y159.238 E10.27963
G1 X164.639 Y160.176 E10.34007
G1 X163.556 Y161.037 E10.40051
G1 X162.413 Y161.819 E10.46095
G1 X161.218 Y162.517 E10.52139
G1 X159.961 Y163.134 E10.58252
G1 X156.984 Y164.475 E10.72509
G1 X156.631 Y164.699 E10.74331
G1 X156.208 Y165.089 E10.76845
G1 X155.957 Y165.423 E10.7867
G1 X155.762 Y165.777 E10.80431
G1 X155.615 Y166.168 E10.82256
G1 X155.513 Y166.734 E10.84766
G1 X155.507 Y169.506 E10.9687
G1 X155.463 Y171.124 E11.03936
G1 X155.245 Y171.144 E11.0489
G1 X128.857 Y171.144 E12.20103
G1 X128.631 Y171.078 E12.21131
G1 X128.628 Y168.896 E12.3066
G1 X128.641 Y168.816 E12.31014
G1 X128.723 Y168.715 E12.31582
G1 X129.742 Y167.866 E12.37374
G1 X130.743 Y166.948 E12.43303
G1 X131.699 Y165.983 E12.49232
G1 X132.608 Y164.974 E12.55162
G1 X133.467 Y163.922 E12.61092
G1 X134.274 Y162.83 E12.67022
G1 X135.029 Y161.7 E12.72951
G1 X135.73 Y160.533 E12.78896
G1 X135.903 Y160.204 E12.8052
G1 X136.061 Y159.85 E12.82215
G1 X136.291 Y159.163 E12.85376
G1 X136.381 Y158.772 E12.87129
G1 X136.475 Y158.054 E12.90291
G1 X136.488 Y157.653 E12.92043
G1 X136.441 Y156.933 E12.9519
G1 X136.377 Y156.539 E12.96935
G1 X136.191 Y155.829 E13.00139
G1 X135.914 Y155.149 E13.03345
G1 X135.199 Y153.786 E13.10063
G1 X134.726 Y152.735 E13.15096
G1 X134.319 Y151.657 E13.20128
G1 X133.978 Y150.556 E13.25161
G1 X133.705 Y149.436 E13.30193
G1 X133.502 Y148.301 E13.35226
G1 X133.368 Y147.156 E13.40259
G1 X133.304 Y146.005 E13.45291
G1 X133.312 Y144.853 E13.50324
G1 X133.389 Y143.703 E13.55356
G1 X133.537 Y142.56 E13.60389
G1 X133.755 Y141.428 E13.65421
G1 X134.042 Y140.311 E13.70454
G1 X134.396 Y139.215 E13.75486
G1 X134.817 Y138.142 E13.80518
G1 X135.451 Y136.778 E13.87085
G1 X135.679 Y136.153 E13.8999
G1 X135.835 Y135.493 E13.92948
G1 X135.913 Y134.825 E13.95884
G1 X135.909 Y134.091 E13.9909
G1 X135.861 Y133.65 E14.01027
G1 X135.691 Y132.863 E14.04543
G1 X135.407 Y132.094 E14.08121
G1 X135.026 Y131.388 E14.11627
G1 X134.076 Y129.984 E14.19026
G1 X133.054 Y128.653 E14.26353
G1 X131.956 Y127.386 E14.33672
G1 X130.525 Y125.899 E14.42684
G92 E0
G1 E-0.7 F3300
M204 S6000
G1 Z0.5 F12000
; acceleration to travel
M204 S6500
G1 X151.341 Y128.444
; decel to extrusion
M204 S1000
G1 X154.543 Y128.836
; end travel
G1 Z0.2
G1 E0 F2700
;TYPE:External perimeter
G1 F3600
G1 X154.322 Y129.168 E0.01742
G1 X154.169 Y129.536 E0.03484
G1 X154.091 Y129.928 E0.05226
G1 X154.091 Y130.327 E0.06968
G1 X154.169 Y130.718 E0.0871
G1 X154.322 Y131.087 E0.10452
G1 X154.543 Y131.418 E0.12194
G1 X154.826 Y131.701 E0.13937
G1 X155.157 Y131.922 E0.15679
G1 X155.526 Y132.075 E0.17421
G1 X155.917 Y132.153 E0.19163
G1 X156.316 Y132.153 E0.20905
G1 X156.708 Y132.075 E0.22647
G1 X157.076 Y131.922 E0.24389
G1 X157.408 Y131.701 E0.26131
G1 X157.69 Y131.418 E0.27873
G1 X157.912 Y131.087 E0.29615
G1 X158.065 Y130.718 E0.31357
G1 X158.142 Y130.327 E0.33099
G1 X158.142 Y129.928 E0.34841
G1 X158.065 Y129.536 E0.36583
