; generated by SuperSlicer 2.4 on 2023-02-15 at 10:04:12 UTC


;
;

;
;
; 

; external perimeters extrusion width = 0.42mm
; perimeters extrusion width = 0.47mm
; infill extrusion width = 0.45mm
; solid infill extrusion width = 0.47mm
; top infill extrusion width = 0.45mm
; support material extrusion width = 0.40mm
; first layer extrusion width = 0.61mm

; object:{"name":"RPi-Pico_Din_Mount","id":"RPi-Pico_Din_Mount.stl id:0 copy 0","object_center":[150.000000,148.500000,0.000000],"boundingbox_center":[150.000000,148.500000,3.500473],"boundingbox_size":[58.849640,67.030914,7.000946]}
; plater:{"center":[150.000000,148.500000,0.000000],"boundingbox_center":[150.000000,148.500000,3.500473],"boundingbox_size":[58.849640,67.030914,7.000946]}

;TYPE:Custom
M104 S0 ; Stops SuperSlicer from sending temp waits separately


; Pre-Processed for Cancel-Object support by preprocess_cancellation v0.2.0
; 1 known objects
EXCLUDE_OBJECT_DEFINE NAME=RPi_Pico_Din_Mount_stl_id_0_copy_0 CENTER=149.974,148.141 POLYGON=[[120.788,115.197],[120.788,181.803],[179.212,181.803],[179.212,115.197]]

M140 S0

print_start EXTRUDER=250 BED=105 CHAMBER=0
M107
G21 ; set units to millimeters
G90 ; use absolute coordinates
M83 ; use relative distances for extrusion
; Filament gcode
;_TOOLCHANGE 0
M107
;LAYER_CHANGE
;Z:0.21875
;HEIGHT:0.21875
TIMELAPSE_TAKE_FRAME
;BEFORE_LAYER_CHANGE
;0.21875


G1 Z0.21875 F8400
;AFTER_LAYER_CHANGE
;0.21875
G92 E0
G1 E-0.9 F3000
G1 Z0.71875 F8400
G1 X117.692 Y116.796
G1 Z0.21875
G1 E0.9 F3000
;TYPE:Skirt
;WIDTH:0.44
G1 F1800
G1 X117.258 Y117.314 E0.02416
G1 X116.594 Y118.355 E0.04415
G1 X116.309 Y118.968 E0.02416
G1 X115.937 Y120.146 E0.04415
G1 X115.82 Y120.811 E0.02416
G1 X115.773 Y122.384 E0.05624
G1 X120.829 Y180.163 E2.07331
G1 X121.148 Y181.703 E0.05623
G1 X121.379 Y182.339 E0.02416
G1 X121.949 Y183.434 E0.04414
G1 X122.337 Y183.988 E0.02416
G1 X123.171 Y184.898 E0.04415
G1 X123.689 Y185.333 E0.02417
G1 X124.73 Y185.996 E0.04415
G1 X125.343 Y186.282 E0.02416
G1 X126.521 Y186.653 E0.04414
G1 X127.186 Y186.771 E0.02416
G1 X128.594 Y186.81 E0.05033
G1 X177.734 Y182.51 E1.76331
G1 X179.113 Y182.227 E0.05032
G1 X179.748 Y181.996 E0.02416
G1 X180.843 Y181.426 E0.04414
G1 X181.397 Y181.038 E0.02416
G1 X182.307 Y180.204 E0.04414
G1 X182.741 Y179.686 E0.02416
G1 X183.405 Y178.644 E0.04414
G1 X183.69 Y178.032 E0.02416
G1 X184.062 Y176.854 E0.04414
G1 X184.179 Y176.189 E0.02417
G1 X184.226 Y174.616 E0.05622
G1 X179.171 Y116.837 E2.07331
G1 X178.852 Y115.297 E0.05623
G1 X178.621 Y114.662 E0.02416
G1 X178.051 Y113.566 E0.04414
G1 X177.663 Y113.013 E0.02416
G1 X176.829 Y112.102 E0.04414
G1 X176.311 Y111.668 E0.02417
G1 X175.269 Y111.004 E0.04414
G1 X174.657 Y110.719 E0.02416
G1 X173.479 Y110.347 E0.04414
G1 X172.814 Y110.23 E0.02416
G1 X171.407 Y110.191 E0.05032
G1 X122.266 Y114.489 E1.76331
G1 X120.887 Y114.772 E0.05033
G1 X120.252 Y115.003 E0.02416
G1 X119.157 Y115.574 E0.04415
G1 X118.603 Y115.961 E0.02416
G1 X117.737 Y116.755 E0.042
G1 X118.002 Y117.045 F8400
G1 F1800
G1 X117.958 Y117.085 E0.00214
G1 X117.589 Y117.525 E0.0205
G1 X116.926 Y118.566 E0.04415
G1 X116.683 Y119.086 E0.02049
G1 X116.312 Y120.264 E0.04415
G1 X116.212 Y120.828 E0.0205
G1 X116.165 Y122.349 E0.0544
G1 X121.22 Y180.129 E2.07331
G1 X121.531 Y181.618 E0.0544
G1 X121.727 Y182.157 E0.0205
G1 X122.297 Y183.253 E0.04414
G1 X122.626 Y183.722 E0.02049
G1 X123.461 Y184.633 E0.04415
G1 X123.9 Y185.001 E0.0205
G1 X124.942 Y185.665 E0.04415
G1 X125.461 Y185.907 E0.0205
G1 X126.639 Y186.279 E0.04414
G1 X127.204 Y186.378 E0.02049
G1 X128.559 Y186.419 E0.04849
G1 X177.699 Y182.119 E1.76331
G1 X179.028 Y181.843 E0.04849
G1 X179.566 Y181.647 E0.02049
G1 X180.662 Y181.077 E0.04414
G1 X181.131 Y180.748 E0.0205
G1 X182.042 Y179.914 E0.04414
G1 X182.41 Y179.475 E0.0205
G1 X183.074 Y178.433 E0.04414
G1 X183.316 Y177.914 E0.02049
G1 X183.687 Y176.736 E0.04414
G1 X183.787 Y176.171 E0.0205
G1 X183.834 Y174.651 E0.05439
G1 X178.78 Y116.871 E2.07331
G1 X178.469 Y115.382 E0.0544
G1 X178.272 Y114.843 E0.02049
G1 X177.702 Y113.748 E0.04414
G1 X177.373 Y113.278 E0.02049
G1 X176.539 Y112.368 E0.04414
G1 X176.1 Y111.999 E0.0205
G1 X175.058 Y111.336 E0.04414
G1 X174.539 Y111.093 E0.02049
G1 X173.361 Y110.722 E0.04414
G1 X172.797 Y110.622 E0.0205
G1 X171.441 Y110.582 E0.04849
G1 X122.301 Y114.88 E1.76331
G1 X120.972 Y115.156 E0.04849
G1 X120.434 Y115.352 E0.0205
G1 X119.338 Y115.922 E0.04415
G1 X118.868 Y116.251 E0.0205
G1 X118.046 Y117.004 E0.03986
G1 E-0.9 F3000
G1 Z0.71875 F8400
G1 X119.993 Y118.928
G1 Z0.21875
G1 E0.9 F3000
;WIDTH:0.608
;HEIGHT:0.22
G1 F1800
G1 X120.527 Y118.439 E0.03712
G1 X120.827 Y118.229 E0.01881
G1 X121.462 Y117.898 E0.03674
G1 X121.687 Y117.807 E0.01245
G1 X122.648 Y117.594 E0.05047
G1 X171.644 Y113.313 E2.52269
G1 X172.415 Y113.342 E0.03961
G1 X172.741 Y113.395 E0.01693
G1 X173.545 Y113.652 E0.0433
G1 X173.808 Y113.78 E0.01499
G1 X174.479 Y114.214 E0.04099
G1 X174.701 Y114.407 E0.01511
G1 X175.268 Y115.041 E0.04365
G1 X175.4 Y115.245 E0.01241
G1 X175.761 Y115.951 E0.04068
G1 X175.857 Y116.229 E0.0151
G1 X176.031 Y117.062 E0.04365
G1 X176.043 Y117.302 E0.01234
G1 X176.012 Y118.01 E0.03634
G1 X175.979 Y118.248 E0.01233
G1 X175.735 Y119.057 E0.04334
G1 X175.64 Y119.283 E0.01257
G1 X175.19 Y120.007 E0.04374
G1 X174.977 Y120.265 E0.01716
G1 X174.418 Y120.781 E0.039
G1 X174.114 Y120.994 E0.01905
G1 X173.353 Y121.379 E0.04373
G1 X173.124 Y121.452 E0.01233
G1 X172.443 Y121.603 E0.03577
G1 X165.34 Y122.235 E0.36578
G1 X164.255 Y122.419 E0.05644
G1 X163.29 Y122.75 E0.05232
G1 X162.376 Y123.24 E0.05319
G1 X161.767 Y123.69 E0.03884
G1 X161.595 Y123.835 E0.01154
G1 X161.042 Y124.397 E0.04042
G1 X160.898 Y124.57 E0.01155
G1 X160.44 Y125.211 E0.04042
G1 X160.327 Y125.406 E0.01155
G1 X159.99 Y126.084 E0.03884
G1 X159.666 Y127.069 E0.05319
G1 X159.507 Y128.077 E0.05232
G1 X159.514 Y129.177 E0.05642
G1 X162.725 Y165.878 E1.88967
G1 X162.91 Y166.969 E0.0568
G1 X163.159 Y167.711 E0.04012
G1 X163.231 Y167.911 E0.0109
G1 X163.73 Y168.841 E0.05414
G1 X164.181 Y169.45 E0.03886
G1 X164.325 Y169.622 E0.01153
G1 X164.888 Y170.175 E0.04045
G1 X165.06 Y170.319 E0.01152
G1 X165.702 Y170.777 E0.04046
G1 X165.896 Y170.889 E0.01151
G1 X166.594 Y171.237 E0.03998
G1 X167.551 Y171.55 E0.05163
G1 X168.567 Y171.71 E0.05279
G1 X169.667 Y171.703 E0.05642
G1 X176.642 Y171.093 E0.35914
G1 X177.467 Y171.121 E0.0423
G1 X177.796 Y171.175 E0.0171
G1 X178.6 Y171.431 E0.04331
G1 X178.864 Y171.56 E0.01507
G1 X179.507 Y171.973 E0.03917
G1 X179.755 Y172.186 E0.01678
G1 X180.24 Y172.716 E0.03684
G1 X180.45 Y173.016 E0.01881
G1 X180.784 Y173.656 E0.03703
G1 X180.888 Y173.927 E0.01489
G1 X181.076 Y174.77 E0.04429
G1 X181.098 Y175.034 E0.01356
G1 X181.063 Y175.838 E0.04132
G1 X181 Y176.167 E0.01717
G1 X180.736 Y176.973 E0.04346
G1 X180.627 Y177.187 E0.01233
G1 X180.242 Y177.79 E0.03672
G1 X180.006 Y178.071 E0.01881
G1 X179.473 Y178.56 E0.03711
G1 X179.173 Y178.77 E0.01881
G1 X178.537 Y179.101 E0.03672
G1 X178.313 Y179.192 E0.01245
G1 X177.352 Y179.405 E0.05046
G1 X128.432 Y183.686 E2.51883
G1 X127.585 Y183.659 E0.04345
G1 X127.217 Y183.595 E0.01916
G1 X126.534 Y183.379 E0.03674
G1 X126.312 Y183.286 E0.01234
G1 X125.588 Y182.836 E0.04374
G1 X125.301 Y182.595 E0.0192
G1 X124.786 Y182.029 E0.03926
G1 X124.602 Y181.759 E0.01678
G1 X124.271 Y181.123 E0.03677
G1 X124.167 Y180.852 E0.01487
G1 X123.988 Y180.072 E0.04106
G1 X123.956 Y179.705 E0.01888
G1 X123.987 Y178.99 E0.03673
G1 X124.02 Y178.752 E0.01234
G1 X124.265 Y177.943 E0.04335
G1 X124.361 Y177.715 E0.01265
G1 X124.892 Y176.882 E0.05069
G1 X125.056 Y176.7 E0.01256
G1 X125.617 Y176.19 E0.03888
G1 X125.891 Y176.004 E0.01702
G1 X126.647 Y175.621 E0.04347
G1 X126.877 Y175.547 E0.01237
G1 X127.576 Y175.393 E0.03672
G1 X134.66 Y174.765 E0.36481
G1 X135.745 Y174.581 E0.05644
G1 X136.719 Y174.247 E0.0528
G1 X137.607 Y173.773 E0.05163
G1 X138.232 Y173.31 E0.03992
G1 X138.405 Y173.165 E0.01158
G1 X138.957 Y172.603 E0.0404
G1 X139.102 Y172.43 E0.01158
G1 X139.56 Y171.789 E0.0404
G1 X139.673 Y171.593 E0.01157
G1 X140.01 Y170.916 E0.03882
G1 X140.337 Y169.924 E0.05358
G1 X140.493 Y168.927 E0.05176
G1 X140.486 Y167.823 E0.0566
G1 X137.275 Y131.123 E1.88967
G1 X137.09 Y130.038 E0.05642
G1 X136.76 Y129.073 E0.05232
G1 X136.269 Y128.159 E0.0532
G1 X135.819 Y127.551 E0.03879
G1 X135.674 Y127.378 E0.0116
G1 X135.113 Y126.826 E0.04037
G1 X134.939 Y126.681 E0.01161
G1 X134.299 Y126.224 E0.04037
G1 X134.103 Y126.111 E0.01161
G1 X133.426 Y125.773 E0.03878
G1 X132.441 Y125.449 E0.0532
G1 X131.433 Y125.291 E0.05232
G1 X130.333 Y125.298 E0.05643
G1 X123.358 Y125.908 E0.35914
G1 X122.533 Y125.88 E0.04231
G1 X122.204 Y125.826 E0.01711
G1 X121.4 Y125.57 E0.04331
G1 X121.138 Y125.442 E0.01492
G1 X120.533 Y125.057 E0.03677
G1 X120.28 Y124.85 E0.01678
G1 X119.765 Y124.291 E0.039
G1 X119.569 Y124.019 E0.01717
G1 X119.162 Y123.22 E0.04598
G1 X119.087 Y122.989 E0.01246
G1 X118.921 Y122.214 E0.04068
G1 X118.901 Y121.924 E0.01487
G1 X118.932 Y121.203 E0.03704
G1 X118.997 Y120.837 E0.01905
G1 X119.263 Y120.027 E0.04374
G1 X119.373 Y119.813 E0.01233
G1 X119.757 Y119.209 E0.03674
G1 X119.955 Y118.974 E0.01573
G1 X120.382 Y119.333 F8400
G1 F1800
G1 X120.892 Y118.865 E0.03549
G1 X121.102 Y118.718 E0.01317
G1 X121.709 Y118.402 E0.03508
G1 X121.874 Y118.336 E0.00912
G1 X122.715 Y118.151 E0.04416
G1 X171.675 Y113.873 E2.52084
G1 X172.376 Y113.902 E0.036
G1 X172.592 Y113.936 E0.01122
G1 X173.321 Y114.166 E0.03919
G1 X173.52 Y114.261 E0.01131
G1 X174.128 Y114.652 E0.03711
G1 X174.296 Y114.796 E0.01137
G1 X174.811 Y115.367 E0.0394
G1 X174.908 Y115.515 E0.00907
G1 X175.239 Y116.155 E0.03695
G1 X175.312 Y116.364 E0.01136
G1 X175.473 Y117.115 E0.03941
G1 X175.482 Y117.292 E0.00908
G1 X175.453 Y117.972 E0.03491
G1 X175.427 Y118.147 E0.00907
G1 X175.203 Y118.878 E0.03925
G1 X175.133 Y119.042 E0.00915
G1 X174.725 Y119.693 E0.0394
G1 X174.559 Y119.891 E0.01324
G1 X174.053 Y120.355 E0.03523
G1 X173.841 Y120.503 E0.01324
G1 X173.157 Y120.853 E0.0394
G1 X172.989 Y120.908 E0.00907
G1 X172.34 Y121.052 E0.03412
G1 X165.268 Y121.678 E0.36414
G1 X164.116 Y121.874 E0.05993
G1 X163.065 Y122.234 E0.05699
G1 X162.075 Y122.765 E0.05761
G1 X161.42 Y123.25 E0.04181
G1 X161.214 Y123.423 E0.0138
G1 X160.627 Y124.02 E0.04294
G1 X160.454 Y124.226 E0.01381
G1 X159.968 Y124.908 E0.04293
G1 X159.833 Y125.141 E0.01381
G1 X159.47 Y125.87 E0.0418
G1 X159.119 Y126.937 E0.05761
G1 X158.946 Y128.035 E0.05699
G1 X158.954 Y129.203 E0.05992
G1 X162.168 Y165.949 E1.892
G1 X162.365 Y167.106 E0.06019
G1 X162.629 Y167.896 E0.04273
G1 X162.718 Y168.14 E0.01334
G1 X163.255 Y169.142 E0.05829
G1 X163.74 Y169.797 E0.04183
G1 X163.913 Y170.003 E0.01379
G1 X164.51 Y170.59 E0.04296
G1 X164.716 Y170.763 E0.01378
G1 X165.398 Y171.249 E0.04297
G1 X165.631 Y171.384 E0.01377
G1 X166.38 Y171.757 E0.04297
G1 X167.419 Y172.097 E0.05605
G1 X168.525 Y172.271 E0.05744
G1 X169.693 Y172.263 E0.05992
G1 X176.674 Y171.653 E0.35942
G1 X177.429 Y171.681 E0.03876
G1 X177.647 Y171.716 E0.01131
G1 X178.376 Y171.945 E0.03919
G1 X178.576 Y172.042 E0.01139
G1 X179.187 Y172.434 E0.03726
G1 X179.352 Y172.577 E0.01122
G1 X179.814 Y173.081 E0.03507
G1 X179.961 Y173.291 E0.01317
G1 X180.279 Y173.9 E0.03522
G1 X180.356 Y174.107 E0.01129
G1 X180.519 Y174.839 E0.03851
G1 X180.537 Y175.028 E0.00972
G1 X180.503 Y175.794 E0.0393
G1 X180.462 Y176.011 E0.01137
G1 X180.226 Y176.739 E0.03924
G1 X180.146 Y176.897 E0.00907
G1 X179.779 Y177.474 E0.03507
G1 X179.614 Y177.67 E0.01317
G1 X179.108 Y178.134 E0.03522
G1 X178.897 Y178.282 E0.01317
G1 X178.291 Y178.597 E0.03507
G1 X178.126 Y178.663 E0.00912
G1 X177.285 Y178.848 E0.04414
G1 X128.4 Y183.125 E2.51703
G1 X127.624 Y183.099 E0.03983
G1 X127.368 Y183.054 E0.01331
G1 X126.716 Y182.849 E0.03507
G1 X126.553 Y182.779 E0.00907
G1 X125.902 Y182.371 E0.03941
G1 X125.703 Y182.204 E0.01332
G1 X125.214 Y181.667 E0.03727
G1 X125.092 Y181.486 E0.01121
G1 X124.776 Y180.879 E0.03508
G1 X124.698 Y180.673 E0.01129
G1 X124.539 Y179.967 E0.03711
G1 X124.517 Y179.711 E0.01317
G1 X124.547 Y179.028 E0.03508
G1 X124.572 Y178.853 E0.00907
G1 X124.797 Y178.122 E0.03925
G1 X124.867 Y177.957 E0.00918
G1 X125.325 Y177.239 E0.04369
G1 X125.444 Y177.105 E0.00918
G1 X125.979 Y176.618 E0.03711
G1 X126.161 Y176.495 E0.01129
G1 X126.843 Y176.147 E0.03925
G1 X127.011 Y176.091 E0.00909
G1 X127.679 Y175.944 E0.03507
G1 X134.732 Y175.322 E0.36318
G1 X135.884 Y175.126 E0.05993
G1 X136.943 Y174.763 E0.05744
G1 X137.907 Y174.248 E0.05605
G1 X138.58 Y173.75 E0.0429
G1 X138.786 Y173.577 E0.01384
G1 X139.373 Y172.98 E0.04291
G1 X139.546 Y172.774 E0.01384
G1 X140.032 Y172.092 E0.04291
G1 X140.167 Y171.859 E0.01384
G1 X140.53 Y171.13 E0.04178
G1 X140.884 Y170.056 E0.05801
G1 X141.054 Y168.969 E0.05643
G1 X141.046 Y167.797 E0.06009
G1 X137.831 Y131.051 E1.892
G1 X137.636 Y129.899 E0.05992
G1 X137.275 Y128.848 E0.057
G1 X136.744 Y127.858 E0.05762
G1 X136.26 Y127.204 E0.04176
G1 X136.086 Y126.997 E0.01386
G1 X135.49 Y126.411 E0.04288
G1 X135.283 Y126.237 E0.01387
G1 X134.602 Y125.752 E0.04288
G1 X134.368 Y125.616 E0.01387
G1 X133.64 Y125.253 E0.04175
G1 X132.573 Y124.902 E0.05762
G1 X131.475 Y124.73 E0.057
G1 X130.307 Y124.737 E0.05993
G1 X123.326 Y125.347 E0.35941
G1 X122.571 Y125.32 E0.03877
G1 X122.353 Y125.285 E0.01131
G1 X121.624 Y125.055 E0.0392
G1 X121.425 Y124.96 E0.01132
G1 X120.848 Y124.593 E0.03508
G1 X120.679 Y124.455 E0.01122
G1 X120.188 Y123.923 E0.03712
G1 X120.058 Y123.743 E0.01137
G1 X119.688 Y123.024 E0.0415
G1 X119.632 Y122.856 E0.0091
G1 X119.479 Y122.152 E0.03696
G1 X119.462 Y121.932 E0.01129
G1 X119.492 Y121.246 E0.03524
G1 X119.537 Y120.992 E0.01324
G1 X119.773 Y120.26 E0.03941
G1 X119.853 Y120.103 E0.00907
G1 X120.22 Y119.526 E0.03508
G1 X120.344 Y119.379 E0.00984
G1 X120.771 Y119.738 F8400
G1 F1800
G1 X121.257 Y119.291 E0.03386
G1 X121.378 Y119.207 E0.00753
G1 X121.954 Y118.906 E0.03335
G1 X122.057 Y118.867 E0.00565
G1 X122.782 Y118.708 E0.03805
G1 X171.705 Y114.434 E2.51898
G1 X172.336 Y114.461 E0.0324
G1 X172.445 Y114.478 E0.00565
G1 X173.101 Y114.682 E0.03522
G1 X173.234 Y114.744 E0.00753
G1 X173.782 Y115.093 E0.03334
G1 X173.894 Y115.188 E0.00753
G1 X174.357 Y115.696 E0.03522
G1 X174.418 Y115.787 E0.00565
G1 X174.718 Y116.364 E0.03334
G1 X174.768 Y116.502 E0.00753
G1 X174.914 Y117.173 E0.03522
G1 X174.922 Y117.283 E0.00565
G1 X174.893 Y117.932 E0.03334
G1 X174.876 Y118.041 E0.00565
G1 X174.672 Y118.696 E0.03522
G1 X174.628 Y118.797 E0.00565
G1 X174.261 Y119.378 E0.03522
G1 X174.167 Y119.49 E0.00753
G1 X173.687 Y119.929 E0.03334
G1 X173.567 Y120.013 E0.00753
G1 X172.957 Y120.328 E0.03522
G1 X172.853 Y120.364 E0.00565
G1 X172.236 Y120.501 E0.0324
G1 X165.196 Y121.121 E0.36249
G1 X163.977 Y121.328 E0.06342
G1 X162.84 Y121.718 E0.06166
G1 X161.774 Y122.29 E0.06203
G1 X161.073 Y122.809 E0.04477
G1 X160.833 Y123.011 E0.01607
G1 X160.212 Y123.643 E0.04545
G1 X160.01 Y123.883 E0.01607
G1 X159.496 Y124.604 E0.04545
G1 X159.339 Y124.875 E0.01607
G1 X158.95 Y125.656 E0.04477
G1 X158.572 Y126.805 E0.06203
G1 X158.385 Y127.993 E0.06167
G1 X158.393 Y129.229 E0.06342
G1 X161.612 Y166.021 E1.89433
G1 X161.819 Y167.243 E0.06358
G1 X162.1 Y168.081 E0.04533
G1 X162.205 Y168.37 E0.01578
G1 X162.78 Y169.443 E0.06244
G1 X163.3 Y170.144 E0.04479
G1 X163.501 Y170.384 E0.01605
G1 X164.133 Y171.006 E0.04547
G1 X164.373 Y171.207 E0.01604
G1 X165.094 Y171.721 E0.04548
G1 X165.365 Y171.878 E0.01603
G1 X166.159 Y172.273 E0.04548
G1 X166.452 Y172.38 E0.01603
G1 X167.29 Y172.645 E0.04507
G1 X168.483 Y172.832 E0.06193
G1 X169.72 Y172.824 E0.06342
G1 X176.705 Y172.214 E0.35967
G1 X177.391 Y172.241 E0.03522
G1 X177.5 Y172.257 E0.00565
G1 X178.156 Y172.462 E0.03522
G1 X178.289 Y172.524 E0.00753
G1 X178.866 Y172.895 E0.03522
G1 X178.949 Y172.967 E0.00565
G1 X179.388 Y173.446 E0.03334
G1 X179.473 Y173.567 E0.00753
G1 X179.773 Y174.143 E0.03334
G1 X179.823 Y174.281 E0.00753
G1 X179.964 Y174.916 E0.03334
G1 X179.976 Y175.025 E0.00565
G1 X179.944 Y175.748 E0.0371
G1 X179.923 Y175.856 E0.00565
G1 X179.714 Y176.51 E0.03522
G1 X179.665 Y176.609 E0.00565
