; generated by SuperSlicer 2.5.59 on 2023-03-19 at 19:40:41 UTC


;
;

;
;
; 

; external perimeters extrusion width = 0.45mm
; perimeters extrusion width = 0.45mm
; infill extrusion width = 0.45mm
; solid infill extrusion width = 0.45mm
; top infill extrusion width = 0.45mm
; support material extrusion width = 0.40mm
; first layer extrusion width = 0.60mm

; object:{"name":"SB2040 V2","id":"SB2040 V2.stl id:0 copy 0","object_center":[150.000000,148.500000,0.000000],"boundingbox_center":[150.000000,148.500000,21.100002],"boundingbox_size":[56.599554,69.376263,42.200005]}
EXCLUDE_OBJECT_DEFINE NAME=SB2040_V2_stl_id_0_copy_0 CENTER=150.000000,148.500000 POLYGON=[[121.700224,172.203792],[121.700448,172.063664],[121.703768,171.970128],[121.723112,171.737248],[121.749904,171.552304],[121.758184,171.506192],[121.808824,171.278048],[121.874744,171.053968],[121.874768,171.053888],[121.874784,171.053840],[121.955784,170.834624],[122.051424,170.621392],[122.072208,170.579712],[122.161288,170.415136],[122.284864,170.216784],[122.337896,170.140016],[160.011824,117.273936],[162.604752,113.811872],[164.997872,113.811872],[177.790864,130.341384],[177.927504,130.542584],[178.045344,130.748200],[178.141216,130.951936],[178.213712,131.147216],[178.263360,131.327608],[178.291168,131.487736],[178.299776,131.625672],[178.299776,161.955104],[178.290816,162.093472],[178.262656,162.254496],[178.213312,162.434464],[178.140880,162.629600],[178.044640,162.833568],[177.927392,163.038688],[177.792592,163.237856],[177.642592,163.425056],[169.362960,172.642288],[160.954000,179.427584],[158.181568,181.664672],[158.089872,181.738640],[145.147056,183.188144],[128.344528,183.188144],[126.563664,182.687344],[126.055616,182.502624],[122.006872,173.562448],[121.917736,173.346416],[121.843416,173.124848],[121.830368,173.079984],[121.784272,172.898768],[121.740568,172.669184],[121.727464,172.576656],[121.712512,172.437184],[121.700224,172.203792]]
; plater:{"center":[150.000000,148.500000,0.000000],"boundingbox_center":[150.000000,148.500000,21.100002],"boundingbox_size":[56.599554,69.376263,42.200005]}

;TYPE:Custom
SET_PRINT_STATS_INFO TOTAL_LAYER=303

M104 S0 ; Stops SuperSlicer from sending temp waits separately

M109 S0

M140 S0

print_start EXTRUDER=250 BED=105 CHAMBER=0
G21 ; set units to millimeters
G90 ; use absolute coordinates
M82 ; use absolute distances for extrusion
G92 E0
; Filament gcode
;_TOOLCHANGE 0
M107
;LAYER_CHANGE
;Z:0.21875
;HEIGHT:0.21875
TIMELAPSE_TAKE_FRAME
;BEFORE_LAYER_CHANGE
;0.21875


G1 E-0.8 F2400
G1 Z0.2 F9000
G1 Z0.21875
SET_PRINT_STATS_INFO CURRENT_LAYER=1
;AFTER_LAYER_CHANGE
;0.21875
G92 E0
G1 Z0.41875
G1 X151.181 Y126.918
G1 Z0.21875
G1 E0.8 F2400
;TYPE:Skirt
;WIDTH:0.54
G1 F2100
G1 X117.388 Y167.172 E3.15679
G1 X116.391 Y169.135 E3.2555
G1 X116.186 Y169.911 E3.29151
G1 X116.045 Y171.71 E3.3724
G1 X116.057 Y172.792 E3.42095
G1 X116.277 Y174.239 E3.48658
G1 X116.954 Y176.426 E3.58923
G1 X119.328 Y181.422 E3.83724
G1 X120.534 Y183.327 E3.93837
G1 X121.954 Y184.319 E4.01604
G1 X129.264 Y185.894 E4.35132
G1 X129.778 Y185.944 E4.37449
G1 X143.608 Y185.682 E4.99477
G1 X144.313 Y185.554 E5.0269
G1 X157.919 Y180.735 E5.67416
G1 X158.568 Y180.375 E5.70743
G1 X177.696 Y165.118 E6.80457
G1 X178.539 Y163.368 E6.89169
G1 X178.539 Y130.213 E8.37839
G1 X178.319 Y129.245 E8.42292
G1 X177.419 Y128.274 E8.48227
G1 X163.192 Y120.06 E9.21892
G1 X162.073 Y119.76 E9.2709
G1 X158.234 Y119.76 E9.44301
G1 X156.52 Y120.559 E9.52782
G1 X151.22 Y126.872 E9.89746
G1 X151.597 Y127.189 F9000
G1 F2100
G1 X117.769 Y167.484 E12.25663
G1 X116.837 Y169.345 E12.34997
G1 X116.677 Y169.95 E12.37805
G1 X116.531 Y171.915 E12.46639
G1 X116.57 Y173.019 E12.51592
G1 X116.753 Y174.111 E12.56558
G1 X117.4 Y176.216 E12.66433
G1 X119.64 Y180.969 E12.89994
G1 X120.95 Y183.064 E13.01074
G1 X122.058 Y183.837 E13.07132
G1 X129.768 Y185.451 E13.42456
G1 X143.599 Y185.189 E14.04484
G1 X144.149 Y185.089 E14.0699
G1 X157.755 Y180.271 E14.71715
G1 X158.261 Y179.99 E14.7431
G1 X177.389 Y164.733 E15.84024
G1 X178.046 Y163.368 E15.90819
G1 X178.046 Y130.213 E17.39489
G1 X177.93 Y129.586 E17.42348
G1 X177.173 Y128.701 E17.47572
G1 X162.946 Y120.487 E18.21237
G1 X162.073 Y120.253 E18.25291
G1 X158.234 Y120.253 E18.42502
G1 X156.897 Y120.876 E18.49116
G1 X151.636 Y127.143 E18.85811
G92 E0
G1 E-0.8 F2400
G1 Z0.41875 F9000
G1 X158.958 Y127.143
G1 Z0.21875
G1 E0 F2400
;WIDTH:0.6
;HEIGHT:0.22
G1 F2100
G1 X158.958 Y122.885 E0.21532
G1 X159.12 Y122.723 E0.22689
G1 X161.841 Y122.723 E0.36448
G1 X161.911 Y122.741 E0.36816
G1 X175.502 Y130.588 E1.16162
G1 X175.576 Y130.716 E1.16911
G1 X175.576 Y162.864 E2.79455
G1 X175.502 Y162.993 E2.80204
G1 X171.447 Y165.334 E3.03879
G1 X168.945 Y168.192 E3.23086
G1 X168.928 Y168.209 E3.23206
G1 X156.832 Y177.969 E4.01788
G1 X156.791 Y177.992 E4.02025
G1 X143.464 Y182.711 E4.73511
G1 X143.417 Y182.719 E4.7375
G1 X129.982 Y182.719 E5.41679
G1 X129.885 Y182.682 E5.42206
G1 X129.085 Y181.945 E5.47704
G1 X129.128 Y182.03 E5.48186
G1 X129.142 Y182.078 E5.48439
G1 X129.196 Y182.599 E5.5109
G1 X129.144 Y182.726 E5.51782
G1 X128.817 Y183.003 E5.53949
G1 X128.684 Y183.033 E5.54641
G1 X124.188 Y181.796 E5.78213
G1 X122.94 Y181.794 E5.84527
G1 X122.872 Y181.776 E5.8488
G1 X122.687 Y181.674 E5.8595
G1 X122.636 Y181.626 E5.86303
G1 X121.61 Y180.004 E5.96007
G1 X121.594 Y179.969 E5.96201
G1 X121.505 Y179.67 E5.9778
G1 X119.708 Y175.701 E6.19807
G1 X119.476 Y175.449 E6.21541
G1 X119.457 Y175.423 E6.21699
G1 X119.411 Y175.341 E6.22177
G1 X119.398 Y175.313 E6.22335
G1 X119.065 Y174.195 E6.28229
G1 X118.998 Y174.012 E6.29215
G1 X118.879 Y173.568 E6.31542
G1 X118.743 Y172.707 E6.3595
G1 X118.741 Y172.688 E6.36046
G1 X118.726 Y171.877 E6.40146
G1 X118.853 Y170.251 E6.48392
G1 X118.861 Y170.216 E6.48573
G1 X118.896 Y170.115 E6.49116
G1 X118.912 Y170.083 E6.49296
G1 X119.224 Y169.622 E6.52109
G1 X119.468 Y168.899 E6.55966
G1 X119.482 Y168.869 E6.56133
G1 X119.535 Y168.785 E6.56636
G1 X119.556 Y168.76 E6.56803
G1 X119.856 Y168.471 E6.58906
G1 X119.918 Y168.371 E6.59501
G1 X119.931 Y168.354 E6.5961
G1 X120.05 Y168.216 E6.60532
G1 X120.422 Y167.699 E6.63754
G1 X120.449 Y167.671 E6.63949
G1 X120.814 Y167.382 E6.66305
G1 X121.099 Y167.119 E6.68263
G1 X121.117 Y167.105 E6.68376
G1 X121.305 Y166.981 E6.69517
G1 X121.622 Y166.721 E6.71593
G1 X121.648 Y166.704 E6.7175
G1 X122.082 Y166.487 E6.74202
G1 X122.424 Y166.294 E6.76184
G1 X123.201 Y165.965 E6.80452
G1 X123.23 Y165.956 E6.80608
G1 X123.529 Y165.903 E6.82141
G1 X124.034 Y165.76 E6.84797
G1 X124.068 Y165.754 E6.84967
G1 X127.386 Y165.648 E7.01756
G1 X127.489 Y165.687 E7.02313
G1 X127.737 Y165.919 E7.04028
G1 X127.782 Y166.02 E7.04584
G1 X127.859 Y168.539 E7.17328
G1 X127.702 Y168.706 E7.18486
G1 X127.49 Y168.712 E7.19562
G1 X127.408 Y168.908 E7.20636
G1 X127.197 Y168.996 E7.2179
G1 X127 Y168.915 E7.2287
G1 X127.3 Y169.096 E7.24645
G1 X127.317 Y169.108 E7.2475
G1 X127.727 Y169.448 E7.2744
G1 X127.742 Y169.462 E7.27544
G1 X128.096 Y169.858 E7.30234
G1 X128.109 Y169.875 E7.30338
G1 X128.401 Y170.319 E7.33029
G1 X128.411 Y170.337 E7.33132
G1 X128.635 Y170.82 E7.35823
G1 X128.642 Y170.839 E7.35926
G1 X128.773 Y171.286 E7.38281
G1 X133.227 Y176.958 E7.74742
G1 X133.511 Y177.268 E7.7687
G1 X133.831 Y177.526 E7.78944
G1 X134.185 Y177.732 E7.81019
G1 X134.567 Y177.883 E7.83093
G1 X134.966 Y177.975 E7.85168
G1 X135.386 Y178.007 E7.87295
G1 X145.197 Y178.007 E8.369
G1 X145.594 Y177.979 E8.38911
G1 X145.973 Y177.896 E8.40872
G1 X146.336 Y177.761 E8.42833
G1 X146.685 Y177.571 E8.44844
G1 X164.762 Y165.978 E9.5342
G1 X165.081 Y165.739 E9.55436
G1 X165.356 Y165.465 E9.57402
G1 X165.59 Y165.153 E9.59369
G1 X165.776 Y164.812 E9.61335
G1 X165.912 Y164.448 E9.63301
G1 X165.995 Y164.068 E9.65267
G1 X166.023 Y163.67 E9.67283
G1 X166.023 Y134.801 E11.13248
G1 X165.99 Y134.37 E11.15433
G1 X165.888 Y133.946 E11.1764
G1 X165.723 Y133.55 E11.19808
G1 X165.498 Y133.185 E11.21977
G1 X165.226 Y132.866 E11.24093
G1 X164.908 Y132.594 E11.2621
G1 X164.532 Y132.362 E11.28446
G1 X164.138 Y132.2 E11.30598
G1 X163.736 Y132.103 E11.32692
G1 X163.289 Y132.067 E11.3496
G1 X162.559 Y132.067 E11.38647
G1 X162.458 Y132.025 E11.39203
G1 X159 Y128.567 E11.63926
G1 X158.958 Y128.466 E11.64482
G1 X158.958 Y127.203 E11.70865
G92 E0
G1 E-0.8 F2400
G1 Z0.41875 F9000
G1 X125.368 Y168.612
G1 Z0.21875
G1 E0 F2400
G1 F2100
G1 X125.361 Y168.618 E0.00044
G1 X126.471 Y179.447 E0.55087
G1 X126.338 Y179.338 E0.55961
G1 X126.286 Y179.311 E0.56255
G1 X125.83 Y179.185 E0.58647
G1 X124.753 Y168.683 E1.12025
G1 X124.824 Y168.681 E1.12381
G1 X124.866 Y168.673 E1.126
G1 X124.973 Y168.635 E1.13171
G1 X125.185 Y168.658 E1.14249
G1 X125.242 Y168.652 E1.1454
G1 X125.311 Y168.63 E1.14905
M104 S250 ; set temperature
; printing object SB2040 V2.stl id:0 copy 0
EXCLUDE_OBJECT_START NAME=SB2040_V2_stl_id_0_copy_0
G1 X125.157 Y168.099 F9000
;TYPE:Support material
;HEIGHT:0.21875
G1 F2400
G1 X124.896 Y168.071 E1.16223
G1 X124.759 Y168.13 E1.16975
G1 X124.143 Y168.149 E1.20077
G1 X125.318 Y179.618 E1.78069
G1 X126.055 Y179.821 E1.8191
G1 X126.095 Y179.902 E1.82368
G1 X128.6 Y182.21 E1.99496
G1 X128.624 Y182.443 E2.00674
G1 X124.264 Y181.243 E2.23418
G1 X123.047 Y181.241 E2.29539
G1 X122.098 Y179.742 E2.38461
G1 X122.026 Y179.479 E2.39834
G1 X120.175 Y175.392 E2.62398
G1 X119.915 Y175.109 E2.64332
G1 X119.418 Y173.447 E2.73058
G1 X119.294 Y172.658 E2.77076
G1 X119.278 Y171.907 E2.80855
G1 X119.401 Y170.348 E2.88719
G1 X119.724 Y169.87 E2.91621
G1 X119.976 Y169.124 E2.95584
G1 X120.289 Y168.822 E2.97769
G1 X120.849 Y168.052 E3.02559
G1 X121.172 Y167.804 E3.04608
G1 X121.457 Y167.542 E3.06555
G1 X121.634 Y167.427 E3.07614
G1 X121.926 Y167.183 E3.09529
G1 X122.653 Y166.798 E3.13668
G1 X123.387 Y166.487 E3.1768
G1 X123.652 Y166.443 E3.19028
G1 X124.152 Y166.301 E3.21645
G1 X127.234 Y166.206 E3.37153
G1 X127.303 Y168.441 E3.48402
G1 X126.445 Y168.091 E3.53065
G1 X125.428 Y167.859 E3.58309
G1 X125.202 Y168.059 E3.59829
G92 E0
G1 E-0.8
G1 Z0.41875 F9000
G1 X127.14 Y181.891
G1 Z0.21875
G1 E0 F2400
G1 X127.14 Y181.376 E0.0259
G1 X126.403 Y180.697 E0.07634
G1 X126.403 Y181.442 E0.11381
G1 X125.666 Y181.239 E0.15227
G1 X125.666 Y180.104 E0.20937
G1 X124.97 Y179.913 E0.24563
G1 X124.928 Y179.5 E0.2665
G1 X124.928 Y181.036 E0.34378
G1 X124.315 Y180.868 E0.37577
G1 X124.191 Y180.867 E0.38201
G1 X124.191 Y172.306 E0.81261
G1 X123.727 Y167.785 E1.0412
G1 X124.191 Y167.771 E1.06452
G1 X124.191 Y166.681 E1.11936
G1 X124.928 Y166.653 E1.15647
G1 X124.928 Y167.696 E1.20891
G1 X125.032 Y167.707 E1.21417
G1 X125.324 Y167.449 E1.23376
G1 X125.666 Y167.527 E1.25139
G1 X125.666 Y166.631 E1.29649
G1 X126.403 Y166.608 E1.3336
G1 X126.403 Y167.94 E1.40059
G92 E0
G1 E-0.8
G1 Z0.41875 F9000
G1 X123.453 Y181.103
G1 Z0.21875
G1 E0 F2400
G1 X123.453 Y166.867 E0.71605
G1 X122.716 Y167.192 E0.75658
G1 X122.716 Y180.015 E1.40154
G1 X122.446 Y179.588 E1.42694
G1 X122.381 Y179.35 E1.43935
G1 X121.979 Y178.463 E1.48835
G1 X121.979 Y167.629 E2.03327
G1 X121.688 Y167.84 E2.05132
G1 X121.241 Y168.225 E2.081
G1 X121.241 Y176.835 E2.51403
G1 X120.504 Y175.206 E2.60395
G1 X120.504 Y169.137 E2.90921
G1 X120.303 Y169.331 E2.92324
G1 X120.064 Y170.038 E2.96081
G1 X119.768 Y170.476 E2.9874
G1 X119.766 Y174.129 E3.1711
G92 E0
G1 E-0.8
G1 Z0.41875 F9000
G1 X125.992 Y169.116
G1 Z0.21875
G1 E0 F2400
;TYPE:External perimeter
G1 X126.142 Y169.151 E0.00774
G1 X126.57 Y169.329 E0.03106
G1 X126.974 Y169.573 E0.05482
G1 X127.334 Y169.871 E0.0783
G1 X127.645 Y170.219 E0.10179
G1 X127.902 Y170.609 E0.12528
G1 X128.098 Y171.033 E0.14877
G1 X128.251 Y171.555 E0.17615
G1 X132.787 Y177.331 E0.54554
G1 X133.116 Y177.689 E0.56999
G1 X133.503 Y178.001 E0.59501
G1 X133.932 Y178.252 E0.62003
G1 X134.395 Y178.435 E0.64505
G1 X134.88 Y178.547 E0.67007
G1 X135.364 Y178.583 E0.69452
G1 X145.217 Y178.583 E1.19011
G1 X145.676 Y178.551 E1.21322
G1 X146.135 Y178.451 E1.23687
G1 X146.576 Y178.287 E1.26051
G1 X146.979 Y178.067 E1.28362
G1 X165.09 Y166.452 E2.36581
G1 X165.459 Y166.176 E2.38898
G1 X165.793 Y165.843 E2.41269
G1 X166.076 Y165.466 E2.4364
G1 X166.302 Y165.053 E2.46011
G1 X166.467 Y164.611 E2.48382
G1 X166.567 Y164.15 E2.50753
G1 X166.6 Y163.691 E2.5307
G1 X166.6 Y134.779 E3.98492
G1 X166.561 Y134.28 E4.01008
G1 X166.438 Y133.767 E4.03662
G1 X166.238 Y133.286 E4.0628
G1 X165.966 Y132.844 E4.08893
G1 X165.635 Y132.458 E4.11449
G1 X165.249 Y132.127 E4.14007
G1 X164.794 Y131.847 E4.16692
G1 X164.317 Y131.65 E4.19292
G1 X163.827 Y131.533 E4.21824
G1 X163.312 Y131.49 E4.24423
G1 X162.739 Y131.49 E4.27308
G1 X159.534 Y128.286 E4.50099
G1 X159.534 Y123.299 E4.75184
G1 X161.724 Y123.299 E4.86199
G1 X175 Y130.964 E5.63301
G1 X175 Y162.617 E7.22513
G1 X171.076 Y164.883 E7.45301
G1 X168.536 Y167.784 E7.64697
G1 X156.529 Y177.473 E8.42303
G1 X143.342 Y182.143 E9.12664
G1 X130.151 Y182.143 E9.79012
G1 X127.032 Y179.269 E10.00343
G1 X125.998 Y169.176 E10.51375
;WIPE_START
G1 X126.313 Y169.355 F9000
;WIPE_END
G1 X126.682 Y170.431
;TYPE:Internal perimeter
G1 F2400
G1 X126.977 Y170.301 E10.52992
G1 X127.206 Y170.557 E10.54721
G1 X127.417 Y170.878 E10.56656
G1 X127.579 Y171.228 E10.58592
G1 X127.75 Y171.813 E10.6166
G1 X132.365 Y177.689 E10.99239
G1 X132.736 Y178.093 E11.01999
G1 X133.188 Y178.458 E11.04921
G1 X133.69 Y178.751 E11.07844
G1 X134.23 Y178.965 E11.10766
G1 X134.796 Y179.095 E11.13688
G1 X135.343 Y179.137 E11.16448
G1 X145.237 Y179.137 E11.66212
G1 X145.755 Y179.1 E11.6882
G1 X146.291 Y178.983 E11.71583
G1 X146.806 Y178.791 E11.74345
G1 X147.261 Y178.543 E11.76953
G1 X165.405 Y166.907 E12.85371
G1 X165.822 Y166.596 E12.87986
G1 X166.212 Y166.207 E12.90755
G1 X166.542 Y165.766 E12.93525
G1 X166.806 Y165.283 E12.96294
G1 X166.999 Y164.767 E12.99063
G1 X167.116 Y164.229 E13.01833
G1 X167.153 Y163.711 E13.04448
G1 X167.153 Y134.757 E14.50078
G1 X167.109 Y134.194 E14.52921
G1 X166.966 Y133.595 E14.56017
G1 X166.732 Y133.033 E14.59077
G1 X166.414 Y132.517 E14.62125
G1 X166.028 Y132.066 E14.65115
G1 X165.576 Y131.679 E14.68108
G1 X165.047 Y131.353 E14.71233
G1 X164.488 Y131.122 E14.74274
G1 X163.915 Y130.985 E14.77238
G1 X163.335 Y130.937 E14.80165
G1 X162.968 Y130.937 E14.82011
G1 X160.088 Y128.057 E15.02498
G1 X160.088 Y123.852 E15.23649
G1 X161.576 Y123.852 E15.31137
G1 X174.447 Y131.283 E16.05888
G1 X174.447 Y162.298 E17.61887
G1 X170.72 Y164.449 E17.8353
G1 X168.152 Y167.384 E18.03146
G1 X156.255 Y176.983 E18.80035
G1 X143.247 Y181.59 E19.49443
G1 X130.367 Y181.59 E20.14226
G1 X127.561 Y179.004 E20.33418
G1 X126.689 Y170.49 E20.76465
G92 E0
G1 E-0.8
G1 Z0.41875 F9000
G1 X127.515 Y172.886
G1 Z0.21875
G1 E0 F2400
G1 X127.799 Y172.77 E0.01545
G1 X131.943 Y178.047 E0.3529
G1 X132.356 Y178.498 E0.38365
G1 X132.873 Y178.915 E0.41708
G1 X133.447 Y179.25 E0.45051
G1 X134.065 Y179.494 E0.48393
G1 X134.713 Y179.643 E0.51736
G1 X135.323 Y179.69 E0.54811
G1 X145.257 Y179.69 E1.04779
G1 X145.948 Y179.64 E1.08266
G1 X146.027 Y180.019 E1.1021
G1 X143.152 Y181.037 E1.25553
G1 X130.583 Y181.037 E1.88772
G1 X128.09 Y178.74 E2.05824
G1 X127.495 Y172.929 E2.352
G92 E0
G1 E-0.8
G1 Z0.41875 F9000
G1 X147.38 Y179.124
G1 Z0.21875
G1 E0 F2400
G1 X165.721 Y167.362 E1.09591
G1 X166.185 Y167.015 E1.12505
G1 X166.63 Y166.57 E1.15673
G1 X167.008 Y166.066 E1.18841
G1 X167.31 Y165.514 E1.22008
G1 X167.531 Y164.924 E1.25176
G1 X167.665 Y164.308 E1.28343
G1 X167.706 Y163.73 E1.31257
G1 X167.706 Y134.736 E2.77095
G1 X167.657 Y134.107 E2.80266
G1 X167.493 Y133.423 E2.83803
G1 X167.226 Y132.781 E2.87304
G1 X166.862 Y132.191 E2.90789
G1 X166.42 Y131.674 E2.94211
G1 X165.902 Y131.23 E2.97639
G1 X165.299 Y130.859 E3.01205
G1 X164.659 Y130.595 E3.04686
G1 X164.002 Y130.437 E3.08083
G1 X163.197 Y130.384 E3.12143
G1 X160.641 Y127.828 E3.30325
G1 X160.641 Y124.405 E3.47543
G1 X161.428 Y124.405 E3.51503
G1 X173.894 Y131.602 E4.23903
G1 X173.894 Y161.979 E5.7669
G1 X170.364 Y164.016 E5.97188
G1 X167.767 Y166.984 E6.17023
G1 X155.981 Y176.494 E6.93196
G1 X147.553 Y179.478 E7.38166
G1 X147.406 Y179.178 E7.39847
G1 X148.879 Y178.327 F9000
;TYPE:Solid infill
G1 F2400
G1 X149.087 Y178.536 E7.41332
