; generated by SuperSlicer 2.4 on 2023-02-23 at 14:02:05 UTC


;
;

;
;
; 

; external perimeters extrusion width = 0.42mm
; perimeters extrusion width = 0.46mm
; infill extrusion width = 0.44mm
; solid infill extrusion width = 0.46mm
; top infill extrusion width = 0.44mm
; support material extrusion width = 0.40mm
; first layer extrusion width = 0.60mm

; object:{"name":"sb2040_fan_cover_3010","id":"sb2040_fan_cover_3010.stl id:0 copy 0","object_center":[149.976869,148.477873,0.000000],"boundingbox_center":[149.976869,148.477873,28.300072],"boundingbox_size":[41.723455,70.676614,56.600143]}
; plater:{"center":[149.976869,148.477873,0.000000],"boundingbox_center":[149.976869,148.477873,28.300072],"boundingbox_size":[41.723455,70.676614,56.600143]}

;TYPE:Custom
M104 S0 ; Stops SuperSlicer from sending temp waits separately


; Pre-Processed for Cancel-Object support by preprocess_cancellation v0.2.0
; 1 known objects
EXCLUDE_OBJECT_DEFINE NAME=sb2040_fan_cover_3010_stl_id_0_copy_0 CENTER=149.661,142.677 POLYGON=[[126.651,113.352],[126.651,186.354],[170.618,186.354],[170.618,113.352]]

M140 S0

print_start EXTRUDER=245 BED=101 CHAMBER=0
M107
G21 ; set units to millimeters
G90 ; use absolute coordinates
M83 ; use relative distances for extrusion
; Filament gcode
;_TOOLCHANGE 0
M107
;LAYER_CHANGE
;Z:0.2
;HEIGHT:0.2
TIMELAPSE_TAKE_FRAME
;BEFORE_LAYER_CHANGE
;0.2


G1 Z0.2 F12000
;AFTER_LAYER_CHANGE
;0.2
G92 E0
G1 E-0.4 F2700
G1 Z0.7 F12000
G1 X124.744 Y125.477
G1 Z0.2
G1 E0.4 F2700
;TYPE:Skirt
;WIDTH:0.44
G1 F1860
G1 X124.326 Y126.686 E0.04224
G1 X123.056 Y182.661 E1.84862
G1 X123.072 Y183.738 E0.03556
G1 X123.386 Y188.077 E0.14363
G1 X124.346 Y189.69 E0.06197
G1 X125.582 Y190.019 E0.04224
G1 X132.074 Y189.645 E0.2147
G1 X148.209 Y185.461 E0.55038
G1 X152.321 Y184.188 E0.14209
G1 X152.955 Y183.865 E0.0235
G1 X164.66 Y175.115 E0.48252
G1 X173.369 Y167.795 E0.37565
G1 X174.114 Y166.103 E0.06103
G1 X172.538 Y128.476 E1.24345
G1 X172.445 Y126.767 E0.05651
G1 X171.913 Y122.508 E0.14172
G1 X171.471 Y121.191 E0.04584
G1 X171.034 Y120.274 E0.03356
G1 X169.968 Y118.697 E0.06283
G1 X169.36 Y118.104 E0.02804
G1 X167.59 Y116.973 E0.06938
G1 X167.009 Y116.716 E0.02096
G1 X164.218 Y115.96 E0.09549
G1 X162.438 Y115.801 E0.05898
G1 X161.218 Y115.813 E0.04031
G1 X148.722 Y116.508 E0.41323
G1 X146.608 Y116.724 E0.07015
G1 X144.349 Y117.097 E0.07561
G1 X143.891 Y117.228 E0.0157
G1 X125.619 Y124.797 E0.65302
G1 X124.791 Y125.44 E0.0346
G1 X125.136 Y125.623 F12000
G1 F1860
G1 X124.723 Y126.695 E0.03792
G1 X123.452 Y182.67 E1.84862
G1 X123.468 Y183.709 E0.03431
G1 X123.782 Y188.048 E0.14363
G1 X124.463 Y189.289 E0.04672
G1 X125.562 Y189.622 E0.03792
G1 X131.974 Y189.261 E0.21206
G1 X148.11 Y185.076 E0.55038
G1 X152.203 Y183.809 E0.14147
G1 X152.717 Y183.547 E0.01905
G1 X164.422 Y174.797 E0.48252
G1 X173.114 Y167.491 E0.37489
G1 X173.717 Y166.12 E0.04946
G1 X172.141 Y128.496 E1.24334
G1 X172.051 Y126.816 E0.05554
G1 X171.519 Y122.557 E0.14172
G1 X171.101 Y121.334 E0.04266
G1 X170.705 Y120.496 E0.0306
G1 X169.639 Y118.919 E0.06283
G1 X169.146 Y118.439 E0.02272
G1 X167.376 Y117.308 E0.06938
G1 X166.905 Y117.099 E0.01699
G1 X164.114 Y116.343 E0.09549
G1 X162.412 Y116.197 E0.05639
G1 X161.238 Y116.21 E0.03876
G1 X148.744 Y116.904 E0.41318
G1 X146.649 Y117.119 E0.06952
G1 X144.414 Y117.489 E0.07479
G1 X125.771 Y125.164 E0.66567
G1 X125.184 Y125.588 E0.0239
G1 E-0.4 F2700
G1 Z0.7 F12000
G1 X126.949 Y127.126
G1 Z0.2
G1 E0.4 F2700
;WIDTH:0.604
G1 F1860
G1 X127.198 Y126.841 E0.01768
G1 X127.283 Y126.774 E0.00504
G1 X127.477 Y126.676 E0.01012
G1 X127.581 Y126.646 E0.00504
G1 X131.407 Y126.314 E0.17917
G1 X132.269 Y126.212 E0.04053
G1 X132.391 Y126.211 E0.00567
G1 X132.631 Y126.248 E0.01134
G1 X133.849 Y126.645 E0.05976
G1 X133.947 Y126.7 E0.00526
G1 X135.235 Y127.82 E0.07961
G1 X135.362 Y127.98 E0.00956
G1 X135.459 Y128.162 E0.00964
G1 X135.521 Y128.358 E0.00957
G1 X136.164 Y133.529 E0.24312
G1 X142.554 Y133.205 E0.29849
G1 X141.562 Y132.971 E0.04755
G1 X141.488 Y132.941 E0.00372
G1 X141.286 Y132.813 E0.01114
G1 X141.015 Y132.517 E0.01877
G1 X140.913 Y132.3 E0.01114
G1 X140.582 Y130.683 E0.077
G1 X140.432 Y130.165 E0.02515
G1 X140.352 Y129.553 E0.02882
G1 X140.338 Y128.79 E0.03561
G1 X140.38 Y128.524 E0.01256
G1 X140.786 Y127.567 E0.04854
G1 X140.994 Y127.254 E0.0175
G1 X140.763 Y126.915 E0.01917
G1 X140.662 Y126.662 E0.01271
G1 X140.638 Y126.547 E0.00545
G1 X140.538 Y124.635 E0.08934
G1 X140.578 Y124.351 E0.01339
G1 X140.624 Y124.218 E0.00658
G1 X140.988 Y123.478 E0.03848
G1 X141.491 Y122.531 E0.05001
G1 X141.576 Y122.412 E0.00684
G1 X141.719 Y122.259 E0.00975
G1 X141.892 Y121.962 E0.01605
G1 X142.473 Y121.302 E0.04102
G1 X142.575 Y121.213 E0.00629
G1 X143.631 Y120.592 E0.05717
G1 X144.342 Y119.789 E0.05005
G1 X144.469 Y119.685 E0.00763
G1 X144.713 Y119.56 E0.01279
G1 X144.923 Y119.503 E0.01016
G1 X146.32 Y119.408 E0.06534
G1 X146.608 Y119.251 E0.01528
G1 X146.867 Y119.182 E0.01253
G1 X148.258 Y119.11 E0.06498
G1 X148.886 Y118.975 E0.02997
G1 X149.036 Y118.974 E0.00697
G1 X149.619 Y119.054 E0.02746
G1 X149.976 Y119.072 E0.01668
G1 X150.188 Y119.12 E0.01012
G1 X150.458 Y119.14 E0.01267
G1 X150.761 Y119.221 E0.01459
G1 X151.546 Y119.384 E0.03741
G1 X151.695 Y119.44 E0.00745
G1 X152.801 Y120.049 E0.05891
G1 X153.223 Y120.3 E0.02288
G1 X153.417 Y120.452 E0.01151
G1 X154.152 Y120.853 E0.03905
G1 X154.336 Y121.001 E0.01103
G1 X154.507 Y121.213 E0.0127
G1 X154.809 Y121.392 E0.01638
G1 X154.987 Y121.556 E0.01129
G1 X155.798 Y120.248 E0.07181
G1 X155.915 Y120.131 E0.00772
G1 X156.095 Y120.001 E0.01036
G1 X156.243 Y119.927 E0.00772
G1 X157.289 Y119.673 E0.05022
G1 X160.266 Y118.363 E0.15175
G1 X160.415 Y118.332 E0.00709
G1 X160.619 Y118.321 E0.00952
G1 X160.77 Y118.336 E0.00709
G1 X160.935 Y118.383 E0.00801
G1 X161.13 Y118.31 E0.00969
G1 X161.286 Y118.284 E0.00738
G1 X162.409 Y118.28 E0.05241
G1 X162.541 Y118.304 E0.00626
G1 X162.775 Y118.379 E0.01145
G1 X163.502 Y118.352 E0.03394
G1 X163.649 Y118.368 E0.0069
G1 X165.415 Y118.937 E0.08655
G1 X166.108 Y119.032 E0.03267
G1 X166.394 Y119.143 E0.01428
G1 X166.491 Y119.204 E0.00536
G1 X167.122 Y119.712 E0.03779
G1 X167.737 Y119.999 E0.03166
G1 X167.976 Y120.189 E0.01424
G1 X168.05 Y120.276 E0.00536
G1 X168.991 Y121.689 E0.07916
G1 X169.174 Y122.109 E0.02138
G1 X169.45 Y122.843 E0.0366
G1 X169.479 Y122.97 E0.00605
G1 X169.617 Y125.606 E0.12316
G1 X169.6 Y125.774 E0.00789
G1 X169.558 Y125.939 E0.00793
G1 X169.471 Y126.128 E0.00974
G1 X169.815 Y126.543 E0.02511
G1 X169.881 Y126.662 E0.00637
G1 X169.961 Y126.876 E0.01065
G1 X169.987 Y127.01 E0.00637
G1 X170.062 Y128.521 E0.07058
G1 X169.742 Y130.569 E0.09673
G1 X169.667 Y130.74 E0.00872
G1 X169.525 Y130.949 E0.0118
G1 X169.392 Y131.083 E0.00878
G1 X169.268 Y131.162 E0.00686
G1 X169.229 Y131.241 E0.0041
G1 X169.122 Y131.386 E0.00842
G1 X168.897 Y131.589 E0.01412
G1 X168.739 Y131.676 E0.00843
G1 X168.038 Y131.912 E0.03448
G1 X169.005 Y131.863 E0.04516
G1 X169.216 Y131.938 E0.01041
G1 X169.554 Y132.244 E0.02126
G1 X169.649 Y132.445 E0.01041
G1 X171.298 Y164.954 E1.51859
G1 X171.224 Y165.164 E0.01041
G1 X170.918 Y165.502 E0.02126
G1 X170.716 Y165.598 E0.01041
G1 X138.024 Y167.256 E1.52719
G1 X138.028 Y167.921 E0.031
G1 X148.859 Y167.615 E0.50554
G1 X159.359 Y167.593 E0.48986
G1 X159.481 Y167.608 E0.00574
G1 X159.679 Y167.664 E0.0096
G1 X159.828 Y167.733 E0.00765
G1 X161.683 Y168.956 E0.10366
G1 X161.814 Y169.075 E0.00826
G1 X161.925 Y169.214 E0.00831
G1 X162.012 Y169.369 E0.00826
G1 X163.134 Y172.382 E0.15
G1 X163.158 Y172.651 E0.01264
G1 X163.146 Y172.741 E0.00421
G1 X163.043 Y173.094 E0.01718
G1 X163.003 Y173.176 E0.00422
G1 X162.837 Y173.39 E0.01265
G1 X151.58 Y181.795 E0.65542
G1 X151.409 Y181.881 E0.00894
G1 X147.519 Y183.083 E0.18992
G1 X147.417 Y183.103 E0.00489
G1 X141.565 Y183.402 E0.27338
G1 X135.906 Y185.575 E0.28277
G1 X135.71 Y185.612 E0.00931
G1 X135.46 Y185.611 E0.0117
G1 X135.313 Y185.581 E0.00699
G1 X135.044 Y185.484 E0.01333
G1 X132.92 Y186.465 E0.10913
G1 X132.796 Y186.559 E0.00725
G1 X131.829 Y187.129 E0.05237
G1 X131.543 Y187.229 E0.01416
G1 X126.696 Y187.486 E0.22641
G1 X126.587 Y187.47 E0.00516
G1 X126.378 Y187.395 E0.01036
G1 X126.283 Y187.339 E0.00516
G1 X125.946 Y187.034 E0.02121
G1 X125.88 Y186.945 E0.00516
G1 X125.784 Y186.745 E0.01036
G1 X125.757 Y186.637 E0.00516
G1 X125.62 Y183.931 E0.12642
G1 X125.566 Y183.764 E0.00819
G1 X125.54 Y183.596 E0.00792
G1 X125.537 Y182.575 E0.04762
G1 X125.558 Y182.454 E0.00574
G1 X125.974 Y181.041 E0.06872
G1 X128.983 Y171.278 E0.47663
G1 X126.767 Y127.58 E2.04129
G1 X126.782 Y127.474 E0.00504
G1 X126.853 Y127.268 E0.01012
G1 X126.91 Y127.172 E0.00525
G1 X127.365 Y127.503 F12000
G1 F1860
G1 X127.586 Y127.25 E0.01566
G1 X127.683 Y127.201 E0.00508
G1 X131.464 Y126.873 E0.17707
G1 X132.321 Y126.771 E0.04024
G1 X132.351 Y126.771 E0.00142
G1 X132.442 Y126.78 E0.00427
G1 X132.472 Y126.786 E0.00142
G1 X133.624 Y127.161 E0.05652
G1 X134.847 Y128.226 E0.07568
G1 X134.879 Y128.267 E0.0024
G1 X134.952 Y128.404 E0.00724
G1 X134.968 Y128.453 E0.0024
G1 X135.617 Y133.677 E0.24562
G1 X135.612 Y133.737 E0.00282
G1 X135.557 Y133.912 E0.00853
G1 X135.527 Y133.964 E0.00282
G1 X135.376 Y134.131 E0.0105
G1 X168.922 Y132.429 E1.56709
G1 X169.095 Y132.585 E0.01084
G1 X170.732 Y164.871 E1.50818
G1 X170.577 Y165.043 E0.01084
G1 X137.03 Y166.745 E1.56709
G1 X137.345 Y167.029 E0.0198
G1 X137.379 Y167.077 E0.00273
G1 X137.452 Y167.238 E0.00826
G1 X137.464 Y167.296 E0.00273
G1 X137.469 Y168.498 E0.05608
G1 X148.862 Y168.176 E0.53176
G1 X159.34 Y168.154 E0.48882
G1 X159.38 Y168.16 E0.00192
G1 X159.499 Y168.195 E0.00577
G1 X159.536 Y168.213 E0.00192
G1 X161.356 Y169.412 E0.10167
G1 X161.389 Y169.442 E0.00207
G1 X161.472 Y169.546 E0.00624
G1 X161.494 Y169.585 E0.00207
G1 X162.592 Y172.535 E0.14686
G1 X162.595 Y172.626 E0.00424
G1 X162.517 Y172.892 E0.01296
G1 X162.465 Y172.967 E0.00425
G1 X151.263 Y181.331 E0.6522
G1 X151.221 Y181.352 E0.00224
G1 X147.371 Y182.542 E0.18799
G1 X147.336 Y182.548 E0.00163
G1 X141.447 Y182.846 E0.27511
G1 X135.729 Y185.042 E0.28577
G1 X135.679 Y185.051 E0.00233
G1 X135.528 Y185.053 E0.00705
G1 X135.479 Y185.045 E0.00234
G1 X135.017 Y184.879 E0.02289
G1 X132.615 Y185.988 E0.12346
G1 X132.521 Y186.068 E0.00575
G1 X132.501 Y186.082 E0.00114
G1 X131.559 Y186.636 E0.05102
G1 X131.528 Y186.65 E0.00158
G1 X131.43 Y186.679 E0.00474
G1 X131.397 Y186.685 E0.00158
G1 X126.723 Y186.923 E0.21834
G1 X126.618 Y186.885 E0.00521
G1 X126.363 Y186.655 E0.01606
G1 X126.315 Y186.554 E0.00521
G1 X126.176 Y183.83 E0.12723
G1 X126.108 Y183.614 E0.01059
G1 X126.101 Y183.572 E0.00198
G1 X126.096 Y182.634 E0.04377
G1 X126.101 Y182.593 E0.00192
G1 X126.511 Y181.204 E0.06756
G1 X127.136 Y179.202 E0.09785
G1 X127.157 Y179.093 E0.00519
G1 X129.548 Y171.349 E0.37813
G1 X127.33 Y127.606 E2.04341
G1 X127.346 Y127.56 E0.00229
G1 E-0.4 F2700
G1 Z0.7 F12000
G1 X140.901 Y128.775
G1 Z0.2
G1 E0.4 F2700
G1 F1860
G1 X140.92 Y128.677 E0.00465
G1 X140.928 Y128.648 E0.0014
G1 X141.295 Y127.803 E0.04298
G1 X141.31 Y127.778 E0.00138
G1 X141.565 Y127.42 E0.02052
G1 X141.611 Y127.326 E0.00486
G1 X141.621 Y127.309 E0.00091
G1 X141.664 Y127.246 E0.00358
G1 X141.657 Y127.226 E0.00098
G1 X141.255 Y126.645 E0.03296
G1 X141.237 Y126.61 E0.00182
G1 X141.2 Y126.499 E0.00547
G1 X141.192 Y126.461 E0.00182
G1 X141.099 Y124.625 E0.08578
G1 X141.102 Y124.589 E0.00168
G1 X141.124 Y124.483 E0.00504
G1 X141.135 Y124.449 E0.00165
G1 X141.493 Y123.723 E0.03776
G1 X141.978 Y122.811 E0.04823
G1 X141.999 Y122.781 E0.00171
G1 X142.181 Y122.586 E0.01242
G1 X142.306 Y122.347 E0.01256
G1 X142.325 Y122.32 E0.00157
G1 X142.879 Y121.689 E0.03919
G1 X142.914 Y121.661 E0.0021
G1 X143.991 Y121.031 E0.05821
G1 X144.744 Y120.181 E0.05295
G1 X144.788 Y120.148 E0.00255
G1 X144.936 Y120.075 E0.0077
G1 X144.989 Y120.061 E0.00255
G1 X146.49 Y119.959 E0.07021
G1 X146.785 Y119.786 E0.01595
G1 X146.816 Y119.773 E0.00157
G1 X146.913 Y119.744 E0.00472
G1 X146.946 Y119.738 E0.00157
G1 X148.334 Y119.668 E0.06482
G1 X148.934 Y119.535 E0.02868
G1 X148.984 Y119.533 E0.00233
G1 X149.567 Y119.613 E0.02749
G1 X149.906 Y119.629 E0.01581
G1 X149.935 Y119.633 E0.00138
G1 X150.102 Y119.677 E0.00807
G1 X150.326 Y119.688 E0.01045
G1 X150.356 Y119.692 E0.00143
G1 X150.655 Y119.773 E0.01445
G1 X150.779 Y119.788 E0.00581
G1 X151.404 Y119.927 E0.02988
G1 X151.442 Y119.941 E0.00187
G1 X152.521 Y120.536 E0.05748
G1 X152.911 Y120.766 E0.02114
G1 X152.928 Y120.778 E0.00096
G1 X153.104 Y120.92 E0.01056
G1 X153.847 Y121.324 E0.03945
G1 X153.87 Y121.34 E0.00134
G1 X153.94 Y121.399 E0.00424
G1 X153.961 Y121.421 E0.00142
G1 X154.128 Y121.641 E0.01288
G1 X154.478 Y121.846 E0.01893
G1 X154.508 Y121.869 E0.00174
G1 X154.586 Y121.949 E0.00523
G1 X154.608 Y121.979 E0.00174
G1 X154.97 Y122.625 E0.03455
G1 X155.203 Y122.349 E0.01683
G1 X155.24 Y122.224 E0.00609
G1 X155.255 Y122.19 E0.00172
G1 X156.228 Y120.61 E0.0866
G1 X156.266 Y120.569 E0.00258
G1 X156.401 Y120.471 E0.00779
G1 X156.452 Y120.448 E0.00258
G1 X157.469 Y120.207 E0.04877
G1 X160.422 Y118.903 E0.1506
G1 X160.471 Y118.891 E0.00237
G1 X160.624 Y118.883 E0.00715
G1 X160.675 Y118.889 E0.00237
G1 X160.958 Y118.979 E0.01387
G1 X161.264 Y118.855 E0.01541
G1 X161.316 Y118.845 E0.00247
G1 X162.346 Y118.838 E0.04806
G1 X162.391 Y118.845 E0.00209
G1 X162.474 Y118.872 E0.00408
G1 X162.718 Y118.95 E0.01197
G1 X162.811 Y118.939 E0.00436
G1 X163.498 Y118.913 E0.03209
G1 X163.547 Y118.92 E0.00231
G1 X165.29 Y119.487 E0.0855
G1 X165.978 Y119.578 E0.03238
G1 X166.015 Y119.588 E0.00179
G1 X166.121 Y119.633 E0.00538
G1 X166.154 Y119.653 E0.00179
G1 X166.824 Y120.192 E0.04011
G1 X167.45 Y120.482 E0.03221
G1 X167.483 Y120.502 E0.00178
G1 X167.57 Y120.577 E0.00536
G1 X167.596 Y120.606 E0.00179
G1 X168.47 Y121.904 E0.07301
G1 X168.482 Y121.926 E0.00117
G1 X168.65 Y122.31 E0.01956
G1 X168.917 Y123.02 E0.03541
G1 X168.926 Y123.063 E0.00202
G1 X169.056 Y125.613 E0.11915
G1 X169.051 Y125.655 E0.00198
G1 X169.02 Y125.779 E0.00595
G1 X169.003 Y125.818 E0.00198
G1 X168.781 Y126.179 E0.0198
G1 X169.344 Y126.849 E0.04084
G1 X169.367 Y126.888 E0.00213
G1 X169.418 Y127.016 E0.00641
G1 X169.427 Y127.061 E0.00213
G1 X169.501 Y128.506 E0.06751
G1 X169.499 Y128.535 E0.00135
G1 X169.209 Y130.392 E0.08769
G1 X169.186 Y130.45 E0.00292
G1 X169.079 Y130.607 E0.00888
G1 X169.033 Y130.65 E0.00294
G1 X168.821 Y130.773 E0.01142
G1 X168.749 Y130.948 E0.00884
G1 X168.715 Y130.998 E0.00282
G1 X168.582 Y131.123 E0.00852
G1 X168.53 Y131.154 E0.00282
G1 X167.074 Y131.646 E0.0717
G1 X167.058 Y131.651 E0.00082
G1 X166.211 Y131.822 E0.04031
G1 X165.874 Y131.848 E0.01578
G1 X165.856 Y131.849 E0.00083
G1 X165.437 Y131.827 E0.01957
G1 X163.722 Y131.632 E0.08049
G1 X163.666 Y131.613 E0.00276
G1 X163.512 Y131.522 E0.00834
G1 X163.469 Y131.482 E0.00276
G1 X163.307 Y131.255 E0.01302
G1 X162.862 Y131.561 E0.02524
G1 X162.056 Y132.187 E0.0476
G1 X162.009 Y132.211 E0.00245
G1 X161.857 Y132.256 E0.00738
G1 X161.805 Y132.261 E0.00245
G1 X160.708 Y132.168 E0.05138
G1 X160.218 Y132.157 E0.02289
G1 X160.195 Y132.155 E0.00108
G1 X158.699 Y131.873 E0.07101
G1 X158.661 Y131.86 E0.00185
G1 X158.231 Y131.642 E0.02249
G1 X158.125 Y131.621 E0.00504
G1 X157.685 Y131.916 E0.02472
G1 X157.645 Y131.934 E0.00206
G1 X156.808 Y132.171 E0.04057
G1 X156.785 Y132.176 E0.00109
G1 X156.128 Y132.248 E0.03083
G1 X156.101 Y132.248 E0.00128
G1 X155.464 Y132.192 E0.0298
G1 X154.603 Y132.236 E0.04026
G1 X154.158 Y132.505 E0.02426
G1 X154.124 Y132.52 E0.00171
G1 X154.019 Y132.55 E0.00512
G1 X153.984 Y132.556 E0.00164
G1 X152.774 Y132.595 E0.05649
G1 X152.756 Y132.595 E0.00082
G1 X152.138 Y132.537 E0.02899
G1 X152.118 Y132.534 E0.00093
G1 X150.902 Y132.244 E0.05832
G1 X150.821 Y132.307 E0.00478
G1 X150.786 Y132.327 E0.00189
G1 X150.078 Y132.604 E0.03548
G1 X150.049 Y132.612 E0.00139
G1 X149.746 Y132.662 E0.01432
G1 X149.496 Y132.725 E0.01205
G1 X149.471 Y132.729 E0.00117
G1 X149.359 Y132.736 E0.00525
G1 X149.02 Y132.882 E0.0172
G1 X148.986 Y132.892 E0.00164
G1 X148.882 Y132.908 E0.00491
G1 X148.849 Y132.909 E0.00157
G1 X147.223 Y132.773 E0.0761
