; generated by SuperSlicer 2.5.59 on 2023-05-17 at 00:05:33 UTC


;
;

;
;
; 

; external perimeters extrusion width = 0.43mm
; perimeters extrusion width = 0.45mm
; infill extrusion width = 0.45mm
; solid infill extrusion width = 0.45mm
; top infill extrusion width = 0.42mm
; support material extrusion width = 0.42mm
; first layer extrusion width = 0.57mm

; object:{"name":"screw_hinge_x3 (1)","id":"screw_hinge_x3 (1).stl id:0 copy 0","object_center":[150.000000,119.000000,0.000000],"boundingbox_center":[150.000000,119.000000,6.300000],"boundingbox_size":[70.799995,53.000000,12.600000]}
EXCLUDE_OBJECT_DEFINE NAME=screw_hinge_x3_1_stl_id_0_copy_0 CENTER=150.000000,119.000000 POLYGON=[[114.600000,117.900000],[119.600000,95.900000],[120.006760,95.500000],[125.800000,92.553592],[125.896472,92.513624],[126.000000,92.500000],[174.000000,92.500000],[174.103536,92.513624],[174.200000,92.553592],[179.993248,95.500000],[180.400000,95.900000],[185.400000,117.900000],[185.400000,141.100000],[185.052704,141.698464],[184.852240,141.813024],[178.630576,145.368240],[178.556480,145.406592],[178.479424,145.438592],[178.473664,145.440704],[178.400000,145.464096],[178.392928,145.466032],[178.371488,145.471504],[178.306624,145.485056],[178.134432,145.500000],[121.865568,145.500000],[121.693376,145.485056],[121.628512,145.471504],[121.607072,145.466032],[121.600000,145.464096],[121.526336,145.440704],[121.520560,145.438592],[121.443528,145.406592],[121.369432,145.368240],[117.430472,143.117424],[115.147816,141.813056],[114.947296,141.698464],[114.600000,141.100000],[114.600000,117.900000]]
; object:{"name":"screw_hinge_x3 (1)","id":"screw_hinge_x3 (1).stl id:0 copy 1","object_center":[150.000000,178.000000,0.000000],"boundingbox_center":[150.000000,178.000000,6.300000],"boundingbox_size":[70.799995,53.000000,12.600000]}
EXCLUDE_OBJECT_DEFINE NAME=screw_hinge_x3_1_stl_id_0_copy_1 CENTER=150.000000,178.000000 POLYGON=[[114.600000,176.900000],[119.600000,154.900000],[120.006760,154.500000],[125.800000,151.553584],[125.896472,151.513632],[126.000000,151.500000],[174.000000,151.500000],[174.103536,151.513632],[174.200000,151.553584],[179.993248,154.500000],[180.400000,154.900000],[185.400000,176.900000],[185.400000,200.100000],[185.052704,200.698464],[184.852240,200.813024],[178.630576,204.368240],[178.556480,204.406592],[178.479424,204.438592],[178.473664,204.440704],[178.400000,204.464096],[178.392928,204.466032],[178.371488,204.471504],[178.306624,204.485056],[178.134432,204.500000],[121.865568,204.500000],[121.693376,204.485056],[121.628512,204.471504],[121.607072,204.466032],[121.600000,204.464096],[121.526336,204.440704],[121.520560,204.438592],[121.443528,204.406592],[121.369432,204.368240],[117.430472,202.117424],[115.147816,200.813056],[114.947296,200.698464],[114.600000,200.100000],[114.600000,176.900000]]
; plater:{"center":[150.000000,148.500000,0.000000],"boundingbox_center":[150.000000,148.500000,6.300000],"boundingbox_size":[70.799995,112.000000,12.600000]}

;TYPE:Custom
SET_PRINT_STATS_INFO TOTAL_LAYER=63

M104 S0 ; Stops SuperSlicer from sending temp waits separately

M109 S0

M140 S0

print_start EXTRUDER=255 BED=110 CHAMBER=0
M107
G21 ; set units to millimeters
G90 ; use absolute coordinates
M82 ; use absolute distances for extrusion
G92 E0
; Filament gcode
;_TOOLCHANGE 0
M107
;LAYER_CHANGE
;Z:0.2
;HEIGHT:0.2
TIMELAPSE_TAKE_FRAME
;BEFORE_LAYER_CHANGE
;0.2


G1 Z0.2 F12000
SET_PRINT_STATS_INFO CURRENT_LAYER=1
;AFTER_LAYER_CHANGE
;0.2
G1 E-0.8 F2400
G1 Z0.5 F12000
M204 S1500
G1 X119.915 Y93.752
G1 Z0.2
G1 E0 F2100
;TYPE:Skirt
;WIDTH:0.52
G1 F2700
G1 X118.912 Y95.303 E0.07326
G1 X113.912 Y117.303 E0.96824
G1 X113.845 Y117.9 E0.99205
G1 X113.842 Y201.156 E4.29478
G1 X114.656 Y203.084 E4.3778
G1 X115.489 Y203.857 E4.42291
G1 X116.422 Y204.527 E4.46846
G1 X120.083 Y206.619 E4.63573
G1 X120.869 Y206.949 E4.66955
G1 X121.866 Y207.093 E4.70948
G1 X178.522 Y207.069 E6.95701
G1 X179.131 Y206.949 E6.98162
G1 X179.917 Y206.619 E7.01544
G1 X183.578 Y204.527 E7.1827
G1 X184.35 Y203.984 E7.22017
G1 X185.344 Y203.084 E7.27335
G1 X186.158 Y201.156 E7.35638
G1 X186.155 Y117.9 E10.65911
G1 X186.088 Y117.303 E10.68291
G1 X181.088 Y95.303 E11.57789
G1 X180.086 Y93.752 E11.65115
G1 X175.774 Y90.492 E11.86557
G1 X175.108 Y90.123 E11.89578
G1 X174.08 Y89.918 E11.93738
G1 X160.768 Y89.907 E12.46546
G1 X125.92 Y89.918 E13.84784
G1 X124.441 Y90.356 E13.90902
G1 X119.963 Y93.716 E14.13114
G92 E0
G1 E-0.8 F2400
M204 S6000
G1 Z0.5 F12000
M204 S1500
G1 X120.249 Y94.097
G1 Z0.2
G1 E0 F2100
G1 F2700
G1 X120.202 Y94.132 E0.00232
G1 X119.378 Y95.409 E0.06261
G1 X114.378 Y117.409 E0.95759
G1 X114.323 Y117.9 E0.97718
G1 X114.319 Y201.156 E4.2799
G1 X114.988 Y202.743 E4.34822
G1 X115.799 Y203.495 E4.39207
G1 X116.659 Y204.113 E4.43409
G1 X120.32 Y206.205 E4.60135
G1 X120.992 Y206.488 E4.63027
G1 X121.866 Y206.616 E4.66531
G1 X178.326 Y206.607 E6.90505
G1 X179.008 Y206.488 E6.93254
G1 X179.68 Y206.205 E6.96145
G1 X183.341 Y204.113 E7.12872
G1 X184.069 Y203.599 E7.16407
G1 X185.012 Y202.743 E7.21458
G1 X185.681 Y201.156 E7.28289
G1 X185.677 Y117.9 E10.58562
G1 X185.622 Y117.409 E10.60521
G1 X180.622 Y95.409 E11.50019
G1 X179.798 Y94.133 E11.56046
G1 X175.486 Y90.873 E11.77489
G1 X174.926 Y90.563 E11.80029
G1 X174.079 Y90.395 E11.83452
G1 X160.767 Y90.384 E12.36261
G1 X125.921 Y90.395 E13.74495
G1 X124.68 Y90.769 E13.79636
G1 X120.297 Y94.061 E14.01381
G92 E0
G1 E-0.8 F2400
M204 S6000
G1 Z0.5 F12000
M204 S1500
G1 X120.584 Y94.442
G1 Z0.2
G1 E0 F2100
G1 F2700
G1 X120.49 Y94.513 E0.0047
G1 X119.843 Y95.515 E0.05201
G1 X114.8 Y117.9 E0.96226
G1 X114.796 Y201.156 E4.26499
G1 X115.321 Y202.401 E4.31859
G1 X116.212 Y203.213 E4.36642
G1 X116.896 Y203.699 E4.39966
G1 X120.556 Y205.791 E4.56693
G1 X121.114 Y206.027 E4.59095
G1 X121.866 Y206.139 E4.62109
G1 X178.285 Y206.132 E6.8592
G1 X178.886 Y206.027 E6.88341
G1 X179.31 Y205.86 E6.90149
G1 X183.267 Y203.593 E7.08239
G1 X184.679 Y202.401 E7.15568
G1 X185.204 Y201.156 E7.20929
G1 X185.157 Y117.515 E10.52729
G1 X180.157 Y95.515 E11.42227
G1 X179.51 Y94.513 E11.46956
G1 X175.198 Y91.253 E11.68399
G1 X174.743 Y91.004 E11.70459
G1 X174.079 Y90.872 E11.73145
G1 X160.767 Y90.861 E12.25953
G1 X125.921 Y90.872 E13.64184
G1 X125.053 Y91.105 E13.67749
G1 X124.74 Y91.301 E13.69217
G1 X120.632 Y94.405 E13.8964
M104 S255 ; set temperature
G92 E0
G1 E-0.8 F2400
M204 S6000
G1 Z0.5 F12000
; printing object screw_hinge_x3 (1).stl id:0 copy 0
EXCLUDE_OBJECT_START NAME=screw_hinge_x3_1_stl_id_0_copy_0
; acceleration to travel
M204 S6500
G1 X164.223 Y127.772
; decel to extrusion
M204 S1500
G1 X174.718 Y135.805
; end travel
G1 Z0.2
G1 E0 F2100
;TYPE:Internal perimeter
;WIDTH:0.568
G1 F3600
G1 X175.553 Y135.835 E0.03648
G1 X176.155 Y135.771 E0.06289
G1 X176.74 Y135.625 E0.08924
G1 X177.3 Y135.399 E0.11559
G1 X177.822 Y135.098 E0.14193
G1 X178.299 Y134.726 E0.16832
G1 X178.719 Y134.292 E0.19471
G1 X179.075 Y133.803 E0.2211
G1 X179.36 Y133.27 E0.2475
G1 X179.567 Y132.702 E0.27389
G1 X179.694 Y132.111 E0.30028
G1 X179.737 Y131.507 E0.32672
G1 X179.694 Y130.89 E0.35371
G1 X179.567 Y130.298 E0.38015
G1 X179.36 Y129.73 E0.40655
G1 X179.075 Y129.197 E0.43294
G1 X178.719 Y128.708 E0.45933
G1 X178.299 Y128.274 E0.48573
G1 X177.822 Y127.902 E0.51211
G1 X177.3 Y127.601 E0.53846
G1 X176.74 Y127.375 E0.56481
G1 X176.155 Y127.229 E0.59116
G1 X175.553 Y127.165 E0.61757
G1 X174.718 Y127.195 E0.65404
G1 X174.716 Y119.134 E1.006
G1 X181.557 Y119.134 E1.30471
G1 X181.556 Y141.802 E2.29442
G1 X177.946 Y143.866 E2.47596
G1 X174.716 Y143.866 E2.61701
G1 X174.718 Y135.865 E2.96635
G1 X174.193 Y135.105 F12000
G1 F3600
G1 X174.482 Y135.199 E2.97963
G1 X174.995 Y135.289 E3.00234
G1 X175.535 Y135.309 E3.02594
G1 X176.063 Y135.253 E3.04913
G1 X176.578 Y135.125 E3.07228
G1 X177.069 Y134.926 E3.09543
G1 X177.528 Y134.661 E3.11857
G1 X177.947 Y134.335 E3.14176
G1 X178.317 Y133.953 E3.16495
G1 X178.629 Y133.524 E3.18814
G1 X178.879 Y133.055 E3.21133
G1 X179.062 Y132.556 E3.23452
G1 X179.173 Y132.037 E3.25771
G1 X179.211 Y131.506 E3.28093
G1 X179.173 Y130.964 E3.30467
G1 X179.062 Y130.444 E3.32789
G1 X178.879 Y129.945 E3.35108
G1 X178.629 Y129.476 E3.37427
G1 X178.317 Y129.047 E3.39746
G1 X177.947 Y128.665 E3.42065
G1 X177.528 Y128.339 E3.44384
G1 X177.069 Y128.074 E3.46698
G1 X176.578 Y127.875 E3.49013
G1 X176.063 Y127.747 E3.51329
G1 X175.535 Y127.691 E3.53647
G1 X174.995 Y127.711 E3.56007
G1 X174.482 Y127.801 E3.58278
G1 X174.193 Y127.895 E3.59606
G1 X174.19 Y118.609 E4.00149
G1 X182.082 Y118.609 E4.34606
G1 X182.081 Y142.08 E5.3708
G1 X181.728 Y142.321 E5.38945
G1 X178.085 Y144.391 E5.57242
G1 X174.19 Y144.391 E5.74245
G1 X174.193 Y135.165 E6.14527
M204 S1000
G1 X173.668 Y134.284 F12000
;TYPE:External perimeter
G1 F3600
G1 X174.162 Y134.543 E6.16959
G1 X174.61 Y134.688 E6.19016
G1 X175.05 Y134.766 E6.20968
G1 X175.517 Y134.783 E6.23006
G1 X175.971 Y134.735 E6.25003
G1 X176.415 Y134.624 E6.26998
G1 X176.839 Y134.453 E6.28994
G1 X177.234 Y134.225 E6.30988
G1 X177.595 Y133.943 E6.32987
G1 X177.914 Y133.614 E6.34986
G1 X178.183 Y133.244 E6.36984
G1 X178.399 Y132.84 E6.38983
G1 X178.556 Y132.41 E6.40982
G1 X178.652 Y131.963 E6.4298
G1 X178.685 Y131.506 E6.4498
G1 X178.652 Y131.038 E6.4703
G1 X178.556 Y130.59 E6.49029
G1 X178.399 Y130.16 E6.51028
G1 X178.183 Y129.756 E6.53027
G1 X177.914 Y129.386 E6.55025
G1 X177.595 Y129.057 E6.57024
G1 X177.234 Y128.775 E6.59023
G1 X176.839 Y128.547 E6.61017
G1 X176.415 Y128.376 E6.63013
G1 X175.971 Y128.265 E6.65008
G1 X175.517 Y128.217 E6.67005
G1 X175.05 Y128.234 E6.69043
G1 X174.61 Y128.312 E6.70995
G1 X174.162 Y128.457 E6.73052
G1 X173.668 Y128.716 E6.75484
G1 X173.665 Y118.084 E7.21905
G1 X182.091 Y118.084 E7.58691
G1 X182.414 Y118.105 E7.60105
G1 X182.608 Y118.139 E7.60963
G1 X182.606 Y142.338 E8.66617
G1 X182.273 Y142.595 E8.68457
G1 X182 Y142.77 E8.6987
G1 X178.274 Y144.887 E8.8858
G1 X178.11 Y144.916 E8.8931
G1 X173.665 Y144.916 E9.08715
G1 X173.668 Y134.344 E9.54874
;WIPE_START
M204 S6000
G1 X173.934 Y134.583 F12000
;WIPE_END
G92 E0
G1 E-0.8 F2400
G1 Z0.5 F12000
; acceleration to travel
M204 S6500
G1 X175.153 Y128.432
; decel to extrusion
M204 S1500
G1 X175.435 Y127.012
; end travel
G1 Z0.2
G1 E0 F2100
;TYPE:Solid infill
G1 F3600
G1 X175.101 Y126.678 E0.0206
G1 X175.101 Y125.935 E0.05303
G1 X175.992 Y126.826 E0.10803
G1 X176.221 Y126.85 E0.11812
G1 X176.859 Y127.009 E0.1468
G1 X176.957 Y127.049 E0.15143
G1 X175.101 Y125.193 E0.26607
G1 X175.101 Y124.45 E0.2985
G1 X181.174 Y130.523 E0.67347
G1 X181.174 Y129.78 E0.70589
G1 X175.1 Y123.707 E1.08088
G1 X175.1 Y122.964 E1.11331
G1 X181.174 Y129.038 E1.48832
G1 X181.174 Y128.295 E1.52074
G1 X175.1 Y122.221 E1.89576
G1 X175.1 Y121.479 E1.92819
G1 X181.174 Y127.553 E2.30323
G1 X181.174 Y126.81 E2.33565
G1 X175.099 Y120.736 E2.71071
G1 X175.099 Y119.993 E2.74314
G1 X181.174 Y126.068 E3.11821
G1 X181.174 Y125.325 E3.15063
G1 X175.366 Y119.517 E3.50922
G1 X176.109 Y119.517 E3.54164
G1 X181.174 Y124.582 E3.85438
G1 X181.174 Y123.84 E3.8868
G1 X176.851 Y119.517 E4.1537
G1 X177.594 Y119.517 E4.18612
G1 X181.174 Y123.097 E4.40716
G1 X181.174 Y122.355 E4.43958
G1 X178.336 Y119.517 E4.61478
G1 X179.079 Y119.517 E4.6472
G1 X181.174 Y121.612 E4.77655
G1 X181.174 Y120.87 E4.80897
G1 X179.822 Y119.517 E4.89247
G1 X180.564 Y119.517 E4.92489
G1 X181.4 Y120.353 E4.97649
; acceleration to travel
M204 S6500
G1 X181.399 Y129.403 F12000
; decel to extrusion
M204 S1500
G1 X181.399 Y131.491
; end travel
G1 F3600
G1 X179.843 Y129.934 E5.0726
G1 X179.937 Y130.192 E5.08456
G1 X180.08 Y130.915 E5.11674
G1 X181.173 Y132.008 E5.18425
G1 X181.173 Y132.75 E5.21667
G1 X180.109 Y131.686 E5.2824
G1 X180.074 Y132.165 E5.30338
G1 X180.034 Y132.354 E5.3118
G1 X181.173 Y133.493 E5.38215
G1 X181.173 Y134.235 E5.41457
G1 X179.886 Y132.948 E5.49408
G1 X179.68 Y133.484 E5.51918
G1 X181.173 Y134.978 E5.6114
G1 X181.173 Y135.721 E5.64382
G1 X179.421 Y133.969 E5.75199
G1 X179.113 Y134.403 E5.77524
G1 X181.173 Y136.463 E5.90246
G1 X181.173 Y137.206 E5.93488
G1 X178.764 Y134.797 E6.08362
G1 X178.556 Y135.012 E6.0967
G1 X178.377 Y135.152 E6.10663
G1 X181.173 Y137.948 E6.2793
G1 X181.173 Y138.691 E6.31172
G1 X177.949 Y135.467 E6.51076
G1 X177.478 Y135.739 E6.5345
G1 X181.173 Y139.433 E6.76263
G1 X181.173 Y140.176 E6.79505
G1 X176.951 Y135.953 E7.05576
G1 X176.368 Y136.113 E7.08214
G1 X181.173 Y140.918 E7.37885
G1 X181.173 Y141.58 E7.40773
G1 X181.121 Y141.609 E7.41032
G1 X175.715 Y136.203 E7.74414
G1 X175.566 Y136.219 E7.75067
G1 X175.101 Y136.202 E7.77099
G1 X175.101 Y136.332 E7.77666
G1 X180.649 Y141.879 E8.1192
G1 X180.177 Y142.15 E8.14297
G1 X175.101 Y137.074 E8.45635
G1 X175.101 Y137.816 E8.48877
G1 X179.704 Y142.42 E8.77299
G1 X179.232 Y142.69 E8.79676
G1 X175.101 Y138.559 E9.05182
G1 X175.1 Y139.301 E9.08423
G1 X178.759 Y142.96 E9.31014
G1 X178.287 Y143.23 E9.3339
G1 X175.1 Y140.043 E9.53065
G1 X175.1 Y140.786 E9.56306
G1 X177.797 Y143.483 E9.72957
G1 X177.054 Y143.483 E9.76199
G1 X175.1 Y141.528 E9.88267
G1 X175.099 Y142.271 E9.91508
G1 X176.312 Y143.483 E9.98992
G1 X175.569 Y143.483 E10.02234
G1 X174.874 Y142.787 E10.06528
G92 E0
G1 E-0.8 F2400
M204 S6000
G1 Z0.5 F12000
; acceleration to travel
M204 S6500
G1 X167.23 Y116.851
; decel to extrusion
M204 S1500
G1 X165.466 Y110.866
; end travel
G1 Z0.2
G1 E0 F2100
;TYPE:Internal perimeter
G1 F3600
G1 X165.466 Y138.866 E1.2225
G1 X155.134 Y138.866 E1.67358
G1 X155.134 Y97.448 E3.48189
G1 X160.916 Y94.144 E3.77264
G1 X172.766 Y94.138 E4.29001
G1 X172.766 Y97.134 E4.42081
G1 X176.557 Y97.134 E4.58635
G1 X176.557 Y110.866 E5.18589
G1 X165.526 Y110.866 E5.66753
G1 X165.991 Y111.391 F12000
G1 F3600
G1 X165.991 Y139.391 E6.89003
G1 X154.609 Y139.391 E7.38696
G1 X154.609 Y97.144 E9.2315
G1 X160.776 Y93.619 E9.54163
G1 X173.291 Y93.613 E10.08803
G1 X173.291 Y96.609 E10.21884
G1 X177.082 Y96.609 E10.38438
G1 X177.082 Y111.391 E11.02977
G1 X166.051 Y111.391 E11.51141
M204 S1000
G1 X166.516 Y111.916 F12000
;TYPE:External perimeter
G1 F3600
G1 X166.516 Y139.482 E12.71497
G1 X166.501 Y139.601 E12.72021
G1 X166.466 Y139.691 E12.72442
G1 X166.375 Y139.807 E12.73083
G1 X166.296 Y139.864 E12.73508
G1 X166.201 Y139.901 E12.73954
G1 X166.082 Y139.916 E12.74478
G1 X154.518 Y139.916 E13.24969
G1 X154.399 Y139.901 E13.25493
G1 X154.304 Y139.864 E13.25939
G1 X154.225 Y139.807 E13.26363
G1 X154.134 Y139.691 E13.27005
G1 X154.099 Y139.601 E13.27426
G1 X154.084 Y139.482 E13.2795
G1 X154.084 Y97.095 E15.13014
G1 X154.122 Y96.911 E15.13835
G1 X154.224 Y96.771 E15.1459
G1 X154.307 Y96.712 E15.15036
G1 X160.538 Y93.151 E15.4637
G1 X160.695 Y93.094 E15.47098
G1 X173.816 Y93.088 E16.04387
G1 X173.816 Y96.084 E16.17469
G1 X177.091 Y96.084 E16.31767
G1 X177.608 Y96.134 E16.34034
G1 X177.608 Y111.866 E17.02723
G1 X177.091 Y111.916 E17.0499
G1 X166.576 Y111.916 E17.50898
;WIPE_START
M204 S6000
G1 X166.116 Y111.916 F12000
;WIPE_END
; acceleration to travel
M204 S6500
G1 X174.472 Y103.913
; decel to extrusion
M204 S1500
G1 X176.4 Y102.066
; end travel
;TYPE:Solid infill
G1 F3600
G1 X168.858 Y94.524 E17.97468
G1 X168.115 Y94.524 E18.00709
G1 X176.174 Y102.583 E18.50468
G1 X176.174 Y103.325 E18.5371
G1 X167.373 Y94.524 E19.08052
G1 X166.631 Y94.525 E19.11292
G1 X176.174 Y104.068 E19.70217
G1 X176.174 Y104.81 E19.73459
G1 X165.889 Y94.525 E20.36966
G1 X165.147 Y94.526 E20.40206
G1 X176.174 Y105.553 E21.08296
G1 X176.174 Y106.296 E21.11538
G1 X164.404 Y94.526 E21.84211
G1 X163.662 Y94.526 E21.87451
G1 X176.174 Y107.038 E22.64706
G1 X176.174 Y107.781 E22.67948
G1 X162.92 Y94.527 E23.49786
G1 X162.178 Y94.527 E23.53026
G1 X176.174 Y108.523 E24.39446
G1 X176.174 Y109.266 E24.42689
G1 X161.436 Y94.527 E25.33691
G1 X161.018 Y94.528 E25.35516
G1 X160.811 Y94.646 E25.36554
G1 X176.174 Y110.008 E26.31412
G1 X176.174 Y110.483 E26.33482
G1 X175.906 Y110.483 E26.34654
G1 X160.339 Y94.916 E27.30772
G1 X159.866 Y95.186 E27.33149
G1 X175.163 Y110.483 E28.27599
G1 X174.42 Y110.483 E28.30842
G1 X159.394 Y95.456 E29.23625
G1 X158.921 Y95.726 E29.26001
G1 X173.678 Y110.483 E30.17117
G1 X172.935 Y110.483 E30.2036
