; generated by SuperSlicer 2.5.59 on 2023-03-19 at 05:07:10 UTC


;
;

;
;
; 

; external perimeters extrusion width = 0.45mm
; perimeters extrusion width = 0.45mm
; infill extrusion width = 0.45mm
; solid infill extrusion width = 0.45mm
; top infill extrusion width = 0.45mm
; first layer extrusion width = 0.60mm

; object:{"name":"square_tower","id":"square_tower.stl id:0 copy 0","object_center":[150.000000,148.500000,0.000000],"boundingbox_center":[150.000000,148.500000,25.000000],"boundingbox_size":[66.000000,65.945206,50.000000]}
EXCLUDE_OBJECT_DEFINE NAME=square_tower_stl_id_0_copy_0 CENTER=150.000000,148.500000 POLYGON=[[117.000000,120.500008],[117.109264,119.460448],[117.432264,118.466328],[117.954928,117.561080],[118.654352,116.784288],[119.500000,116.169880],[120.454912,115.744720],[121.477360,115.527400],[178.522592,115.527400],[179.545104,115.744720],[180.500000,116.169880],[181.345696,116.784288],[182.045104,117.561080],[182.567696,118.466328],[182.890704,119.460448],[183.000000,120.500008],[183.000000,176.500000],[182.890704,177.539616],[182.567696,178.533712],[182.045104,179.438912],[181.345696,180.215696],[180.500000,180.830112],[179.545104,181.255312],[178.522592,181.472592],[121.477360,181.472592],[120.454912,181.255312],[119.500000,180.830112],[118.654352,180.215696],[117.954928,179.438912],[117.432264,178.533712],[117.109264,177.539616],[117.000000,176.500000],[117.000000,120.500008]]
; plater:{"center":[150.000000,148.500000,0.000000],"boundingbox_center":[150.000000,148.500000,25.000000],"boundingbox_size":[66.000000,65.945206,50.000000]}

;TYPE:Custom
M104 S0 ; Stops SuperSlicer from sending temp waits separately

M109 S0

M140 S0

print_start EXTRUDER=250 BED=105 CHAMBER=0
G21 ; set units to millimeters
G90 ; use absolute coordinates
M82 ; use absolute distances for extrusion
G92 E0
; Filament gcode
;_TOOLCHANGE 0
M107
;LAYER_CHANGE
;Z:0.3
;HEIGHT:0.3
TIMELAPSE_TAKE_FRAME
;BEFORE_LAYER_CHANGE
;0.3


G1 E-0.8 F2400
G1 Z0.2 F8700
G1 Z0.3
;AFTER_LAYER_CHANGE
;0.3
G92 E0
G1 Z0.5
G1 X116.344 Y113.873
G1 Z0.3
G1 E0.8 F2400
;TYPE:Skirt
;WIDTH:0.54
G1 F1950
G1 X115.09 Y115.193 E0.90805
G1 X113.949 Y117.169 E1.04336
G1 X113.433 Y118.915 E1.15141
G1 X113.278 Y120.5 E1.24585
G1 X113.278 Y176.5 E4.56788
G1 X113.529 Y178.537 E4.68964
G1 X114.138 Y180.254 E4.79769
G1 X115.09 Y181.807 E4.90574
G1 X116.344 Y183.127 E5.01379
G1 X117.845 Y184.158 E5.12183
G1 X119.088 Y184.712 E5.20255
G1 X121.32 Y185.186 E5.33787
G1 X178.68 Y185.186 E8.7406
G1 X180.471 Y184.855 E8.84865
G1 X182.154 Y184.158 E8.95671
G1 X183.656 Y183.127 E9.06476
G1 X184.91 Y181.806 E9.17282
G1 X186.051 Y179.831 E9.30812
G1 X186.567 Y178.085 E9.41616
G1 X186.722 Y176.5 E9.51061
G1 X186.71 Y120.269 E12.84637
G1 X186.471 Y118.463 E12.95442
G1 X185.863 Y116.746 E13.06246
G1 X184.91 Y115.194 E13.17051
G1 X184 Y114.182 E13.25123
G1 X182.154 Y112.842 E13.38654
G1 X180.471 Y112.145 E13.4946
G1 X179.14 Y111.862 E13.57531
G1 X121.32 Y111.814 E17.00535
G1 X119.529 Y112.145 E17.1134
G1 X117.846 Y112.842 E17.22145
G1 X116.394 Y113.839 E17.32594
G1 X116.664 Y114.229 F8700
G1 F1950
G1 X116.624 Y114.258 E17.32888
G1 X115.443 Y115.512 E17.43105
G1 X114.402 Y117.316 E17.55463
G1 X113.906 Y118.965 E17.6568
G1 X113.754 Y120.5 E17.74829
G1 X113.754 Y176.5 E21.07032
G1 X113.981 Y178.39 E21.18326
G1 X114.549 Y180.016 E21.28543
G1 X115.443 Y181.488 E21.3876
G1 X116.624 Y182.742 E21.48977
G1 X118.039 Y183.724 E21.59193
G1 X119.282 Y184.277 E21.67265
G1 X121.32 Y184.71 E21.79623
G1 X178.68 Y184.71 E25.19897
G1 X180.372 Y184.39 E25.30114
G1 X181.961 Y183.724 E25.40332
G1 X183.376 Y182.743 E25.50549
G1 X184.557 Y181.488 E25.60766
G1 X185.598 Y179.684 E25.73124
G1 X186.094 Y178.035 E25.8334
G1 X186.246 Y176.5 E25.9249
G1 X186.237 Y120.318 E29.2577
G1 X186.019 Y118.61 E29.35987
G1 X185.451 Y116.984 E29.46204
G1 X184.557 Y115.512 E29.56421
G1 X183.646 Y114.501 E29.64492
G1 X181.961 Y113.276 E29.76851
G1 X180.372 Y112.61 E29.87068
G1 X179.042 Y112.328 E29.9514
G1 X121.32 Y112.29 E33.37557
G1 X119.628 Y112.61 E33.47774
G1 X118.039 Y113.276 E33.57991
G1 X116.714 Y114.195 E33.67559
G92 E0
G1 E-0.8 F2400
G1 Z0.5 F8700
G1 X118.138 Y116.168
G1 Z0.3
G1 E0 F2400
;WIDTH:0.6
G1 F1950
G1 X119.123 Y115.46 E0.08105
G1 X120.18 Y114.989 E0.15838
G1 X121.365 Y114.731 E0.23943
G1 X122.579 Y114.725 E0.32048
G1 X123.82 Y114.989 E0.40526
G1 X124.852 Y115.447 E0.48071
G1 X124.95 Y115.503 E0.48821
G1 X125.841 Y116.151 E0.56179
G1 X125.924 Y116.226 E0.56928
G1 X126.68 Y117.068 E0.64485
G1 X127.046 Y117.697 E0.69348
G1 X172.954 Y117.697 E3.76036
G1 X173.32 Y117.068 E3.80899
G1 X174.076 Y116.226 E3.88456
G1 X174.159 Y116.151 E3.89206
G1 X175.05 Y115.503 E3.96564
G1 X175.148 Y115.447 E3.97313
G1 X176.233 Y114.972 E4.05231
G1 X177.338 Y114.736 E4.12777
G1 X177.449 Y114.724 E4.13526
G1 X178.634 Y114.731 E4.21443
G1 X179.74 Y114.965 E4.28989
G1 X179.846 Y114.999 E4.29738
G1 X180.877 Y115.46 E4.37283
G1 X181.841 Y116.151 E4.45202
G1 X181.924 Y116.226 E4.45951
G1 X182.661 Y117.044 E4.53309
G1 X182.727 Y117.135 E4.54058
G1 X183.29 Y118.114 E4.61603
G1 X183.671 Y119.266 E4.69708
G1 X183.803 Y120.528 E4.78186
G1 X183.671 Y121.734 E4.86292
G1 X183.29 Y122.886 E4.94397
G1 X182.679 Y123.934 E5.02502
G1 X181.862 Y124.832 E5.10607
G1 X180.95 Y125.497 E5.18153
G1 X180.803 Y125.575 E5.19259
G1 X180.803 Y171.426 E8.25568
G1 X180.95 Y171.503 E8.26674
G1 X181.862 Y172.168 E8.3422
G1 X182.661 Y173.044 E8.42138
G1 X182.727 Y173.135 E8.42887
G1 X183.29 Y174.114 E8.50432
G1 X183.663 Y175.239 E8.5835
G1 X183.687 Y175.349 E8.59099
G1 X183.803 Y176.528 E8.67017
G1 X183.671 Y177.734 E8.75123
G1 X183.29 Y178.886 E8.83228
G1 X182.679 Y179.934 E8.91333
G1 X181.862 Y180.832 E8.99438
G1 X180.926 Y181.512 E9.07171
G1 X179.82 Y182.011 E9.15276
G1 X178.634 Y182.269 E9.23382
G1 X177.449 Y182.276 E9.31299
G1 X177.338 Y182.264 E9.32048
G1 X176.233 Y182.028 E9.39594
G1 X175.148 Y181.553 E9.47512
G1 X175.05 Y181.497 E9.48261
G1 X174.159 Y180.849 E9.55619
G1 X174.076 Y180.774 E9.56369
G1 X173.32 Y179.932 E9.63926
G1 X172.954 Y179.303 E9.68789
G1 X127.046 Y179.303 E12.75477
G1 X126.68 Y179.932 E12.8034
G1 X125.924 Y180.774 E12.87897
G1 X125.841 Y180.849 E12.88646
G1 X124.877 Y181.54 E12.96564
G1 X123.846 Y182.001 E13.0411
G1 X123.74 Y182.035 E13.04859
G1 X122.579 Y182.275 E13.12777
G1 X121.449 Y182.276 E13.20322
G1 X121.338 Y182.264 E13.21071
G1 X120.233 Y182.028 E13.28617
G1 X119.123 Y181.54 E13.36722
G1 X118.138 Y180.832 E13.44827
G1 X117.339 Y179.956 E13.52745
G1 X117.273 Y179.865 E13.53494
G1 X116.71 Y178.886 E13.61039
G1 X116.329 Y177.734 E13.69145
G1 X116.197 Y176.528 E13.7725
G1 X116.329 Y175.266 E13.85728
G1 X116.71 Y174.114 E13.93834
G1 X117.321 Y173.066 E14.01939
G1 X118.138 Y172.168 E14.10044
G1 X119.05 Y171.503 E14.17589
G1 X119.197 Y171.426 E14.18695
G1 X119.197 Y125.575 E17.25005
G1 X119.05 Y125.497 E17.26111
G1 X118.138 Y124.832 E17.33656
G1 X117.339 Y123.956 E17.41574
G1 X117.273 Y123.865 E17.42323
G1 X116.71 Y122.886 E17.49868
G1 X116.336 Y121.761 E17.57787
G1 X116.313 Y121.651 E17.58536
G1 X116.198 Y120.556 E17.65894
G1 X116.198 Y120.444 E17.66643
G1 X116.329 Y119.266 E17.74561
G1 X116.71 Y118.114 E17.82666
G1 X117.321 Y117.066 E17.90772
G1 X118.097 Y116.213 E17.98476
G1 X118.465 Y116.595 F8700
G1 F1950
G1 X118.486 Y116.576 E17.98664
G1 X119.354 Y115.945 E18.05834
G1 X119.378 Y115.931 E18.06022
G1 X120.359 Y115.494 E18.13192
G1 X120.386 Y115.486 E18.1338
G1 X121.435 Y115.263 E18.2055
G1 X121.463 Y115.26 E18.20738
G1 X122.537 Y115.26 E18.27909
G1 X122.565 Y115.263 E18.28096
G1 X123.614 Y115.486 E18.35267
G1 X123.641 Y115.494 E18.35454
G1 X124.622 Y115.931 E18.42625
G1 X124.646 Y115.945 E18.42812
G1 X125.514 Y116.576 E18.49983
G1 X125.535 Y116.595 E18.50171
G1 X126.254 Y117.393 E18.57344
G1 X126.271 Y117.416 E18.57538
G1 X126.735 Y118.232 E18.63808
G1 X173.265 Y118.232 E21.7466
G1 X173.729 Y117.416 E21.8093
G1 X173.746 Y117.393 E21.81124
G1 X174.465 Y116.595 E21.88298
G1 X174.486 Y116.576 E21.88485
G1 X175.354 Y115.945 E21.95656
G1 X175.378 Y115.931 E21.95844
G1 X176.359 Y115.494 E22.03014
G1 X176.385 Y115.486 E22.03202
G1 X177.435 Y115.263 E22.10373
G1 X177.463 Y115.26 E22.1056
G1 X178.537 Y115.26 E22.1773
G1 X178.565 Y115.263 E22.17918
G1 X179.615 Y115.486 E22.25089
G1 X179.641 Y115.494 E22.25276
G1 X180.622 Y115.931 E22.32447
G1 X180.646 Y115.945 E22.32634
G1 X181.514 Y116.576 E22.39805
G1 X181.535 Y116.595 E22.39993
G1 X182.254 Y117.392 E22.47163
G1 X182.27 Y117.415 E22.47351
G1 X182.807 Y118.345 E22.54521
G1 X182.818 Y118.37 E22.54709
G1 X183.15 Y119.391 E22.61879
G1 X183.156 Y119.418 E22.62067
G1 X183.268 Y120.486 E22.69237
G1 X183.268 Y120.514 E22.69425
G1 X183.156 Y121.582 E22.76596
G1 X183.15 Y121.609 E22.76783
G1 X182.818 Y122.63 E22.83954
G1 X182.807 Y122.655 E22.84141
G1 X182.27 Y123.585 E22.91312
G1 X182.254 Y123.608 E22.91499
G1 X181.535 Y124.405 E22.9867
G1 X181.514 Y124.424 E22.98857
G1 X180.646 Y125.055 E23.06028
G1 X180.622 Y125.069 E23.06216
G1 X180.268 Y125.227 E23.08804
G1 X180.268 Y171.773 E26.19761
G1 X180.622 Y171.931 E26.22349
G1 X180.646 Y171.945 E26.22537
G1 X181.514 Y172.576 E26.29708
G1 X181.535 Y172.595 E26.29895
G1 X182.254 Y173.392 E26.37066
G1 X182.27 Y173.415 E26.37253
G1 X182.807 Y174.345 E26.44423
G1 X182.818 Y174.37 E26.44611
G1 X183.15 Y175.391 E26.51781
G1 X183.156 Y175.418 E26.51969
G1 X183.268 Y176.486 E26.5914
G1 X183.268 Y176.514 E26.59327
G1 X183.156 Y177.582 E26.66498
G1 X183.15 Y177.609 E26.66686
G1 X182.818 Y178.63 E26.73856
G1 X182.807 Y178.655 E26.74044
G1 X182.27 Y179.585 E26.81214
G1 X182.254 Y179.608 E26.81401
G1 X181.535 Y180.405 E26.88572
G1 X181.514 Y180.424 E26.88759
G1 X180.646 Y181.055 E26.9593
G1 X180.622 Y181.069 E26.96118
G1 X179.641 Y181.506 E27.03288
G1 X179.615 Y181.514 E27.03476
G1 X178.565 Y181.737 E27.10647
G1 X178.537 Y181.74 E27.10834
G1 X177.463 Y181.74 E27.18004
G1 X177.435 Y181.737 E27.18192
G1 X176.385 Y181.514 E27.25363
G1 X176.359 Y181.506 E27.2555
G1 X175.378 Y181.069 E27.32721
G1 X175.354 Y181.055 E27.32909
G1 X174.486 Y180.424 E27.40079
G1 X174.465 Y180.405 E27.40267
G1 X173.746 Y179.607 E27.47441
G1 X173.729 Y179.584 E27.47634
G1 X173.265 Y178.768 E27.53904
G1 X126.735 Y178.768 E30.64756
G1 X126.271 Y179.584 E30.71027
G1 X126.254 Y179.607 E30.7122
G1 X125.535 Y180.405 E30.78394
G1 X125.514 Y180.424 E30.78581
G1 X124.646 Y181.055 E30.85752
G1 X124.622 Y181.069 E30.85939
G1 X123.641 Y181.506 E30.9311
G1 X123.614 Y181.514 E30.93298
G1 X122.565 Y181.737 E31.00468
G1 X122.537 Y181.74 E31.00656
G1 X121.463 Y181.74 E31.07826
G1 X121.435 Y181.737 E31.08014
G1 X120.386 Y181.514 E31.15184
G1 X120.359 Y181.506 E31.15372
G1 X119.378 Y181.069 E31.22543
G1 X119.354 Y181.055 E31.2273
G1 X118.486 Y180.424 E31.29901
G1 X118.465 Y180.405 E31.30088
G1 X117.747 Y179.608 E31.37259
G1 X117.73 Y179.585 E31.37446
G1 X117.193 Y178.655 E31.44617
G1 X117.182 Y178.63 E31.44804
G1 X116.85 Y177.609 E31.51975
G1 X116.844 Y177.582 E31.52162
G1 X116.732 Y176.514 E31.59333
G1 X116.732 Y176.486 E31.59521
G1 X116.844 Y175.418 E31.66692
G1 X116.85 Y175.391 E31.66879
G1 X117.182 Y174.37 E31.7405
G1 X117.193 Y174.345 E31.74237
G1 X117.73 Y173.415 E31.81408
G1 X117.747 Y173.392 E31.81595
G1 X118.465 Y172.595 E31.88766
G1 X118.486 Y172.576 E31.88953
G1 X119.354 Y171.945 E31.96124
G1 X119.378 Y171.931 E31.96311
G1 X119.732 Y171.773 E31.989
G1 X119.732 Y125.227 E35.09857
G1 X119.378 Y125.069 E35.12445
G1 X119.354 Y125.055 E35.12633
G1 X118.486 Y124.424 E35.19803
G1 X118.465 Y124.405 E35.19991
G1 X117.747 Y123.608 E35.27161
G1 X117.73 Y123.585 E35.27349
G1 X117.193 Y122.655 E35.34519
G1 X117.182 Y122.63 E35.34707
G1 X116.85 Y121.609 E35.41878
G1 X116.844 Y121.582 E35.42065
G1 X116.732 Y120.514 E35.49236
G1 X116.732 Y120.486 E35.49423
G1 X116.844 Y119.418 E35.56594
G1 X116.85 Y119.391 E35.56781
G1 X117.182 Y118.37 E35.63952
G1 X117.193 Y118.345 E35.64139
G1 X117.73 Y117.415 E35.7131
G1 X117.747 Y117.392 E35.71498
G1 X118.425 Y116.639 E35.78267
M104 S250 ; set temperature
G92 E0
G1 E-0.8 F2400
G1 Z0.5 F8700
; printing object square_tower.stl id:0 copy 0
EXCLUDE_OBJECT_START NAME=square_tower_stl_id_0_copy_0
G1 X120.3 Y124.858
G1 Z0.3
G1 E0 F2400
;TYPE:External perimeter
G1 F2100
G1 X119.651 Y124.569 E0.04747
G1 X118.856 Y123.992 E0.11309
G1 X118.199 Y123.262 E0.17871
G1 X117.708 Y122.411 E0.24433
G1 X117.404 Y121.477 E0.30994
G1 X117.302 Y120.5 E0.37556
G1 X117.404 Y119.523 E0.44118
G1 X117.708 Y118.589 E0.5068
G1 X118.199 Y117.738 E0.57241
G1 X118.856 Y117.008 E0.63803
G1 X119.651 Y116.431 E0.70365
G1 X120.548 Y116.032 E0.76927
G1 X121.509 Y115.827 E0.83489
G1 X122.491 Y115.827 E0.9005
G1 X123.452 Y116.032 E0.96612
G1 X124.349 Y116.431 E1.03174
G1 X125.144 Y117.008 E1.09736
G1 X125.8 Y117.738 E1.16291
G1 X126.404 Y118.8 E1.24454
G1 X173.596 Y118.8 E4.3972
G1 X174.2 Y117.738 E4.47884
G1 X174.856 Y117.008 E4.54439
G1 X175.651 Y116.431 E4.61001
G1 X176.548 Y116.032 E4.67562
G1 X177.509 Y115.827 E4.74124
G1 X178.491 Y115.827 E4.80686
G1 X179.452 Y116.032 E4.87248
G1 X180.349 Y116.431 E4.93809
G1 X181.144 Y117.008 E5.00371
G1 X181.801 Y117.738 E5.06933
G1 X182.292 Y118.589 E5.13495
G1 X182.596 Y119.523 E5.20057
G1 X182.698 Y120.5 E5.26618
G1 X182.596 Y121.477 E5.3318
G1 X182.292 Y122.411 E5.39742
G1 X181.801 Y123.262 E5.46304
G1 X181.144 Y123.992 E5.52865
G1 X180.349 Y124.569 E5.59427
G1 X179.7 Y124.858 E5.64174
G1 X179.7 Y172.142 E8.80059
G1 X180.349 Y172.431 E8.84806
G1 X181.144 Y173.008 E8.91368
G1 X181.801 Y173.738 E8.97929
G1 X182.292 Y174.589 E9.04491
G1 X182.596 Y175.523 E9.11052
G1 X182.698 Y176.5 E9.17614
G1 X182.596 Y177.477 E9.24177
G1 X182.292 Y178.411 E9.30738
G1 X181.801 Y179.262 E9.373
G1 X181.144 Y179.992 E9.43861
G1 X180.349 Y180.569 E9.50423
G1 X179.452 Y180.968 E9.56985
G1 X178.491 Y181.173 E9.63547
G1 X177.509 Y181.173 E9.70108
G1 X176.548 Y180.968 E9.7667
G1 X175.651 Y180.569 E9.83232
G1 X174.856 Y179.992 E9.89794
G1 X174.2 Y179.262 E9.96349
G1 X173.596 Y178.2 E10.04512
G1 X126.404 Y178.2 E13.19779
G1 X125.8 Y179.262 E13.27942
G1 X125.144 Y179.992 E13.34497
G1 X124.349 Y180.569 E13.41059
G1 X123.452 Y180.968 E13.4762
G1 X122.491 Y181.173 E13.54182
G1 X121.509 Y181.173 E13.60744
G1 X120.548 Y180.968 E13.67306
G1 X119.651 Y180.569 E13.73868
G1 X118.856 Y179.992 E13.80429
G1 X118.199 Y179.262 E13.86991
G1 X117.708 Y178.411 E13.93553
G1 X117.404 Y177.477 E14.00114
G1 X117.302 Y176.5 E14.06676
G1 X117.404 Y175.523 E14.13238
G1 X117.708 Y174.589 E14.198
G1 X118.199 Y173.738 E14.26362
G1 X118.856 Y173.008 E14.32923
G1 X119.651 Y172.431 E14.39485
G1 X120.3 Y172.142 E14.44232
G1 X120.3 Y124.918 E17.59716
;WIPE_START
G1 X120.41 Y124.473 F8700
;WIPE_END
G1 X120.763 Y124.478
;TYPE:Internal perimeter
G1 F2100
G1 X119.92 Y124.102 E17.65877
G1 X119.217 Y123.591 E17.71686
G1 X118.635 Y122.945 E17.77496
G1 X118.2 Y122.192 E17.83305
G1 X117.931 Y121.365 E17.89115
G1 X117.84 Y120.5 E17.94925
G1 X117.931 Y119.635 E18.00734
G1 X118.2 Y118.808 E18.06544
G1 X118.635 Y118.055 E18.12353
G1 X119.217 Y117.409 E18.18163
G1 X119.92 Y116.898 E18.23973
G1 X120.715 Y116.544 E18.29782
G1 X121.565 Y116.363 E18.35592
G1 X122.435 Y116.363 E18.41401
G1 X123.285 Y116.544 E18.47211
G1 X124.08 Y116.898 E18.53021
G1 X124.783 Y117.409 E18.5883
G1 X125.363 Y118.053 E18.64621
G1 X126.092 Y119.336 E18.74478
G1 X173.908 Y119.336 E21.93909
G1 X174.637 Y118.053 E22.03766
G1 X175.217 Y117.409 E22.09556
G1 X175.92 Y116.898 E22.15366
G1 X176.715 Y116.544 E22.21175
G1 X177.565 Y116.363 E22.26985
G1 X178.435 Y116.363 E22.32794
G1 X179.285 Y116.544 E22.38604
G1 X180.08 Y116.898 E22.44414
G1 X180.783 Y117.409 E22.50224
G1 X181.365 Y118.055 E22.56033
G1 X181.8 Y118.808 E22.61842
G1 X182.069 Y119.635 E22.67652
G1 X182.16 Y120.5 E22.73462
G1 X182.069 Y121.365 E22.79271
G1 X181.8 Y122.192 E22.85081
G1 X181.365 Y122.945 E22.90891
G1 X180.783 Y123.591 E22.967
G1 X180.08 Y124.102 E23.0251
G1 X179.164 Y124.51 E23.09205
G1 X179.164 Y172.49 E26.29736
G1 X180.08 Y172.898 E26.36431
G1 X180.783 Y173.409 E26.42241
G1 X181.365 Y174.055 E26.4805
G1 X181.8 Y174.808 E26.5386
G1 X182.069 Y175.635 E26.59669
