; generated by SuperSlicer 2.5.59 on 2023-05-07 at 21:01:40 UTC


;
;

;
;
; 

; external perimeters extrusion width = 0.43mm
; perimeters extrusion width = 0.45mm
; infill extrusion width = 0.45mm
; solid infill extrusion width = 0.45mm
; top infill extrusion width = 0.42mm
; support material extrusion width = 0.42mm
; first layer extrusion width = 0.57mm

; object:{"name":"square_tower","id":"square_tower.stl id:0 copy 0","object_center":[150.000000,148.500000,0.000000],"boundingbox_center":[150.000000,148.500000,25.000000],"boundingbox_size":[66.000000,65.945206,50.000000]}
EXCLUDE_OBJECT_DEFINE NAME=square_tower_stl_id_0_copy_0 CENTER=150.000000,148.500000 POLYGON=[[117.000000,120.500008],[117.109264,119.460448],[117.432264,118.466328],[117.954928,117.561080],[118.654352,116.784288],[119.500000,116.169880],[120.454912,115.744720],[121.477360,115.527400],[178.522592,115.527400],[179.545104,115.744720],[180.500000,116.169880],[181.345696,116.784288],[182.045104,117.561080],[182.567696,118.466328],[182.890704,119.460448],[183.000000,120.500008],[183.000000,176.500000],[182.890704,177.539616],[182.567696,178.533712],[182.045104,179.438912],[181.345696,180.215696],[180.500000,180.830112],[179.545104,181.255312],[178.522592,181.472592],[121.477360,181.472592],[120.454912,181.255312],[119.500000,180.830112],[118.654352,180.215696],[117.954928,179.438912],[117.432264,178.533712],[117.109264,177.539616],[117.000000,176.500000],[117.000000,120.500008]]
; plater:{"center":[150.000000,148.500000,0.000000],"boundingbox_center":[150.000000,148.500000,25.000000],"boundingbox_size":[66.000000,65.945206,50.000000]}

;TYPE:Custom
SET_PRINT_STATS_INFO TOTAL_LAYER=250

M104 S0 ; Stops SuperSlicer from sending temp waits separately

M109 S0

M140 S0

print_start EXTRUDER=255 BED=110 CHAMBER=0
M107
G21 ; set units to millimeters
G90 ; use absolute coordinates
M82 ; use absolute distances for extrusion
G92 E0
; Filament gcode
;_TOOLCHANGE 0
M107
;LAYER_CHANGE
;Z:0.2
;HEIGHT:0.2
TIMELAPSE_TAKE_FRAME
;BEFORE_LAYER_CHANGE
;0.2


G1 Z0.2 F12000
SET_PRINT_STATS_INFO CURRENT_LAYER=1
;AFTER_LAYER_CHANGE
;0.2
G1 E-0.75 F3300
G1 Z0.5 F12000
M204 S2000
G1 X117.072 Y114.606
G1 Z0.2
G1 E0 F3000
;TYPE:Skirt
;WIDTH:0.52
G1 F3600
G1 X115.954 Y115.759 E0.06372
G1 X115.1 Y117.12 E0.12743
G1 X114.871 Y117.634 E0.14976
G1 X114.431 Y119.179 E0.21348
G1 X114.307 Y120.5 E0.26612
G1 X114.307 Y176.5 E2.4876
G1 X114.548 Y178.372 E2.56246
G1 X115.1 Y179.88 E2.62618
G1 X115.954 Y181.241 E2.68989
G1 X117.072 Y182.394 E2.75361
G1 X118.405 Y183.29 E2.81732
G1 X119.36 Y183.715 E2.85879
G1 X119.895 Y183.889 E2.88113
G1 X121.477 Y184.165 E2.94484
G1 X178.523 Y184.165 E5.20779
G1 X180.105 Y183.889 E5.2715
G1 X181.595 Y183.29 E5.33523
G1 X182.928 Y182.394 E5.39894
G1 X184.046 Y181.241 E5.46266
G1 X184.377 Y180.785 E5.48499
G1 X185.129 Y179.366 E5.5487
G1 X185.569 Y177.821 E5.61242
G1 X185.693 Y176.5 E5.66506
G1 X185.678 Y120.218 E7.89771
G1 X185.452 Y118.628 E7.96142
G1 X184.9 Y117.12 E8.02514
G1 X184.377 Y116.215 E8.0666
G1 X183.347 Y114.983 E8.13032
G1 X182.928 Y114.606 E8.15265
G1 X181.595 Y113.71 E8.21637
G1 X180.105 Y113.111 E8.28009
G1 X179.082 Y112.894 E8.32156
G1 X178.523 Y112.835 E8.34389
G1 X121.477 Y112.835 E10.60683
G1 X119.895 Y113.111 E10.67055
G1 X118.405 Y113.71 E10.73427
G1 X117.121 Y114.572 E10.7956
G92 E0
G1 E-0.75 F3300
M204 S6000
G1 Z0.5 F12000
M204 S2000
G1 X117.429 Y114.996
G1 Z0.2
G1 E0 F3000
G1 F3600
G1 X117.008 Y115.302 E0.02065
G1 X116.036 Y116.453 E0.08042
G1 X115.325 Y117.782 E0.14019
G1 X114.906 Y119.229 E0.19996
G1 X114.784 Y120.5 E0.25062
G1 X114.784 Y176.5 E2.4721
G1 X114.906 Y177.771 E2.52276
G1 X115.325 Y179.218 E2.58253
G1 X116.036 Y180.547 E2.6423
G1 X117.008 Y181.698 E2.70207
G1 X118.198 Y182.623 E2.76184
G1 X119.554 Y183.279 E2.8216
G1 X121.477 Y183.688 E2.89962
G1 X178.523 Y183.688 E5.16257
G1 X180.446 Y183.279 E5.24059
G1 X181.802 Y182.623 E5.30035
G1 X182.992 Y181.698 E5.36013
G1 X183.964 Y180.547 E5.4199
G1 X184.675 Y179.218 E5.47966
G1 X185.094 Y177.771 E5.53943
G1 X185.216 Y176.5 E5.59009
G1 X185.203 Y120.268 E7.82076
G1 X184.998 Y118.776 E7.88053
G1 X184.487 Y117.359 E7.9403
G1 X183.964 Y116.453 E7.98176
G1 X182.992 Y115.302 E8.04153
G1 X181.401 Y114.146 E8.11955
G1 X180.006 Y113.578 E8.17932
G1 X178.983 Y113.36 E8.22079
G1 X121.477 Y113.312 E10.50201
G1 X119.994 Y113.578 E10.56178
G1 X118.599 Y114.146 E10.62155
G1 X117.478 Y114.96 E10.67653
G92 E0
G1 E-0.75 F3300
M204 S6000
G1 Z0.5 F12000
M204 S2000
G1 X117.752 Y115.338
G1 Z0.2
G1 E0 F3000
G1 F3600
G1 X117.362 Y115.621 E0.0191
G1 X116.449 Y116.692 E0.07492
G1 X115.779 Y117.929 E0.13075
G1 X115.38 Y119.279 E0.18657
G1 X115.261 Y120.5 E0.23525
G1 X115.261 Y176.5 E2.45673
G1 X115.38 Y177.721 E2.50541
G1 X115.779 Y179.071 E2.56123
G1 X116.449 Y180.308 E2.61706
G1 X117.362 Y181.379 E2.67288
G1 X118.478 Y182.237 E2.72871
G1 X119.748 Y182.844 E2.78453
G1 X121.477 Y183.211 E2.85468
G1 X178.523 Y183.211 E5.11762
G1 X180.252 Y182.844 E5.18777
G1 X181.522 Y182.237 E5.24359
G1 X182.638 Y181.379 E5.29942
G1 X183.551 Y180.308 E5.35525
G1 X184.221 Y179.071 E5.41107
G1 X184.62 Y177.721 E5.46689
G1 X184.739 Y176.5 E5.51557
G1 X184.729 Y120.318 E7.74426
G1 X184.544 Y118.923 E7.80009
G1 X184.073 Y117.597 E7.85591
G1 X183.337 Y116.398 E7.91173
G1 X182.638 Y115.621 E7.9532
G1 X181.207 Y114.582 E8.02334
G1 X179.907 Y114.044 E8.07917
G1 X178.884 Y113.827 E8.12064
G1 X121.477 Y113.789 E10.39792
G1 X120.093 Y114.044 E10.45375
G1 X118.793 Y114.582 E10.50957
G1 X117.8 Y115.303 E10.55824
M104 S255 ; set temperature
G92 E0
G1 E-0.75 F3300
M204 S6000
G1 Z0.5 F12000
; printing object square_tower.stl id:0 copy 0
EXCLUDE_OBJECT_START NAME=square_tower_stl_id_0_copy_0
; acceleration to travel
M204 S7000
G1 X119.974 Y123.673
; decel to extrusion
M204 S1000
G1 X120.284 Y124.868
; end travel
G1 Z0.2
G1 E0 F3000
;TYPE:External perimeter
;WIDTH:0.568
G1 F3600
G1 X119.643 Y124.583 E0.03065
G1 X118.845 Y124.004 E0.07368
G1 X118.186 Y123.271 E0.11671
G1 X117.693 Y122.418 E0.15974
G1 X117.389 Y121.48 E0.20277
G1 X117.286 Y120.5 E0.2458
G1 X117.389 Y119.52 E0.28883
G1 X117.693 Y118.582 E0.33186
G1 X118.186 Y117.729 E0.3749
G1 X118.845 Y116.997 E0.41793
G1 X119.643 Y116.417 E0.46096
G1 X120.543 Y116.016 E0.50399
G1 X121.507 Y115.811 E0.54702
G1 X122.493 Y115.811 E0.59005
G1 X122.831 Y115.883 E0.60514
G1 X123.457 Y116.016 E0.63308
G1 X124.357 Y116.417 E0.67611
G1 X125.155 Y116.997 E0.71914
G1 X125.813 Y117.728 E0.76213
G1 X126.413 Y118.784 E0.81515
G1 X173.587 Y118.784 E2.87476
G1 X174.187 Y117.728 E2.92778
G1 X174.845 Y116.997 E2.97077
G1 X175.643 Y116.417 E3.0138
G1 X176.543 Y116.016 E3.05683
G1 X177.507 Y115.811 E3.09986
G1 X178.493 Y115.811 E3.14289
G1 X179.457 Y116.016 E3.18593
G1 X180.357 Y116.417 E3.22896
G1 X181.155 Y116.997 E3.27199
G1 X181.814 Y117.729 E3.31502
G1 X182.307 Y118.582 E3.35805
G1 X182.611 Y119.52 E3.40108
G1 X182.714 Y120.5 E3.44411
G1 X182.611 Y121.48 E3.48714
G1 X182.307 Y122.418 E3.53018
G1 X181.814 Y123.271 E3.57321
G1 X181.155 Y124.004 E3.61624
G1 X180.357 Y124.583 E3.65927
G1 X179.716 Y124.868 E3.68991
G1 X179.716 Y172.132 E5.75346
G1 X180.357 Y172.417 E5.78411
G1 X181.155 Y172.997 E5.82714
G1 X181.814 Y173.729 E5.87017
G1 X182.307 Y174.582 E5.9132
G1 X182.611 Y175.52 E5.95623
G1 X182.714 Y176.5 E5.99926
G1 X182.611 Y177.48 E6.04229
G1 X182.307 Y178.418 E6.08532
G1 X181.814 Y179.271 E6.12835
G1 X181.155 Y180.003 E6.17138
G1 X180.357 Y180.583 E6.21442
G1 X179.457 Y180.984 E6.25745
G1 X178.493 Y181.189 E6.30048
G1 X177.507 Y181.189 E6.34351
G1 X176.543 Y180.984 E6.38654
G1 X175.643 Y180.583 E6.42957
G1 X174.845 Y180.003 E6.47261
G1 X174.187 Y179.272 E6.51559
G1 X173.587 Y178.216 E6.56861
G1 X126.413 Y178.216 E8.62822
G1 X125.813 Y179.272 E8.68124
G1 X125.155 Y180.003 E8.72423
G1 X124.357 Y180.583 E8.76726
G1 X123.457 Y180.984 E8.81029
G1 X122.493 Y181.189 E8.85332
G1 X121.507 Y181.189 E8.89635
G1 X120.543 Y180.984 E8.93938
G1 X119.643 Y180.583 E8.98242
G1 X118.845 Y180.003 E9.02545
G1 X118.186 Y179.271 E9.06848
G1 X117.693 Y178.418 E9.11151
G1 X117.389 Y177.48 E9.15454
G1 X117.286 Y176.5 E9.19757
G1 X117.389 Y175.52 E9.2406
G1 X117.693 Y174.582 E9.28363
G1 X118.186 Y173.729 E9.32666
G1 X118.845 Y172.997 E9.36969
G1 X119.643 Y172.417 E9.41273
G1 X120.284 Y172.132 E9.44337
G1 X120.284 Y124.928 E11.5043
;WIPE_START
M204 S6000
G1 X120.394 Y124.484 F12000
;WIPE_END
G92 E0
G1 E-0.75 F3300
G1 Z0.5 F12000
; acceleration to travel
M204 S7000
G1 X124.176 Y123.374
; decel to extrusion
M204 S1000
G1 X124.716 Y123.216
; end travel
G1 Z0.2
G1 E0 F3000
G1 F3600
G1 X124.716 Y143.216 E0.87321
G1 X124.216 Y143.216 E0.89504
G1 X124.216 Y145.784 E1.00716
G1 X124.716 Y145.784 E1.02899
G1 X124.716 Y173.784 E2.25149
G1 X148.716 Y173.784 E3.29934
G1 X148.716 Y174.284 E3.32117
G1 X151.284 Y174.284 E3.43329
G1 X151.284 Y173.784 E3.45512
G1 X175.284 Y173.784 E4.50297
G1 X175.284 Y149.784 E5.55083
G1 X175.784 Y149.784 E5.57266
G1 X175.784 Y147.216 E5.68478
G1 X175.284 Y147.216 E5.70661
G1 X175.284 Y123.216 E6.75446
G1 X151.284 Y123.216 E7.80232
G1 X151.284 Y122.716 E7.82415
G1 X148.716 Y122.716 E7.93627
G1 X148.716 Y123.216 E7.9581
G1 X124.776 Y123.216 E9.00333
;WIPE_START
M204 S6000
G1 X124.316 Y123.216 F12000
;WIPE_END
G92 E0
G1 E-0.75 F3300
G1 Z0.5 F12000
; acceleration to travel
M204 S7000
G1 X163.564 Y123.094
; decel to extrusion
M204 S2000
G1 X174.778 Y123.059
; end travel
G1 Z0.2
G1 E0 F3000
;TYPE:Solid infill
G1 F3600
G1 X170.886 Y119.167 E0.24026
G1 X170.144 Y119.167 E0.27269
G1 X173.809 Y122.833 E0.49901
G1 X173.067 Y122.833 E0.53143
G1 X169.401 Y119.167 E0.75775
G1 X168.659 Y119.167 E0.79017
G1 X172.324 Y122.833 E1.0165
G1 X171.582 Y122.833 E1.04892
G1 X167.916 Y119.167 E1.27524
G1 X167.174 Y119.167 E1.30766
G1 X170.839 Y122.833 E1.53398
G1 X170.096 Y122.833 E1.56641
G1 X166.431 Y119.167 E1.79273
G1 X165.688 Y119.167 E1.82515
G1 X169.354 Y122.833 E2.05147
G1 X168.611 Y122.833 E2.08389
G1 X164.946 Y119.167 E2.31022
G1 X164.203 Y119.167 E2.34264
G1 X167.869 Y122.833 E2.56896
G1 X167.126 Y122.833 E2.60138
G1 X163.461 Y119.167 E2.8277
G1 X162.718 Y119.167 E2.86013
G1 X166.384 Y122.833 E3.08645
G1 X165.641 Y122.833 E3.11887
G1 X161.976 Y119.167 E3.34519
G1 X161.233 Y119.167 E3.37761
G1 X164.898 Y122.833 E3.60394
G1 X164.156 Y122.833 E3.63636
G1 X160.49 Y119.167 E3.86268
G1 X159.748 Y119.167 E3.8951
G1 X163.413 Y122.833 E4.12142
G1 X162.671 Y122.833 E4.15384
G1 X159.005 Y119.167 E4.38017
G1 X158.263 Y119.167 E4.41259
G1 X161.928 Y122.833 E4.63891
G1 X161.186 Y122.833 E4.67133
G1 X157.52 Y119.167 E4.89766
G1 X156.778 Y119.167 E4.93008
G1 X160.443 Y122.833 E5.1564
G1 X159.7 Y122.833 E5.18882
G1 X156.035 Y119.167 E5.41514
G1 X155.292 Y119.167 E5.44756
G1 X158.958 Y122.833 E5.67389
G1 X158.215 Y122.833 E5.70631
G1 X154.55 Y119.167 E5.93263
G1 X153.807 Y119.167 E5.96505
G1 X157.473 Y122.833 E6.19138
G1 X156.73 Y122.833 E6.2238
G1 X153.065 Y119.167 E6.45012
G1 X152.322 Y119.167 E6.48254
G1 X155.988 Y122.833 E6.70886
G1 X155.245 Y122.833 E6.74129
G1 X151.58 Y119.167 E6.96761
G1 X150.837 Y119.167 E7.00003
G1 X154.502 Y122.833 E7.22635
G1 X153.76 Y122.833 E7.25877
G1 X150.094 Y119.167 E7.4851
G1 X149.352 Y119.167 E7.51752
G1 X153.017 Y122.833 E7.74384
G1 X152.275 Y122.833 E7.77626
G1 X148.609 Y119.167 E8.00258
G1 X147.867 Y119.167 E8.03501
G1 X151.032 Y122.333 E8.23046
G1 X150.29 Y122.333 E8.26288
G1 X147.124 Y119.167 E8.45833
G1 X146.382 Y119.167 E8.49075
G1 X149.547 Y122.333 E8.6862
G1 X148.804 Y122.333 E8.71862
G1 X145.639 Y119.167 E8.91407
G1 X144.896 Y119.167 E8.94649
G1 X148.333 Y122.604 E9.15867
G1 X148.333 Y122.833 E9.16867
G1 X147.819 Y122.833 E9.19109
G1 X144.154 Y119.167 E9.41741
G1 X143.411 Y119.167 E9.44983
G1 X147.077 Y122.833 E9.67615
G1 X146.334 Y122.833 E9.70858
G1 X142.669 Y119.167 E9.9349
G1 X141.926 Y119.167 E9.96732
G1 X145.592 Y122.833 E10.19364
G1 X144.849 Y122.833 E10.22606
G1 X141.184 Y119.167 E10.45239
G1 X140.441 Y119.167 E10.48481
G1 X144.106 Y122.833 E10.71113
G1 X143.364 Y122.833 E10.74355
G1 X139.698 Y119.167 E10.96987
G1 X138.956 Y119.167 E11.0023
G1 X142.621 Y122.833 E11.22862
G1 X141.879 Y122.833 E11.26104
G1 X138.213 Y119.167 E11.48736
G1 X137.471 Y119.167 E11.51978
G1 X141.136 Y122.833 E11.74611
G1 X140.394 Y122.833 E11.77853
G1 X136.728 Y119.167 E12.00485
G1 X135.986 Y119.167 E12.03727
G1 X139.651 Y122.833 E12.2636
G1 X138.908 Y122.833 E12.29602
G1 X135.243 Y119.167 E12.52234
G1 X134.5 Y119.167 E12.55476
G1 X138.166 Y122.833 E12.78108
G1 X137.423 Y122.833 E12.8135
G1 X133.758 Y119.167 E13.03983
G1 X133.015 Y119.167 E13.07225
G1 X136.681 Y122.833 E13.29857
G1 X135.938 Y122.833 E13.33099
G1 X132.273 Y119.167 E13.55732
G1 X131.53 Y119.167 E13.58974
G1 X135.196 Y122.833 E13.81606
G1 X134.453 Y122.833 E13.84848
G1 X130.788 Y119.167 E14.0748
G1 X130.045 Y119.167 E14.10722
G1 X133.71 Y122.833 E14.33355
G1 X132.968 Y122.833 E14.36597
G1 X129.302 Y119.167 E14.59229
G1 X128.56 Y119.167 E14.62471
G1 X132.225 Y122.833 E14.85104
G1 X131.483 Y122.833 E14.88346
G1 X127.817 Y119.167 E15.10978
G1 X127.075 Y119.167 E15.1422
G1 X130.74 Y122.833 E15.36852
G1 X129.997 Y122.833 E15.40095
G1 X123.716 Y116.551 E15.7888
G1 X123.338 Y116.383 E15.80687
G1 X122.661 Y116.239 E15.83707
G1 X129.255 Y122.833 E16.2442
G1 X128.512 Y122.833 E16.27662
G1 X121.874 Y116.195 E16.68649
G1 X121.547 Y116.195 E16.70076
G1 X121.205 Y116.268 E16.71606
G1 X127.77 Y122.833 E17.12143
G1 X127.027 Y122.833 E17.15385
G1 X120.603 Y116.409 E17.55048
G1 X120.09 Y116.638 E17.57504
G1 X126.285 Y122.833 E17.95755
G1 X125.542 Y122.833 E17.98997
G1 X119.618 Y116.909 E18.35574
G1 X119.188 Y117.221 E18.37895
G1 X124.799 Y122.833 E18.72543
G1 X124.333 Y122.833 E18.74581
G1 X124.333 Y123.109 E18.75785
G1 X118.821 Y117.597 E19.09819
G1 X118.476 Y117.994 E19.12117
G1 X124.333 Y123.851 E19.48282
G1 X124.333 Y124.594 E19.51524
G1 X118.204 Y118.465 E19.89368
G1 X118.045 Y118.739 E19.90752
G1 X117.969 Y118.973 E19.91824
G1 X124.333 Y125.336 E20.31115
G1 X124.333 Y126.079 E20.34357
G1 X117.787 Y119.533 E20.74773
G1 X117.766 Y119.6 E20.75079
G1 X117.703 Y120.192 E20.77678
G1 X124.333 Y126.821 E21.18611
G1 X124.333 Y127.564 E21.21854
G1 X117.718 Y120.949 E21.62695
G1 X117.766 Y121.4 E21.64673
G1 X117.929 Y121.903 E21.66981
G1 X124.333 Y128.307 E22.06521
G1 X124.333 Y129.049 E22.09764
G1 X120.667 Y125.384 E22.32396
G1 X120.667 Y126.126 E22.35638
G1 X124.333 Y129.792 E22.5827
G1 X124.333 Y130.534 E22.61512
G1 X120.667 Y126.869 E22.84145
G1 X120.667 Y127.611 E22.87387
G1 X124.333 Y131.277 E23.10019
G1 X124.333 Y132.019 E23.13261
G1 X120.667 Y128.354 E23.35893
G1 X120.667 Y129.097 E23.39136
G1 X124.333 Y132.762 E23.61768
G1 X124.333 Y133.505 E23.6501
G1 X120.667 Y129.839 E23.87642
G1 X120.667 Y130.582 E23.90884
G1 X124.333 Y134.247 E24.13517
G1 X124.333 Y134.99 E24.16759
G1 X120.667 Y131.324 E24.39391
G1 X120.667 Y132.067 E24.42633
G1 X124.333 Y135.732 E24.65266
G1 X124.333 Y136.475 E24.68508
G1 X120.667 Y132.809 E24.9114
G1 X120.667 Y133.552 E24.94382
G1 X124.333 Y137.217 E25.17014
G1 X124.333 Y137.96 E25.20256
G1 X120.667 Y134.295 E25.42889
G1 X120.667 Y135.037 E25.46131
G1 X124.333 Y138.703 E25.68763
G1 X124.333 Y139.445 E25.72005
G1 X120.667 Y135.78 E25.94638
G1 X120.667 Y136.522 E25.9788
G1 X124.333 Y140.188 E26.20512
G1 X124.333 Y140.93 E26.23754
G1 X120.667 Y137.265 E26.46386
G1 X120.667 Y138.007 E26.49629
G1 X124.333 Y141.673 E26.72261
G1 X124.333 Y142.415 E26.75503
G1 X120.667 Y138.75 E26.98135
G1 X120.667 Y139.493 E27.01377
G1 X124.007 Y142.833 E27.22001
G1 X123.833 Y142.833 E27.22764
G1 X123.833 Y143.401 E27.25243
G1 X120.667 Y140.235 E27.44788
G1 X120.667 Y140.978 E27.4803
G1 X123.833 Y144.143 E27.67575
G1 X123.833 Y144.886 E27.70817
G1 X120.667 Y141.72 E27.90362
G1 X120.667 Y142.463 E27.93605
G1 X123.833 Y145.628 E28.1315
G1 X123.833 Y146.167 E28.15503
G1 X124.333 Y146.167 E28.17686
G1 X124.333 Y146.871 E28.20758
G1 X120.667 Y143.205 E28.4339
G1 X120.667 Y143.948 E28.46632
G1 X124.333 Y147.613 E28.69264
G1 X124.333 Y148.356 E28.72507
G1 X120.667 Y144.691 E28.95139
G1 X120.667 Y145.433 E28.98381
