; generated by SuperSlicer 2.4 on 2023-01-31 at 19:31:01 UTC


;
;

;
;
; 

; external perimeters extrusion width = 0.42mm
; perimeters extrusion width = 0.45mm
; infill extrusion width = 0.45mm
; solid infill extrusion width = 0.45mm
; top infill extrusion width = 0.42mm
; support material extrusion width = 0.36mm
; first layer extrusion width = 0.62mm

; object:{"name":"square_tower","id":"square_tower.stl id:0 copy 0","object_center":[150.000000,148.500000,0.000000],"boundingbox_center":[150.000000,148.500000,25.000000],"boundingbox_size":[66.000000,65.945206,50.000000]}
; plater:{"center":[150.000000,148.500000,0.000000],"boundingbox_center":[150.000000,148.500000,25.000000],"boundingbox_size":[66.000000,65.945206,50.000000]}

;TYPE:Custom
M104 S0 ; Stops SuperSlicer from sending temp waits separately


; Pre-Processed for Cancel-Object support by preprocess_cancellation v0.2.0
; 1 known objects
EXCLUDE_OBJECT_DEFINE NAME=square_tower_stl_id_0_copy_0 CENTER=149.989,148.091 POLYGON=[[117.211,115.737],[117.211,181.263],[182.789,181.263],[182.789,115.737]]

M140 S0

print_start EXTRUDER=245 BED=75 CHAMBER=0
G21 ; set units to millimeters
G90 ; use absolute coordinates
M83 ; use relative distances for extrusion
; Filament gcode
;_TOOLCHANGE 0
M107
;LAYER_CHANGE
;Z:0.3
;HEIGHT:0.3
TIMELAPSE_TAKE_FRAME
;BEFORE_LAYER_CHANGE
;0.3


G1 E-0.4 F2400
G1 Z0.3 F9000
G1 Z0.3
;AFTER_LAYER_CHANGE
;0.3
G92 E0
G1 Z0.6
G1 X116.053 Y113.544
G1 Z0.3
G1 E0.4 F2280
;TYPE:Skirt
;WIDTH:0.52
G1 F1950
G1 X114.737 Y114.932 E0.11959
G1 X113.547 Y116.994 E0.1488
G1 X113.003 Y118.828 E0.11959
G1 X112.839 Y120.5 E0.10501
G1 X112.839 Y176.5 E3.50057
G1 X113.1 Y178.632 E0.13428
G1 X113.738 Y180.436 E0.1196
G1 X114.737 Y182.068 E0.11959
G1 X116.053 Y183.456 E0.11959
G1 X117.629 Y184.54 E0.11959
G1 X118.949 Y185.128 E0.09031
G1 X121.278 Y185.623 E0.14881
G1 X178.722 Y185.623 E3.59087
G1 X180.603 Y185.273 E0.11959
G1 X182.371 Y184.54 E0.1196
G1 X183.947 Y183.456 E0.11958
G1 X185.263 Y182.068 E0.1196
G1 X186.453 Y180.006 E0.14879
G1 X186.997 Y178.172 E0.11958
G1 X187.161 Y176.5 E0.10502
G1 X187.148 Y120.265 E3.51527
G1 X186.9 Y118.368 E0.11959
G1 X186.262 Y116.564 E0.11958
G1 X185.263 Y114.932 E0.11959
G1 X184.296 Y113.859 E0.09031
G1 X182.37 Y112.46 E0.1488
G1 X180.603 Y111.727 E0.11959
G1 X179.19 Y111.426 E0.09031
G1 X121.278 Y111.377 E3.62011
G1 X119.397 Y111.727 E0.11959
G1 X117.629 Y112.46 E0.11959
G1 X116.103 Y113.51 E0.11584
G1 X116.362 Y113.884 F9000
G1 F1950
G1 X116.321 Y113.913 E0.00314
G1 X115.076 Y115.237 E0.11366
G1 X113.98 Y117.135 E0.13696
G1 X113.456 Y118.876 E0.11366
G1 X113.295 Y120.5 E0.10203
G1 X113.295 Y176.5 E3.50057
G1 X113.534 Y178.491 E0.12538
G1 X114.133 Y180.208 E0.11366
G1 X115.076 Y181.763 E0.11365
G1 X116.321 Y183.087 E0.11366
G1 X117.815 Y184.124 E0.11365
G1 X119.135 Y184.712 E0.09031
G1 X121.278 Y185.167 E0.13696
G1 X178.722 Y185.167 E3.59087
G1 X180.509 Y184.828 E0.11366
G1 X182.185 Y184.124 E0.11367
G1 X183.679 Y183.087 E0.11365
G1 X184.924 Y181.763 E0.11366
G1 X186.02 Y179.865 E0.13695
G1 X186.544 Y178.124 E0.11365
G1 X186.705 Y176.5 E0.10204
G1 X186.695 Y120.312 E3.5123
G1 X186.466 Y118.509 E0.11366
G1 X185.867 Y116.792 E0.11365
G1 X184.924 Y115.237 E0.11366
G1 X183.958 Y114.164 E0.09031
G1 X182.185 Y112.876 E0.13696
G1 X180.509 Y112.172 E0.11366
G1 X179.095 Y111.872 E0.09031
G1 X121.278 Y111.833 E3.61419
G1 X119.491 Y112.172 E0.11366
G1 X117.815 Y112.876 E0.11366
G1 X116.412 Y113.85 E0.10677
G1 X116.673 Y114.222 F9000
G1 F1950
G1 X116.589 Y114.281 E0.0064
G1 X115.414 Y115.542 E0.10772
G1 X114.413 Y117.275 E0.12511
G1 X113.909 Y118.923 E0.10773
G1 X113.75 Y120.5 E0.09906
G1 X113.75 Y176.5 E3.50057
G1 X113.967 Y178.351 E0.11647
G1 X114.527 Y179.98 E0.10773
G1 X115.414 Y181.458 E0.10772
G1 X116.589 Y182.719 E0.10772
G1 X118 Y183.708 E0.10772
G1 X119.32 Y184.296 E0.09031
G1 X121.278 Y184.712 E0.12512
G1 X178.722 Y184.712 E3.59087
G1 X180.414 Y184.382 E0.10773
G1 X182 Y183.708 E0.10773
G1 X183.411 Y182.719 E0.10772
G1 X184.586 Y181.458 E0.10773
G1 X185.587 Y179.725 E0.12511
G1 X186.091 Y178.077 E0.10772
G1 X186.25 Y176.5 E0.09906
G1 X186.242 Y120.36 E3.50932
G1 X186.033 Y118.649 E0.10772
G1 X185.473 Y117.02 E0.10772
G1 X184.586 Y115.542 E0.10772
G1 X183.619 Y114.469 E0.09031
G1 X182 Y113.292 E0.12512
G1 X180.414 Y112.618 E0.10773
G1 X179.001 Y112.318 E0.09031
G1 X121.278 Y112.288 E3.60827
G1 X119.586 Y112.618 E0.10773
G1 X118 Y113.292 E0.10773
G1 X116.722 Y114.188 E0.09757
G1 X116.985 Y114.559 F9000
G1 F1950
G1 X116.857 Y114.65 E0.00982
G1 X115.753 Y115.847 E0.10179
G1 X114.847 Y117.416 E0.11327
G1 X114.362 Y118.971 E0.1018
G1 X114.206 Y120.5 E0.09608
G1 X114.206 Y176.5 E3.50057
G1 X114.4 Y178.21 E0.10757
G1 X114.922 Y179.753 E0.1018
G1 X115.753 Y181.153 E0.10179
G1 X116.857 Y182.35 E0.10179
G1 X118.025 Y183.199 E0.09031
G1 X119.505 Y183.879 E0.1018
G1 X121.278 Y184.256 E0.11327
G1 X178.722 Y184.256 E3.59087
G1 X180.319 Y183.936 E0.1018
G1 X181.815 Y183.292 E0.1018
G1 X183.143 Y182.35 E0.10179
G1 X184.247 Y181.153 E0.1018
G1 X185.153 Y179.584 E0.11326
G1 X185.638 Y178.029 E0.10179
G1 X185.794 Y176.5 E0.09609
G1 X185.789 Y120.408 E3.50634
G1 X185.6 Y118.79 E0.1018
G1 X185.078 Y117.248 E0.10179
G1 X184.247 Y115.847 E0.10179
G1 X183.281 Y114.773 E0.09031
G1 X181.815 Y113.708 E0.11327
G1 X180.319 Y113.064 E0.1018
G1 X178.906 Y112.763 E0.09031
G1 X121.278 Y112.744 E3.60235
G1 X119.681 Y113.064 E0.1018
G1 X118.185 Y113.708 E0.1018
G1 X117.034 Y114.524 E0.08823
G1 X117.299 Y114.894 F9000
G1 F1950
G1 X117.125 Y115.018 E0.01339
G1 X116.091 Y116.152 E0.09587
G1 X115.28 Y117.557 E0.10143
G1 X114.815 Y119.019 E0.09587
G1 X114.662 Y120.5 E0.0931
G1 X114.662 Y176.5 E3.50057
G1 X114.834 Y178.069 E0.09867
G1 X115.316 Y179.525 E0.09587
G1 X116.091 Y180.848 E0.09587
G1 X117.125 Y181.982 E0.09587
G1 X118.371 Y182.875 E0.09587
G1 X119.691 Y183.463 E0.09031
G1 X121.278 Y183.8 E0.10143
G1 X178.722 Y183.8 E3.59087
G1 X180.224 Y183.491 E0.09587
G1 X181.629 Y182.875 E0.09587
G1 X182.876 Y181.982 E0.09587
G1 X183.909 Y180.848 E0.09587
G1 X184.72 Y179.443 E0.10142
G1 X185.185 Y177.982 E0.09586
G1 X185.338 Y176.5 E0.09311
G1 X185.336 Y120.455 E3.50336
G1 X185.166 Y118.931 E0.09587
G1 X184.684 Y117.475 E0.09586
G1 X183.909 Y116.152 E0.09587
G1 X182.942 Y115.078 E0.09031
G1 X181.629 Y114.125 E0.10143
G1 X180.224 Y113.509 E0.09587
G1 X178.811 Y113.209 E0.09031
G1 X121.278 Y113.2 E3.59643
G1 X119.776 Y113.509 E0.09587
G1 X118.371 Y114.125 E0.09587
G1 X117.347 Y114.859 E0.07873
G1 X117.905 Y115.619 F9000
;WIDTH:0.62
G1 F1950
G1 X118.754 Y114.996 E0.08027
G1 X119.968 Y114.443 E0.10166
G1 X121.272 Y114.152 E0.10182
G1 X122.608 Y114.14 E0.10187
G1 X124.029 Y114.441 E0.11076
G1 X125.104 Y114.918 E0.08966
G1 X125.257 Y115.005 E0.01335
G1 X126.197 Y115.686 E0.08855
G1 X126.328 Y115.802 E0.01332
G1 X127.136 Y116.699 E0.092
G1 X127.383 Y117.111 E0.03662
G1 X172.617 Y117.111 E3.44822
G1 X172.864 Y116.699 E0.03661
G1 X173.672 Y115.802 E0.092
G1 X173.803 Y115.686 E0.01332
G1 X174.719 Y115.02 E0.08634
G1 X174.896 Y114.918 E0.01556
G1 X176.023 Y114.424 E0.09385
G1 X177.229 Y114.16 E0.09407
G1 X177.436 Y114.138 E0.01592
G1 X178.67 Y114.146 E0.09406
G1 X179.876 Y114.395 E0.09386
G1 X180.044 Y114.448 E0.01341
G1 X181.197 Y114.968 E0.09641
G1 X182.22 Y115.704 E0.0961
G1 X182.349 Y115.822 E0.01332
G1 X183.107 Y116.664 E0.08634
G1 X183.227 Y116.829 E0.01556
G1 X183.836 Y117.9 E0.09389
G1 X184.249 Y119.171 E0.10191
G1 X184.389 Y120.501 E0.10192
G1 X184.249 Y121.831 E0.10198
G1 X183.812 Y123.154 E0.10623
G1 X183.133 Y124.305 E0.10182
G1 X182.274 Y125.249 E0.09734
G1 X181.389 Y125.901 E0.08376
G1 X181.389 Y171.099 E3.44545
G1 X182.273 Y171.75 E0.08372
G1 X183.105 Y172.662 E0.09407
G1 X183.211 Y172.805 E0.01357
G1 X183.86 Y173.955 E0.10066
G1 X184.225 Y175.072 E0.08959
G1 X184.263 Y175.244 E0.01341
G1 X184.389 Y176.561 E0.10088
G1 X184.237 Y177.888 E0.10181
G1 X183.812 Y179.154 E0.10182
G1 X183.133 Y180.305 E0.10181
G1 X182.23 Y181.289 E0.10182
G1 X181.143 Y182.062 E0.10166
G1 X179.976 Y182.576 E0.0972
G1 X178.671 Y182.854 E0.10173
G1 X177.436 Y182.862 E0.09412
G1 X177.229 Y182.84 E0.01592
G1 X176.023 Y182.576 E0.09407
G1 X174.896 Y182.082 E0.09385
G1 X174.719 Y181.98 E0.01555
G1 X173.803 Y181.314 E0.08634
G1 X173.672 Y181.198 E0.01332
G1 X172.864 Y180.301 E0.092
G1 X172.617 Y179.889 E0.03661
G1 X127.383 Y179.889 E3.44822
G1 X127.136 Y180.301 E0.03661
G1 X126.328 Y181.198 E0.09201
G1 X126.195 Y181.315 E0.01352
G1 X125.192 Y182.034 E0.09406
G1 X124.071 Y182.542 E0.09385
G1 X123.904 Y182.598 E0.01342
G1 X122.61 Y182.86 E0.10067
G1 X121.434 Y182.862 E0.08959
G1 X121.26 Y182.845 E0.01336
G1 X120.027 Y182.577 E0.09614
G1 X118.808 Y182.035 E0.10176
G1 X117.727 Y181.25 E0.10178
G1 X116.876 Y180.314 E0.09648
G1 X116.774 Y180.171 E0.01341
G1 X116.164 Y179.1 E0.09389
G1 X115.751 Y177.829 E0.10191
G1 X115.611 Y176.499 E0.10193
G1 X115.751 Y175.169 E0.10198
G1 X116.188 Y173.846 E0.10623
G1 X116.867 Y172.695 E0.10182
G1 X117.726 Y171.751 E0.09734
G1 X118.611 Y171.099 E0.08376
G1 X118.611 Y125.901 E3.44545
G1 X117.727 Y125.25 E0.08372
G1 X116.895 Y124.338 E0.09406
G1 X116.789 Y124.195 E0.01357
G1 X116.14 Y123.045 E0.10067
G1 X115.775 Y121.928 E0.0896
G1 X115.737 Y121.757 E0.01334
G1 X115.614 Y120.602 E0.08855
G1 X115.612 Y120.426 E0.01337
G1 X115.763 Y119.112 E0.10087
G1 X116.188 Y117.846 E0.10181
G1 X116.867 Y116.695 E0.10182
G1 X117.726 Y115.751 E0.09735
G1 X117.857 Y115.655 E0.01235
G1 X118.181 Y116.1 F9000
G1 F1950
G1 X119.058 Y115.463 E0.08268
G1 X120.17 Y114.961 E0.09297
G1 X121.361 Y114.702 E0.09297
G1 X122.581 Y114.695 E0.09296
G1 X123.83 Y114.961 E0.09738
G1 X124.866 Y115.42 E0.08634
G1 X124.966 Y115.479 E0.00887
G1 X125.859 Y116.127 E0.08412
G1 X125.946 Y116.205 E0.00887
G1 X126.703 Y117.049 E0.08648
G1 X127.064 Y117.667 E0.05449
G1 X172.936 Y117.667 E3.49687
G1 X173.297 Y117.049 E0.05449
G1 X174.054 Y116.205 E0.08648
G1 X174.141 Y116.127 E0.00887
G1 X175.034 Y115.478 E0.08412
G1 X175.134 Y115.42 E0.00887
G1 X176.17 Y114.961 E0.08633
G1 X177.333 Y114.706 E0.09075
G1 X177.448 Y114.694 E0.00887
G1 X178.639 Y114.702 E0.09074
G1 X179.747 Y114.936 E0.08634
G1 X179.857 Y114.971 E0.00887
G1 X180.942 Y115.463 E0.09075
G1 X181.859 Y116.127 E0.08634
G1 X181.946 Y116.205 E0.00887
G1 X182.684 Y117.025 E0.08412
G1 X182.752 Y117.119 E0.00887
G1 X183.317 Y118.101 E0.08633
G1 X183.7 Y119.259 E0.09296
G1 X183.833 Y120.529 E0.09738
G1 X183.7 Y121.741 E0.09297
G1 X183.317 Y122.899 E0.09296
G1 X182.702 Y123.952 E0.09296
G1 X181.882 Y124.855 E0.09296
G1 X180.966 Y125.522 E0.08634
G1 X180.833 Y125.594 E0.01154
G1 X180.833 Y171.406 E3.49225
G1 X180.966 Y171.479 E0.01154
G1 X181.882 Y172.145 E0.08634
G1 X182.684 Y173.025 E0.09075
G1 X182.752 Y173.119 E0.00887
G1 X183.341 Y174.154 E0.09074
G1 X183.692 Y175.231 E0.08633
G1 X183.717 Y175.344 E0.00887
G1 X183.833 Y176.529 E0.09076
G1 X183.7 Y177.741 E0.09297
G1 X183.317 Y178.899 E0.09296
G1 X182.702 Y179.952 E0.09296
G1 X181.882 Y180.855 E0.09297
G1 X180.892 Y181.566 E0.09297
G1 X179.83 Y182.039 E0.08855
G1 X178.639 Y182.298 E0.09297
G1 X177.448 Y182.306 E0.09074
G1 X177.333 Y182.294 E0.00887
G1 X176.17 Y182.039 E0.09076
G1 X175.134 Y181.58 E0.08634
G1 X175.034 Y181.521 E0.00887
G1 X174.141 Y180.873 E0.08412
G1 X174.054 Y180.795 E0.00887
G1 X173.297 Y179.951 E0.08648
G1 X172.936 Y179.333 E0.05449
G1 X127.064 Y179.333 E3.49687
G1 X126.703 Y179.951 E0.05449
G1 X125.946 Y180.795 E0.08648
G1 X125.859 Y180.873 E0.00887
G1 X124.892 Y181.566 E0.09075
G1 X123.857 Y182.029 E0.08634
G1 X123.747 Y182.064 E0.00887
G1 X122.581 Y182.305 E0.09075
G1 X121.448 Y182.306 E0.08633
G1 X121.333 Y182.294 E0.00887
G1 X120.225 Y182.057 E0.08634
G1 X119.108 Y181.566 E0.09297
G1 X118.118 Y180.855 E0.09296
G1 X117.316 Y179.975 E0.09075
G1 X117.248 Y179.881 E0.00887
G1 X116.683 Y178.899 E0.08633
G1 X116.3 Y177.741 E0.09296
G1 X116.167 Y176.471 E0.09738
G1 X116.3 Y175.259 E0.09297
G1 X116.683 Y174.101 E0.09296
G1 X117.298 Y173.048 E0.09296
G1 X118.118 Y172.145 E0.09296
G1 X119.034 Y171.479 E0.08634
G1 X119.167 Y171.406 E0.01154
G1 X119.167 Y125.594 E3.49225
G1 X119.034 Y125.522 E0.01154
G1 X118.118 Y124.855 E0.08633
G1 X117.316 Y123.975 E0.09075
G1 X117.248 Y123.881 E0.00887
G1 X116.659 Y122.846 E0.09075
G1 X116.308 Y121.769 E0.08634
G1 X116.283 Y121.656 E0.00887
G1 X116.168 Y120.558 E0.08412
G1 X116.168 Y120.442 E0.00887
G1 X116.3 Y119.259 E0.09075
G1 X116.683 Y118.101 E0.09297
G1 X117.298 Y117.048 E0.09297
G1 X118.132 Y116.135 E0.09423
G1 X118.479 Y116.568 F9000
G1 F1950
G1 X119.348 Y115.937 E0.0819
G1 X119.374 Y115.922 E0.00222
G1 X120.355 Y115.485 E0.0819
G1 X120.383 Y115.476 E0.00222
G1 X121.434 Y115.253 E0.0819
G1 X121.463 Y115.25 E0.00222
G1 X122.537 Y115.25 E0.0819
G1 X122.566 Y115.253 E0.00222
G1 X122.921 Y115.328 E0.02767
G1 X123.617 Y115.476 E0.05423
G1 X123.645 Y115.485 E0.00222
G1 X124.626 Y115.922 E0.0819
G1 X124.652 Y115.937 E0.00222
G1 X125.521 Y116.568 E0.0819
G1 X125.542 Y116.588 E0.00222
G1 X126.262 Y117.386 E0.08194
G1 X126.279 Y117.411 E0.00229
G1 X126.74 Y118.222 E0.07115
G1 X173.26 Y118.222 E3.54616
G1 X173.721 Y117.411 E0.07115
G1 X173.738 Y117.386 E0.00229
G1 X174.458 Y116.588 E0.08194
G1 X174.479 Y116.568 E0.00222
G1 X175.348 Y115.937 E0.08191
G1 X175.374 Y115.922 E0.00222
G1 X176.355 Y115.485 E0.0819
G1 X176.383 Y115.476 E0.00222
G1 X177.434 Y115.253 E0.08191
G1 X177.463 Y115.25 E0.00222
G1 X178.537 Y115.25 E0.0819
G1 X178.566 Y115.253 E0.00222
G1 X179.617 Y115.476 E0.08191
G1 X179.645 Y115.485 E0.00222
G1 X180.626 Y115.922 E0.0819
G1 X180.652 Y115.937 E0.00222
G1 X181.521 Y116.568 E0.08191
G1 X181.542 Y116.588 E0.00222
G1 X182.261 Y117.386 E0.0819
G1 X182.278 Y117.41 E0.00222
G1 X182.816 Y118.34 E0.0819
G1 X182.827 Y118.367 E0.00222
G1 X183.159 Y119.388 E0.0819
G1 X183.165 Y119.417 E0.00222
G1 X183.278 Y120.485 E0.0819
G1 X183.278 Y120.515 E0.00222
G1 X183.165 Y121.583 E0.0819
G1 X183.159 Y121.612 E0.00222
G1 X182.827 Y122.633 E0.0819
G1 X182.816 Y122.66 E0.00222
G1 X182.278 Y123.59 E0.0819
G1 X182.261 Y123.614 E0.00222
G1 X181.542 Y124.412 E0.0819
G1 X181.521 Y124.432 E0.00222
G1 X180.652 Y125.063 E0.08191
G1 X180.626 Y125.078 E0.00222
G1 X180.278 Y125.233 E0.02908
G1 X180.278 Y171.767 E3.54726
G1 X180.626 Y171.922 E0.02908
G1 X180.652 Y171.937 E0.00222
G1 X181.521 Y172.568 E0.08191
G1 X181.542 Y172.588 E0.00222
G1 X182.261 Y173.386 E0.0819
G1 X182.278 Y173.41 E0.00222
G1 X182.816 Y174.34 E0.0819
G1 X182.827 Y174.367 E0.00222
G1 X183.159 Y175.388 E0.0819
G1 X183.165 Y175.417 E0.00222
G1 X183.278 Y176.485 E0.08191
G1 X183.278 Y176.515 E0.00222
G1 X183.165 Y177.583 E0.08191
G1 X183.159 Y177.612 E0.00222
G1 X182.827 Y178.633 E0.0819
G1 X182.816 Y178.66 E0.00222
G1 X182.278 Y179.59 E0.0819
G1 X182.261 Y179.614 E0.00222
G1 X181.542 Y180.412 E0.0819
G1 X181.521 Y180.432 E0.00222
G1 X180.652 Y181.063 E0.0819
G1 X180.626 Y181.078 E0.00222
G1 X179.645 Y181.515 E0.0819
G1 X179.617 Y181.524 E0.00222
G1 X178.566 Y181.747 E0.08191
G1 X178.537 Y181.75 E0.00222
G1 X177.463 Y181.75 E0.08189
G1 X177.434 Y181.747 E0.00222
G1 X176.383 Y181.524 E0.08191
G1 X176.355 Y181.515 E0.00222
G1 X175.374 Y181.078 E0.0819
G1 X175.348 Y181.063 E0.00222
G1 X174.479 Y180.432 E0.0819
G1 X174.458 Y180.412 E0.00222
G1 X173.738 Y179.614 E0.08194
G1 X173.721 Y179.589 E0.00229
G1 X173.26 Y178.778 E0.07115
G1 X126.74 Y178.778 E3.54616
G1 X126.279 Y179.589 E0.07115
G1 X126.262 Y179.614 E0.00229
G1 X125.542 Y180.412 E0.08194
G1 X125.521 Y180.432 E0.00222
G1 X124.652 Y181.063 E0.0819
G1 X124.626 Y181.078 E0.00222
G1 X123.645 Y181.515 E0.0819
G1 X123.617 Y181.524 E0.00222
G1 X122.566 Y181.747 E0.0819
G1 X122.537 Y181.75 E0.00222
G1 X121.463 Y181.75 E0.0819
G1 X121.434 Y181.747 E0.00222
G1 X120.383 Y181.524 E0.0819
G1 X120.355 Y181.515 E0.00222
G1 X119.374 Y181.078 E0.0819
G1 X119.348 Y181.063 E0.00222
G1 X118.479 Y180.432 E0.0819
G1 X118.458 Y180.412 E0.00222
G1 X117.739 Y179.614 E0.0819
G1 X117.722 Y179.59 E0.00222
G1 X117.184 Y178.66 E0.0819
G1 X117.173 Y178.633 E0.00222
G1 X116.841 Y177.612 E0.0819
G1 X116.834 Y177.583 E0.00222
G1 X116.722 Y176.515 E0.08191
