; generated by SuperSlicer 2.4 on 2023-01-25 at 07:57:08 UTC


;
;

;
;
; 

; external perimeters extrusion width = 0.42mm
; perimeters extrusion width = 0.45mm
; infill extrusion width = 0.45mm
; solid infill extrusion width = 0.45mm
; top infill extrusion width = 0.42mm
; first layer extrusion width = 0.62mm

; object:{"name":"Stealth_Bed_Main_Body","id":"Stealth_Bed_Main_Body.stl id:0 copy 0","object_center":[153.919622,160.261706,0.000000],"boundingbox_center":[153.919622,160.261706,10.000000],"boundingbox_size":[68.162407,25.242188,20.000000]}
; plater:{"center":[153.919622,160.261706,0.000000],"boundingbox_center":[153.919622,160.261706,10.000000],"boundingbox_size":[68.162407,25.242188,20.000000]}

;TYPE:Custom
M104 S0 ; Stops SuperSlicer from sending temp waits separately


; Pre-Processed for Cancel-Object support by preprocess_cancellation v0.2.0
; 1 known objects
EXCLUDE_OBJECT_DEFINE NAME=Stealth_Bed_Main_Body_stl_id_0_copy_0 CENTER=154.370,155.309 POLYGON=[[120.09,147.876],[120.09,172.673],[187.75,172.673],[187.75,147.876]]

M140 S0

print_start EXTRUDER=248 BED=105 CHAMBER=0
G21 ; set units to millimeters
G90 ; use absolute coordinates
M83 ; use relative distances for extrusion
; Filament gcode
;_TOOLCHANGE 0
M107
;LAYER_CHANGE
;Z:0.2
;HEIGHT:0.2
TIMELAPSE_TAKE_FRAME
;BEFORE_LAYER_CHANGE
;0.2


G1 E-0.8 F3000
G1 Z0.3 F9000
;AFTER_LAYER_CHANGE
;0.2
G92 E0
G1 Z0.5
G1 X125.579 Y147.422
G1 Z0.2
G1 E0.8 F1800
;TYPE:Skirt
;WIDTH:0.52
G1 F1950
G1 X124.785 Y148.463 E0.05194
G1 X118.888 Y164.664 E0.68396
G1 X118.933 Y166.279 E0.06407
G1 X120.294 Y169.259 E0.12994
G1 X122.286 Y172.124 E0.13844
G1 X123.525 Y172.992 E0.06001
G1 X134.895 Y176.002 E0.46661
G1 X135.457 Y176.075 E0.02245
G1 X172.383 Y176.075 E1.46483
G1 X172.944 Y176.002 E0.02245
G1 X184.314 Y172.992 E0.4666
G1 X185.553 Y172.124 E0.06001
G1 X187.718 Y168.964 E0.15197
G1 X188.906 Y166.279 E0.11646
G1 X188.951 Y164.664 E0.06407
G1 X183.054 Y148.463 E0.68396
G1 X182.244 Y147.411 E0.05269
G1 X180.994 Y147.02 E0.05194
G1 X126.845 Y147.02 E2.14805
G1 X125.637 Y147.404 E0.05031
G1 X125.97 Y147.737 F9000
G1 F1950
G1 X125.233 Y148.626 E0.04579
G1 X119.336 Y164.827 E0.68396
G1 X119.372 Y166.091 E0.05013
G1 X120.685 Y168.986 E0.12613
G1 X122.677 Y171.852 E0.13844
G1 X123.647 Y172.531 E0.04695
G1 X135.017 Y175.541 E0.46661
G1 X135.457 Y175.598 E0.01757
G1 X172.383 Y175.598 E1.46483
G1 X172.822 Y175.541 E0.01757
G1 X184.192 Y172.531 E0.4666
G1 X185.162 Y171.852 E0.04695
G1 X187.289 Y168.755 E0.14902
G1 X188.468 Y166.091 E0.11558
G1 X188.503 Y164.827 E0.05013
G1 X182.606 Y148.626 E0.68396
G1 X182.081 Y147.885 E0.03601
G1 X180.994 Y147.497 E0.04579
G1 X126.845 Y147.497 E2.14805
G1 X126.028 Y147.721 E0.03363
G1 X126.349 Y148.078 F9000
G1 F1950
G1 X125.681 Y148.789 E0.03868
G1 X119.784 Y164.991 E0.68396
G1 X119.81 Y165.903 E0.03619
G1 X121.077 Y168.714 E0.12232
G1 X123.069 Y171.579 E0.13844
G1 X123.769 Y172.069 E0.0339
G1 X135.457 Y175.121 E0.47918
G1 X172.383 Y175.121 E1.46483
G1 X184.07 Y172.069 E0.47918
G1 X184.77 Y171.579 E0.0339
G1 X186.86 Y168.547 E0.14608
G1 X188.029 Y165.903 E0.11471
G1 X188.055 Y164.991 E0.03619
G1 X182.158 Y148.789 E0.68396
G1 X181.89 Y148.358 E0.02013
G1 X180.994 Y147.974 E0.03868
G1 X126.845 Y147.974 E2.14805
G1 X126.407 Y148.066 E0.01774
G1 X127.546 Y149.9 F9000
;WIDTH:0.62
G1 F1950
G1 X127.716 Y149.847 E0.00852
G1 X180.124 Y149.847 E2.51475
G1 X180.293 Y149.9 E0.00852
G1 X180.587 Y150.107 E0.01725
G1 X180.696 Y150.248 E0.00852
G1 X186.118 Y165.144 E0.76067
G1 X186.135 Y165.258 E0.00551
G1 X186.124 Y165.488 E0.01108
G1 X186.096 Y165.6 E0.00551
G1 X185.71 Y166.409 E0.04303
G1 X185.574 Y166.743 E0.01731
G1 X185.43 Y167.202 E0.02305
G1 X185.216 Y167.645 E0.02361
G1 X184.799 Y168.257 E0.03557
G1 X184.494 Y168.388 E0.01591
G1 X183.809 Y168.28 E0.03325
G1 X183.751 Y168.23 E0.00368
G1 X172.304 Y173.218 E0.59916
G1 X172.129 Y173.248 E0.00855
G1 X165.727 Y173.248 E0.30717
G1 X165.581 Y173.209 E0.00729
G1 X165.315 Y173.056 E0.01471
G1 X165.208 Y172.948 E0.00729
G1 X162.88 Y168.916 E0.22342
G1 X162.811 Y168.7 E0.01088
G1 X162.802 Y158.984 E0.46619
G1 X161.47 Y157.653 E0.09033
G1 X146.369 Y157.653 E0.72464
G1 X145.038 Y158.984 E0.09033
G1 X145.038 Y168.625 E0.46259
G1 X144.989 Y168.846 E0.01088
G1 X142.632 Y172.948 E0.22702
G1 X142.524 Y173.056 E0.00729
G1 X142.259 Y173.209 E0.01471
G1 X142.112 Y173.248 E0.00729
G1 X135.71 Y173.248 E0.30717
G1 X135.478 Y173.2 E0.01138
G1 X124.088 Y168.23 E0.59632
G1 X124.03 Y168.28 E0.00368
G1 X123.345 Y168.388 E0.03325
G1 X123.041 Y168.257 E0.01591
G1 X122.623 Y167.645 E0.03557
G1 X122.409 Y167.202 E0.02361
G1 X122.265 Y166.743 E0.02305
G1 X122.129 Y166.409 E0.01731
G1 X121.744 Y165.6 E0.04303
G1 X121.716 Y165.488 E0.00551
G1 X121.704 Y165.258 E0.01108
G1 X121.722 Y165.144 E0.00551
G1 X127.144 Y150.248 E0.76067
G1 X127.252 Y150.107 E0.00852
G1 X127.497 Y149.935 E0.01438
G1 X127.805 Y150.424 F9000
G1 F1950
G1 X180.035 Y150.424 E2.50623
G1 X180.184 Y150.528 E0.00873
G1 X180.358 Y151.008 E0.0245
G1 X185.556 Y165.287 E0.72915
G1 X185.55 Y165.403 E0.00557
G1 X185.182 Y166.176 E0.04109
G1 X185.029 Y166.55 E0.01938
G1 X184.905 Y166.96 E0.02053
G1 X184.897 Y166.981 E0.00108
G1 X184.702 Y167.383 E0.02145
G1 X184.69 Y167.402 E0.00108
G1 X184.419 Y167.792 E0.02276
G1 X184.062 Y167.736 E0.01734
G1 X183.989 Y167.496 E0.01201
G1 X172.157 Y172.659 E0.61944
G1 X172.099 Y172.671 E0.00286
G1 X165.803 Y172.671 E0.3021
G1 X165.669 Y172.594 E0.00742
G1 X163.398 Y168.66 E0.21796
G1 X163.379 Y168.587 E0.00365
G1 X163.379 Y158.745 E0.47224
G1 X161.709 Y157.076 E0.11327
G1 X146.13 Y157.076 E0.74758
G1 X144.461 Y158.745 E0.11327
G1 X144.461 Y168.587 E0.47224
G1 X144.441 Y168.66 E0.00365
G1 X142.17 Y172.594 E0.21796
G1 X142.036 Y172.671 E0.00742
G1 X135.74 Y172.671 E0.3021
G1 X135.682 Y172.659 E0.00286
G1 X123.85 Y167.496 E0.61944
G1 X123.777 Y167.736 E0.01201
G1 X123.42 Y167.792 E0.01734
G1 X123.149 Y167.402 E0.02276
G1 X123.138 Y167.383 E0.00108
G1 X122.943 Y166.981 E0.02145
G1 X122.934 Y166.96 E0.00108
G1 X122.81 Y166.55 E0.02053
G1 X122.658 Y166.176 E0.01938
G1 X122.289 Y165.403 E0.04109
G1 X122.284 Y165.287 E0.00557
G1 X127.656 Y150.528 E0.75365
G1 X127.755 Y150.458 E0.00585
M104 S248 ; set temperature
G1 E-0.8 F3000
G1 Z0.5 F9000
; printing object Stealth_Bed_Main_Body.stl id:0 copy 0
EXCLUDE_OBJECT_START NAME=Stealth_Bed_Main_Body_stl_id_0_copy_0
G1 X125.019 Y166.522
G1 Z0.2
G1 E0.8 F1800
;TYPE:Solid infill
;WIDTH:0.614658
G1 F3000
G1 X124.172 Y165.676 E0.05697
G1 X124.001 Y165.273 E0.02081
G1 X124.157 Y164.844 E0.02172
G1 X125.986 Y166.674 E0.1231
G1 X127.434 Y167.306 E0.07515
G1 X124.374 Y164.246 E0.20585
G1 X124.592 Y163.647 E0.03029
G1 X128.882 Y167.937 E0.28861
G1 X130.33 Y168.569 E0.07515
G1 X124.81 Y163.049 E0.37136
G1 X125.028 Y162.451 E0.03029
G1 X131.778 Y169.201 E0.45412
G1 X133.226 Y169.833 E0.07515
G1 X125.246 Y161.852 E0.53688
G1 X125.463 Y161.254 E0.03029
G1 X134.674 Y170.464 E0.61963
G1 X135.8 Y170.956 E0.05847
G1 X135.553 Y170.527 E0.02354
G1 X125.681 Y160.656 E0.66413
G1 X125.899 Y160.057 E0.03029
G1 X134.438 Y168.597 E0.57447
G1 X133.622 Y167.183 E0.07766
G1 X133.702 Y167.044 E0.00761
G1 X126.117 Y159.459 E0.51029
G1 X126.334 Y158.861 E0.03029
G1 X134.001 Y166.527 E0.51574
G1 X134.299 Y166.009 E0.02842
G1 X126.552 Y158.262 E0.52119
G1 X126.77 Y157.664 E0.03029
G1 X134.598 Y165.492 E0.52663
G1 X134.897 Y164.975 E0.02842
G1 X126.988 Y157.066 E0.53208
G1 X127.206 Y156.467 E0.03029
G1 X135.195 Y164.457 E0.53752
G1 X135.494 Y163.94 E0.02842
G1 X127.423 Y155.869 E0.54297
G1 X127.641 Y155.271 E0.03029
G1 X135.793 Y163.422 E0.54841
G1 X136.092 Y162.905 E0.02842
G1 X127.859 Y154.672 E0.55386
G1 X128.077 Y154.074 E0.03029
G1 X136.566 Y162.563 E0.57109
G1 X137.382 Y162.563 E0.03882
G1 X128.294 Y153.476 E0.61135
G1 X128.512 Y152.877 E0.03029
G1 X138.198 Y162.563 E0.6516
G1 X139.014 Y162.563 E0.03882
G1 X128.73 Y152.279 E0.69185
G1 X128.82 Y152.032 E0.01248
G1 X129.299 Y152.032 E0.02282
G1 X139.83 Y162.563 E0.70845
G1 X140.646 Y162.563 E0.03882
G1 X130.116 Y152.032 E0.70845
G1 X130.932 Y152.032 E0.03882
G1 X142.852 Y163.953 E0.80196
G1 X142.852 Y163.137 E0.03882
G1 X131.748 Y152.032 E0.74706
G1 X132.564 Y152.032 E0.03882
G1 X142.852 Y162.321 E0.69215
G1 X142.852 Y161.505 E0.03882
G1 X133.38 Y152.032 E0.63725
G1 X134.196 Y152.032 E0.03882
G1 X142.852 Y160.689 E0.58234
G1 X142.852 Y159.872 E0.03882
G1 X135.012 Y152.032 E0.52744
G1 X135.828 Y152.032 E0.03882
G1 X142.852 Y159.056 E0.47253
G1 X142.852 Y158.24 E0.03882
G1 X136.644 Y152.032 E0.41763
G1 X137.461 Y152.032 E0.03882
G1 X143.18 Y157.752 E0.38476
G1 X143.588 Y157.343 E0.02745
G1 X138.277 Y152.032 E0.3573
G1 X139.093 Y152.032 E0.03882
G1 X143.996 Y156.935 E0.32985
G1 X144.404 Y156.527 E0.02745
G1 X139.909 Y152.032 E0.3024
G1 X140.725 Y152.032 E0.03882
G1 X144.812 Y156.119 E0.27495
G1 X145.22 Y155.711 E0.02745
G1 X141.541 Y152.032 E0.2475
G1 X142.357 Y152.032 E0.03882
G1 X145.793 Y155.468 E0.23111
G1 X146.609 Y155.468 E0.03882
G1 X143.173 Y152.032 E0.23111
G1 X143.989 Y152.032 E0.03882
G1 X147.425 Y155.468 E0.23111
G1 X148.241 Y155.468 E0.03882
G1 X144.806 Y152.032 E0.23111
G1 X145.622 Y152.032 E0.03882
G1 X149.057 Y155.468 E0.23111
G1 X149.873 Y155.468 E0.03882
G1 X146.438 Y152.032 E0.23111
G1 X147.254 Y152.032 E0.03882
G1 X150.689 Y155.468 E0.23111
G1 X151.505 Y155.468 E0.03882
G1 X148.07 Y152.032 E0.23111
G1 X148.886 Y152.032 E0.03882
G1 X152.321 Y155.468 E0.23111
G1 X153.138 Y155.468 E0.03882
G1 X149.702 Y152.032 E0.23111
G1 X150.518 Y152.032 E0.03882
G1 X153.954 Y155.468 E0.23111
G1 X154.77 Y155.468 E0.03882
G1 X151.335 Y152.032 E0.23111
G1 X152.151 Y152.032 E0.03882
G1 X155.586 Y155.468 E0.23111
G1 X156.402 Y155.468 E0.03882
G1 X152.967 Y152.032 E0.23111
G1 X153.783 Y152.032 E0.03882
G1 X157.218 Y155.468 E0.23111
G1 X158.034 Y155.468 E0.03882
G1 X154.599 Y152.032 E0.23111
G1 X155.415 Y152.032 E0.03882
G1 X158.85 Y155.468 E0.23111
G1 X159.666 Y155.468 E0.03882
G1 X156.231 Y152.032 E0.23111
G1 X157.047 Y152.032 E0.03882
G1 X160.483 Y155.468 E0.23111
G1 X161.299 Y155.468 E0.03882
G1 X157.863 Y152.032 E0.23111
G1 X158.68 Y152.032 E0.03882
G1 X169.21 Y162.563 E0.70845
G1 X170.026 Y162.563 E0.03882
G1 X159.496 Y152.032 E0.70845
G1 X160.312 Y152.032 E0.03882
G1 X171.09 Y162.811 E0.72514
G1 X168.642 Y162.811 F9000
G1 F3000
G1 X164.987 Y159.156 E0.2459
G1 X164.987 Y159.972 E0.03882
G1 X167.578 Y162.563 E0.1743
G1 X166.762 Y162.563 E0.03882
G1 X164.987 Y160.788 E0.11939
G1 X164.987 Y161.604 E0.03882
G1 X166.117 Y162.734 E0.07601
G1 X165.818 Y163.252 E0.02842
G1 X164.987 Y162.42 E0.05591
G1 X164.987 Y163.237 E0.03882
G1 X165.519 Y163.769 E0.03581
G1 X165.221 Y164.286 E0.02842
G1 X164.739 Y163.805 E0.03241
G1 X164.656 Y165.925 F9000
;TYPE:Gap fill
;WIDTH:0.764778
G1 F2880
G1 X164.614 Y166.083 E0.00985
;WIDTH:0.699156
G1 X164.571 Y166.242 E0.00895
G1 X164.545 Y166.341 E0.00563
;WIDTH:0.639054
G1 X164.518 Y166.441 E0.00512
;WIDTH:0.578951
G1 X164.491 Y166.541 E0.0046
;WIDTH:0.518848
G1 X164.465 Y166.64 E0.00408
;WIDTH:0.458746
G1 X164.438 Y166.74 E0.00357
;WIDTH:0.398643
G1 X164.411 Y166.84 E0.00305
;WIDTH:0.338541
G1 X164.384 Y166.94 E0.00254
;WIDTH:0.278438
G1 X164.358 Y167.039 E0.00202
;WIDTH:0.218335
G1 X164.331 Y167.139 E0.00151
G1 X164.331 Y167.227 E0.00128
G1 X164.357 Y167.324 E0.00147
;WIDTH:0.275548
G1 X164.383 Y167.421 E0.00194
;WIDTH:0.332762
G1 X164.409 Y167.518 E0.00242
;WIDTH:0.389976
G1 X164.435 Y167.615 E0.0029
;WIDTH:0.44719
G1 X164.461 Y167.712 E0.00338
;WIDTH:0.504404
G1 X164.487 Y167.809 E0.00386
;WIDTH:0.561618
G1 X164.513 Y167.906 E0.00433
;WIDTH:0.618832
G1 X164.539 Y168.003 E0.00481
;WIDTH:0.676046
G1 X164.565 Y168.1 E0.00529
;WIDTH:0.733259
G1 X164.591 Y168.197 E0.00577
;WIDTH:0.790473
G1 X164.617 Y168.294 E0.00625
G1 X165.469 Y169.77 E0.10593
G1 X166.321 Y171.246 E0.10593
G1 X166.383 Y171.326 E0.00628
;WIDTH:0.844152
G1 X166.445 Y171.406 E0.00673
G1 X166.545 Y171.419 E0.00673
;WIDTH:0.790482
G1 X166.645 Y171.433 E0.00628
G1 X170.525 Y171.433 E0.24118
G1 X170.638 Y171.424 E0.00706
;WIDTH:0.738485
G1 X170.751 Y171.414 E0.00657
;WIDTH:0.686488
G1 X170.865 Y171.405 E0.00608
;WIDTH:0.634491
G1 X170.978 Y171.396 E0.00559
G1 X172.102 Y170.351 F9000
;TYPE:Solid infill
;WIDTH:0.614658
G1 F3000
G1 X172.504 Y170.753 E0.02705
G1 X173.072 Y170.505 E0.02949
G1 X172.582 Y170.015 E0.03296
G1 X172.881 Y169.498 E0.02842
G1 X173.64 Y170.257 E0.05108
G1 X174.208 Y170.009 E0.02949
G1 X173.179 Y168.981 E0.06921
G1 X173.478 Y168.463 E0.02842
G1 X174.776 Y169.762 E0.08734
G1 X175.345 Y169.514 E0.02949
G1 X173.777 Y167.946 E0.10547
G1 X174.076 Y167.428 E0.02842
G1 X175.913 Y169.266 E0.1236
G1 X176.481 Y169.018 E0.02949
G1 X173.632 Y166.169 E0.19167
G1 X172.517 Y164.238 E0.10607
G1 X177.049 Y168.77 E0.30489
G1 X177.617 Y168.522 E0.02949
G1 X161.128 Y152.032 E1.10934
G1 X161.944 Y152.032 E0.03882
G1 X178.186 Y168.274 E1.09266
G1 X178.754 Y168.026 E0.02949
G1 X162.76 Y152.032 E1.07598
G1 X163.576 Y152.032 E0.03882
G1 X179.322 Y167.778 E1.0593
G1 X179.89 Y167.53 E0.02949
G1 X164.392 Y152.032 E1.04262
G1 X165.208 Y152.032 E0.03882
G1 X180.458 Y167.282 E1.02594
G1 X181.027 Y167.034 E0.02949
G1 X166.025 Y152.032 E1.00926
G1 X166.841 Y152.032 E0.03882
G1 X181.595 Y166.786 E0.99259
G1 X182.163 Y166.539 E0.02949
G1 X167.657 Y152.032 E0.97591
G1 X168.473 Y152.032 E0.03882
G1 X182.731 Y166.291 E0.95923
G1 X183.299 Y166.043 E0.02949
G1 X169.289 Y152.032 E0.94255
G1 X170.105 Y152.032 E0.03882
G1 X183.691 Y165.619 E0.91403
G1 X183.839 Y165.273 E0.01788
G1 X183.654 Y164.765 E0.02572
G1 X170.921 Y152.032 E0.85659
G1 X171.737 Y152.032 E0.03882
G1 X183.187 Y163.482 E0.77027
G1 X182.72 Y162.199 E0.06496
G1 X172.553 Y152.032 E0.68394
G1 X173.37 Y152.032 E0.03882
G1 X182.253 Y160.916 E0.59762
G1 X181.786 Y159.632 E0.06496
G1 X174.186 Y152.032 E0.5113
G1 X175.002 Y152.032 E0.03882
G1 X181.319 Y158.349 E0.42497
G1 X180.852 Y157.066 E0.06496
G1 X175.818 Y152.032 E0.33865
G1 X176.634 Y152.032 E0.03882
G1 X180.385 Y155.783 E0.25233
G1 X179.918 Y154.5 E0.06496
G1 X177.45 Y152.032 E0.166
G1 X178.266 Y152.032 E0.03882
G1 X179.866 Y153.632 E0.10761
G1 E-0.8
G1 Z0.5 F9000
G1 X143.183 Y165.925
G1 Z0.2
G1 E0.8 F1800
;TYPE:Gap fill
;WIDTH:0.764777
G1 F2880
G1 X143.225 Y166.083 E0.00985
;WIDTH:0.699155
G1 X143.268 Y166.242 E0.00895
G1 X143.294 Y166.341 E0.00563
;WIDTH:0.639054
G1 X143.321 Y166.441 E0.00512
;WIDTH:0.578954
G1 X143.348 Y166.541 E0.0046
;WIDTH:0.518853
G1 X143.375 Y166.64 E0.00408
;WIDTH:0.458752
G1 X143.401 Y166.74 E0.00357
;WIDTH:0.398651
G1 X143.428 Y166.84 E0.00305
;WIDTH:0.33855
G1 X143.455 Y166.94 E0.00254
;WIDTH:0.278449
G1 X143.481 Y167.039 E0.00202
;WIDTH:0.218348
G1 X143.508 Y167.139 E0.00151
G1 X143.508 Y167.227 E0.00128
G1 X143.482 Y167.324 E0.00147
;WIDTH:0.275562
G1 X143.456 Y167.421 E0.00194
;WIDTH:0.332776
G1 X143.43 Y167.518 E0.00242
;WIDTH:0.389989
G1 X143.404 Y167.615 E0.0029
;WIDTH:0.447203
G1 X143.378 Y167.712 E0.00338
;WIDTH:0.504416
G1 X143.352 Y167.809 E0.00386
;WIDTH:0.56163
G1 X143.326 Y167.906 E0.00433
;WIDTH:0.618844
G1 X143.3 Y168.003 E0.00481
;WIDTH:0.676057
G1 X143.274 Y168.1 E0.00529
;WIDTH:0.733271
G1 X143.248 Y168.197 E0.00577
;WIDTH:0.790484
G1 X143.222 Y168.294 E0.00625
G1 X142.37 Y169.77 E0.10593
G1 X141.518 Y171.246 E0.10593
G1 X141.456 Y171.326 E0.00628
;WIDTH:0.844158
G1 X141.395 Y171.406 E0.00673
G1 X141.294 Y171.419 E0.00673
;WIDTH:0.790482
G1 X141.194 Y171.433 E0.00628
G1 X137.314 Y171.433 E0.24118
G1 X137.201 Y171.424 E0.00706
;WIDTH:0.738487
G1 X137.088 Y171.414 E0.00657
;WIDTH:0.686489
G1 X136.975 Y171.405 E0.00608
;WIDTH:0.634491
G1 X136.862 Y171.396 E0.00559
G1 X141.78 Y172.073 F9000
;TYPE:External perimeter
;WIDTH:0.62
G1 F2880
G1 X135.835 Y172.073 E0.28527
G1 X123.475 Y166.68 E0.64708
G1 X123.374 Y166.35 E0.01653
G1 X123.206 Y165.935 E0.02152
G1 X122.91 Y165.315 E0.03291
G1 X128.113 Y151.023 E0.72985
G1 X179.727 Y151.023 E2.47667
G1 X179.796 Y151.213 E0.00972
G1 X184.929 Y165.315 E0.72013
G1 X184.634 Y165.935 E0.03291
G1 X184.465 Y166.35 E0.02152
G1 X184.364 Y166.68 E0.01653
G1 X172.005 Y172.073 E0.64708
