; generated by SuperSlicer 2.4 on 2023-01-26 at 10:42:48 UTC


;
;

;
;
; 

; external perimeters extrusion width = 0.42mm
; perimeters extrusion width = 0.45mm
; infill extrusion width = 0.45mm
; solid infill extrusion width = 0.45mm
; top infill extrusion width = 0.42mm
; first layer extrusion width = 0.62mm

; object:{"name":"Stealthburner_Assembly v5","id":"Stealthburner_Assembly v5.stl id:0 copy 0","object_center":[150.037222,163.605180,0.000000],"boundingbox_center":[150.037222,163.605180,0.375243],"boundingbox_size":[46.965981,64.705083,0.750486]}
; plater:{"center":[150.037222,163.605180,0.000000],"boundingbox_center":[150.037222,163.605180,0.375243],"boundingbox_size":[46.965981,64.705083,0.750486]}

;TYPE:Custom
M104 S0 ; Stops SuperSlicer from sending temp waits separately


; Pre-Processed for Cancel-Object support by preprocess_cancellation v0.2.0
; 1 known objects
EXCLUDE_OBJECT_DEFINE NAME=Stealthburner_Assembly_v5_stl_id_0_copy_0 CENTER=150.914,155.771 POLYGON=[[126.643,131.542],[126.643,195.748],[173.308,195.748],[173.308,131.542]]

M140 S0

print_start EXTRUDER=248 BED=105 CHAMBER=0
G21 ; set units to millimeters
G90 ; use absolute coordinates
M83 ; use relative distances for extrusion
; Filament gcode
;_TOOLCHANGE 0
M107
;LAYER_CHANGE
;Z:0.2
;HEIGHT:0.2
TIMELAPSE_TAKE_FRAME
;BEFORE_LAYER_CHANGE
;0.2


G1 E-0.8 F3000
G1 Z0.3 F9000
;AFTER_LAYER_CHANGE
;0.2
G92 E0
M104 S248 ; set temperature
G1 Z0.5
; printing object Stealthburner_Assembly v5.stl id:0 copy 0
EXCLUDE_OBJECT_START NAME=Stealthburner_Assembly_v5_stl_id_0_copy_0
G1 X147.231 Y192.738
G1 Z0.2
G1 E0.8 F1800
;TYPE:Gap fill
;WIDTH:1.02011
G1 F2880
G1 X147.202 Y192.835 E0.00826
;WIDTH:0.981109
G1 X147.171 Y192.94 E0.00848
G1 X147.137 Y193.057 E0.00953
G1 X147.104 Y193.174 E0.00953
G1 X147.017 Y193.474 E0.02436
;WIDTH:0.892995
G1 X146.93 Y193.774 E0.02207
;WIDTH:0.83421
G1 X146.843 Y194.074 E0.02055
;WIDTH:0.775424
G1 X146.757 Y194.374 E0.01902
;WIDTH:0.716639
G1 X146.67 Y194.674 E0.01749
;WIDTH:0.657853
G1 X146.583 Y194.974 E0.01597
G1 X146.556 Y195.051 E0.00417
;WIDTH:0.610039
G1 X146.529 Y195.128 E0.00384
;WIDTH:0.562225
G1 X146.502 Y195.205 E0.00352
;WIDTH:0.51441
G1 X146.475 Y195.281 E0.00319
G1 X147.338 Y192.492 F9000
;TYPE:Internal perimeter
;WIDTH:0.62
G1 F2437.5
G1 X147.112 Y192.422 E0.01136
G1 X147.447 Y190.795 E0.07973
G1 X148.23 Y190.87 E0.03778
G1 X148.022 Y191.329 E0.02418
G1 X147.512 Y192.546 E0.06332
G1 X147.395 Y192.51 E0.00586
G1 X149.099 Y190.351 F9000
;TYPE:External perimeter
G1 F2728.5599
G1 X148.551 Y191.56 E0.0637
G1 X147.868 Y193.189 E0.08476
G1 X146.98 Y195.548 E0.12093
G1 X145.879 Y195.548 E0.05282
G1 X146.993 Y190.136 E0.2651
G1 X147.283 Y190.18 E0.01409
G1 X147.632 Y190.233 E0.01691
G1 X148.673 Y190.333 E0.05019
G1 X149.039 Y190.348 E0.01761
;WIPE_START
G1 X148.807 Y190.623 F9000
;WIPE_END
G1 E-0.8 F3000
G1 Z0.5 F9000
G1 X137.023 Y185.68
G1 Z0.2
G1 E0.8 F1800
;TYPE:Gap fill
;WIDTH:0.956106
G1 F2880
G1 X136.865 Y186.137 E0.03673
G1 X136.834 Y186.227 E0.00722
;WIDTH:1.09309
G1 X136.729 Y186.537 E0.0286
;WIDTH:1.034707
G1 X136.624 Y186.848 E0.02701
;WIDTH:0.976324
G1 X136.52 Y187.158 E0.02542
;WIDTH:0.91794
G1 X136.415 Y187.468 E0.02383
;WIDTH:0.859557
G1 X136.311 Y187.779 E0.02224
;WIDTH:0.801174
G1 X136.206 Y188.089 E0.02065
;WIDTH:0.742791
G1 X136.101 Y188.399 E0.01906
;WIDTH:0.684407
G1 X135.997 Y188.71 E0.01747
;WIDTH:0.626024
G1 X135.892 Y189.02 E0.01588
;WIDTH:0.567641
G1 X135.787 Y189.331 E0.01429
;WIDTH:0.509257
G1 X135.683 Y189.641 E0.0127
G1 X135.605 Y189.881 E0.0098
;WIDTH:0.45244
G1 X135.527 Y190.122 E0.00861
;WIDTH:0.395623
G1 X135.45 Y190.363 E0.00741
;WIDTH:0.338805
G1 X135.372 Y190.603 E0.00622
;WIDTH:0.281988
G1 X135.294 Y190.844 E0.00502
;WIDTH:0.22517
G1 X135.217 Y191.084 E0.00383
G1 X135.191 Y191.172 E0.00138
G1 X135.41 Y191.539 F9000
;TYPE:External perimeter
;WIDTH:0.62
G1 F2769.101
G1 X134.801 Y191.309 E0.03125
G1 X135.197 Y189.526 E0.08762
G1 X136.081 Y185.976 E0.17557
G1 X136.246 Y185.037 E0.04576
G1 X136.338 Y184.635 E0.01979
G1 X136.635 Y184.868 E0.01809
G1 X137.281 Y185.567 E0.04569
G1 X137.788 Y186.011 E0.03233
G1 X135.434 Y191.484 E0.28588
;WIPE_START
G1 X135.161 Y191.226 F9000
;WIPE_END
G1 E-0.8 F3000
G1 Z0.5 F9000
G1 X169.762 Y169.814
G1 Z0.2
G1 E0.8 F1800
;TYPE:Gap fill
;WIDTH:0.550076
G1 F2880
G1 X169.773 Y169.746 E0.00292
G1 X169.788 Y169.65 E0.00408
G1 X169.795 Y169.576 E0.00314
G1 X169.798 Y169.499 E0.00327
;WIDTH:0.610162
G1 X169.799 Y169.404 E0.00448
;WIDTH:0.654554
G1 X169.785 Y169.344 E0.00312
G1 X169.752 Y169.163 E0.00937
;WIDTH:0.606526
G1 X169.718 Y168.981 E0.00864
G1 X169.711 Y168.928 E0.00251
G1 X169.69 Y168.68 E0.01165
G1 X169.669 Y168.433 E0.01165
G1 X169.667 Y168.373 E0.00279
G1 X169.669 Y168.291 E0.00387
;WIDTH:0.652692
G1 X169.671 Y168.208 E0.00419
G1 X169.671 Y168.182 E0.00132
G1 X169.669 Y168.094 E0.00446
;WIDTH:0.689324
G1 X169.667 Y168.006 E0.00473
G1 X169.667 Y167.945 E0.0033
G1 X169.669 Y167.903 E0.00227
G1 X169.672 Y167.845 E0.00311
;WIDTH:0.732774
G1 X169.674 Y167.787 E0.00332
;WIDTH:0.776224
G1 X169.677 Y167.729 E0.00353
;WIDTH:0.819673
G1 X169.68 Y167.671 E0.00374
G1 X169.294 Y165.562 F9000
;TYPE:Solid infill
;WIDTH:0.617507
G1 F3000
G1 X170.013 Y166.281 E0.04857
G1 X170.11 Y166.129 E0.00859
G1 X170.341 Y165.792 E0.01952
G1 X169.302 Y164.753 E0.07023
G1 X169.216 Y164.5 E0.01276
G1 X169.444 Y164.08 E0.02287
G1 X170.673 Y165.308 E0.08303
G1 X171.005 Y164.824 E0.02805
G1 X169.732 Y163.551 E0.08605
G1 X170.019 Y163.022 E0.02876
G1 X171.337 Y164.34 E0.08907
G1 X171.669 Y163.856 E0.02805
G1 X170.347 Y162.535 E0.08932
G1 X170.691 Y162.062 E0.02792
G1 X171.998 Y163.369 E0.08833
G1 X172.071 Y163.22 E0.00795
G1 X172.085 Y163.068 E0.00726
G1 X171.941 Y162.496 E0.02819
G1 X171.035 Y161.59 E0.06127
G1 X171.378 Y161.117 E0.02792
G1 X172.009 Y161.748 E0.04267
G1 X171.695 Y159.736 F9000
;TYPE:Internal perimeter
;WIDTH:0.62
G1 F2880
G1 X172.522 Y163.034 E0.16317
G1 X172.495 Y163.338 E0.01464
G1 X172.36 Y163.614 E0.01476
G1 X172.071 Y164.056 E0.02534
G1 X171.126 Y165.382 E0.0781
G1 X170.47 Y166.368 E0.05685
G1 X170.148 Y166.873 E0.02874
G1 X169.854 Y167.429 E0.03017
G1 X169.529 Y167.379 E0.01576
G1 X169.416 Y166.765 E0.02993
G1 X169.052 Y165.365 E0.06945
G1 X168.745 Y164.46 E0.04583
G1 X168.935 Y164.141 E0.01782
G1 X169.424 Y163.177 E0.05187
G1 X169.73 Y162.648 E0.02932
G1 X170.085 Y162.131 E0.03009
G1 X171.185 Y160.647 E0.08863
G1 X171.666 Y159.788 E0.04725
G1 X171.861 Y157.644 F9000
;TYPE:External perimeter
G1 F2880
G1 X171.937 Y157.945 E0.01491
G1 X171.988 Y158.413 E0.02258
G1 X172.081 Y158.901 E0.02386
G1 X173.106 Y162.988 E0.20219
G1 X173.06 Y163.496 E0.02444
G1 X172.863 Y163.9 E0.02159
G1 X172.548 Y164.382 E0.02762
G1 X171.601 Y165.709 E0.07822
G1 X170.954 Y166.684 E0.05615
G1 X170.647 Y167.164 E0.02736
G1 X170.422 Y167.59 E0.02311
G1 X170.266 Y168.053 E0.02344
G1 X170.214 Y168.421 E0.01787
G1 X170.246 Y168.863 E0.02124
G1 X170.332 Y169.176 E0.0156
G1 X170.438 Y169.434 E0.0134
G1 X170.376 Y169.626 E0.00968
G1 X170.272 Y169.77 E0.00851
G1 X170.028 Y169.96 E0.01487
G1 X169.792 Y170.112 E0.01345
G1 X169.216 Y170.395 E0.03079
G1 X169.238 Y170.171 E0.0108
G1 X169.243 Y169.679 E0.02361
G1 X169.107 Y168.274 E0.06775
G1 X168.853 Y166.89 E0.06752
G1 X168.499 Y165.53 E0.06743
G1 X168.113 Y164.393 E0.05762
G1 X168.43 Y163.863 E0.02966
G1 X168.917 Y162.902 E0.05168
G1 X169.242 Y162.34 E0.03116
G1 X169.615 Y161.796 E0.03166
G1 X170.699 Y160.333 E0.08736
G1 X171.029 Y159.744 E0.03239
G1 X171.174 Y159.327 E0.02121
G1 X171.214 Y159.126 E0.0098
G1 X171.251 Y158.668 E0.02204
G1 X171.197 Y158.212 E0.02206
G1 X171.238 Y158.132 E0.0043
G1 X171.346 Y158.009 E0.0079
G1 X171.64 Y157.867 E0.01564
G1 X171.819 Y157.686 E0.0122
;WIPE_START
G1 X171.823 Y158.042 F9000
;WIPE_END
G1 E-0.8 F3000
G1 Z0.5 F9000
G1 X162.317 Y154.615
G1 Z0.2
G1 E0.8 F1800
;TYPE:Solid infill
;WIDTH:0.610546
G1 F3000
G1 X163.998 Y156.296 E0.11234
G1 X164.143 Y156.041 E0.01384
G1 X164.26 Y155.741 E0.0152
G1 X162.848 Y154.33 E0.09433
G1 X163.185 Y153.851 E0.02768
G1 X164.379 Y155.044 E0.07976
G1 X164.417 Y154.659 E0.01828
G1 X164.532 Y154.381 E0.01422
G1 X163.522 Y153.371 E0.06747
G1 X163.859 Y152.892 E0.02768
G1 X164.843 Y153.876 E0.06577
G1 X165.072 Y153.609 E0.0166
G1 X165.288 Y153.505 E0.01134
G1 X164.184 Y152.401 E0.07377
G1 X164.505 Y151.906 E0.02787
G1 X165.816 Y153.217 E0.08757
G1 X165.92 Y153.111 E0.00702
G1 X166.131 Y152.716 E0.02116
G1 X164.866 Y151.45 E0.08458
G1 X165.123 Y151.132 E0.01935
G1 X165.216 Y150.985 E0.00823
G1 X166.318 Y152.087 E0.07364
G1 X166.449 Y151.646 E0.02171
G1 X166.544 Y151.497 E0.00837
G1 X165.505 Y150.457 E0.06947
G1 X165.734 Y149.87 E0.02979
G1 X166.906 Y151.042 E0.07836
G1 X167.084 Y150.883 E0.01129
G1 X167.404 Y150.724 E0.01687
G1 X165.859 Y149.179 E0.10322
G1 X165.874 Y149.072 E0.0051
G1 X166.338 Y148.842 E0.02449
G1 X168.024 Y150.528 E0.11266
G1 X168.058 Y150.519 E0.00166
G1 X168.172 Y150.43 E0.00684
G1 X168.32 Y150.133 E0.01568
G1 X168.346 Y150.034 E0.00484
G1 X166.781 Y148.469 E0.10459
G1 X166.876 Y148.387 E0.00595
G1 X167.142 Y148.014 E0.02163
G1 X168.516 Y149.388 E0.09177
G1 X168.577 Y149.156 E0.01132
G1 X168.4 Y148.456 E0.03411
G1 X167.416 Y147.472 E0.06576
G1 X167.523 Y147.202 E0.01372
G1 X167.582 Y146.821 E0.01821
G1 X168.467 Y147.707 E0.05918
G1 X168.199 Y145.889 F9000
;TYPE:Internal perimeter
;WIDTH:0.62
G1 F2880
G1 X169.024 Y149.158 E0.16177
G1 X168.877 Y149.767 E0.03003
G1 X168.727 Y150.286 E0.02592
G1 X168.658 Y150.472 E0.00955
G1 X168.589 Y150.607 E0.00726
G1 X168.516 Y150.711 E0.0061
G1 X168.44 Y150.792 E0.00535
G1 X168.355 Y150.858 E0.00512
G1 X168.256 Y150.913 E0.00545
G1 X168.13 Y150.962 E0.0065
G1 X167.667 Y151.076 E0.02287
G1 X167.33 Y151.244 E0.01809
G1 X167.07 Y151.477 E0.01674
G1 X166.847 Y151.828 E0.01992
G1 X166.529 Y152.898 E0.05358
G1 X166.415 Y153.145 E0.01307
G1 X166.271 Y153.371 E0.01284
G1 X166.151 Y153.513 E0.00895
G1 X166.012 Y153.634 E0.00883
G1 X165.844 Y153.74 E0.00952
G1 X165.342 Y153.959 E0.0263
G1 X165.018 Y154.338 E0.02391
G1 X164.841 Y154.765 E0.02218
G1 X164.772 Y155.464 E0.03371
G1 X164.68 Y155.856 E0.01932
G1 X164.534 Y156.227 E0.01913
G1 X164.337 Y156.577 E0.01927
G1 X164.028 Y156.983 E0.02449
G1 X163.159 Y156.157 E0.05754
G1 X162.15 Y155.324 E0.06278
G1 X161.758 Y155.041 E0.02319
G1 X162.502 Y154.07 E0.05873
G1 X163.574 Y152.545 E0.08942
G1 X164.192 Y151.594 E0.05443
G1 X164.771 Y150.879 E0.04414
G1 X165.045 Y150.447 E0.02457
G1 X165.16 Y150.213 E0.0125
G1 X165.358 Y149.642 E0.02902
G1 X165.435 Y148.903 E0.03564
G1 X165.471 Y148.826 E0.00409
G1 X165.529 Y148.766 E0.00398
G1 X165.565 Y148.742 E0.00209
G1 X166.113 Y148.471 E0.02934
G1 X166.555 Y148.092 E0.0279
G1 X166.891 Y147.622 E0.02774
G1 X167.103 Y147.088 E0.02757
G1 X167.217 Y146.345 E0.03606
G1 X167.325 Y146.277 E0.00616
G1 X167.906 Y146.038 E0.03012
G1 X168.146 Y145.916 E0.01293
G1 X168.561 Y144.961 F9000
;TYPE:External perimeter
G1 F2880
G1 X169.618 Y149.155 E0.20754
G1 X169.435 Y149.914 E0.03747
G1 X169.276 Y150.466 E0.02754
G1 X169.187 Y150.705 E0.01225
G1 X169.084 Y150.906 E0.01083
G1 X168.965 Y151.076 E0.01
G1 X168.829 Y151.22 E0.00948
G1 X168.676 Y151.34 E0.00932
G1 X168.502 Y151.437 E0.00955
G1 X168.303 Y151.513 E0.01023
G1 X167.867 Y151.621 E0.02153
G1 X167.657 Y151.726 E0.0113
G1 X167.514 Y151.854 E0.00919
G1 X167.377 Y152.069 E0.01224
G1 X167.07 Y153.102 E0.05169
G1 X166.923 Y153.422 E0.01692
G1 X166.737 Y153.714 E0.01662
G1 X166.563 Y153.919 E0.01291
G1 X166.358 Y154.098 E0.01305
G1 X166.115 Y154.252 E0.01379
G1 X165.694 Y154.435 E0.02204
G1 X165.516 Y154.643 E0.01312
G1 X165.407 Y154.907 E0.01367
G1 X165.343 Y155.559 E0.03147
G1 X165.232 Y156.028 E0.02313
G1 X165.057 Y156.476 E0.02305
G1 X164.82 Y156.895 E0.02311
G1 X164.234 Y157.665 E0.04644
G1 X164.083 Y157.962 E0.01601
G1 X163.703 Y157.47 E0.02985
G1 X162.776 Y156.589 E0.06136
G1 X161.797 Y155.781 E0.0609
G1 X161.039 Y155.235 E0.04482
G1 X161.131 Y155.006 E0.01183
G1 X161.286 Y154.708 E0.01611
G1 X162.037 Y153.728 E0.05925
G1 X163.096 Y152.222 E0.08835
G1 X163.725 Y151.254 E0.05538
G1 X164.301 Y150.542 E0.04396
G1 X164.54 Y150.164 E0.02147
G1 X164.626 Y149.99 E0.00932
G1 X164.791 Y149.515 E0.02411
G1 X164.862 Y148.837 E0.03272
G1 X164.891 Y148.702 E0.00662
G1 X164.992 Y148.491 E0.01122
G1 X165.159 Y148.318 E0.01155
G1 X165.278 Y148.24 E0.00682
G1 X165.793 Y147.986 E0.02753
G1 X166.126 Y147.7 E0.02108
G1 X166.381 Y147.344 E0.02101
G1 X166.543 Y146.936 E0.02105
G1 X166.649 Y146.241 E0.03374
G1 X166.717 Y146.078 E0.00845
G1 X166.801 Y145.959 E0.00702
G1 X166.914 Y145.854 E0.00738
G1 X167.059 Y145.762 E0.00826
G1 X167.665 Y145.513 E0.03142
G1 X167.962 Y145.362 E0.01598
G1 X168.511 Y144.994 E0.03171
;WIPE_START
G1 X168.496 Y145.356 F9000
;WIPE_END
G1 E-0.8 F3000
G1 Z0.5 F9000
G1 X162.171 Y139.324
G1 Z0.2
G1 E0.8 F1800
;TYPE:Solid infill
;WIDTH:0.6063
G1 F3000
G1 X161.513 Y138.666 E0.04362
G1 X161.091 Y139.06 E0.0271
G1 X161.892 Y139.861 E0.05315
G1 X161.749 Y140.023 E0.01014
G1 X161.46 Y140.245 E0.0171
G1 X160.683 Y139.468 E0.05158
G1 X160.289 Y139.891 E0.0271
G1 X161.008 Y140.61 E0.04771
G1 X160.793 Y140.835 E0.01463
G1 X160.643 Y141.06 E0.01269
G1 X159.911 Y140.329 E0.04855
G1 X159.581 Y140.768 E0.0258
G1 X159.564 Y140.797 E0.00159
G1 X160.396 Y141.63 E0.05524
G1 X160.276 Y142.326 E0.03315
G1 X159.266 Y141.316 E0.06704
G1 X159.07 Y141.658 E0.01851
G1 X158.991 Y141.857 E0.01003
G1 X159.897 Y142.763 E0.06014
G1 X159.852 Y142.814 E0.00321
G1 X159.535 Y143.216 E0.02405
G1 X158.77 Y142.451 E0.05077
G1 X158.601 Y143.099 E0.0314
G1 X159.187 Y143.685 E0.03888
G1 X158.994 Y144.038 E0.01888
G1 X158.92 Y144.234 E0.00983
G1 X158.433 Y143.747 E0.03233
G1 X158.303 Y144.246 E0.02422
G1 X158.075 Y144.206 E0.01083
G1 X158.751 Y144.881 E0.0448
G1 X158.716 Y145.096 E0.01024
G1 X158.451 Y145.397 E0.01882
G1 X157.226 Y144.172 E0.0813
G1 X157.115 Y144.412 E0.0124
G1 X156.937 Y144.699 E0.01586
G1 X158.077 Y145.839 E0.07565
G1 X157.758 Y146.336 E0.02772
G1 X156.623 Y145.202 E0.07529
G1 X156.555 Y145.312 E0.00608
G1 X156.207 Y145.601 E0.02125
G1 X157.452 Y146.847 E0.08266
G1 X157.266 Y147.251 E0.0209
G1 X157.208 Y147.418 E0.0083
G1 X155.856 Y146.066 E0.08973
G1 X155.557 Y146.584 E0.02803
G1 X157.026 Y148.053 E0.09751
G1 X156.895 Y148.737 E0.03271
G1 X155.258 Y147.101 E0.1086
G1 X154.959 Y147.618 E0.02803
G1 X156.71 Y149.369 E0.11617
G1 X156.69 Y149.401 E0.00178
G1 X156.489 Y149.555 E0.01187
G1 X156.194 Y149.669 E0.01485
G1 X154.661 Y148.136 E0.10175
G1 X154.362 Y148.653 E0.02803
G1 X155.606 Y149.897 E0.08253
G1 X155.527 Y149.927 E0.00394
G1 X155.092 Y150.2 E0.02408
G1 X154.063 Y149.171 E0.06829
G1 X153.937 Y149.388 E0.01181
G1 X153.465 Y149.388 E0.02217
G1 X154.638 Y150.561 E0.07783
G1 X154.313 Y150.872 E0.0211
G1 X154.239 Y150.978 E0.00608
G1 X152.649 Y149.388 E0.1055
G1 X152.47 Y149.388 E0.00838
G1 X152.462 Y149.435 E0.00221
G1 X152.325 Y149.88 E0.02188
G1 X153.507 Y151.062 E0.07843
G1 X152.536 Y150.908 E0.0461
G1 X151.895 Y150.267 E0.04258
G1 X162.183 Y137.703 F9000
G1 F3000
G1 X162.443 Y137.964 E0.01727
G1 X163.14 Y138.147 E0.03383
G1 X163.253 Y137.957 E0.01033
G1 X162.781 Y137.485 E0.03132
G1 X162.946 Y137.331 E0.01062
G1 X163.194 Y137.083 E0.01647
G1 X163.557 Y137.445 E0.02406
G1 X163.861 Y136.933 E0.02794
G1 X163.602 Y136.674 E0.0172
G1 X164.01 Y136.266 E0.02708
G1 X164.165 Y136.421 E0.01033
G1 X164.191 Y136.378 E0.00238
G1 X164.503 Y135.943 E0.02511
G1 X164.417 Y135.857 E0.00567
G1 X164.481 Y135.793 E0.00425
G1 X164.81 Y135.434 E0.02285
G1 X165.021 Y135.645 E0.01399
G1 X162.347 Y138.386 F9000
;TYPE:Internal perimeter
;WIDTH:0.62
G1 F2880
G1 X162.36 Y139.856 E0.07057
G1 X162.341 Y139.961 E0.00511
G1 X162.307 Y140.044 E0.00429
G1 X162.255 Y140.125 E0.00462
G1 X162.046 Y140.341 E0.01441
G1 X161.364 Y140.864 E0.04123
G1 X161.132 Y141.107 E0.01613
G1 X160.957 Y141.37 E0.01516
G1 X160.83 Y141.664 E0.0154
G1 X160.762 Y141.959 E0.0145
G1 X160.709 Y142.465 E0.02441
G1 X160.679 Y142.541 E0.00396
G1 X160.593 Y142.662 E0.00709
G1 X160.183 Y143.092 E0.02854
G1 X159.83 Y143.518 E0.02654
G1 X159.597 Y143.837 E0.01894
