; generated by SuperSlicer 2.4 on 2023-03-02 at 20:42:56 UTC


;
;

;
;
; 

; external perimeters extrusion width = 0.42mm
; perimeters extrusion width = 0.46mm
; infill extrusion width = 0.44mm
; solid infill extrusion width = 0.46mm
; top infill extrusion width = 0.44mm
; support material extrusion width = 0.40mm
; first layer extrusion width = 0.60mm

; object:{"name":"Stealthburner_CW2_LDO 2","id":"Stealthburner_CW2_LDO 2.4 id:0 copy 0","object_center":[139.539481,148.504719,0.000000],"boundingbox_center":[139.539481,148.504719,24.304603],"boundingbox_size":[52.494919,69.178772,48.609205]}
; plater:{"center":[139.539481,148.504719,0.000000],"boundingbox_center":[139.539481,148.504719,24.304603],"boundingbox_size":[52.494919,69.178772,48.609205]}

;TYPE:Custom
M104 S0 ; Stops SuperSlicer from sending temp waits separately


; Pre-Processed for Cancel-Object support by preprocess_cancellation v0.2.0
; 1 known objects
EXCLUDE_OBJECT_DEFINE NAME=Stealthburner_CW2_LDO_2_4_id_0_copy_0 CENTER=141.554,162.941 POLYGON=[[113.503,113.927],[113.503,182.879],[165.572,182.879],[165.572,113.927]]

M140 S0

print_start EXTRUDER=250 BED=105 CHAMBER=0
M107
G21 ; set units to millimeters
G90 ; use absolute coordinates
M83 ; use relative distances for extrusion
; Filament gcode
;_TOOLCHANGE 0
M107
;LAYER_CHANGE
;Z:0.2
;HEIGHT:0.2
TIMELAPSE_TAKE_FRAME
;BEFORE_LAYER_CHANGE
;0.2


G1 Z0.2 F10500
;AFTER_LAYER_CHANGE
;0.2
G92 E0
G1 E-0.5 F1800
G1 Z0.4 F10500
G1 X117.178 Y162.91
G1 Z0.2
G1 E0.5 F1800
;TYPE:Skirt
;WIDTH:0.44
G1 F1860
G1 X114.324 Y164.963 E0.11608
G1 X113.728 Y165.624 E0.02939
G1 X113.462 Y166.875 E0.04224
G1 X114.818 Y180.236 E0.44339
G1 X115.481 Y181.564 E0.04901
G1 X119.611 Y185.378 E0.18562
G1 X121.031 Y185.934 E0.05033
G1 X139.633 Y185.954 E0.61419
G1 X140.331 Y185.835 E0.02339
G1 X146.562 Y183.64 E0.21813
G1 X147.181 Y183.295 E0.02336
G1 X164.341 Y169.479 E0.72742
G1 X164.917 Y168.751 E0.03062
G1 X167.801 Y162.729 E0.22049
G1 X168.007 Y161.826 E0.03058
G1 X168.023 Y146.296 E0.51274
G1 X167.952 Y145.753 E0.01807
G1 X166.468 Y140.278 E0.18729
G1 X163.566 Y133.495 E0.24363
G1 X162.14 Y132.284 E0.06175
G1 X160.864 Y132.372 E0.04224
G1 X158.348 Y133.373 E0.08939
G1 X157.9 Y133.619 E0.01689
G1 X117.226 Y162.875 E1.65423
G1 X117.458 Y163.197 F10500
G1 F1860
G1 X114.556 Y165.285 E0.11806
G1 X114.135 Y165.721 E0.02001
G1 X113.857 Y166.835 E0.03792
G1 X115.213 Y180.196 E0.44339
G1 X115.75 Y181.272 E0.03973
G1 X119.881 Y185.086 E0.18562
G1 X121.031 Y185.537 E0.0408
G1 X139.633 Y185.556 E0.61419
G1 X140.199 Y185.46 E0.01896
G1 X146.431 Y183.265 E0.21813
G1 X146.932 Y182.986 E0.01893
G1 X164.092 Y169.169 E0.72742
G1 X164.559 Y168.58 E0.02482
G1 X167.443 Y162.557 E0.22049
G1 X167.61 Y161.825 E0.02478
G1 X167.626 Y146.296 E0.51274
G1 X167.569 Y145.856 E0.01465
G1 X166.103 Y140.435 E0.18541
G1 X163.201 Y133.651 E0.24363
G1 X162.158 Y132.702 E0.04654
G1 X161.011 Y132.741 E0.03792
G1 X158.132 Y133.941 E0.10299
G1 X117.507 Y163.162 E1.65225
G1 E-0.5 F1800
G1 Z0.4 F10500
G1 X117.179 Y167.739
G1 Z0.2
G1 E0.5 F1800
;WIDTH:0.604
G1 F1860
G1 X118.223 Y168.003 E0.05022
G1 X118.883 Y168.312 E0.03404
G1 X119.463 Y168.712 E0.03282
G1 X119.936 Y169.166 E0.03061
G1 X120.427 Y169.833 E0.03865
G1 X120.717 Y170.414 E0.03031
G1 X120.875 Y170.914 E0.02446
G1 X125.245 Y176.49 E0.33051
G1 X125.543 Y176.805 E0.0202
G1 X125.847 Y177.028 E0.01762
G1 X126.185 Y177.194 E0.01756
G1 X126.582 Y177.306 E0.01924
G1 X127 Y177.344 E0.01956
G1 X136.533 Y177.354 E0.44475
G1 X137.148 Y177.311 E0.02878
G1 X137.722 Y177.188 E0.02739
G1 X138.273 Y176.985 E0.02739
G1 X138.79 Y176.707 E0.02739
G1 X139.263 Y176.359 E0.02739
G1 X139.703 Y175.927 E0.02878
G1 X143.138 Y172.04 E0.242
G1 X143.521 Y171.65 E0.0255
G1 X143.923 Y171.31 E0.02456
G1 X144.445 Y170.946 E0.0297
G1 X144.519 Y170.91 E0.00385
G1 X144.759 Y170.846 E0.01155
G1 X147.789 Y170.798 E0.14141
G1 X148.494 Y170.548 E0.03488
G1 X149.354 Y170.285 E0.04196
G1 X150.213 Y170.063 E0.0414
G1 X151.037 Y169.885 E0.03932
G1 X151.912 Y169.735 E0.04143
G1 X152.769 Y169.625 E0.04029
G1 X153.655 Y169.548 E0.04149
G1 X154.492 Y169.512 E0.03907
G1 X154.772 Y169.478 E0.01316
G1 X154.99 Y169.405 E0.01075
G1 X155.19 Y169.29 E0.01077
G1 X155.364 Y169.138 E0.01077
G1 X155.497 Y168.962 E0.01029
G1 X155.775 Y168.346 E0.03153
G1 X155.974 Y167.976 E0.01961
G1 X156.212 Y167.615 E0.02017
G1 X156.499 Y167.26 E0.02132
G1 X156.776 Y166.975 E0.01853
G1 X157.096 Y166.699 E0.01971
G1 X157.441 Y166.453 E0.01976
G1 X157.69 Y166.307 E0.01345
G1 X158.82 Y165.179 E0.0745
G1 X159.197 Y164.75 E0.02665
G1 X159.5 Y164.298 E0.02537
G1 X159.741 Y163.811 E0.02537
G1 X159.916 Y163.296 E0.02537
G1 X160.022 Y162.763 E0.02537
G1 X160.06 Y162.193 E0.02665
G1 X160.076 Y147.825 E0.67032
G1 X160.049 Y147.449 E0.01757
G1 X159.975 Y147.111 E0.01616
G1 X159.84 Y146.752 E0.01792
G1 X159.457 Y145.875 E0.04463
G1 X159.266 Y145.33 E0.02694
G1 X159.106 Y144.764 E0.02743
G1 X158.988 Y144.215 E0.02623
G1 X158.907 Y143.659 E0.02619
G1 X158.868 Y143.111 E0.02566
G1 X158.87 Y142.573 E0.02507
G1 X158.913 Y142.071 E0.02352
G1 X159.683 Y136.129 E0.27951
G1 X159.74 Y135.991 E0.007
G1 X159.926 Y135.752 E0.01412
G1 X160.046 Y135.662 E0.007
G1 X160.547 Y135.462 E0.02515
G1 X160.786 Y135.473 E0.0112
G1 X161.226 Y135.693 E0.02294
G1 X161.378 Y135.879 E0.0112
G1 X161.444 Y136.123 E0.01181
G1 X163.909 Y141.308 E0.26785
G1 X165.25 Y146.308 E0.24152
G1 X165.269 Y146.454 E0.00685
G1 X165.246 Y161.608 E0.70698
G1 X165.198 Y161.789 E0.00875
G1 X162.553 Y167.312 E0.28567
G1 X162.442 Y167.463 E0.00877
G1 X145.616 Y181.019 E1.00805
G1 X145.45 Y181.112 E0.00887
G1 X139.614 Y183.167 E0.28868
G1 X139.426 Y183.199 E0.00889
G1 X121.514 Y183.18 E0.83567
G1 X121.411 Y183.161 E0.00489
G1 X121.215 Y183.084 E0.00982
G1 X121.127 Y183.029 E0.00489
G1 X117.691 Y179.857 E0.21814
G1 X117.63 Y179.775 E0.00475
G1 X117.539 Y179.592 E0.00954
G1 X117.511 Y179.494 E0.00475
G1 X116.388 Y168.428 E0.51895
G1 X116.488 Y168.174 E0.01275
G1 X116.914 Y167.803 E0.0263
G1 X117.121 Y167.753 E0.00995
G1 X117.179 Y168.316 F10500
G1 F1860
G1 X117.977 Y168.511 E0.03833
G1 X118.002 Y168.519 E0.00123
G1 X118.557 Y168.772 E0.02845
G1 X118.578 Y168.783 E0.00111
G1 X119.082 Y169.125 E0.02839
G1 X119.1 Y169.14 E0.00111
G1 X119.539 Y169.562 E0.02839
G1 X119.554 Y169.58 E0.00112
G1 X119.918 Y170.075 E0.02867
G1 X119.931 Y170.095 E0.00111
G1 X120.201 Y170.634 E0.0281
G1 X120.21 Y170.656 E0.00111
G1 X120.369 Y171.178 E0.02548
G1 X124.82 Y176.857 E0.33663
G1 X125.17 Y177.227 E0.02377
G1 X125.555 Y177.51 E0.0223
G1 X125.984 Y177.72 E0.02227
G1 X126.48 Y177.86 E0.02403
G1 X126.974 Y177.905 E0.02315
G1 X136.552 Y177.915 E0.44685
G1 X137.227 Y177.868 E0.03156
G1 X137.878 Y177.728 E0.0311
G1 X138.504 Y177.498 E0.0311
G1 X139.091 Y177.182 E0.0311
G1 X139.627 Y176.787 E0.0311
G1 X140.11 Y176.313 E0.03156
G1 X143.541 Y172.431 E0.24171
G1 X143.907 Y172.057 E0.02441
G1 X144.279 Y171.743 E0.0227
G1 X144.73 Y171.432 E0.02557
G1 X144.809 Y171.406 E0.00387
G1 X147.89 Y171.358 E0.14378
G1 X148.667 Y171.082 E0.03845
G1 X149.498 Y170.828 E0.04053
G1 X150.346 Y170.608 E0.04085
G1 X151.135 Y170.438 E0.03769
G1 X151.999 Y170.289 E0.04087
G1 X152.837 Y170.181 E0.03945
G1 X153.694 Y170.108 E0.0401
G1 X154.537 Y170.072 E0.0394
G1 X154.895 Y170.028 E0.01681
G1 X155.221 Y169.92 E0.01601
G1 X155.519 Y169.749 E0.01604
G1 X155.777 Y169.522 E0.01603
G1 X155.982 Y169.251 E0.01588
G1 X156.28 Y168.59 E0.0338
G1 X156.458 Y168.258 E0.01756
G1 X156.668 Y167.942 E0.01772
G1 X156.907 Y167.646 E0.01773
G1 X157.165 Y167.379 E0.01734
G1 X157.446 Y167.137 E0.01732
G1 X157.749 Y166.921 E0.01733
G1 X158.034 Y166.756 E0.01535
G1 X159.229 Y165.563 E0.07879
G1 X159.643 Y165.093 E0.02923
G1 X159.986 Y164.58 E0.0288
G1 X160.26 Y164.027 E0.0288
G1 X160.459 Y163.442 E0.0288
G1 X160.58 Y162.837 E0.0288
G1 X160.622 Y162.212 E0.02923
G1 X160.637 Y147.806 E0.67212
G1 X160.606 Y147.369 E0.0204
G1 X160.515 Y146.952 E0.01993
G1 X160.36 Y146.54 E0.02052
G1 X159.985 Y145.683 E0.04365
G1 X159.802 Y145.164 E0.02567
G1 X159.653 Y144.642 E0.02534
G1 X159.543 Y144.129 E0.02448
G1 X159.467 Y143.613 E0.02434
G1 X159.429 Y143.106 E0.02368
G1 X159.43 Y142.615 E0.02293
G1 X159.47 Y142.14 E0.02224
G1 X160.229 Y136.276 E0.27587
G1 X160.323 Y136.155 E0.00713
G1 X160.643 Y136.028 E0.01605
G1 X160.868 Y136.141 E0.01174
G1 X160.915 Y136.318 E0.00857
G1 X163.387 Y141.514 E0.26842
G1 X163.396 Y141.538 E0.0012
G1 X164.703 Y146.435 E0.23648
G1 X164.708 Y146.472 E0.00172
G1 X164.692 Y161.514 E0.70176
G1 X164.678 Y161.575 E0.00293
G1 X162.06 Y167.041 E0.28275
G1 X162.021 Y167.09 E0.00293
G1 X145.283 Y180.567 E1.00257
G1 X145.241 Y180.59 E0.00223
G1 X139.45 Y182.63 E0.28646
G1 X139.403 Y182.638 E0.00223
G1 X121.567 Y182.619 E0.83212
G1 X121.469 Y182.581 E0.00493
G1 X118.11 Y179.479 E0.21332
G1 X118.064 Y179.387 E0.00479
G1 X116.96 Y168.507 E0.5102
G1 X117.134 Y168.356 E0.01075
M104 S250 ; set temperature
; printing object Stealthburner_CW2_LDO 2.4 id:0 copy 0
EXCLUDE_OBJECT_START NAME=Stealthburner_CW2_LDO_2_4_id_0_copy_0
G1 X117.597 Y169.018 F10500
;TYPE:External perimeter
G1 F3000
G1 X117.799 Y169.067 E0.00969
G1 X118.282 Y169.286 E0.02475
G1 X118.723 Y169.586 E0.02488
G1 X119.107 Y169.955 E0.02487
G1 X119.427 Y170.39 E0.02516
G1 X119.663 Y170.861 E0.0246
G1 X119.843 Y171.452 E0.02881
G1 X124.378 Y177.238 E0.34298
G1 X124.783 Y177.666 E0.02748
G1 X125.252 Y178.01 E0.02716
G1 X125.775 Y178.266 E0.02715
G1 X126.373 Y178.435 E0.029
G1 X126.947 Y178.487 E0.02688
G1 X136.572 Y178.498 E0.44903
G1 X137.308 Y178.446 E0.03444
G1 X138.041 Y178.289 E0.03494
G1 X138.744 Y178.031 E0.03494
G1 X139.403 Y177.676 E0.03494
G1 X140.006 Y177.231 E0.03494
G1 X140.533 Y176.714 E0.03445
G1 X143.964 Y172.83 E0.24178
G1 X144.308 Y172.48 E0.02289
G1 X144.638 Y172.203 E0.02011
G1 X144.951 Y171.987 E0.01775
G1 X147.995 Y171.939 E0.14203
G1 X148.847 Y171.636 E0.04217
G1 X149.659 Y171.388 E0.03963
G1 X150.483 Y171.175 E0.03969
G1 X151.249 Y171.009 E0.03657
G1 X152.088 Y170.865 E0.03972
G1 X152.902 Y170.76 E0.03829
G1 X153.734 Y170.689 E0.03895
G1 X154.585 Y170.653 E0.03974
G1 X155.024 Y170.6 E0.02061
G1 X155.46 Y170.454 E0.02147
G1 X155.86 Y170.225 E0.0215
G1 X156.206 Y169.92 E0.0215
G1 X156.486 Y169.55 E0.02167
G1 X156.805 Y168.844 E0.03616
G1 X156.962 Y168.552 E0.01542
G1 X157.142 Y168.282 E0.01517
G1 X157.347 Y168.028 E0.01523
G1 X157.569 Y167.799 E0.01488
G1 X157.81 Y167.592 E0.01483
G1 X158.069 Y167.408 E0.01481
G1 X158.391 Y167.223 E0.01734
G1 X159.654 Y165.962 E0.08325
G1 X160.106 Y165.449 E0.0319
G1 X160.491 Y164.872 E0.03236
G1 X160.799 Y164.251 E0.03236
G1 X161.023 Y163.594 E0.03236
G1 X161.159 Y162.914 E0.03236
G1 X161.204 Y162.232 E0.0319
G1 X161.219 Y147.785 E0.67399
G1 X161.184 Y147.286 E0.02335
G1 X161.075 Y146.787 E0.02385
G1 X160.9 Y146.321 E0.02322
G1 X160.528 Y145.474 E0.04314
G1 X160.358 Y144.992 E0.02386
G1 X160.22 Y144.505 E0.02361
G1 X160.115 Y144.02 E0.02312
G1 X160.045 Y143.544 E0.02247
G1 X160.011 Y143.08 E0.02169
G1 X160.012 Y142.635 E0.02079
G1 X160.049 Y142.205 E0.02011
G1 X160.676 Y137.359 E0.22797
G1 X160.718 Y137.353 E0.00196
;TYPE:Thin wall
;WIDTH:0.028455
G1 X160.699 Y137.232
;WIDTH:0.256091
G1 X160.677 Y137.094 E0.00253
;WIDTH:0.476183
G1 X160.669 Y137.043 E0.00186
;WIDTH:0.437455
G1 X160.645 Y136.897 E0.00492
;WIDTH:0.36
G1 X160.638 Y136.848 E0.00132
G1 X160.588 Y136.534 E0.00849
;WIDTH:0.205843
G1 X160.555 Y136.398 E0.00194
;WIDTH:0.022871
G1 X160.588 Y136.534 E0.00022
;WIDTH:0.04
G1 X160.638 Y136.848 E0.00094
G1 X160.645 Y136.897 E0.00015
;WIDTH:0.048606
G1 X160.669 Y137.043 E0.00055
;WIDTH:0.052909
G1 X160.677 Y137.094 E0.00021
;WIDTH:0.028455
G1 X160.699 Y137.232 E0.00028
;WIDTH:0.284546
G1 X160.718 Y137.353
;TYPE:External perimeter
;WIDTH:0.604
G1 X160.759 Y137.346 E0.00196
G1 X162.843 Y141.727 E0.22635
G1 X164.125 Y146.529 E0.23188
G1 X164.11 Y161.413 E0.69439
G1 X161.578 Y166.699 E0.27343
G1 X144.977 Y180.066 E0.99438
G1 X139.328 Y182.056 E0.2794
G1 X121.738 Y182.037 E0.82062
G1 X118.627 Y179.163 E0.19762
G1 X117.603 Y169.077 E0.47297
;WIPE_START
G1 X117.916 Y169.259 F10500
;WIPE_END
G1 X118.334 Y170.345
;TYPE:Internal perimeter
G1 F3000
G1 X118.617 Y170.236 E0.01416
G1 X118.947 Y170.684 E0.02593
G1 X119.14 Y171.07 E0.02017
G1 X119.337 Y171.716 E0.03147
G1 X123.953 Y177.605 E0.3491
G1 X124.411 Y178.088 E0.03105
G1 X124.961 Y178.492 E0.03184
G1 X125.574 Y178.793 E0.03185
G1 X126.271 Y178.989 E0.03379
G1 X126.921 Y179.048 E0.03048
G1 X136.591 Y179.059 E0.45112
G1 X137.387 Y179.003 E0.03722
G1 X138.197 Y178.83 E0.03865
G1 X138.975 Y178.544 E0.03865
G1 X139.704 Y178.151 E0.03865
G1 X140.371 Y177.66 E0.03865
G1 X140.94 Y177.1 E0.03722
G1 X144.375 Y173.213 E0.24202
G1 X144.69 Y172.893 E0.02096
G1 X144.979 Y172.649 E0.01761
G1 X145.13 Y172.545 E0.00856
G1 X148.096 Y172.498 E0.1384
G1 X149.023 Y172.169 E0.04589
G1 X149.812 Y171.928 E0.03848
G1 X150.612 Y171.721 E0.03859
G1 X151.356 Y171.56 E0.03549
G1 X152.171 Y171.42 E0.03861
G1 X152.962 Y171.318 E0.03718
G1 X153.77 Y171.249 E0.03784
G1 X154.583 Y171.215 E0.03797
G1 X154.698 Y171.519 E0.01516
G1 X144.7 Y179.569 E0.59886
G1 X139.232 Y181.494 E0.27043
G1 X121.958 Y181.476 E0.80591
G1 X119.163 Y178.895 E0.17748
G1 X118.299 Y170.38 E0.39932
G1 E-0.5 F1800
G1 Z0.4 F10500
G1 X119.116 Y172.868
G1 Z0.2
G1 E0.5 F1800
G1 F3000
G1 X119.429 Y172.742 E0.01574
G1 X123.527 Y177.972 E0.30998
G1 X124.038 Y178.511 E0.03463
G1 X124.669 Y178.974 E0.03652
G1 X125.373 Y179.319 E0.03656
G1 X126.168 Y179.543 E0.03858
G1 X126.896 Y179.609 E0.03407
G1 X136.61 Y179.62 E0.45322
G1 X137.466 Y179.56 E0.04
G1 X138.353 Y179.37 E0.04236
G1 X139.205 Y179.057 E0.04236
G1 X140.005 Y178.626 E0.04236
G1 X140.736 Y178.088 E0.04236
G1 X141.348 Y177.487 E0.04
G1 X144.786 Y173.596 E0.24225
G1 X145.065 Y173.311 E0.01862
G1 X145.328 Y173.103 E0.01564
G1 X148.197 Y173.058 E0.13384
G1 X149.199 Y172.702 E0.04961
G1 X149.964 Y172.468 E0.03733
G1 X150.742 Y172.267 E0.03748
G1 X151.463 Y172.111 E0.0344
G1 X152.255 Y171.975 E0.0375
G1 X152.802 Y171.905 E0.02576
G1 X152.935 Y172.217 E0.01585
G1 X144.423 Y179.071 E0.5099
G1 X139.137 Y180.933 E0.26146
G1 X122.178 Y180.915 E0.7912
G1 X119.7 Y178.627 E0.15735
G1 X119.122 Y172.928 E0.26725
G1 E-0.5 F1800
G1 Z0.4 F10500
G1 X157.475 Y168.794
G1 Z0.2
G1 E0.5 F1800
G1 F3000
G1 X157.594 Y168.614 E0.01008
G1 X157.767 Y168.401 E0.01282
G1 X157.954 Y168.208 E0.0125
G1 X158.156 Y168.035 E0.01244
G1 X158.372 Y167.881 E0.01237
G1 X158.735 Y167.672 E0.01955
G1 X160.063 Y166.347 E0.08754
G1 X160.551 Y165.792 E0.03447
G1 X160.978 Y165.154 E0.03579
G1 X161.318 Y164.466 E0.03579
G1 X161.566 Y163.74 E0.03579
G1 X161.716 Y162.988 E0.03579
G1 X161.765 Y162.251 E0.03447
G1 X161.78 Y147.766 E0.67579
G1 X161.741 Y147.206 E0.02618
G1 X161.614 Y146.627 E0.02763
G1 X161.42 Y146.109 E0.02582
G1 X161.051 Y145.267 E0.04288
G1 X160.893 Y144.821 E0.02207
G1 X160.764 Y144.369 E0.02195
G1 X160.668 Y143.921 E0.02139
G1 X160.604 Y143.482 E0.02066
G1 X160.572 Y143.06 E0.01976
G1 X160.573 Y142.659 E0.01871
G1 X160.607 Y142.265 E0.01845
G1 X160.931 Y139.763 E0.11772
G1 X161.262 Y139.71 E0.01566
G1 X162.314 Y141.922 E0.11427
G1 X163.564 Y146.603 E0.22603
G1 X163.549 Y161.286 E0.68501
G1 X161.127 Y166.342 E0.26156
G1 X157.759 Y169.054 E0.20173
G1 X157.519 Y168.835 E0.01516
G1 E-0.5 F1800
G1 Z0.4 F10500
G1 X162.327 Y161.728
G1 Z0.2
G1 E0.5 F1800
G1 F3000
G1 X162.342 Y147.746 E0.65233
G1 X162.297 Y147.126 E0.02901
G1 X162.154 Y146.468 E0.03141
G1 X161.94 Y145.898 E0.02842
G1 X161.573 Y145.061 E0.04263
G1 X161.428 Y144.651 E0.02028
G1 X161.309 Y144.233 E0.02029
G1 X161.22 Y143.821 E0.01967
G1 X161.162 Y143.421 E0.01885
G1 X161.133 Y143.04 E0.01783
G1 X161.134 Y142.683 E0.01663
G1 X161.165 Y142.325 E0.01679
G1 X161.242 Y141.724 E0.02825
G1 X161.574 Y141.672 E0.01566
G1 X161.786 Y142.116 E0.02298
G1 X163.003 Y146.676 E0.22017
G1 X162.988 Y161.158 E0.67564
G1 X162.676 Y161.808 E0.03362
G1 X162.385 Y161.742 E0.01393
G1 X162.451 Y162.022 F10500
;TYPE:Gap fill
;WIDTH:0.804698
G1 F2958
G1 X162.418 Y162.152 E0.0085
;WIDTH:0.739811
G1 X162.385 Y162.282 E0.00778
G1 X162.364 Y162.357 E0.00451
