; generated by SuperSlicer 2.4 on 2023-02-16 at 20:15:51 UTC


;
;

;
;
; 

; external perimeters extrusion width = 0.42mm
; perimeters extrusion width = 0.46mm
; infill extrusion width = 0.44mm
; solid infill extrusion width = 0.46mm
; top infill extrusion width = 0.44mm
; support material extrusion width = 0.40mm
; first layer extrusion width = 0.60mm

; external perimeters extrusion width = 0.42mm
; perimeters extrusion width = 0.46mm
; infill extrusion width = 0.44mm
; solid infill extrusion width = 0.46mm
; top infill extrusion width = 0.44mm
; support material extrusion width = 0.40mm
; first layer extrusion width = 0.60mm

; object:{"name":"Tap_Magnet_Left_r2","id":"Tap_Magnet_Left_r2.stl id:0 copy 0","object_center":[152.376431,181.149599,0.000000],"boundingbox_center":[152.376431,181.149599,4.812913],"boundingbox_size":[10.549774,10.244202,9.625826]}
; object:{"name":"Tap_Magnet_Left_r2","id":"Tap_Magnet_Left_r2.stl id:0 copy 1","object_center":[150.712475,115.822674,0.000000],"boundingbox_center":[150.712475,115.822674,4.812913],"boundingbox_size":[10.549774,10.244202,9.625826]}
; object:{"name":"Voron Sticky Tap","id":"Voron Sticky Tap.stl id:1 copy 0","object_center":[150.000000,148.500000,0.000000],"boundingbox_center":[150.000000,148.500000,5.969000],"boundingbox_size":[51.310001,57.529999,11.938000]}
; plater:{"center":[150.000000,148.486137,0.000000],"boundingbox_center":[150.000000,148.486137,5.969000],"boundingbox_size":[51.310001,75.571127,11.938000]}

;TYPE:Custom
M104 S0 ; Stops SuperSlicer from sending temp waits separately


; Pre-Processed for Cancel-Object support by preprocess_cancellation v0.2.0
; 3 known objects
EXCLUDE_OBJECT_DEFINE NAME=Tap_Magnet_Left_r2_stl_id_0_copy_0 CENTER=152.393,181.235 POLYGON=[[147.341,176.253],[147.341,186.055],[157.412,186.055],[157.412,176.253]]
EXCLUDE_OBJECT_DEFINE NAME=Voron_Sticky_Tap_stl_id_1_copy_0 CENTER=150.098,146.290 POLYGON=[[124.499,119.946],[124.499,177.055],[175.507,177.055],[175.507,119.946]]
EXCLUDE_OBJECT_DEFINE NAME=Tap_Magnet_Left_r2_stl_id_0_copy_1 CENTER=150.727,115.897 POLYGON=[[145.677,110.926],[145.677,120.729],[155.748,120.729],[155.748,110.926]]

M140 S0

print_start EXTRUDER=245 BED=85 CHAMBER=0
M107
G21 ; set units to millimeters
G90 ; use absolute coordinates
M83 ; use relative distances for extrusion
; Filament gcode
;_TOOLCHANGE 0
M107
;LAYER_CHANGE
;Z:0.2
;HEIGHT:0.2
TIMELAPSE_TAKE_FRAME
;BEFORE_LAYER_CHANGE
;0.2


G1 Z0.2 F12000
;AFTER_LAYER_CHANGE
;0.2
G92 E0
G1 E-0.4 F2700
G1 Z0.7 F12000
M204 S1000
G1 X123.619 Y117.555
G1 Z0.2
G1 E0.4 F2700
;TYPE:Skirt
;WIDTH:0.44
G1 F1800
G1 X122.432 Y119.734 E0.08193
G1 X119.555 Y126.774 E0.25111
G1 X119.428 Y127.223 E0.0154
G1 X119.249 Y128.469 E0.04157
G1 X119.259 Y144.049 E0.5144
G1 X122.288 Y172.248 E0.9364
G1 X122.557 Y173.071 E0.02859
G1 X127.141 Y181.013 E0.30276
G1 X128.114 Y181.884 E0.04311
G1 X146.788 Y190.083 E0.67339
G1 X147.302 Y190.234 E0.01769
G1 X152.894 Y191.121 E0.18695
G1 X153.973 Y191.008 E0.03582
G1 X157.609 Y189.595 E0.1288
G1 X171.982 Y181.808 E0.53975
G1 X172.799 Y181.013 E0.03763
G1 X177.383 Y173.071 E0.30275
G1 X177.651 Y172.252 E0.02846
G1 X180.751 Y143.89 E0.94202
G1 X180.751 Y128.631 E0.50382
G1 X180.681 Y127.817 E0.02697
G1 X180.263 Y126.331 E0.05097
G1 X177.512 Y119.721 E0.23638
G1 X176.35 Y117.591 E0.08011
G1 X175.547 Y116.78 E0.03768
G1 X156.439 Y105.975 E0.7248
G1 X155.189 Y105.715 E0.04215
G1 X145.915 Y106.687 E0.30786
G1 X145.237 Y106.877 E0.02327
G1 X124.557 Y116.674 E0.75554
G1 X123.663 Y117.514 E0.04049
G1 X123.967 Y117.747 F12000
G1 F1800
G1 X122.8 Y119.884 E0.0804
G1 X119.923 Y126.924 E0.25111
G1 X119.646 Y128.469 E0.05182
G1 X119.654 Y144.011 E0.51314
G1 X122.683 Y172.205 E0.93626
G1 X122.901 Y172.873 E0.02317
G1 X127.485 Y180.814 E0.30276
G1 X128.273 Y181.52 E0.03494
G1 X146.947 Y189.72 E0.67339
G1 X147.364 Y189.842 E0.01434
G1 X152.956 Y190.729 E0.18695
G1 X153.831 Y190.638 E0.02903
G1 X157.42 Y189.246 E0.1271
G1 X171.793 Y181.458 E0.53975
G1 X172.455 Y180.814 E0.0305
G1 X177.039 Y172.873 E0.30275
G1 X177.256 Y172.209 E0.02306
G1 X180.354 Y143.89 E0.94059
G1 X180.354 Y128.631 E0.50382
G1 X180.286 Y127.855 E0.0257
G1 X179.896 Y126.483 E0.04708
G1 X177.145 Y119.874 E0.23638
G1 X176.002 Y117.783 E0.07866
G1 X175.352 Y117.126 E0.03054
G1 X156.243 Y106.321 E0.7248
G1 X155.23 Y106.11 E0.03417
G1 X145.957 Y107.082 E0.30786
G1 X145.407 Y107.236 E0.01886
G1 X124.727 Y117.033 E0.75554
G1 X124.011 Y117.706 E0.03244
G1 E-0.4 F2700
G1 Z0.7 F12000
; acceleration to travel
M204 S1500
G1 X125.057 Y118.642
; decel to extrusion
M204 S1000
G1 X125.755 Y119.266
; end travel
G1 Z0.2
G1 E0.4 F2700
;WIDTH:0.604
G1 F1800
G1 X126.118 Y118.99 E0.02126
G1 X126.571 Y118.766 E0.0236
G1 X128.997 Y118.113 E0.11717
G1 X130.691 Y117.804 E0.08038
G1 X131.447 Y117.714 E0.03552
G1 X134.691 Y117.514 E0.15161
G1 X135.163 Y117.512 E0.02203
G1 X136.871 Y117.614 E0.07982
G1 X138.982 Y117.888 E0.09932
G1 X139.418 Y118.036 E0.02148
G1 X140.147 Y118.413 E0.03828
G1 X140.533 Y118.731 E0.02336
G1 X140.786 Y119.014 E0.01769
G1 X141.005 Y119.353 E0.01881
G1 X141.188 Y119.791 E0.02215
G1 X141.289 Y120.259 E0.02237
G1 X141.291 Y121.016 E0.03528
G1 X141.205 Y121.454 E0.02084
G1 X140.986 Y121.987 E0.02689
G1 X139.611 Y123.963 E0.1123
G1 X160.031 Y123.959 E0.95266
G1 X158.752 Y122.123 E0.1044
G1 X158.519 Y121.51 E0.03062
G1 X158.452 Y120.993 E0.0243
G1 X158.507 Y120.397 E0.02794
G1 X158.736 Y119.741 E0.03238
G1 X159.131 Y119.071 E0.03629
G1 X159.463 Y118.692 E0.02352
G1 X159.798 Y118.419 E0.02015
G1 X160.48 Y118.05 E0.0362
G1 X160.936 Y117.898 E0.02241
G1 X162.325 Y117.686 E0.06555
G1 X163.75 Y117.559 E0.06674
G1 X165.563 Y117.512 E0.08463
G1 X167.331 Y117.58 E0.08253
G1 X170.087 Y117.944 E0.12972
G1 X172.006 Y118.368 E0.09167
G1 X173.438 Y118.79 E0.06965
G1 X173.832 Y118.991 E0.02066
G1 X174.213 Y119.284 E0.02239
G1 X174.615 Y119.765 E0.02927
G1 X174.936 Y120.394 E0.03294
G1 X175.095 Y121.07 E0.0324
G1 X175.101 Y124.772 E0.17272
G1 X175.383 Y124.877 E0.01402
G1 X176.118 Y125.33 E0.04028
G1 X177.346 Y126.541 E0.08046
G1 X177.848 Y127.306 E0.04267
G1 X177.993 Y127.663 E0.01801
G1 X178.137 Y128.237 E0.0276
G1 X178.18 Y128.727 E0.02295
G1 X178.179 Y143.751 E0.70091
G1 X178.093 Y144.376 E0.02947
G1 X177.971 Y144.806 E0.02085
G1 X177.632 Y145.502 E0.03608
G1 X177.227 Y146.013 E0.03046
G1 X176.113 Y147.093 E0.07237
G1 X175.38 Y147.545 E0.04018
G1 X175.097 Y147.649 E0.01409
G1 X175.083 Y171.464 E1.11103
G1 X175.054 Y171.666 E0.00953
G1 X174.843 Y172.33 E0.0325
G1 X171.309 Y178.452 E0.32979
G1 X170.795 Y178.979 E0.03432
G1 X170.733 Y179.026 E0.00368
G1 X170.212 Y179.314 E0.02773
G1 X169.576 Y179.482 E0.03069
G1 X165.954 Y179.49 E0.16898
G1 X165.303 Y179.348 E0.03111
G1 X164.78 Y179.094 E0.0271
G1 X159.933 Y175.532 E0.28065
G1 X157.473 Y175.501 E0.11478
G1 X159.759 Y181.463 E0.2979
G1 X159.843 Y182.264 E0.0376
G1 X159.749 Y182.822 E0.02643
G1 X159.574 Y183.274 E0.02259
G1 X159.49 Y183.423 E0.00799
G1 X156.633 Y186.97 E0.21248
G1 X155.862 Y187.531 E0.04447
G1 X153.654 Y188.377 E0.11034
G1 X152.99 Y188.491 E0.03139
G1 X152.735 Y188.483 E0.01191
G1 X149.174 Y187.929 E0.16814
G1 X148.583 Y187.696 E0.02964
G1 X148.055 Y187.301 E0.03078
G1 X147.906 Y187.147 E0.00998
G1 X147.546 Y186.617 E0.02992
G1 X144.976 Y179.891 E0.3359
G1 X144.909 Y179.161 E0.0342
G1 X145.004 Y178.603 E0.02643
G1 X145.199 Y178.11 E0.02471
G1 X145.286 Y177.968 E0.00775
G1 X147.323 Y175.439 E0.15152
G1 X140.007 Y175.532 E0.34137
G1 X135.16 Y179.094 E0.28065
G1 X134.7 Y179.325 E0.02399
G1 X134.055 Y179.482 E0.03101
G1 X130.353 Y179.48 E0.17269
G1 X129.711 Y179.307 E0.03104
G1 X129.201 Y179.022 E0.02725
G1 X128.631 Y178.452 E0.0376
G1 X125.084 Y172.297 E0.33143
G1 X124.915 Y171.814 E0.02387
G1 X124.86 Y171.499 E0.01493
G1 X124.848 Y147.627 E1.11368
G1 X124.634 Y147.571 E0.01033
G1 X124.052 Y147.271 E0.03053
G1 X123.609 Y146.909 E0.0267
G1 X122.609 Y145.882 E0.06686
G1 X122.152 Y145.174 E0.03934
G1 X122.011 Y144.828 E0.01743
G1 X121.861 Y144.234 E0.02855
G1 X121.82 Y143.753 E0.02252
G1 X121.83 Y128.486 E0.7123
G1 X122.013 Y127.594 E0.04249
G1 X122.373 Y126.852 E0.03845
G1 X122.77 Y126.349 E0.0299
G1 X123.772 Y125.37 E0.06536
G1 X124.353 Y124.98 E0.03263
G1 X124.736 Y124.803 E0.01969
G1 X124.848 Y124.769 E0.00546
G1 X124.856 Y121.049 E0.17353
G1 X125.052 Y120.295 E0.03637
G1 X125.38 Y119.695 E0.03188
G1 X125.715 Y119.311 E0.02379
G1 X126.118 Y119.694 F12000
G1 F1800
G1 X126.435 Y119.454 E0.01853
G1 X126.791 Y119.283 E0.01843
G1 X129.13 Y118.658 E0.11298
G1 X130.783 Y118.357 E0.07838
G1 X131.505 Y118.272 E0.03392
G1 X134.717 Y118.075 E0.15012
G1 X135.156 Y118.074 E0.02047
G1 X136.808 Y118.172 E0.07724
G1 X138.881 Y118.44 E0.09751
G1 X139.178 Y118.544 E0.01465
G1 X139.861 Y118.898 E0.03592
G1 X140.131 Y119.123 E0.01638
G1 X140.331 Y119.343 E0.01386
G1 X140.498 Y119.594 E0.01408
G1 X140.66 Y119.982 E0.0196
G1 X140.733 Y120.343 E0.01722
G1 X140.734 Y120.939 E0.02781
G1 X140.673 Y121.273 E0.01585
G1 X140.507 Y121.693 E0.02108
G1 X138.796 Y124.151 E0.13971
G1 X138.796 Y124.498 E0.01618
G1 X138.822 Y124.524 E0.00171
G1 X161.105 Y124.52 E1.03958
G1 X159.232 Y121.831 E0.15289
G1 X159.07 Y121.4 E0.02149
G1 X159.014 Y121.006 E0.01859
G1 X159.05 Y120.544 E0.02161
G1 X159.235 Y119.999 E0.02685
G1 X159.572 Y119.418 E0.03133
G1 X159.841 Y119.108 E0.01918
G1 X160.09 Y118.899 E0.01513
G1 X160.725 Y118.556 E0.03367
G1 X161.087 Y118.439 E0.01775
G1 X162.4 Y118.242 E0.06196
G1 X163.791 Y118.119 E0.06513
G1 X165.551 Y118.073 E0.08216
G1 X167.271 Y118.138 E0.08027
G1 X169.978 Y118.495 E0.12742
G1 X171.875 Y118.913 E0.09065
G1 X173.253 Y119.32 E0.06699
G1 X173.549 Y119.476 E0.01561
G1 X173.844 Y119.707 E0.0175
G1 X174.13 Y120.049 E0.02078
G1 X174.42 Y120.617 E0.02979
G1 X174.541 Y121.161 E0.02599
G1 X174.54 Y125.192 E0.18805
G1 X174.652 Y125.21 E0.0053
G1 X175.114 Y125.37 E0.02282
G1 X175.795 Y125.791 E0.03734
G1 X176.929 Y126.919 E0.07461
G1 X177.339 Y127.544 E0.0349
G1 X177.453 Y127.82 E0.01394
G1 X177.587 Y128.352 E0.02557
G1 X177.619 Y128.738 E0.0181
G1 X177.618 Y143.731 E0.69946
G1 X177.54 Y144.28 E0.02585
G1 X177.455 Y144.583 E0.01471
G1 X177.142 Y145.228 E0.03343
G1 X176.823 Y145.624 E0.02374
G1 X175.792 Y146.632 E0.06725
G1 X175.112 Y147.051 E0.03727
G1 X174.645 Y147.211 E0.02306
G1 X174.536 Y147.229 E0.00515
G1 X174.522 Y171.443 E1.1297
G1 X174.511 Y171.522 E0.00371
G1 X174.341 Y172.077 E0.02706
G1 X170.841 Y178.14 E0.3266
G1 X170.427 Y178.554 E0.02737
G1 X169.973 Y178.805 E0.02418
G1 X169.474 Y178.929 E0.02397
G1 X165.986 Y178.929 E0.16275
G1 X165.46 Y178.808 E0.02519
G1 X165.092 Y178.628 E0.0191
G1 X160.12 Y174.973 E0.28789
G1 X156.475 Y174.927 E0.17008
G1 X156.513 Y174.96 E0.00238
G1 X156.72 Y175.209 E0.01508
G1 X156.836 Y175.407 E0.01071
G1 X159.222 Y181.629 E0.31092
G1 X159.284 Y182.212 E0.02736
G1 X159.215 Y182.648 E0.02056
G1 X159.059 Y183.05 E0.02014
G1 X159.017 Y183.121 E0.00383
G1 X156.219 Y186.589 E0.20789
G1 X155.626 Y187.02 E0.0342
G1 X153.478 Y187.844 E0.10733
G1 X152.976 Y187.93 E0.02379
G1 X152.803 Y187.926 E0.00805
G1 X149.29 Y187.379 E0.16587
G1 X148.888 Y187.223 E0.02011
G1 X148.408 Y186.865 E0.02795
G1 X148.353 Y186.808 E0.00372
G1 X148.057 Y186.384 E0.02411
G1 X145.53 Y179.796 E0.32919
G1 X145.469 Y179.213 E0.02736
G1 X145.538 Y178.777 E0.02055
G1 X145.694 Y178.375 E0.02013
G1 X145.736 Y178.304 E0.00382
G1 X147.924 Y175.588 E0.16275
G1 X148.22 Y175.335 E0.01814
G1 X148.616 Y175.121 E0.021
G1 X148.98 Y175.016 E0.01766
G1 X150.546 Y174.852 E0.07349
G1 X149.97 Y174.845 E0.02689
G1 X139.82 Y174.973 E0.47358
G1 X134.848 Y178.628 E0.28789
G1 X134.48 Y178.808 E0.0191
G1 X134.021 Y178.921 E0.02206
G1 X130.393 Y178.919 E0.16927
G1 X129.899 Y178.777 E0.02397
G1 X129.513 Y178.554 E0.02077
G1 X129.099 Y178.14 E0.02737
G1 X125.605 Y172.087 E0.32605
G1 X125.452 Y171.65 E0.02159
G1 X125.421 Y171.474 E0.00835
G1 X125.409 Y147.177 E1.13355
G1 X124.855 Y147.054 E0.02646
G1 X124.382 Y146.816 E0.02469
G1 X123.999 Y146.506 E0.02301
G1 X123.03 Y145.511 E0.06478
G1 X122.66 Y144.936 E0.03191
G1 X122.549 Y144.667 E0.01355
G1 X122.418 Y144.163 E0.02434
G1 X122.381 Y143.742 E0.01971
G1 X122.391 Y128.515 E0.71037
G1 X122.555 Y127.745 E0.03675
G1 X122.862 Y127.129 E0.0321
G1 X123.176 Y126.738 E0.02341
G1 X124.109 Y125.82 E0.06106
G1 X124.609 Y125.48 E0.02822
G1 X124.95 Y125.323 E0.01751
G1 X125.408 Y125.198 E0.02216
G1 X125.417 Y121.088 E0.19177
G1 X125.584 Y120.475 E0.02964
G1 X125.826 Y120.038 E0.02328
G1 X126.079 Y119.74 E0.01825
G1 X126.486 Y120.119 F12000
G1 F1800
G1 X126.71 Y119.944 E0.01327
G1 X126.963 Y119.818 E0.01317
G1 X129.264 Y119.203 E0.11113
G1 X130.875 Y118.911 E0.07637
G1 X131.548 Y118.832 E0.0316
G1 X134.743 Y118.635 E0.14937
G1 X135.131 Y118.634 E0.01811
G1 X136.747 Y118.729 E0.07551
G1 X138.728 Y118.981 E0.09315
G1 X138.942 Y119.053 E0.01054
G1 X139.529 Y119.351 E0.0307
G1 X139.729 Y119.515 E0.01208
G1 X139.9 Y119.703 E0.01185
G1 X140.013 Y119.877 E0.00966
G1 X140.129 Y120.166 E0.01454
G1 X140.177 Y120.42 E0.01206
G1 X140.173 Y120.911 E0.02291
G1 X140.138 Y121.1 E0.009
G1 X140.026 Y121.402 E0.01501
G1 X138.235 Y123.975 E0.14628
G1 X138.235 Y124.731 E0.03524
G1 X138.59 Y125.085 E0.02339
G1 X161.479 Y125.081 E1.06786
G1 X161.833 Y124.727 E0.02335
G1 X161.833 Y124.581 E0.00682
G1 X159.742 Y121.595 E0.17009
G1 X159.621 Y121.288 E0.01535
G1 X159.574 Y120.959 E0.0155
G1 X159.605 Y120.63 E0.01544
G1 X159.734 Y120.257 E0.01839
G1 X160.043 Y119.725 E0.02874
G1 X160.246 Y119.497 E0.01423
G1 X160.424 Y119.35 E0.01076
G1 X160.964 Y119.064 E0.02852
G1 X161.231 Y118.982 E0.01305
G1 X162.474 Y118.798 E0.05859
G1 X163.814 Y118.68 E0.06277
G1 X165.539 Y118.634 E0.08052
G1 X167.21 Y118.696 E0.07801
G1 X169.893 Y119.049 E0.12623
G1 X171.745 Y119.459 E0.08849
G1 X173.064 Y119.849 E0.06419
G1 X173.256 Y119.956 E0.01024
G1 X173.472 Y120.128 E0.01287
G1 X173.648 Y120.338 E0.01278
G1 X173.883 Y120.781 E0.02339
G1 X173.98 Y121.194 E0.01978
G1 X173.979 Y125.693 E0.20992
G1 X174.505 Y125.753 E0.02468
G1 X174.848 Y125.865 E0.01685
G1 X175.473 Y126.251 E0.03425
G1 X176.511 Y127.294 E0.06868
G1 X176.833 Y127.786 E0.02742
G1 X176.916 Y127.981 E0.00989
G1 X177.03 Y128.423 E0.02127
G1 X177.058 Y128.75 E0.01534
G1 X177.057 Y143.711 E0.69796
G1 X176.988 Y144.182 E0.02223
G1 X176.939 Y144.362 E0.00868
G1 X176.652 Y144.952 E0.03061
G1 X176.4 Y145.255 E0.01839
G1 X175.471 Y146.171 E0.06088
G1 X174.846 Y146.556 E0.03423
G1 X174.499 Y146.669 E0.01705
G1 X173.975 Y146.726 E0.02458
G1 X173.961 Y171.403 E1.15128
G1 X173.838 Y171.825 E0.02051
G1 X170.374 Y177.827 E0.32331
G1 X170.114 Y178.087 E0.01713
G1 X169.792 Y178.273 E0.01734
G1 X169.438 Y178.368 E0.01713
G1 X166.02 Y178.368 E0.15946
G1 X165.624 Y178.271 E0.01902
G1 X165.405 Y178.161 E0.0114
G1 X160.307 Y174.414 E0.29519
G1 X149.97 Y174.284 E0.48231
G1 X139.633 Y174.414 E0.48231
G1 X134.535 Y178.161 E0.29519
G1 X134.316 Y178.271 E0.0114
G1 X133.92 Y178.368 E0.01902
G1 X130.502 Y178.368 E0.15946
G1 X130.148 Y178.273 E0.01713
G1 X129.826 Y178.087 E0.01734
G1 X129.566 Y177.827 E0.01713
G1 X126.105 Y171.831 E0.32302
G1 X125.992 Y171.494 E0.01656
G1 X125.979 Y171.409 E0.004
G1 X125.97 Y146.719 E1.15192
G1 X125.069 Y146.534 E0.0429
G1 X124.71 Y146.36 E0.01864
G1 X124.388 Y146.101 E0.01925
G1 X123.485 Y145.181 E0.06012
G1 X123.167 Y144.693 E0.02719
G1 X123.086 Y144.503 E0.00966
G1 X122.974 Y144.088 E0.02001
G1 X122.942 Y143.729 E0.01682
G1 X122.947 Y128.598 E0.70594
G1 X123.074 Y127.962 E0.03027
G1 X123.35 Y127.408 E0.02886
G1 X123.599 Y127.106 E0.01827
G1 X124.447 Y126.268 E0.05563
G1 X124.87 Y125.977 E0.02395
G1 X125.121 Y125.857 E0.01297
G1 X125.656 Y125.712 E0.02584
G1 X125.969 Y125.699 E0.01465
G1 X125.969 Y121.193 E0.21021
G1 X126.093 Y120.715 E0.02305
G1 X126.303 Y120.334 E0.02031
G1 X126.447 Y120.165 E0.01037
G1 X126.854 Y120.544 F12000
G1 F1800
G1 X127.034 Y120.403 E0.01063
G1 X127.135 Y120.353 E0.00529
G1 X129.398 Y119.748 E0.10927
G1 X130.966 Y119.465 E0.07435
G1 X131.59 Y119.391 E0.0293
G1 X134.769 Y119.196 E0.14863
G1 X135.107 Y119.195 E0.01575
G1 X136.687 Y119.287 E0.07383
G1 X138.58 Y119.523 E0.08902
