; generated by SuperSlicer 2.5.59 on 2023-04-10 at 01:55:24 UTC


;
;

;
;
; 

; external perimeters extrusion width = 0.45mm
; perimeters extrusion width = 0.45mm
; infill extrusion width = 0.45mm
; solid infill extrusion width = 0.45mm
; top infill extrusion width = 0.43mm
; support material extrusion width = 0.42mm
; first layer extrusion width = 0.60mm

; object:{"name":"Tap_Upper_PCB_r2","id":"Tap_Upper_PCB_r2.stl id:0 copy 0","object_center":[150.000000,148.500000,0.000000],"boundingbox_center":[150.000000,148.500000,8.100163],"boundingbox_size":[45.801010,21.309380,16.200327]}
EXCLUDE_OBJECT_DEFINE NAME=Tap_Upper_PCB_r2_stl_id_0_copy_0 CENTER=150.000000,148.500000 POLYGON=[[127.099488,137.845312],[172.900480,137.845312],[172.900496,157.954688],[172.870416,158.221712],[172.781664,158.475360],[172.638704,158.702880],[172.448688,158.892896],[172.221168,159.035856],[171.967536,159.124608],[171.700496,159.154688],[128.299488,159.154544],[128.032456,159.124448],[127.778824,159.035712],[127.551304,158.892752],[127.361296,158.702736],[127.218320,158.475200],[127.129576,158.221552],[127.099488,157.954544],[127.099488,137.845312]]
; plater:{"center":[150.000000,148.500000,0.000000],"boundingbox_center":[150.000000,148.500000,8.100163],"boundingbox_size":[45.801010,21.309380,16.200327]}

;TYPE:Custom
SET_PRINT_STATS_INFO TOTAL_LAYER=81

M104 S0 ; Stops SuperSlicer from sending temp waits separately

M109 S0

M140 S0

print_start EXTRUDER=255 BED=105 CHAMBER=0
M107
G21 ; set units to millimeters
G90 ; use absolute coordinates
M82 ; use absolute distances for extrusion
G92 E0
; Filament gcode
;_TOOLCHANGE 0
M107
;LAYER_CHANGE
;Z:0.2
;HEIGHT:0.2
TIMELAPSE_TAKE_FRAME
;BEFORE_LAYER_CHANGE
;0.2


G1 Z0.2 F8700
SET_PRINT_STATS_INFO CURRENT_LAYER=1
;AFTER_LAYER_CHANGE
;0.2
G1 E-0.8 F3000
G1 Z0.7 F8700
G1 X120.073 Y133.412
G1 Z0.2
G1 E0 F3000
;TYPE:Skirt
;WIDTH:0.54
G1 F2250
G1 X119.657 Y134.498 E0.0481
G1 X119.357 Y146.487 E0.54375
G1 X119.357 Y158.292 E1.03168
G1 X119.598 Y160.141 E1.10875
G1 X120.303 Y162.022 E1.1918
G1 X121.408 Y163.7 E1.27483
G1 X122.859 Y165.089 E1.35787
G1 X124.584 Y166.121 E1.44092
G1 X126.113 Y166.656 E1.50791
G1 X127.767 Y166.886 E1.57693
G1 X172.037 Y166.897 E3.40672
G1 X173.887 Y166.656 E3.4838
G1 X175.768 Y165.951 E3.56683
G1 X177.446 Y164.846 E3.64987
G1 X178.835 Y163.395 E3.73291
G1 X179.867 Y161.671 E3.81595
G1 X180.489 Y159.76 E3.899
G1 X180.644 Y158.286 E3.96025
G1 X180.631 Y146.546 E4.44553
G1 X180.343 Y134.5 E4.94353
G1 X179.697 Y133.188 E5.00398
G1 X178.6 Y132.799 E5.05208
G1 X121.4 Y132.799 E7.41633
G1 X120.128 Y133.386 E7.47423
G1 X120.561 Y133.621 F8700
G1 F2250
G1 X120.154 Y134.511 E7.51465
G1 X119.854 Y146.499 E8.0103
G1 X119.854 Y158.292 E8.49772
G1 X120.067 Y159.976 E8.56791
G1 X120.603 Y161.506 E8.63491
G1 X121.586 Y163.13 E8.71337
G1 X123.124 Y164.668 E8.80327
G1 X124.748 Y165.651 E8.88173
G1 X126.278 Y166.187 E8.94872
G1 X127.823 Y166.392 E9.01316
G1 X172.037 Y166.4 E10.84065
G1 X173.722 Y166.187 E10.91085
G1 X175.252 Y165.652 E10.97784
G1 X176.876 Y164.668 E11.0563
G1 X178.24 Y163.348 E11.13476
G1 X179.397 Y161.507 E11.22466
G1 X179.995 Y159.705 E11.30313
G1 X180.146 Y158.287 E11.36205
G1 X180.134 Y146.518 E11.84851
G1 X179.846 Y134.512 E12.34487
G1 X179.5 Y133.68 E12.3821
G1 X178.6 Y133.296 E12.42252
G1 X121.4 Y133.296 E14.78678
G1 X120.617 Y133.6 E14.82148
G1 X121.095 Y134.09 F8700
G1 F2250
G1 X120.651 Y134.523 E14.84711
G1 X120.351 Y146.53 E15.34354
G1 X120.351 Y158.292 E15.82966
G1 X120.536 Y159.812 E15.89298
G1 X121.072 Y161.342 E15.95998
G1 X122.007 Y162.866 E16.03386
G1 X123.388 Y164.247 E16.11462
G1 X124.912 Y165.182 E16.1885
G1 X126.442 Y165.718 E16.25549
G1 X127.879 Y165.898 E16.31535
G1 X172.037 Y165.903 E18.14054
G1 X173.558 Y165.718 E18.20387
G1 X175.088 Y165.182 E18.27085
G1 X176.612 Y164.247 E18.34473
G1 X177.889 Y162.997 E18.41862
G1 X178.928 Y161.342 E18.49938
G1 X179.501 Y159.649 E18.57326
G1 X179.649 Y158.288 E18.62987
G1 X179.637 Y146.547 E19.11515
G1 X179.349 Y134.524 E19.61221
G1 X178.6 Y133.793 E19.65544
G1 X121.4 Y133.793 E22.01969
G1 X121.138 Y134.048 E22.03478
G92 E0
G1 E-0.8 F3000
G1 Z0.7 F8700
G1 X167.541 Y151.85
G1 Z0.2
G1 E0 F3000
;WIDTH:0.6
G1 F2250
G1 X167.702 Y151.701 E0.01014
G1 X167.98 Y151.522 E0.02545
G1 X168.094 Y151.477 E0.03114
G1 X168.253 Y151.415 E0.03904
G1 X168.558 Y151.365 E0.05336
G1 X168.872 Y151.387 E0.06793
G1 X168.976 Y151.415 E0.07293
G1 X169.058 Y151.437 E0.07688
G1 X169.209 Y151.502 E0.08449
G1 X169.242 Y151.516 E0.08616
G1 X169.518 Y151.694 E0.10136
G1 X169.672 Y151.849 E0.11148
G1 X169.778 Y151.955 E0.11843
G1 X170.006 Y152.286 E0.13704
G1 X170.179 Y152.682 E0.15706
G1 X170.287 Y153.117 E0.17784
G1 X170.319 Y153.411 E0.19152
G1 X170.318 Y153.613 E0.20088
G1 X170.317 Y153.812 E0.21009
G1 X168.924 Y154.049 E0.27558
G1 X167.733 Y154.252 E0.33153
G1 X167.614 Y153.967 E0.34586
G1 X167.439 Y152.631 E0.40828
G1 X167.496 Y152.191 E0.4288
G1 X167.533 Y151.909 E0.44199
G1 X169.388 Y151.643 F8700
G1 F2250
G1 X168.512 Y151.643 E0.48255
G1 X168.324 Y151.674 E0.49137
G1 X168.191 Y151.726 E0.49797
G1 X168.102 Y151.761 E0.50241
G1 X167.867 Y151.913 E0.51539
G1 X167.794 Y151.98 E0.51999
G1 X167.765 Y152.2 E0.53026
G1 X169.623 Y152.2 E0.61632
G1 X169.771 Y152.416 E0.62845
G1 X169.92 Y152.757 E0.64569
G1 X167.725 Y152.757 E0.74736
G1 X167.798 Y153.314 E0.77338
G1 X170.04 Y153.314 E0.8772
G1 X170.051 Y153.425 E0.88234
G1 X170.051 Y153.586 E0.88981
G1 X168.879 Y153.786 E0.94488
G1 X168.376 Y153.872 E0.96852
G1 X167.63 Y153.872 E1.00306
G92 E0
G1 E-0.8 F3000
G1 Z0.7 F8700
G1 X172.154 Y153.499
G1 Z0.2
G1 E0 F3000
G1 F2250
G1 X172.644 Y152.988 E0.03281
G1 X172.879 Y152.742 E0.04854
G1 X172.879 Y147.505 E0.29113
G1 X173.937 Y147.644 E0.34054
G1 X175.181 Y148.16 E0.40296
G1 X176.251 Y148.98 E0.46538
G1 X177.071 Y150.05 E0.5278
G1 X177.587 Y151.294 E0.59022
G1 X177.647 Y151.751 E0.61154
G1 X177.882 Y152.319 E0.64003
G1 X178.058 Y153.655 E0.70245
G1 X177.932 Y154.613 E0.7472
G1 X177.882 Y154.991 E0.76487
G1 X177.366 Y156.236 E0.82729
G1 X176.546 Y157.305 E0.88971
G1 X175.477 Y158.125 E0.95213
G1 X174.232 Y158.641 E1.01455
G1 X174.106 Y158.658 E1.02043
G1 X172.96 Y158.809 E1.07397
G1 X173.034 Y158.597 E1.08435
G1 X173.144 Y158.284 E1.09971
G1 X173.179 Y157.97 E1.11434
G1 X173.174 Y153.325 E1.32951
G1 X172.451 Y153.448 E1.36349
G1 X172.213 Y153.489 E1.37467
G92 E0
G1 E-0.8 F3000
G1 Z0.7 F8700
G1 X173.144 Y158.368
G1 Z0.2
G1 E0 F3000
G1 F2250
G1 X174.192 Y158.368 E0.04855
G1 X175.342 Y157.892 E0.10622
G1 X175.447 Y157.811 E0.11236
G1 X173.446 Y157.811 E0.20504
G1 X173.446 Y157.254 E0.23084
G1 X176.173 Y157.254 E0.35719
G1 X176.355 Y157.114 E0.36782
G1 X176.676 Y156.697 E0.39219
G1 X173.445 Y156.697 E0.54182
G1 X173.445 Y156.14 E0.56763
G1 X177.103 Y156.14 E0.73709
G1 X177.133 Y156.101 E0.73936
G1 X177.347 Y155.583 E0.76534
G1 X173.444 Y155.583 E0.94616
G1 X173.443 Y155.026 E0.97196
G1 X177.578 Y155.026 E1.1635
G1 X177.622 Y154.921 E1.16874
G1 X177.667 Y154.578 E1.18478
G1 X177.681 Y154.469 E1.18988
G1 X173.443 Y154.469 E1.38621
G1 X173.442 Y153.912 E1.41201
G1 X177.754 Y153.912 E1.61176
G1 X177.788 Y153.655 E1.62375
G1 X177.749 Y153.355 E1.63779
G1 X173.442 Y153.355 E1.8373
G1 X173.441 Y153.008 E1.85334
G1 X172.933 Y153.095 E1.87723
G1 X172.925 Y153.081 E1.87798
G1 X173.146 Y152.85 E1.89278
G1 X173.146 Y152.798 E1.89521
G1 X177.675 Y152.798 E2.105
G1 X177.622 Y152.389 E2.12409
G1 X177.56 Y152.24 E2.13153
G1 X173.146 Y152.24 E2.33597
G1 X173.146 Y151.683 E2.36178
G1 X177.368 Y151.683 E2.55733
G1 X177.326 Y151.364 E2.57224
G1 X177.227 Y151.126 E2.58417
G1 X173.146 Y151.126 E2.77321
G1 X173.146 Y150.569 E2.79901
G1 X176.997 Y150.569 E2.97736
G1 X176.837 Y150.184 E2.99666
G1 X176.705 Y150.012 E3.00672
G1 X173.146 Y150.012 E3.17156
G1 X173.146 Y149.455 E3.19737
G1 X176.278 Y149.455 E3.34241
G1 X176.06 Y149.171 E3.35898
G1 X175.704 Y148.898 E3.37977
G1 X173.146 Y148.898 E3.49823
G1 X173.146 Y148.341 E3.52404
G1 X175.371 Y148.341 E3.6271
G92 E0
G1 E-0.8 F3000
G1 Z0.7 F8700
G1 X132.545 Y154.206
G1 Z0.2
G1 E0 F3000
G1 F2250
G1 X132.521 Y154.295 E0.00427
G1 X130.303 Y153.914 E0.10852
G1 X129.515 Y153.779 E0.14557
G1 X129.511 Y153.583 E0.15466
G1 X129.508 Y153.462 E0.16025
G1 X129.546 Y153.094 E0.17741
G1 X129.599 Y152.846 E0.18915
G1 X129.674 Y152.609 E0.20065
G1 X129.824 Y152.284 E0.21724
G1 X129.874 Y152.209 E0.2214
G1 X130.024 Y151.985 E0.23388
G1 X130.249 Y151.746 E0.24908
G1 X130.518 Y151.556 E0.26439
G1 X130.701 Y151.467 E0.27378
G1 X130.885 Y151.406 E0.28279
G1 X131.211 Y151.364 E0.29801
G1 X131.509 Y151.397 E0.31189
G1 X131.621 Y151.425 E0.31725
G1 X131.823 Y151.507 E0.32733
G1 X132.009 Y151.615 E0.33729
G1 X132.24 Y151.815 E0.35145
G1 X132.292 Y152.181 E0.36856
G1 X132.237 Y152.373 E0.37784
G1 X132.21 Y152.47 E0.38247
G1 X132.169 Y152.853 E0.40032
G1 X132.196 Y153.246 E0.41857
G1 X132.293 Y153.63 E0.43692
G1 X132.441 Y153.969 E0.45405
G1 X132.521 Y154.151 E0.46326
G92 E0
G1 E-0.8 F3000
G1 Z0.7 F8700
G1 X130.215 Y153.871
G1 Z0.2
G1 E0 F3000
G1 F2250
G1 X132.106 Y153.871 E0.08762
G1 X132.039 Y153.717 E0.0954
G1 X131.937 Y153.314 E0.11467
G1 X129.792 Y153.314 E0.21404
G1 X129.81 Y153.135 E0.22235
G1 X129.858 Y152.914 E0.23282
G1 X129.908 Y152.757 E0.24048
G1 X131.911 Y152.757 E0.33326
G1 X131.947 Y152.419 E0.349
G1 X131.98 Y152.3 E0.35469
G1 X132.009 Y152.2 E0.35955
G1 X130.202 Y152.2 E0.44325
G1 X130.233 Y152.153 E0.44587
G1 X130.425 Y151.949 E0.45881
G1 X130.655 Y151.786 E0.47187
G1 X130.801 Y151.715 E0.47942
G1 X130.945 Y151.668 E0.48641
G1 X131.142 Y151.642 E0.49562
G1 X131.998 Y151.642 E0.53525
G92 E0
G1 E-0.8 F3000
G1 Z0.7 F8700
G1 X127.833 Y153.49
G1 Z0.2
G1 E0 F3000
G1 F2250
G1 X126.821 Y153.317 E0.04757
G1 X126.821 Y157.97 E0.26312
G1 X126.856 Y158.284 E0.27775
G1 X127.037 Y158.801 E0.30312
G1 X125.763 Y158.633 E0.36263
G1 X124.519 Y158.118 E0.42505
G1 X123.449 Y157.297 E0.48747
G1 X122.629 Y156.228 E0.54989
G1 X122.113 Y154.983 E0.61231
G1 X122.024 Y154.307 E0.64393
G1 X121.938 Y153.647 E0.67473
G1 X122.093 Y152.47 E0.72974
G1 X122.113 Y152.311 E0.73715
G1 X122.629 Y151.066 E0.79957
G1 X123.449 Y149.997 E0.86199
G1 X124.519 Y149.177 E0.92441
G1 X125.763 Y148.661 E0.98683
G1 X126.413 Y148.576 E1.01718
G1 X126.798 Y148.416 E1.03649
G1 X127.121 Y148.374 E1.05157
G1 X127.121 Y152.747 E1.25417
G1 X127.792 Y153.447 E1.29907
G92 E0
G1 E-0.8 F3000
G1 Z0.7 F8700
G1 X126.8 Y158.031
G1 Z0.2
G1 E0 F3000
G1 F2250
G1 X125.009 Y158.031 E0.08295
G1 X124.653 Y157.884 E0.10078
G1 X124.119 Y157.474 E0.13196
G1 X126.554 Y157.474 E0.24472
G1 X126.554 Y156.917 E0.27052
G1 X123.495 Y156.917 E0.41221
G1 X123.067 Y156.36 E0.44473
G1 X126.554 Y156.36 E0.60622
G1 X126.554 Y155.803 E0.63202
G1 X122.742 Y155.803 E0.80856
G1 X122.512 Y155.246 E0.83649
G1 X126.554 Y155.246 E1.02372
G1 X126.554 Y154.689 E1.04952
G1 X122.344 Y154.689 E1.2445
G1 X122.289 Y154.272 E1.26399
G1 X122.271 Y154.132 E1.27052
G1 X126.554 Y154.132 E1.4689
G1 X126.554 Y153.575 E1.4947
G1 X122.217 Y153.575 E1.69559
G1 X122.29 Y153.018 E1.72161
G1 X127.01 Y153.018 E1.94022
G1 X126.854 Y152.855 E1.95066
G1 X126.854 Y152.461 E1.96893
G1 X122.363 Y152.461 E2.17692
G1 X122.374 Y152.381 E2.18063
G1 X122.572 Y151.903 E2.20458
G1 X126.854 Y151.903 E2.40292
G1 X126.854 Y151.346 E2.42872
G1 X122.802 Y151.346 E2.61637
G1 X122.863 Y151.201 E2.62366
G1 X123.179 Y150.789 E2.6477
G1 X126.854 Y150.789 E2.81793
G1 X126.854 Y150.232 E2.84373
G1 X123.606 Y150.232 E2.99416
G1 X123.64 Y150.188 E2.99675
G1 X124.308 Y149.675 E3.03576
G1 X126.854 Y149.675 E3.15366
G1 X126.854 Y149.118 E3.17946
G1 X124.733 Y149.118 E3.27769
G92 E0
G1 E-0.8 F3000
G1 Z0.7 F8700
G1 X167.475 Y140.263
G1 Z0.2
G1 E0 F3000
G1 F2250
G1 X167.614 Y139.206 E0.04941
G1 X168.13 Y137.961 E0.11183
G1 X168.95 Y136.892 E0.17425
G1 X170.02 Y136.072 E0.23667
G1 X171.264 Y135.556 E0.29909
G1 X172.6 Y135.38 E0.36151
G1 X173.937 Y135.556 E0.42393
G1 X175.181 Y136.072 E0.48635
G1 X176.251 Y136.892 E0.54877
G1 X177.071 Y137.961 E0.61119
G1 X177.587 Y139.206 E0.67361
G1 X177.762 Y140.542 E0.73603
G1 X177.636 Y141.5 E0.78078
G1 X177.587 Y141.878 E0.79845
G1 X177.071 Y143.123 E0.86087
G1 X176.251 Y144.192 E0.92329
G1 X175.181 Y145.012 E0.98571
G1 X173.937 Y145.528 E1.04813
G1 X172.879 Y145.667 E1.09754
G1 X172.879 Y140.263 E1.34785
G1 X167.535 Y140.263 E1.59538
G92 E0
G1 E-0.8 F3000
G1 Z0.7 F8700
G1 X174.112 Y135.659
G1 Z0.2
G1 E0 F3000
G1 F2250
G1 X172.533 Y135.659 E0.07312
G1 X171.334 Y135.816 E0.12913
G1 X170.37 Y136.216 E0.17746
G1 X174.831 Y136.216 E0.38406
G1 X175.047 Y136.305 E0.39489
G1 X175.656 Y136.773 E0.43047
G1 X169.545 Y136.773 E0.71355
G1 X169.141 Y137.083 E0.73713
G1 X168.951 Y137.33 E0.75156
G1 X176.25 Y137.33 E1.08962
G1 X176.677 Y137.887 E1.12214
G1 X168.524 Y137.887 E1.4998
G1 X168.364 Y138.096 E1.512
G1 X168.219 Y138.444 E1.52946
G1 X176.982 Y138.444 E1.93533
G1 X177.212 Y139.001 E1.96326
G1 X167.989 Y139.001 E2.39051
G1 X167.875 Y139.276 E2.40428
G1 X167.838 Y139.558 E2.41747
G1 X177.363 Y139.558 E2.85871
G1 X177.437 Y140.115 E2.88473
G1 X173.146 Y140.115 E3.08346
G1 X173.146 Y140.672 E3.10926
G1 X177.476 Y140.672 E3.3098
G1 X177.402 Y141.229 E3.33582
G1 X173.146 Y141.229 E3.53296
G1 X173.146 Y141.786 E3.55876
G1 X177.329 Y141.786 E3.7525
G1 X177.326 Y141.808 E3.75352
G1 X177.104 Y142.344 E3.78036
G1 X173.146 Y142.344 E3.96369
G1 X173.146 Y142.901 E3.9895
G1 X176.874 Y142.901 E4.16214
G1 X176.837 Y142.988 E4.16653
G1 X176.477 Y143.458 E4.19395
G1 X173.146 Y143.458 E4.34822
G1 X173.146 Y144.015 E4.37403
G1 X176.042 Y144.015 E4.50817
G1 X175.316 Y144.572 E4.55056
G1 X173.146 Y144.572 E4.65107
G1 X173.146 Y145.129 E4.67688
G1 X174.827 Y145.129 E4.75474
G92 E0
G1 E-0.8 F3000
G1 Z0.7 F8700
G1 X132.525 Y140.263
G1 Z0.2
G1 E0 F3000
G1 F2250
G1 X127.121 Y140.263 E0.25031
G1 X127.121 Y145.667 E0.50063
G1 X126.063 Y145.528 E0.55003
G1 X124.819 Y145.012 E0.61245
G1 X123.749 Y144.192 E0.67487
G1 X122.929 Y143.123 E0.73729
G1 X122.413 Y141.878 E0.79971
G1 X122.364 Y141.5 E0.81739
G1 X122.238 Y140.542 E0.86213
G1 X122.413 Y139.206 E0.92456
G1 X122.929 Y137.961 E0.98698
G1 X123.749 Y136.892 E1.0494
G1 X124.819 Y136.072 E1.11182
G1 X126.063 Y135.556 E1.17424
G1 X127.4 Y135.38 E1.23666
G1 X128.736 Y135.556 E1.29908
G1 X129.98 Y136.072 E1.3615
G1 X131.05 Y136.892 E1.42392
G1 X131.87 Y137.961 E1.48634
G1 X132.386 Y139.206 E1.54876
G1 X132.517 Y140.204 E1.59538
G92 E0
G1 E-0.8 F3000
G1 Z0.7 F8700
G1 X128.911 Y135.659
G1 Z0.2
G1 E0 F3000
G1 F2250
G1 X127.332 Y135.659 E0.07312
G1 X126.133 Y135.816 E0.12913
G1 X125.169 Y136.216 E0.17746
G1 X129.63 Y136.216 E0.38406
G1 X129.846 Y136.305 E0.39489
G1 X130.455 Y136.773 E0.43047
G1 X124.344 Y136.773 E0.71355
G1 X123.94 Y137.083 E0.73713
G1 X123.75 Y137.33 E0.75156
G1 X131.049 Y137.33 E1.08962
G1 X131.476 Y137.887 E1.12214
G1 X123.323 Y137.887 E1.4998
G1 X123.163 Y138.096 E1.512
G1 X123.018 Y138.444 E1.52946
G1 X131.781 Y138.444 E1.93533
G1 X132.011 Y139.001 E1.96326
G1 X122.788 Y139.001 E2.39051
G1 X122.674 Y139.276 E2.40428
G1 X122.637 Y139.558 E2.41747
G1 X132.162 Y139.558 E2.85871
G1 X132.22 Y139.996 E2.87916
G1 X126.854 Y139.996 E3.12774
G1 X126.854 Y140.115 E3.13326
G1 X122.563 Y140.115 E3.33199
G1 X122.507 Y140.542 E3.35193
G1 X122.524 Y140.672 E3.35801
G1 X126.854 Y140.672 E3.55855
G1 X126.854 Y141.229 E3.58435
G1 X122.598 Y141.229 E3.78149
G1 X122.629 Y141.465 E3.79249
G1 X122.671 Y141.786 E3.80751
G1 X126.854 Y141.786 E4.00125
G1 X126.854 Y142.344 E4.02706
G1 X122.896 Y142.344 E4.21039
G1 X123.126 Y142.901 E4.23832
G1 X126.854 Y142.901 E4.41097
G1 X126.854 Y143.458 E4.43677
G1 X123.523 Y143.458 E4.59105
G1 X123.94 Y144.001 E4.62279
G1 X123.958 Y144.015 E4.62381
G1 X126.854 Y144.015 E4.75795
G1 X126.854 Y144.572 E4.78376
G1 X124.684 Y144.572 E4.88427
G1 X124.953 Y144.779 E4.90002
G1 X125.799 Y145.129 E4.9424
G1 X127.093 Y145.129 E5.00236
M104 S255 ; set temperature
G92 E0
G1 E-0.8 F3000
G1 Z0.7 F8700
; printing object Tap_Upper_PCB_r2.stl id:0 copy 0
EXCLUDE_OBJECT_START NAME=Tap_Upper_PCB_r2_stl_id_0_copy_0
G1 X138.756 Y155.057
G1 Z0.2
G1 E0 F3000
;TYPE:External perimeter
G1 F2400
