; generated by SuperSlicer 2.4 on 2023-02-27 at 14:29:37 UTC


;
;

;
;
; 

; external perimeters extrusion width = 0.42mm
; perimeters extrusion width = 0.46mm
; infill extrusion width = 0.44mm
; solid infill extrusion width = 0.46mm
; top infill extrusion width = 0.44mm
; support material extrusion width = 0.40mm
; first layer extrusion width = 0.60mm

; object:{"name":"toolhead_spacer","id":"toolhead_spacer.stl id:0 copy 0","object_center":[150.000000,148.500000,0.000000],"boundingbox_center":[150.000000,148.500000,5.400000],"boundingbox_size":[49.837181,47.589699,10.799999]}
; plater:{"center":[150.000000,148.500000,0.000000],"boundingbox_center":[150.000000,148.500000,5.400000],"boundingbox_size":[49.837181,47.589699,10.799999]}

;TYPE:Custom
M104 S0 ; Stops SuperSlicer from sending temp waits separately


; Pre-Processed for Cancel-Object support by preprocess_cancellation v0.2.0
; 1 known objects
EXCLUDE_OBJECT_DEFINE NAME=toolhead_spacer_stl_id_0_copy_0 CENTER=150.357,149.504 POLYGON=[[125.293,124.916],[125.293,172.078],[174.707,172.078],[174.707,124.916]]

M140 S0

print_start EXTRUDER=245 BED=101 CHAMBER=0
M107
G21 ; set units to millimeters
G90 ; use absolute coordinates
M83 ; use relative distances for extrusion
; Filament gcode
;_TOOLCHANGE 0
M107
;LAYER_CHANGE
;Z:0.2
;HEIGHT:0.2
TIMELAPSE_TAKE_FRAME
;BEFORE_LAYER_CHANGE
;0.2


G1 Z0.2 F12000
;AFTER_LAYER_CHANGE
;0.2
G92 E0
G1 E-0.4 F2700
G1 Z0.3 F12000
G1 X142.803 Y123.145
G1 Z0.2
G1 E0.4 F2700
;TYPE:Skirt
;WIDTH:0.44
G1 F1860
G1 X142.297 Y123.739 E0.02575
G1 X122.838 Y151.079 E1.10799
G1 X122.314 Y152.039 E0.03611
G1 X122.003 Y152.92 E0.03085
G1 X121.848 Y153.682 E0.02566
G1 X121.805 Y155.067 E0.04576
G1 X121.976 Y156.098 E0.03449
G1 X122.32 Y157.096 E0.03486
G1 X122.801 Y157.995 E0.03367
G1 X123.592 Y158.986 E0.04187
G1 X131.14 Y166.229 E0.34539
G1 X135.489 Y170.178 E0.19395
G1 X136.511 Y171.048 E0.04434
G1 X138.02 Y172.151 E0.06171
G1 X140.082 Y173.375 E0.07915
G1 X141.403 Y174.008 E0.04839
G1 X142.895 Y174.595 E0.05292
G1 X144.442 Y175.074 E0.05349
G1 X146.19 Y175.465 E0.05912
G1 X148.084 Y175.72 E0.0631
G1 X149.595 Y175.801 E0.04999
G1 X151.227 Y175.77 E0.05389
G1 X153.08 Y175.583 E0.06148
G1 X154.577 Y175.313 E0.05024
G1 X156.417 Y174.825 E0.06284
G1 X158.089 Y174.223 E0.05867
G1 X159.49 Y173.592 E0.05074
G1 X160.828 Y172.872 E0.05018
G1 X162.28 Y171.946 E0.05685
G1 X163.506 Y171.032 E0.05049
G1 X165.016 Y169.752 E0.06533
G1 X169.895 Y165.257 E0.21906
G1 X176.689 Y158.679 E0.31222
G1 X177.338 Y157.773 E0.03678
G1 X177.854 Y156.661 E0.0405
G1 X178.12 Y155.657 E0.03429
G1 X178.205 Y154.912 E0.02474
G1 X178.19 Y154.015 E0.02963
G1 X177.97 Y152.825 E0.03997
G1 X177.648 Y151.951 E0.03076
G1 X165.244 Y126.137 E0.94558
G1 X164.783 Y125.412 E0.02837
G1 X164.21 Y124.732 E0.02935
G1 X163.377 Y124.002 E0.03659
G1 X162.653 Y123.537 E0.02842
G1 X161.872 Y123.17 E0.02847
G1 X161.043 Y122.906 E0.02873
G1 X148.277 Y121.148 E0.42548
G1 X147.421 Y121.111 E0.02829
G1 X146.581 Y121.184 E0.02786
G1 X145.716 Y121.375 E0.02924
G1 X144.91 Y121.669 E0.02832
G1 X144.163 Y122.057 E0.02779
G1 X143.436 Y122.565 E0.02929
G1 X142.847 Y123.105 E0.02637
G1 X143.113 Y123.396 F12000
G1 F1860
G1 X142.62 Y123.969 E0.02494
G1 X123.176 Y151.287 E1.10712
G1 X122.672 Y152.212 E0.03478
G1 X122.39 Y153.01 E0.02793
G1 X122.243 Y153.717 E0.02385
G1 X122.202 Y155.051 E0.04405
G1 X122.354 Y155.979 E0.03106
G1 X122.673 Y156.915 E0.03266
G1 X123.127 Y157.768 E0.0319
G1 X123.868 Y158.7 E0.03931
G1 X131.407 Y165.935 E0.34499
G1 X135.747 Y169.876 E0.19355
G1 X136.754 Y170.733 E0.04369
G1 X138.249 Y171.826 E0.06113
G1 X140.277 Y173.029 E0.07784
G1 X141.574 Y173.649 E0.04748
G1 X143.039 Y174.225 E0.05199
G1 X144.536 Y174.689 E0.05174
G1 X146.268 Y175.076 E0.05858
G1 X148.124 Y175.325 E0.06186
G1 X149.594 Y175.404 E0.04859
G1 X151.21 Y175.373 E0.05336
G1 X153.032 Y175.189 E0.06046
G1 X154.487 Y174.926 E0.04884
G1 X156.291 Y174.448 E0.0616
G1 X157.947 Y173.852 E0.05813
G1 X159.303 Y173.242 E0.04908
G1 X160.621 Y172.533 E0.04943
G1 X162.06 Y171.616 E0.05632
G1 X163.25 Y170.729 E0.049
G1 X164.747 Y169.46 E0.06478
G1 X169.6 Y164.989 E0.21789
G1 X176.377 Y158.433 E0.31132
G1 X177.003 Y157.56 E0.03546
G1 X177.474 Y156.547 E0.0369
G1 X177.726 Y155.612 E0.03197
G1 X177.81 Y154.868 E0.02474
G1 X177.794 Y154.033 E0.02756
G1 X177.585 Y152.923 E0.0373
G1 X177.29 Y152.123 E0.02816
G1 X164.888 Y126.313 E0.94544
G1 X164.452 Y125.632 E0.02669
G1 X163.912 Y124.995 E0.02759
G1 X163.156 Y124.331 E0.03322
G1 X162.476 Y123.892 E0.02671
G1 X161.744 Y123.545 E0.02676
G1 X160.966 Y123.295 E0.02698
G1 X148.252 Y121.544 E0.42373
G1 X147.447 Y121.507 E0.02661
G1 X146.658 Y121.574 E0.02615
G1 X145.844 Y121.751 E0.0275
G1 X145.086 Y122.025 E0.02664
G1 X144.383 Y122.387 E0.02609
G1 X143.698 Y122.863 E0.02754
G1 X143.157 Y123.356 E0.02416
G1 E-0.4 F2700
G1 Z0.3 F12000
G1 X145.888 Y136.494
G1 Z0.2
G1 E0.4 F2700
;WIDTH:0.604
G1 F1860
G1 X146.624 Y136.341 E0.03508
G1 X147.4 Y136.214 E0.03668
G1 X148.181 Y136.12 E0.0367
G1 X148.959 Y136.06 E0.03637
G1 X150.304 Y136.035 E0.06277
G1 X151.046 Y136.061 E0.03464
G1 X151.827 Y136.121 E0.03653
G1 X152.592 Y136.212 E0.03595
G1 X153.359 Y136.337 E0.03626
G1 X154.484 Y136.581 E0.05371
G1 X155.223 Y136.782 E0.03575
G1 X155.965 Y137.016 E0.03628
G1 X156.707 Y137.287 E0.03684
G1 X157.426 Y137.584 E0.03633
G1 X158.462 Y138.074 E0.05345
G1 X159.143 Y138.441 E0.0361
G1 X159.811 Y138.839 E0.03628
G1 X160.769 Y139.478 E0.0537
G1 X161.393 Y139.943 E0.03635
G1 X162.039 Y140.47 E0.03887
G1 X162.687 Y141.049 E0.04054
G1 X174.376 Y152.016 E0.74777
G1 X174.601 Y152.253 E0.01525
G1 X174.815 Y152.527 E0.0162
G1 X175.001 Y152.82 E0.01621
G1 X175.16 Y153.138 E0.0166
G1 X175.304 Y153.523 E0.01918
G1 X175.391 Y153.865 E0.01647
G1 X175.441 Y154.191 E0.01538
G1 X175.46 Y154.631 E0.02055
G1 X175.392 Y155.263 E0.02963
G1 X175.22 Y155.843 E0.02822
G1 X174.972 Y156.361 E0.02682
G1 X174.808 Y156.616 E0.01414
G1 X174.526 Y156.965 E0.02094
G1 X171.82 Y159.567 E0.17514
G1 X170.728 Y160.591 E0.06985
G1 X169.223 Y162.094 E0.09922
G1 X168.003 Y163.256 E0.07862
G1 X165.097 Y165.924 E0.18401
G1 X165.009 Y165.979 E0.00487
G1 X164.813 Y166.055 E0.00979
G1 X164.71 Y166.075 E0.00487
G1 X162.937 Y166.075 E0.08272
G1 X162.937 Y167.638 E0.07295
G1 X162.911 Y167.758 E0.00571
G1 X162.808 Y167.981 E0.01148
G1 X162.733 Y168.078 E0.00571
G1 X161.75 Y168.91 E0.06012
G1 X160.743 Y169.66 E0.05857
G1 X160.106 Y170.086 E0.03573
G1 X159.415 Y170.508 E0.03777
G1 X158.202 Y171.157 E0.06421
G1 X157.074 Y171.663 E0.05768
G1 X156.289 Y171.963 E0.0392
G1 X155.55 Y172.21 E0.03634
G1 X154.522 Y172.498 E0.04983
G1 X153.983 Y172.624 E0.02582
G1 X152.718 Y172.853 E0.05995
G1 X151.818 Y172.963 E0.0423
G1 X151.1 Y173.019 E0.0336
G1 X150.535 Y173.044 E0.02641
G1 X149.613 Y173.047 E0.043
G1 X148.337 Y172.977 E0.05961
G1 X147.783 Y172.92 E0.02599
G1 X146.707 Y172.76 E0.05074
G1 X145.981 Y172.615 E0.03454
G1 X145.121 Y172.405 E0.04131
G1 X143.883 Y172.024 E0.06042
G1 X142.573 Y171.513 E0.06561
G1 X141.404 Y170.959 E0.06035
G1 X140.232 Y170.298 E0.06277
G1 X139.588 Y169.886 E0.03567
G1 X138.742 Y169.29 E0.0483
G1 X138.202 Y168.873 E0.03179
G1 X137.282 Y168.087 E0.05649
G1 X132.995 Y164.193 E0.2702
G1 X131.546 Y162.834 E0.09265
G1 X129.851 Y161.139 E0.11185
G1 X128.442 Y159.817 E0.09013
G1 X125.538 Y157.035 E0.18763
G1 X125.282 Y156.737 E0.01833
G1 X125.098 Y156.475 E0.01494
G1 X124.791 Y155.87 E0.03166
G1 X124.612 Y155.279 E0.0288
G1 X124.555 Y154.9 E0.01789
G1 X124.54 Y154.533 E0.01713
G1 X124.596 Y153.934 E0.02807
G1 X124.684 Y153.562 E0.01782
G1 X124.804 Y153.221 E0.01689
G1 X124.973 Y152.869 E0.01819
G1 X125.145 Y152.586 E0.01544
G1 X125.495 Y152.145 E0.02627
G1 X137.318 Y141.045 E0.75659
G1 X138.228 Y140.25 E0.0564
G1 X139.19 Y139.508 E0.05665
G1 X139.833 Y139.069 E0.03633
G1 X140.499 Y138.653 E0.03663
G1 X141.122 Y138.297 E0.03348
G1 X141.819 Y137.934 E0.03668
G1 X142.523 Y137.606 E0.03622
G1 X143.251 Y137.302 E0.03683
G1 X143.992 Y137.031 E0.03679
G1 X144.738 Y136.793 E0.03651
G1 X145.83 Y136.507 E0.05267
G1 X145.97 Y137.05 F12000
G1 F1860
G1 X146.718 Y136.894 E0.03563
G1 X147.476 Y136.77 E0.03584
G1 X148.233 Y136.679 E0.03558
G1 X148.997 Y136.62 E0.03576
G1 X150.288 Y136.596 E0.06024
G1 X151.006 Y136.62 E0.03349
G1 X151.769 Y136.679 E0.0357
G1 X152.522 Y136.769 E0.03538
G1 X153.272 Y136.892 E0.03545
G1 X154.333 Y137.122 E0.05069
G1 X155.068 Y137.321 E0.0355
G1 X155.792 Y137.55 E0.03544
G1 X156.512 Y137.813 E0.03573
G1 X157.215 Y138.104 E0.03552
G1 X158.199 Y138.569 E0.05077
G1 X158.874 Y138.934 E0.03579
G1 X159.527 Y139.323 E0.03547
G1 X160.431 Y139.926 E0.05069
G1 X161.046 Y140.384 E0.03579
G1 X161.687 Y140.907 E0.03859
G1 X162.306 Y141.462 E0.0388
G1 X173.968 Y152.402 E0.74601
G1 X174.164 Y152.606 E0.01318
G1 X174.345 Y152.835 E0.01363
G1 X174.51 Y153.093 E0.01428
G1 X174.643 Y153.356 E0.01378
G1 X174.771 Y153.698 E0.01701
G1 X174.838 Y153.96 E0.0126
G1 X174.882 Y154.24 E0.01324
G1 X174.899 Y154.623 E0.0179
G1 X174.899 Y154.645 E0.00103
G1 X174.84 Y155.162 E0.02428
G1 X174.835 Y155.187 E0.00116
G1 X174.707 Y155.613 E0.02075
G1 X174.7 Y155.633 E0.00098
G1 X174.502 Y156.052 E0.02164
G1 X174.494 Y156.068 E0.00083
G1 X174.354 Y156.286 E0.01207
G1 X174.143 Y156.553 E0.01589
G1 X174.131 Y156.568 E0.0009
G1 X171.432 Y159.161 E0.17461
G1 X170.338 Y160.188 E0.07002
G1 X168.83 Y161.693 E0.0994
G1 X167.616 Y162.85 E0.07824
G1 X164.756 Y165.475 E0.18109
G1 X164.658 Y165.513 E0.00492
G1 X162.376 Y165.513 E0.10645
G1 X162.376 Y167.577 E0.09627
G1 X162.324 Y167.689 E0.00577
G1 X161.391 Y168.479 E0.05706
G1 X160.417 Y169.204 E0.05664
G1 X159.806 Y169.611 E0.03423
G1 X159.126 Y170.027 E0.03719
G1 X157.967 Y170.647 E0.06132
G1 X156.87 Y171.14 E0.05613
G1 X156.097 Y171.436 E0.03861
G1 X155.396 Y171.671 E0.03449
G1 X154.374 Y171.957 E0.04952
G1 X153.852 Y172.078 E0.02497
G1 X152.638 Y172.297 E0.05756
G1 X151.753 Y172.406 E0.04159
G1 X151.064 Y172.459 E0.03226
G1 X150.53 Y172.482 E0.02494
G1 X149.615 Y172.485 E0.04268
G1 X148.398 Y172.42 E0.05686
G1 X147.856 Y172.364 E0.02543
G1 X146.814 Y172.209 E0.04914
G1 X146.106 Y172.067 E0.0337
G1 X145.266 Y171.863 E0.04031
G1 X144.054 Y171.489 E0.0592
G1 X142.782 Y170.992 E0.0637
G1 X141.667 Y170.463 E0.05759
G1 X140.538 Y169.827 E0.06045
G1 X139.903 Y169.422 E0.03511
G1 X139.077 Y168.841 E0.04713
G1 X138.559 Y168.44 E0.03055
G1 X137.657 Y167.67 E0.05531
G1 X133.377 Y163.782 E0.26978
G1 X131.942 Y162.436 E0.09181
G1 X130.242 Y160.736 E0.11216
G1 X128.828 Y159.41 E0.09042
G1 X125.931 Y156.635 E0.18716
G1 X125.723 Y156.389 E0.01503
G1 X125.575 Y156.178 E0.01203
G1 X125.565 Y156.162 E0.00089
G1 X125.324 Y155.69 E0.02471
G1 X125.315 Y155.668 E0.0011
G1 X125.169 Y155.203 E0.02273
G1 X125.165 Y155.183 E0.00098
G1 X125.116 Y154.868 E0.01484
G1 X125.101 Y154.537 E0.01548
G1 X125.102 Y154.519 E0.00085
G1 X125.142 Y154.07 E0.02102
G1 X125.145 Y154.051 E0.00091
G1 X125.216 Y153.741 E0.01481
G1 X125.325 Y153.429 E0.01543
G1 X125.475 Y153.12 E0.01604
G1 X125.628 Y152.874 E0.01351
G1 X125.887 Y152.548 E0.01943
G1 X125.901 Y152.533 E0.00095
G1 X137.704 Y141.452 E0.75528
G1 X138.581 Y140.686 E0.05435
G1 X139.517 Y139.964 E0.05512
G1 X140.147 Y139.533 E0.03563
G1 X140.789 Y139.134 E0.03528
G1 X141.388 Y138.791 E0.03222
G1 X142.065 Y138.439 E0.0356
G1 X142.752 Y138.118 E0.03537
G1 X143.464 Y137.821 E0.03599
G1 X144.176 Y137.561 E0.03538
G1 X144.904 Y137.329 E0.03564
G1 X145.912 Y137.065 E0.04861
G1 E-0.4 F2700
G1 Z0.3 F12000
G1 X156.113 Y131.19
G1 Z0.2
G1 E0.4 F2700
G1 F1860
G1 X155.907 Y130.768 E0.0219
G1 X155.742 Y130.27 E0.02446
G1 X155.648 Y129.772 E0.02365
G1 X155.619 Y129.297 E0.02219
G1 X155.649 Y128.832 E0.02176
G1 X155.746 Y128.334 E0.02364
G1 X155.916 Y127.828 E0.0249
G1 X156.121 Y127.41 E0.02175
G1 X156.399 Y126.99 E0.02351
G1 X156.752 Y126.585 E0.02505
G1 X157.102 Y126.277 E0.02174
G1 X157.518 Y125.996 E0.02342
G1 X158 Y125.756 E0.02513
G1 X158.441 Y125.605 E0.02173
G1 X158.932 Y125.504 E0.0234
G1 X159.488 Y125.467 E0.026
G1 X159.972 Y125.501 E0.02265
G1 X160.427 Y125.591 E0.02162
G1 X160.956 Y125.77 E0.02608
G1 X161.373 Y125.977 E0.02172
G1 X161.777 Y126.244 E0.02256
G1 X162.182 Y126.597 E0.02508
G1 X162.535 Y127.006 E0.0252
G1 X162.8 Y127.41 E0.02255
G1 X163.011 Y127.842 E0.02244
G1 X163.182 Y128.357 E0.02531
G1 X163.273 Y128.832 E0.02256
G1 X163.302 Y129.308 E0.02225
G1 X163.263 Y129.853 E0.02549
G1 X163.165 Y130.327 E0.02257
G1 X163.012 Y130.772 E0.02196
G1 X162.766 Y131.266 E0.02575
G1 X162.494 Y131.666 E0.02258
G1 X162.188 Y132.012 E0.02158
G1 X161.767 Y132.381 E0.02607
G1 X161.362 Y132.647 E0.02259
G1 X160.955 Y132.845 E0.02115
G1 X160.419 Y133.028 E0.02643
G1 X159.943 Y133.12 E0.02261
G1 X159.443 Y133.15 E0.02339
G1 X158.916 Y133.111 E0.02464
G1 X158.406 Y133 E0.02435
G1 X157.977 Y132.852 E0.02117
G1 X157.506 Y132.615 E0.02457
G1 X157.081 Y132.322 E0.02411
G1 X156.735 Y132.016 E0.02153
G1 X156.392 Y131.618 E0.02451
G1 X156.146 Y131.24 E0.02106
G1 X156.613 Y130.934 F12000
G1 F1860
G1 X156.604 Y130.918 E0.00082
G1 X156.436 Y130.578 E0.01773
G1 X156.429 Y130.561 E0.00084
G1 X156.296 Y130.172 E0.01917
G1 X156.291 Y130.154 E0.0009
G1 X156.208 Y129.726 E0.0203
G1 X156.206 Y129.709 E0.00083
G1 X156.18 Y129.324 E0.018
G1 X156.18 Y129.306 E0.00084
G1 X156.206 Y128.896 E0.01917
G1 X156.209 Y128.877 E0.00089
G1 X156.294 Y128.454 E0.02012
G1 X156.299 Y128.437 E0.00084
G1 X156.424 Y128.068 E0.01818
G1 X156.431 Y128.051 E0.00084
G1 X156.612 Y127.682 E0.01916
G1 X156.621 Y127.666 E0.00088
G1 X156.86 Y127.31 E0.02
G1 X156.871 Y127.295 E0.00085
G1 X157.13 Y127 E0.01831
G1 X157.143 Y126.988 E0.00084
G1 X157.451 Y126.716 E0.01916
G1 X157.466 Y126.705 E0.00088
G1 X157.821 Y126.468 E0.01993
G1 X157.837 Y126.458 E0.00085
G1 X158.19 Y126.284 E0.01837
G1 X158.207 Y126.277 E0.00084
G1 X158.595 Y126.144 E0.01915
G1 X158.613 Y126.14 E0.00087
G1 X159.032 Y126.056 E0.01991
G1 X159.051 Y126.054 E0.00087
G1 X159.46 Y126.028 E0.01915
G1 X159.478 Y126.028 E0.00084
G1 X159.872 Y126.054 E0.0184
G1 X159.89 Y126.056 E0.00086
G1 X160.308 Y126.14 E0.0199
G1 X160.326 Y126.144 E0.00087
G1 X160.715 Y126.277 E0.01916
G1 X160.732 Y126.284 E0.00086
G1 X161.1 Y126.467 E0.01915
G1 X161.116 Y126.476 E0.00086
G1 X161.456 Y126.705 E0.01915
G1 X161.471 Y126.716 E0.00084
G1 X161.766 Y126.975 E0.01833
G1 X161.779 Y126.988 E0.00085
G1 X162.062 Y127.309 E0.01998
G1 X162.073 Y127.324 E0.00088
G1 X162.301 Y127.666 E0.01916
G1 X162.31 Y127.682 E0.00084
G1 X162.482 Y128.032 E0.01823
G1 X162.489 Y128.049 E0.00084
G1 X162.629 Y128.456 E0.02008
G1 X162.634 Y128.475 E0.00089
G1 X162.713 Y128.878 E0.01917
G1 X162.715 Y128.896 E0.00084
G1 X162.741 Y129.282 E0.01807
G1 X162.741 Y129.3 E0.00083
G1 X162.714 Y129.733 E0.02023
G1 X162.711 Y129.752 E0.00089
G1 X162.63 Y130.155 E0.01917
G1 X162.626 Y130.172 E0.00084
G1 X162.503 Y130.534 E0.01782
G1 X162.496 Y130.55 E0.00082
G1 X162.304 Y130.945 E0.02046
G1 X162.295 Y130.961 E0.0009
G1 X162.066 Y131.303 E0.01917
G1 X162.055 Y131.317 E0.00085
G1 X161.795 Y131.611 E0.0183
G1 X161.463 Y131.907 E0.02075
G1 X161.448 Y131.919 E0.00092
G1 X161.106 Y132.147 E0.01916
G1 X161.09 Y132.156 E0.00085
G1 X160.745 Y132.325 E0.01792
G1 X160.319 Y132.475 E0.02107
G1 X160.3 Y132.48 E0.00093
G1 X159.897 Y132.56 E0.01916
G1 X159.879 Y132.562 E0.00085
G1 X159.47 Y132.589 E0.01912
G1 X159.452 Y132.589 E0.00085
G1 X159.042 Y132.562 E0.01916
G1 X159.022 Y132.56 E0.00094
G1 X158.578 Y132.466 E0.02116
G1 X158.217 Y132.344 E0.01781
G1 X158.2 Y132.337 E0.00085
G1 X157.831 Y132.156 E0.01916
G1 X157.814 Y132.146 E0.00092
G1 X157.445 Y131.894 E0.02086
G1 X157.151 Y131.638 E0.01817
G1 X157.138 Y131.625 E0.00085
G1 X156.867 Y131.317 E0.01917
G1 X156.855 Y131.301 E0.00091
G1 X156.646 Y130.984 E0.01775
G1 E-0.4 F2700
G1 Z0.3 F12000
G1 X151.147 Y129.089
G1 Z0.2
G1 E0.4 F2700
G1 F1860
G1 X151.119 Y129.168 E0.00393
G1 X150.873 Y129.662 E0.02575
G1 X150.602 Y130.063 E0.02258
G1 X150.295 Y130.409 E0.02158
G1 X149.874 Y130.777 E0.02608
G1 X149.47 Y131.043 E0.02259
G1 X149.063 Y131.242 E0.02115
G1 X148.526 Y131.425 E0.02643
G1 X148.05 Y131.516 E0.02261
