; generated by SuperSlicer 2.5.59 on 2023-04-06 at 19:09:42 UTC


;
;

;
;
; 

; external perimeters extrusion width = 0.45mm
; perimeters extrusion width = 0.45mm
; infill extrusion width = 0.45mm
; solid infill extrusion width = 0.45mm
; top infill extrusion width = 0.43mm
; support material extrusion width = 0.42mm
; first layer extrusion width = 0.60mm

; object:{"name":"Tremendous Fulffy (2)","id":"Tremendous Fulffy (2).stl id:0 copy 0","object_center":[150.000000,148.500000,0.000000],"boundingbox_center":[150.000000,148.500000,26.000000],"boundingbox_size":[53.000000,54.000000,52.000000]}
EXCLUDE_OBJECT_DEFINE NAME=Tremendous_Fulffy_2_stl_id_0_copy_0 CENTER=150.000000,148.500000 POLYGON=[[123.500000,121.500000],[176.500000,121.500000],[176.500000,174.500000],[169.980000,175.500000],[131.500000,175.500000],[123.500000,174.500000],[123.500000,121.500000]]
; plater:{"center":[150.000000,148.500000,0.000000],"boundingbox_center":[150.000000,148.500000,26.000000],"boundingbox_size":[53.000000,54.000000,52.000000]}

;TYPE:Custom
SET_PRINT_STATS_INFO TOTAL_LAYER=219

M104 S0 ; Stops SuperSlicer from sending temp waits separately

M109 S0

M140 S0

print_start EXTRUDER=210 BED=65 CHAMBER=0
G21 ; set units to millimeters
G90 ; use absolute coordinates
M83 ; use relative distances for extrusion
; Filament gcode
;_TOOLCHANGE 0
M107
;LAYER_CHANGE
;Z:0.2375
;HEIGHT:0.2375
TIMELAPSE_TAKE_FRAME
;BEFORE_LAYER_CHANGE
;0.2375


G1 Z0.2375 F8700
SET_PRINT_STATS_INFO CURRENT_LAYER=1
;AFTER_LAYER_CHANGE
;0.2375
G92 E0
G1 E-0.7 F1800
G1 Z0.8375 F8700
G1 X116.167 Y114.478
G1 Z0.2375
G1 E0.7 F1800
;TYPE:Skirt
;WIDTH:0.54
G1 F2250
G1 X115.779 Y115.567 E0.05583
G1 X115.779 Y180.5 E3.13546
G1 X116.411 Y181.833 E0.07123
G1 X117.5 Y182.221 E0.05583
G1 X182.5 Y182.221 E3.13869
G1 X183.833 Y181.589 E0.07123
G1 X184.221 Y180.5 E0.05583
G1 X184.221 Y115.567 E3.13546
G1 X183.589 Y114.234 E0.07123
G1 X182.5 Y113.846 E0.05583
G1 X117.5 Y113.846 E3.13869
G1 X116.221 Y114.452 E0.06833
G1 X116.651 Y114.673 F8700
G1 F2250
G1 X116.267 Y115.567 E0.04697
G1 X116.267 Y180.5 E3.13546
G1 X116.606 Y181.349 E0.04414
G1 X117.5 Y181.733 E0.04697
G1 X182.5 Y181.733 E3.13869
G1 X183.349 Y181.394 E0.04414
G1 X183.733 Y180.5 E0.04697
G1 X183.733 Y115.567 E3.13546
G1 X183.394 Y114.718 E0.04414
G1 X182.5 Y114.334 E0.04697
G1 X117.5 Y114.334 E3.13869
G1 X116.707 Y114.651 E0.04124
G1 X117.189 Y115.133 F8700
G1 F2250
G1 X116.756 Y115.567 E0.02961
G1 X116.756 Y180.5 E3.13546
G1 X117.5 Y181.244 E0.05082
G1 X182.5 Y181.244 E3.13869
G1 X183.244 Y180.5 E0.05082
G1 X183.244 Y115.567 E3.13546
G1 X182.5 Y114.823 E0.05082
G1 X117.5 Y114.823 E3.13869
G1 X117.232 Y115.091 E0.01832
G1 E-0.7 F1800
G1 Z0.8375 F8700
G1 X176.774 Y169.361
G1 Z0.2375
G1 E0.7 F1800
;WIDTH:0.6
;HEIGHT:0.24
G1 F2250
G1 X177.839 Y169.501 E0.0588
G1 X178.646 Y169.836 E0.04779
G1 X179.087 Y170.018 E0.02614
G1 X180.159 Y170.841 E0.07393
G1 X180.982 Y171.913 E0.07393
G1 X181.499 Y173.161 E0.07393
G1 X181.675 Y174.5 E0.07393
G1 X181.499 Y175.839 E0.07393
G1 X181.107 Y176.785 E0.05599
G1 X180.982 Y177.087 E0.01794
G1 X180.159 Y178.159 E0.07393
G1 X179.087 Y178.982 E0.07393
G1 X178.646 Y179.164 E0.02614
G1 X177.839 Y179.499 E0.04779
G1 X176.5 Y179.675 E0.07393
G1 X175.161 Y179.499 E0.07393
G1 X174.215 Y179.107 E0.05599
G1 X173.913 Y178.982 E0.01794
G1 X172.841 Y178.159 E0.07393
G1 X172.018 Y177.087 E0.07393
G1 X171.893 Y176.785 E0.01794
G1 X171.501 Y175.839 E0.05599
G1 X171.361 Y174.774 E0.0588
G1 X176.774 Y174.774 E0.29625
G1 X176.774 Y169.421 E0.29297
G1 E-0.7 F1800
G1 Z0.8375 F8700
G1 X179.258 Y170.184
G1 Z0.2375
G1 E0.7 F1800
G1 F2250
G1 X177.038 Y170.184 E0.12154
G1 X177.038 Y170.733 E0.03002
G1 X179.586 Y170.733 E0.13945
G1 X179.971 Y171.029 E0.02662
G1 X180.165 Y171.281 E0.01741
G1 X177.038 Y171.281 E0.17117
G1 X177.038 Y171.829 E0.03002
G1 X180.586 Y171.829 E0.1942
G1 X180.752 Y172.045 E0.01489
G1 X180.889 Y172.378 E0.01971
G1 X177.038 Y172.378 E0.21081
G1 X177.038 Y172.926 E0.03002
G1 X181.117 Y172.926 E0.22324
G1 X181.242 Y173.229 E0.01794
G1 X181.274 Y173.475 E0.01356
G1 X177.038 Y173.475 E0.23188
G1 X177.038 Y174.023 E0.03002
G1 X181.347 Y174.023 E0.23583
G1 X181.409 Y174.5 E0.0263
G1 X181.4 Y174.572 E0.00397
G1 X177.038 Y174.572 E0.23875
G1 X177.038 Y175.038 E0.02548
G1 X171.661 Y175.038 E0.29423
G1 X171.672 Y175.12 E0.00458
G1 X181.328 Y175.12 E0.52843
G1 X181.255 Y175.669 E0.03028
G1 X171.745 Y175.669 E0.52052
G1 X171.758 Y175.771 E0.00561
G1 X171.943 Y176.217 E0.02647
G1 X181.057 Y176.217 E0.4988
G1 X180.864 Y176.684 E0.02763
G1 X180.83 Y176.766 E0.00486
G1 X172.17 Y176.766 E0.47393
G1 X172.248 Y176.955 E0.01118
G1 X172.524 Y177.314 E0.02482
G1 X180.476 Y177.314 E0.43516
G1 X180.055 Y177.863 E0.03784
G1 X172.945 Y177.863 E0.38909
G1 X173.029 Y177.971 E0.00748
G1 X173.602 Y178.411 E0.03956
G1 X179.398 Y178.411 E0.31721
G1 X178.955 Y178.752 E0.03058
G1 X178.545 Y178.921 E0.02424
G1 X178.452 Y178.96 E0.00555
G1 X173.932 Y178.96 E0.24737
G1 E-0.7 F1800
G1 Z0.8375 F8700
G1 X128.639 Y174.774
G1 Z0.2375
G1 E0.7 F1800
G1 F2250
G1 X128.499 Y175.839 E0.0588
G1 X128.107 Y176.785 E0.05599
G1 X127.982 Y177.087 E0.01794
G1 X127.159 Y178.159 E0.07393
G1 X126.087 Y178.982 E0.07393
G1 X125.646 Y179.164 E0.02614
G1 X124.839 Y179.499 E0.04779
G1 X123.5 Y179.675 E0.07393
G1 X122.161 Y179.499 E0.07393
G1 X121.215 Y179.107 E0.05599
G1 X120.913 Y178.982 E0.01794
G1 X119.841 Y178.159 E0.07393
G1 X119.018 Y177.087 E0.07393
G1 X118.893 Y176.785 E0.01794
G1 X118.501 Y175.839 E0.05599
G1 X118.325 Y174.5 E0.07393
G1 X118.501 Y173.161 E0.07393
G1 X119.018 Y171.913 E0.07393
G1 X119.841 Y170.841 E0.07393
G1 X120.913 Y170.018 E0.07393
G1 X121.354 Y169.836 E0.02614
G1 X122.161 Y169.501 E0.04779
G1 X123.226 Y169.361 E0.0588
G1 X123.226 Y174.774 E0.29625
G1 X128.579 Y174.774 E0.29297
G1 E-0.7 F1800
G1 Z0.8375 F8700
G1 X123.198 Y170.184
G1 Z0.2375
G1 E0.7 F1800
G1 F2250
G1 X121.201 Y170.184 E0.10933
G1 X121.045 Y170.248 E0.00921
G1 X120.414 Y170.733 E0.04352
G1 X122.962 Y170.733 E0.13945
G1 X122.962 Y171.281 E0.03002
G1 X119.835 Y171.281 E0.17117
G1 X119.414 Y171.829 E0.03784
G1 X122.962 Y171.829 E0.1942
G1 X122.962 Y172.378 E0.03002
G1 X119.111 Y172.378 E0.21081
G1 X118.883 Y172.926 E0.03249
G1 X122.962 Y172.926 E0.22324
G1 X122.962 Y173.475 E0.03002
G1 X118.726 Y173.475 E0.23188
G1 X118.653 Y174.023 E0.03028
G1 X122.962 Y174.023 E0.23583
G1 X122.962 Y174.572 E0.03002
G1 X118.6 Y174.572 E0.23875
G1 X118.672 Y175.12 E0.03028
G1 X128.328 Y175.12 E0.52843
G1 X128.255 Y175.669 E0.03028
G1 X118.745 Y175.669 E0.52052
G1 X118.758 Y175.771 E0.00561
G1 X118.943 Y176.217 E0.02647
G1 X128.057 Y176.217 E0.4988
G1 X127.864 Y176.684 E0.02763
G1 X127.83 Y176.766 E0.00486
G1 X119.17 Y176.766 E0.47393
G1 X119.248 Y176.955 E0.01118
G1 X119.524 Y177.314 E0.02482
G1 X127.476 Y177.314 E0.43516
G1 X127.055 Y177.863 E0.03784
G1 X119.945 Y177.863 E0.38909
G1 X120.029 Y177.971 E0.00748
G1 X120.602 Y178.411 E0.03956
G1 X126.398 Y178.411 E0.31721
G1 X125.955 Y178.752 E0.03058
G1 X125.545 Y178.921 E0.02424
G1 X125.452 Y178.96 E0.00555
G1 X120.932 Y178.96 E0.24737
G1 E-0.7 F1800
G1 Z0.8375 F8700
G1 X176.774 Y126.706
G1 Z0.2375
G1 E0.7 F1800
G1 F2250
G1 X176.774 Y121.293 E0.29625
G1 X171.361 Y121.293 E0.29625
G1 X171.501 Y120.227 E0.0588
G1 X172.018 Y118.979 E0.07393
G1 X172.841 Y117.908 E0.07393
G1 X173.913 Y117.085 E0.07393
G1 X174.354 Y116.902 E0.02614
G1 X175.161 Y116.568 E0.04779
G1 X176.5 Y116.392 E0.07393
G1 X177.839 Y116.568 E0.07393
G1 X178.646 Y116.902 E0.04779
G1 X179.087 Y117.085 E0.02614
G1 X180.159 Y117.908 E0.07393
G1 X180.982 Y118.979 E0.07393
G1 X181.164 Y119.421 E0.02614
G1 X181.499 Y120.227 E0.04779
G1 X181.675 Y121.567 E0.07393
G1 X181.499 Y122.906 E0.07393
G1 X181.107 Y123.851 E0.05599
G1 X180.982 Y124.154 E0.01794
G1 X180.159 Y125.226 E0.07393
G1 X179.087 Y126.048 E0.07393
G1 X178.646 Y126.231 E0.02614
G1 X177.839 Y126.565 E0.04779
G1 X176.834 Y126.698 E0.05551
G1 E-0.7 F1800
G1 Z0.8375 F8700
G1 X179.118 Y125.991
G1 Z0.2375
G1 E0.7 F1800
G1 F2250
G1 X177.038 Y125.991 E0.11384
G1 X177.038 Y125.442 E0.03002
G1 X179.445 Y125.442 E0.13176
G1 X179.971 Y125.038 E0.03631
G1 X180.082 Y124.894 E0.00997
G1 X177.038 Y124.894 E0.16664
G1 X177.038 Y124.345 E0.03002
G1 X180.503 Y124.345 E0.18968
G1 X180.752 Y124.021 E0.02233
G1 X180.845 Y123.797 E0.01332
G1 X177.038 Y123.797 E0.20836
G1 X177.038 Y123.248 E0.03002
G1 X181.072 Y123.248 E0.2208
G1 X181.242 Y122.837 E0.02433
G1 X181.26 Y122.7 E0.00761
G1 X177.038 Y122.7 E0.2311
G1 X177.038 Y122.151 E0.03002
G1 X181.332 Y122.151 E0.23505
G1 X181.405 Y121.603 E0.03028
G1 X177.038 Y121.603 E0.23901
G1 X177.038 Y121.054 E0.03002
G1 X181.342 Y121.054 E0.23557
G1 X181.27 Y120.506 E0.03028
G1 X171.73 Y120.506 E0.52208
G1 X171.758 Y120.296 E0.01156
G1 X171.898 Y119.957 E0.02008
G1 X181.102 Y119.957 E0.50369
G1 X180.921 Y119.521 E0.02582
G1 X180.874 Y119.409 E0.00668
G1 X172.126 Y119.409 E0.47882
G1 X172.248 Y119.112 E0.01757
G1 X172.442 Y118.86 E0.01738
G1 X180.558 Y118.86 E0.44421
G1 X180.137 Y118.312 E0.03784
G1 X172.863 Y118.312 E0.39815
G1 X173.029 Y118.095 E0.01492
G1 X173.461 Y117.763 E0.02986
G1 X179.539 Y117.763 E0.33259
G1 X178.955 Y117.315 E0.04028
G1 X178.712 Y117.215 E0.01437
G1 X174.288 Y117.215 E0.24213
G1 X174.455 Y117.146 E0.00987
G1 X175.229 Y116.825 E0.0459
G1 X176.434 Y116.666 E0.06647
G1 X178.004 Y116.666 E0.08596
G1 E-0.7 F1800
G1 Z0.8375 F8700
G1 X128.639 Y121.293
G1 Z0.2375
G1 E0.7 F1800
G1 F2250
G1 X123.226 Y121.293 E0.29625
G1 X123.226 Y126.706 E0.29625
G1 X122.161 Y126.565 E0.0588
G1 X121.215 Y126.174 E0.05599
G1 X120.913 Y126.048 E0.01794
G1 X119.841 Y125.226 E0.07393
G1 X119.018 Y124.154 E0.07393
G1 X118.893 Y123.851 E0.01794
G1 X118.501 Y122.906 E0.05599
G1 X118.325 Y121.567 E0.07393
G1 X118.501 Y120.227 E0.07393
G1 X119.018 Y118.979 E0.07393
G1 X119.841 Y117.908 E0.07393
G1 X120.913 Y117.085 E0.07393
G1 X121.354 Y116.902 E0.02614
G1 X122.161 Y116.568 E0.04779
G1 X123.5 Y116.392 E0.07393
G1 X124.839 Y116.568 E0.07393
G1 X125.646 Y116.902 E0.04779
G1 X126.087 Y117.085 E0.02614
G1 X127.159 Y117.908 E0.07393
G1 X127.982 Y118.979 E0.07393
G1 X128.164 Y119.421 E0.02614
G1 X128.499 Y120.227 E0.04779
G1 X128.631 Y121.233 E0.05551
G1 E-0.7 F1800
G1 Z0.8375 F8700
G1 X125.004 Y116.666
G1 Z0.2375
G1 E0.7 F1800
G1 F2250
G1 X123.434 Y116.666 E0.08596
G1 X122.229 Y116.825 E0.06647
G1 X121.455 Y117.146 E0.0459
G1 X121.288 Y117.215 E0.00987
G1 X125.712 Y117.215 E0.24213
G1 X125.955 Y117.315 E0.01437
G1 X126.539 Y117.763 E0.04028
G1 X120.461 Y117.763 E0.33259
G1 X120.029 Y118.095 E0.02986
G1 X119.863 Y118.312 E0.01492
G1 X127.137 Y118.312 E0.39815
G1 X127.558 Y118.86 E0.03784
G1 X119.442 Y118.86 E0.44421
G1 X119.248 Y119.112 E0.01738
G1 X119.126 Y119.409 E0.01757
G1 X127.874 Y119.409 E0.47882
G1 X127.921 Y119.521 E0.00668
G1 X128.102 Y119.957 E0.02582
G1 X118.898 Y119.957 E0.50369
G1 X118.758 Y120.296 E0.02008
G1 X118.73 Y120.506 E0.01157
G1 X128.27 Y120.506 E0.52208
G1 X128.339 Y121.029 E0.0289
G1 X122.962 Y121.029 E0.29423
G1 X122.962 Y121.054 E0.00136
G1 X118.658 Y121.054 E0.23557
G1 X118.591 Y121.567 E0.0283
G1 X118.595 Y121.603 E0.00198
G1 X122.962 Y121.603 E0.23901
G1 X122.962 Y122.151 E0.03002
G1 X118.668 Y122.151 E0.23505
G1 X118.74 Y122.7 E0.03028
G1 X122.962 Y122.7 E0.2311
G1 X122.962 Y123.248 E0.03002
G1 X118.928 Y123.248 E0.2208
G1 X119.136 Y123.751 E0.02977
G1 X119.155 Y123.797 E0.00272
G1 X122.962 Y123.797 E0.20837
G1 X122.962 Y124.345 E0.03002
G1 X119.497 Y124.345 E0.18968
G1 X119.918 Y124.894 E0.03784
G1 X122.962 Y124.894 E0.16664
G1 X122.962 Y125.442 E0.03002
G1 X120.555 Y125.442 E0.13176
G1 X121.045 Y125.818 E0.03383
G1 X121.316 Y125.931 E0.01604
G1 X121.461 Y125.991 E0.00859
G1 X123.198 Y125.991 E0.09508
M104 S210 ; set temperature
G1 E-0.7 F1800
G1 Z0.8375 F8700
; printing object Tremendous Fulffy (2).stl id:0 copy 0
EXCLUDE_OBJECT_START NAME=Tremendous_Fulffy_2_stl_id_0_copy_0
G1 X123.8 Y121.867
G1 Z0.2375
G1 E0.7 F1800
;TYPE:External perimeter
;HEIGHT:0.2375
G1 F2400
G1 X176.2 Y121.867 E2.84071
G1 X176.2 Y174.2 E2.83709
G1 X123.8 Y174.2 E2.84071
G1 X123.8 Y121.927 E2.83383
;WIPE_START
G1 X124.146 Y122.067 F8700
;WIPE_END
G1 X124.349 Y122.416
;TYPE:Internal perimeter
G1 F2400
G1 X175.651 Y122.416 E2.78118
G1 X175.651 Y173.651 E2.77756
G1 X124.349 Y173.651 E2.78118
G1 X124.349 Y122.476 E2.77431
G1 X124.898 Y122.965 F8700
G1 F2400
G1 X175.102 Y122.965 E2.72165
G1 X175.102 Y173.102 E2.71803
G1 X124.898 Y173.102 E2.72165
G1 X124.898 Y123.025 E2.71478
G1 E-0.7 F1800
G1 Z0.8375 F8700
G1 X125.063 Y172.197
G1 Z0.2375
G1 E0.7 F1800
;TYPE:Solid infill
G1 F2400
G1 X125.567 Y172.701 E0.03862
G1 X126.343 Y172.701 E0.04209
G1 X125.299 Y171.657 E0.08005
G1 X125.299 Y170.881 E0.04209
G1 X127.119 Y172.701 E0.13958
G1 X127.896 Y172.701 E0.04209
G1 X125.299 Y170.104 E0.19911
G1 X125.299 Y169.328 E0.04209
G1 X128.672 Y172.701 E0.25863
G1 X129.449 Y172.701 E0.04209
G1 X125.299 Y168.551 E0.31816
G1 X125.299 Y167.775 E0.04209
G1 X130.225 Y172.701 E0.37769
G1 X131.002 Y172.701 E0.04209
G1 X125.299 Y166.998 E0.43722
G1 X125.299 Y166.222 E0.04209
G1 X131.778 Y172.701 E0.49675
G1 X132.555 Y172.701 E0.04209
G1 X125.299 Y165.445 E0.55628
G1 X125.299 Y164.669 E0.04209
G1 X133.331 Y172.701 E0.6158
G1 X134.107 Y172.701 E0.04209
G1 X125.299 Y163.893 E0.67533
G1 X125.299 Y163.116 E0.04209
G1 X134.884 Y172.701 E0.73486
G1 X135.66 Y172.701 E0.04209
G1 X125.299 Y162.34 E0.79439
G1 X125.299 Y161.563 E0.04209
G1 X136.437 Y172.701 E0.85392
G1 X137.213 Y172.701 E0.04209
G1 X125.299 Y160.787 E0.91344
G1 X125.299 Y160.01 E0.04209
G1 X137.99 Y172.701 E0.97297
G1 X138.766 Y172.701 E0.04209
G1 X125.299 Y159.234 E1.0325
G1 X125.299 Y158.457 E0.04209
G1 X139.543 Y172.701 E1.09203
G1 X140.319 Y172.701 E0.04209
G1 X125.299 Y157.681 E1.15156
G1 X125.299 Y156.905 E0.04209
G1 X141.095 Y172.701 E1.21109
G1 X141.872 Y172.701 E0.04209
G1 X125.299 Y156.128 E1.27061
G1 X125.299 Y155.352 E0.04209
G1 X142.648 Y172.701 E1.33014
G1 X143.425 Y172.701 E0.04209
G1 X125.299 Y154.575 E1.38967
G1 X125.299 Y153.799 E0.04209
G1 X144.201 Y172.701 E1.4492
G1 X144.978 Y172.701 E0.04209
G1 X125.299 Y153.022 E1.50873
G1 X125.299 Y152.246 E0.04209
G1 X145.754 Y172.701 E1.56826
G1 X146.531 Y172.701 E0.04209
G1 X125.299 Y151.469 E1.62778
G1 X125.299 Y150.693 E0.04209
G1 X147.307 Y172.701 E1.68731
G1 X148.084 Y172.701 E0.04209
G1 X125.299 Y149.916 E1.74684
G1 X125.299 Y149.14 E0.04209
G1 X148.86 Y172.701 E1.80637
G1 X149.636 Y172.701 E0.04209
G1 X125.299 Y148.364 E1.8659
G1 X125.299 Y147.587 E0.04209
G1 X150.413 Y172.701 E1.92542
G1 X151.189 Y172.701 E0.04209
G1 X125.299 Y146.811 E1.98495
G1 X125.299 Y146.034 E0.04209
G1 X151.966 Y172.701 E2.04448
G1 X152.742 Y172.701 E0.04209
G1 X125.299 Y145.258 E2.10401
G1 X125.299 Y144.481 E0.04209
G1 X153.519 Y172.701 E2.16354
G1 X154.295 Y172.701 E0.04209
G1 X125.299 Y143.705 E2.22307
G1 X125.299 Y142.928 E0.04209
G1 X155.072 Y172.701 E2.28259
G1 X155.848 Y172.701 E0.04209
G1 X125.299 Y142.152 E2.34212
G1 X125.299 Y141.376 E0.04209
G1 X156.624 Y172.701 E2.40165
G1 X157.401 Y172.701 E0.04209
G1 X125.299 Y140.599 E2.46118
G1 X125.299 Y139.823 E0.04209
G1 X158.177 Y172.701 E2.52071
G1 X158.954 Y172.701 E0.04209
G1 X125.299 Y139.046 E2.58024
G1 X125.299 Y138.27 E0.04209
G1 X159.73 Y172.701 E2.63976
G1 X160.507 Y172.701 E0.04209
G1 X125.299 Y137.493 E2.69929
G1 X125.299 Y136.717 E0.04209
G1 X161.283 Y172.701 E2.75882
G1 X162.06 Y172.701 E0.04209
G1 X125.299 Y135.94 E2.81835
G1 X125.299 Y135.164 E0.04209
G1 X162.836 Y172.701 E2.87788
G1 X163.612 Y172.701 E0.04209
G1 X125.299 Y134.388 E2.9374
G1 X125.299 Y133.611 E0.04209
G1 X164.389 Y172.701 E2.99693
G1 X165.165 Y172.701 E0.04209
G1 X125.299 Y132.835 E3.05646
G1 X125.299 Y132.058 E0.04209
G1 X165.942 Y172.701 E3.11599
G1 X166.718 Y172.701 E0.04209
G1 X125.299 Y131.282 E3.17552
G1 X125.299 Y130.505 E0.04209
G1 X167.495 Y172.701 E3.23505
G1 X168.271 Y172.701 E0.04209
G1 X125.299 Y129.729 E3.29457
G1 X125.299 Y128.952 E0.04209
G1 X169.048 Y172.701 E3.3541
G1 X169.824 Y172.701 E0.04209
G1 X125.299 Y128.176 E3.41363
G1 X125.299 Y127.399 E0.04209
