; generated by SuperSlicer 2.4 on 2023-01-24 at 22:10:38 UTC


;
;

;
;
; 

; external perimeters extrusion width = 0.42mm
; perimeters extrusion width = 0.45mm
; infill extrusion width = 0.45mm
; solid infill extrusion width = 0.45mm
; top infill extrusion width = 0.42mm
; first layer extrusion width = 0.62mm

; object:{"name":"Trident_Bed_Mount_Cartridge_LID","id":"Trident_Bed_Mount_Cartridge_LID.stl id:0 copy 0","object_center":[150.000000,148.500000,0.000000],"boundingbox_center":[150.000000,148.500000,0.892381],"boundingbox_size":[121.958206,51.164516,1.784761]}
; plater:{"center":[150.000000,148.500000,0.000000],"boundingbox_center":[150.000000,148.500000,0.892381],"boundingbox_size":[121.958206,51.164516,1.784761]}

;TYPE:Custom
M104 S0 ; Stops SuperSlicer from sending temp waits separately


; Pre-Processed for Cancel-Object support by preprocess_cancellation v0.2.0
; 1 known objects
EXCLUDE_OBJECT_DEFINE NAME=Trident_Bed_Mount_Cartridge_LID_stl_id_0_copy_0 CENTER=148.517,148.359 POLYGON=[[89.251,123.148],[89.251,173.845],[210.749,173.845],[210.749,123.148]]

M140 S0

print_start EXTRUDER=248 BED=105 CHAMBER=0
G21 ; set units to millimeters
G90 ; use absolute coordinates
M83 ; use relative distances for extrusion
; Filament gcode
;_TOOLCHANGE 0
M107
;LAYER_CHANGE
;Z:0.2
;HEIGHT:0.2
TIMELAPSE_TAKE_FRAME
;BEFORE_LAYER_CHANGE
;0.2


G1 E-0.8 F3000
G1 Z0.3 F9000
;AFTER_LAYER_CHANGE
;0.2
G92 E0
G1 Z0.5
G1 X88.942 Y122.315
G1 Z0.2
G1 E0.8 F1800
;TYPE:Skirt
;WIDTH:0.52
G1 F1950
G1 X88.273 Y123.001 E0.03801
G1 X87.795 Y123.831 E0.03801
G1 X87.603 Y124.432 E0.02502
G1 X87.563 Y124.856 E0.01688
G1 X87.563 Y168.609 E1.73569
G1 X87.625 Y169.149 E0.02155
G1 X88.078 Y170.142 E0.04331
G1 X89.205 Y170.953 E0.05508
G1 X89.584 Y171.051 E0.01551
G1 X116.695 Y175.709 E1.09125
G1 X120.04 Y176.14 E0.13378
G1 X121.9 Y176.247 E0.0739
G1 X178.098 Y176.247 E2.22933
G1 X179.817 Y176.151 E0.06833
G1 X182.441 Y175.85 E0.10475
G1 X210.479 Y171.04 E1.12853
G1 X211.352 Y170.684 E0.03739
G1 X212.042 Y169.978 E0.03918
G1 X212.375 Y169.149 E0.03543
G1 X212.437 Y168.609 E0.02155
G1 X212.437 Y124.856 E1.73569
G1 X212.397 Y124.432 E0.01688
G1 X212.205 Y123.831 E0.02502
G1 X211.458 Y122.683 E0.05436
G1 X211.058 Y122.315 E0.02155
G1 X210.242 Y121.813 E0.03801
G1 X208.913 Y121.476 E0.05436
G1 X91.358 Y121.459 E4.66334
G1 X90.673 Y121.528 E0.02732
G1 X89.758 Y121.813 E0.03801
G1 X88.993 Y122.283 E0.03563
G1 X89.22 Y122.702 F9000
G1 F1950
G1 X88.638 Y123.309 E0.03336
G1 X88.223 Y124.04 E0.03333
G1 X88.04 Y124.856 E0.03317
G1 X88.04 Y168.609 E1.73569
G1 X88.094 Y169.064 E0.01815
G1 X88.465 Y169.863 E0.03495
G1 X89.347 Y170.497 E0.0431
G1 X89.665 Y170.581 E0.01303
G1 X116.767 Y175.238 E1.09089
G1 X120.09 Y175.665 E0.13291
G1 X121.9 Y175.77 E0.07194
G1 X178.098 Y175.77 E2.2293
G1 X179.79 Y175.675 E0.06724
G1 X182.36 Y175.38 E0.10262
G1 X210.399 Y170.57 E1.12853
G1 X211.082 Y170.292 E0.02925
G1 X211.634 Y169.729 E0.03128
G1 X211.906 Y169.064 E0.02852
G1 X211.96 Y168.609 E0.01815
G1 X211.96 Y124.856 E1.73569
G1 X211.777 Y124.04 E0.03317
G1 X211.093 Y122.991 E0.04967
G1 X210.781 Y122.703 E0.01686
G1 X210.068 Y122.257 E0.03333
G1 X208.854 Y121.95 E0.04967
G1 X91.358 Y121.936 E4.66099
G1 X90.32 Y122.106 E0.04172
G1 X89.273 Y122.674 E0.04726
G1 X89.577 Y123.055 F9000
G1 F1950
G1 X89.271 Y123.299 E0.01551
G1 X88.652 Y124.249 E0.04498
G1 X88.517 Y124.856 E0.02467
G1 X88.563 Y168.978 E1.75032
G1 X88.851 Y169.584 E0.0266
G1 X89.488 Y170.042 E0.03111
G1 X89.745 Y170.11 E0.01056
G1 X116.839 Y174.766 E1.09053
G1 X120.14 Y175.191 E0.13203
G1 X121.901 Y175.293 E0.06998
G1 X178.098 Y175.293 E2.22928
G1 X179.762 Y175.199 E0.06615
G1 X182.279 Y174.909 E0.1005
G1 X210.318 Y170.099 E1.12853
G1 X210.811 Y169.899 E0.02112
G1 X211.227 Y169.481 E0.02338
G1 X211.437 Y168.978 E0.02161
G1 X211.483 Y168.609 E0.01475
G1 X211.483 Y124.856 E1.73569
G1 X211.348 Y124.249 E0.02467
G1 X211.165 Y123.874 E0.01653
G1 X210.503 Y123.091 E0.04069
G1 X209.506 Y122.55 E0.04499
G1 X208.795 Y122.423 E0.02865
G1 X91.358 Y122.414 E4.65865
G1 X90.494 Y122.55 E0.03472
G1 X89.836 Y122.848 E0.02865
G1 X89.624 Y123.017 E0.01076
M104 S248 ; set temperature
G1 E-0.8 F3000
G1 Z0.5 F9000
; printing object Trident_Bed_Mount_Cartridge_LID.stl id:0 copy 0
EXCLUDE_OBJECT_START NAME=Trident_Bed_Mount_Cartridge_LID_stl_id_0_copy_0
G1 X103.323 Y141.453
G1 Z0.2
G1 E0.8 F1800
;TYPE:Gap fill
;WIDTH:0.820074
G1 F2880
G1 X103.363 Y141.625 E0.01142
;WIDTH:0.749424
G1 X103.403 Y141.797 E0.01039
;WIDTH:0.713281
G1 X103.415 Y141.862 E0.00368
G1 X103.421 Y141.91 E0.00272
G1 X103.443 Y142.123 E0.01191
;WIDTH:0.621862
G1 X103.465 Y142.336 E0.01029
G1 X103.467 Y142.367 E0.00149
G1 X103.478 Y142.582 E0.01038
;WIDTH:0.568513
G1 X103.488 Y142.797 E0.00942
G1 X103.489 Y142.816 E0.00084
G1 X103.491 Y143.037 E0.00962
G1 X103.494 Y143.263 E0.00991
G1 X103.494 Y145.337 E0.09062
G1 X103.494 Y145.357 E0.0009
G1 X103.483 Y145.64 E0.01235
;WIDTH:0.62135
G1 X103.472 Y145.922 E0.01359
G1 X103.467 Y145.974 E0.0025
G1 X103.452 Y146.095 E0.00589
;WIDTH:0.663479
G1 X103.436 Y146.216 E0.00632
;WIDTH:0.705608
G1 X103.42 Y146.338 E0.00675
;WIDTH:0.747736
G1 X103.404 Y146.459 E0.00718
G1 X103.394 Y146.514 E0.00325
;WIDTH:0.694766
G1 X103.384 Y146.568 E0.00301
;WIDTH:0.726241
G1 X103.374 Y146.613 E0.00261
G1 X103.353 Y146.701 E0.00513
;WIDTH:0.774123
G1 X103.344 Y146.779 E0.00477
G1 X103.341 Y146.81 E0.00193
G1 X103.261 Y148.598 F9000
;TYPE:Solid infill
;WIDTH:0.616423
G1 F3000
G1 X102.742 Y148.079 E0.035
G1 X102.658 Y148.154 E0.00537
G1 X102.237 Y148.39 E0.02303
G1 X103.013 Y149.166 E0.05234
G1 X103.013 Y149.982 E0.03893
G1 X101.661 Y148.63 E0.09123
G1 X101.303 Y148.743 E0.0179
G1 X101.003 Y148.788 E0.01448
G1 X103.013 Y150.798 E0.13562
G1 X103.013 Y151.614 E0.03893
G1 X100.261 Y148.862 E0.1857
G1 X100.225 Y148.863 E0.00172
G1 X100.221 Y149.597 E0.03502
G1 X100.212 Y149.63 E0.0016
G1 X103.261 Y152.678 E0.20569
G1 X94.916 Y149.23 F9000
G1 F3000
G1 X91.204 Y145.518 E0.25045
G1 X91.204 Y144.702 E0.03894
G1 X94.669 Y148.167 E0.23379
G1 X94.67 Y147.352 E0.03889
G1 X91.204 Y143.885 E0.23386
G1 X91.204 Y143.069 E0.03894
G1 X94.671 Y146.536 E0.23393
G1 X94.672 Y145.721 E0.03889
G1 X91.204 Y142.253 E0.23399
G1 X91.203 Y141.437 E0.03894
G1 X94.673 Y144.906 E0.23406
G1 X94.674 Y144.091 E0.03889
G1 X91.203 Y140.621 E0.23413
G1 X91.203 Y139.804 E0.03894
G1 X94.674 Y143.276 E0.23419
G1 X94.675 Y142.46 E0.03889
G1 X91.203 Y138.988 E0.23426
G1 X91.203 Y138.172 E0.03894
G1 X94.676 Y141.645 E0.23433
G1 X94.677 Y140.904 E0.03536
G1 X94.699 Y140.852 E0.0027
G1 X91.203 Y137.356 E0.23585
G1 X91.203 Y136.54 E0.03894
G1 X94.95 Y140.287 E0.25284
G1 X95.359 Y139.879 E0.02753
G1 X91.203 Y135.723 E0.28037
G1 X91.203 Y134.907 E0.03894
G1 X95.928 Y139.632 E0.31878
G1 X96.172 Y139.567 E0.01207
G1 X96.68 Y139.568 E0.02423
G1 X91.203 Y134.091 E0.36955
G1 X91.203 Y133.275 E0.03894
G1 X97.499 Y139.571 E0.4248
G1 X98.318 Y139.574 E0.03907
G1 X91.203 Y132.459 E0.48006
G1 X91.203 Y131.643 E0.03894
G1 X99.056 Y139.496 E0.52989
G1 X99.127 Y139.483 E0.0034
G1 X99.835 Y139.458 E0.0338
G1 X91.202 Y130.826 E0.58239
G1 X91.202 Y130.01 E0.03894
G1 X100.685 Y139.492 E0.63975
G1 X100.825 Y139.498 E0.0067
G1 X101.664 Y139.655 E0.04073
G1 X91.202 Y129.194 E0.70582
G1 X91.202 Y128.378 E0.03894
G1 X103.013 Y140.189 E0.79686
G1 X103.013 Y139.372 E0.03893
G1 X91.202 Y127.562 E0.79686
G1 X91.202 Y126.745 E0.03894
G1 X103.013 Y138.556 E0.79687
G1 X103.065 Y138.144 E0.01983
G1 X103.168 Y137.895 E0.01284
G1 X91.202 Y125.929 E0.80734
G1 X91.202 Y125.19 E0.03527
G1 X91.209 Y125.179 E0.00064
G1 X91.247 Y125.158 E0.00205
G1 X103.481 Y137.392 E0.8254
G1 X103.555 Y137.296 E0.00579
G1 X103.872 Y137.052 E0.01909
G1 X103.926 Y137.021 E0.00297
G1 X92.004 Y125.099 E0.80438
G1 X92.82 Y125.099 E0.03894
G1 X104.444 Y136.722 E0.78421
G1 X104.961 Y136.424 E0.0285
G1 X93.636 Y125.099 E0.76405
G1 X94.453 Y125.099 E0.03894
G1 X105.478 Y136.125 E0.74388
G1 X105.996 Y135.826 E0.0285
G1 X95.269 Y125.1 E0.72372
G1 X96.085 Y125.1 E0.03894
G1 X106.513 Y135.528 E0.70355
G1 X107.031 Y135.229 E0.0285
G1 X96.902 Y125.1 E0.68339
G1 X97.718 Y125.1 E0.03894
G1 X107.548 Y134.93 E0.66322
G1 X108.065 Y134.631 E0.0285
G1 X98.534 Y125.1 E0.64306
G1 X99.35 Y125.1 E0.03894
G1 X108.583 Y134.333 E0.62289
G1 X109.1 Y134.034 E0.0285
G1 X100.167 Y125.1 E0.60273
G1 X100.983 Y125.101 E0.03894
G1 X109.618 Y133.735 E0.58256
G1 X110.135 Y133.437 E0.0285
G1 X101.799 Y125.101 E0.5624
G1 X102.615 Y125.101 E0.03894
G1 X110.652 Y133.138 E0.54223
G1 X111.17 Y132.839 E0.0285
G1 X103.432 Y125.101 E0.52207
G1 X104.248 Y125.101 E0.03894
G1 X111.687 Y132.54 E0.5019
G1 X112.204 Y132.242 E0.0285
G1 X105.064 Y125.101 E0.48174
G1 X105.881 Y125.102 E0.03894
G1 X112.722 Y131.943 E0.46157
G1 X113.239 Y131.644 E0.0285
G1 X106.697 Y125.102 E0.44141
G1 X107.513 Y125.102 E0.03894
G1 X113.757 Y131.345 E0.42124
G1 X114.274 Y131.047 E0.0285
G1 X108.329 Y125.102 E0.40108
G1 X109.146 Y125.102 E0.03894
G1 X114.791 Y130.748 E0.38091
G1 X115.309 Y130.449 E0.0285
G1 X109.962 Y125.102 E0.36075
G1 X110.778 Y125.103 E0.03894
G1 X115.826 Y130.151 E0.34058
G1 X116.344 Y129.852 E0.0285
G1 X111.594 Y125.103 E0.32042
G1 X112.411 Y125.103 E0.03894
G1 X116.899 Y129.591 E0.30279
G1 X117.395 Y129.523 E0.0239
G1 X117.686 Y129.562 E0.01399
G1 X113.227 Y125.103 E0.30082
G1 X114.043 Y125.103 E0.03894
G1 X119.264 Y130.324 E0.35225
G1 X121.195 Y131.439 E0.10637
G1 X114.86 Y125.103 E0.42746
G1 X115.676 Y125.104 E0.03894
G1 X123.126 Y132.554 E0.50266
G1 X125.057 Y133.669 E0.10637
G1 X116.492 Y125.104 E0.57787
G1 X117.308 Y125.104 E0.03894
G1 X126.988 Y134.783 E0.65307
G1 X128.919 Y135.898 E0.10637
G1 X118.125 Y125.104 E0.72828
G1 X118.941 Y125.104 E0.03894
G1 X150.22 Y156.383 E2.11033
G1 X150.334 Y156.377 E0.00545
G1 X151.166 Y156.513 E0.04024
G1 X119.757 Y125.104 E2.11911
G1 X120.574 Y125.105 E0.03894
G1 X166.501 Y171.032 E3.0987
G1 X167.209 Y171.259 E0.03544
G1 X167.662 Y171.376 E0.02231
G1 X121.39 Y125.105 E3.1219
G1 X122.206 Y125.105 E0.03894
G1 X168.763 Y171.662 E3.14116
G1 X169.43 Y171.835 E0.03287
G1 X169.827 Y171.91 E0.01926
G1 X123.022 Y125.105 E3.15785
G1 X123.839 Y125.105 E0.03894
G1 X170.832 Y172.099 E3.17058
G1 X171.74 Y172.269 E0.0441
G1 X171.829 Y172.28 E0.00427
G1 X124.655 Y125.105 E3.1828
G1 X125.471 Y125.105 E0.03894
G1 X172.754 Y172.388 E3.1901
G1 X173.678 Y172.496 E0.04441
G1 X126.287 Y125.106 E3.1974
G1 X127.104 Y125.106 E0.03894
G1 X174.834 Y172.837 E3.22033
G1 X165.684 Y171.031 F9000
G1 F3000
G1 X154.454 Y159.801 E0.75768
G1 X154.489 Y159.907 E0.00532
G1 X154.581 Y160.744 E0.04017
G1 X163.922 Y170.085 E0.63025
G1 X162.592 Y169.571 E0.06804
G1 X154.526 Y161.506 E0.54416
G1 X154.489 Y161.844 E0.01622
G1 X154.378 Y162.174 E0.01662
G1 X161.322 Y169.117 E0.46847
G1 X160.248 Y168.767 E0.05385
G1 X160.122 Y168.734 E0.00623
G1 X154.17 Y162.781 E0.40161
G1 X153.863 Y163.291 E0.02837
G1 X159.012 Y168.44 E0.34741
G1 X158.531 Y168.312 E0.02377
G1 X157.959 Y168.203 E0.02777
G1 X153.521 Y163.765 E0.29942
G1 X153.124 Y164.184 E0.02754
G1 X156.949 Y168.009 E0.25808
G1 X155.94 Y167.816 E0.04904
G1 X152.664 Y164.54 E0.22099
G1 X152.2 Y164.855 E0.02677
G1 X152.174 Y164.866 E0.00135
G1 X155.011 Y167.703 E0.19143
G1 X154.229 Y167.608 E0.03756
G1 X154.091 Y167.599 E0.00662
G1 X151.59 Y165.098 E0.16873
G1 X151.295 Y165.216 E0.01515
G1 X150.948 Y165.273 E0.01676
G1 X153.217 Y167.541 E0.15305
G1 X152.52 Y167.495 E0.0333
G1 X152.354 Y167.494 E0.00796
G1 X150.227 Y165.368 E0.14346
G1 X149.364 Y165.321 E0.04123
G1 X151.533 Y167.49 E0.14634
G1 X150.713 Y167.486 E0.03913
G1 X148.135 Y164.908 E0.17392
G1 X147.562 Y164.604 E0.03098
G1 X146.819 Y163.973 E0.04647
G1 X146.23 Y163.198 E0.04648
G1 X146.061 Y162.834 E0.01911
G1 X131.777 Y148.55 E0.96376
G1 X131.777 Y147.733 E0.03893
G1 X145.669 Y161.626 E0.93729
G1 X145.611 Y161.362 E0.01288
G1 X145.611 Y160.752 E0.02913
G1 X131.777 Y146.917 E0.93338
G1 X131.777 Y146.101 E0.03893
G1 X145.693 Y160.017 E0.93889
G1 X145.821 Y159.437 E0.02836
G1 X145.855 Y159.363 E0.00387
G1 X131.777 Y145.285 E0.94981
G1 X131.777 Y144.469 E0.03893
G1 X146.113 Y158.805 E0.96723
G1 X146.229 Y158.553 E0.01325
G1 X146.423 Y158.299 E0.01524
G1 X131.777 Y143.653 E0.98812
G1 X131.777 Y142.837 E0.03893
G1 X146.775 Y157.835 E1.01188
G1 X146.816 Y157.781 E0.00323
G1 X147.205 Y157.449 E0.02441
G1 X131.777 Y142.021 E1.04094
G1 X131.777 Y141.205 E0.03893
G1 X147.664 Y157.092 E1.0719
G1 X148.198 Y156.809 E0.0288
G1 X131.777 Y140.388 E1.10788
G1 X131.777 Y139.572 E0.03893
G1 X148.792 Y156.587 E1.14798
G1 X149.361 Y156.429 E0.02817
G1 X149.445 Y156.425 E0.00404
G1 X131.521 Y138.501 E1.20932
G1 X158.218 Y140.803 F9000
;TYPE:Gap fill
;WIDTH:0.393225
G1 F2880
G1 X158.202 Y140.838 E0.00111
G1 X158.172 Y140.901 E0.00203
G1 X158.153 Y140.95 E0.00153
;WIDTH:0.324311
G1 X158.123 Y141.037 E0.00216
;WIDTH:0.362883
G1 X158.115 Y141.114 E0.00204
;WIDTH:0.408852
G1 X158.11 Y141.182 E0.0021
G1 X158.105 Y141.274 E0.00279
G1 X158.103 Y141.833 E0.017
G1 X158.101 Y142.402 E0.01732
G1 X158.08 Y143.043 E0.01951
G1 X158.062 Y143.12 E0.00243
;WIDTH:0.510948
G1 X158.045 Y143.198 E0.00311
G1 X158.019 Y143.258 E0.0025
;WIDTH:0.571417
G1 X157.994 Y143.317 E0.00283
;WIDTH:0.631886
G1 X157.969 Y143.376 E0.00315
;WIDTH:0.692355
G1 X157.944 Y143.435 E0.00348
;WIDTH:0.752824
G1 X157.919 Y143.494 E0.0038
;WIDTH:0.813293
G1 X157.893 Y143.554 E0.00412
;WIDTH:0.759268
G1 X157.896 Y143.649 E0.0057
;WIDTH:0.624202
G1 X157.898 Y143.713 E0.00308
G1 X157.897 Y143.757 E0.00213
G1 X157.885 Y143.9 E0.00693
;WIDTH:0.697618
G1 X157.873 Y144.043 E0.00781
G1 X157.867 Y144.104 E0.00336
G1 X157.853 Y144.203 E0.00541
;WIDTH:0.742466
G1 X157.836 Y144.331 E0.00753
G1 E-0.8 F3000
G1 Z0.5 F9000
G1 X163.545 Y148.49
G1 Z0.2
G1 E0.8 F1800
;TYPE:Solid infill
;WIDTH:0.616423
G1 F3000
G1 X164.201 Y149.145 E0.0442
G1 X165.796 Y150.74 F9000
G1 F3000
G1 X168.138 Y153.082 E0.15801
G1 X168.138 Y152.266 E0.03893
G1 X166.86 Y150.988 E0.0862
G1 X167.676 Y150.988 E0.03893
G1 X168.386 Y151.698 E0.04788
G1 X168.505 Y150.085 F9000
;TYPE:Gap fill
;WIDTH:0.532889
G1 F2880
G1 X168.538 Y150.032 E0.00251
G1 X168.582 Y149.963 E0.00334
;WIDTH:0.442587
G1 X168.625 Y149.894 E0.00272
G1 X168.658 Y149.813 E0.00291
;WIDTH:0.488348
G1 X168.679 Y149.659 E0.00576
;WIDTH:0.407108
G1 X168.699 Y149.504 E0.00471
G1 X168.702 Y149.457 E0.00143
G1 X168.702 Y141.229 E0.24917
G1 X168.699 Y141.182 E0.00143
G1 X168.679 Y141.028 E0.00471
;WIDTH:0.488352
G1 X168.658 Y140.873 E0.00576
;WIDTH:0.442589
G1 X168.625 Y140.792 E0.00291
;WIDTH:0.4742
G1 X168.582 Y140.723 E0.00294
;WIDTH:0.583818
G1 X168.538 Y140.654 E0.00369
;WIDTH:0.634399
G1 X168.505 Y140.602 E0.00303
G1 E-0.8 F3000
G1 Z0.5 F9000
G1 X150.142 Y167.731
G1 Z0.2
G1 E0.8 F1800
;TYPE:Solid infill
;WIDTH:0.616423
G1 F3000
G1 X131.777 Y149.366 E1.23908
G1 X131.777 Y150.182 E0.03893
G1 X149.073 Y167.477 E1.16692
G1 X148.279 Y167.473 E0.03784
G1 X148.254 Y167.475 E0.00123
G1 X131.777 Y150.998 E1.11166
G1 X131.777 Y151.814 E0.03893
G1 X147.47 Y167.508 E1.05882
G1 X146.687 Y167.541 E0.03739
G1 X131.777 Y152.63 E1.00598
G1 X131.777 Y153.163 E0.02542
G1 X131.744 Y153.413 E0.01205
G1 X145.942 Y167.612 E0.95795
G1 X145.209 Y167.694 E0.03521
G1 X131.533 Y154.019 E0.92267
G1 X131.235 Y154.408 E0.02339
G1 X131.162 Y154.464 E0.00438
G1 X144.476 Y167.777 E0.89824
G1 X143.852 Y167.847 E0.02991
G1 X143.749 Y167.866 E0.00503
G1 X130.674 Y154.792 E0.88213
G1 X130.406 Y154.947 E0.01478
G1 X130.157 Y155.091 E0.01372
G1 X143.06 Y167.993 E0.87053
G1 X142.37 Y168.12 E0.03343
G1 X129.639 Y155.389 E0.85894
G1 X129.122 Y155.688 E0.0285
G1 X141.702 Y168.268 E0.84874
G1 X141.044 Y168.426 E0.03227
G1 X128.605 Y155.987 E0.83928
G1 X128.087 Y156.285 E0.0285
G1 X140.39 Y168.589 E0.83009
G1 X139.77 Y168.784 E0.03105
G1 X127.57 Y156.584 E0.8231
G1 X127.052 Y156.883 E0.0285
G1 X139.149 Y168.979 E0.81612
G1 X138.528 Y169.174 E0.03105
G1 X126.535 Y157.182 E0.80914
G1 X126.018 Y157.48 E0.0285
G1 X137.912 Y169.375 E0.80252
G1 X137.327 Y169.606 E0.03002
G1 X125.5 Y157.779 E0.79792
G1 X124.983 Y158.078 E0.0285
G1 X136.741 Y169.836 E0.79332
