; generated by SuperSlicer 2.4 on 2023-01-25 at 04:08:45 UTC


;
;

;
;
; 

; external perimeters extrusion width = 0.42mm
; perimeters extrusion width = 0.45mm
; infill extrusion width = 0.45mm
; solid infill extrusion width = 0.45mm
; top infill extrusion width = 0.42mm
; first layer extrusion width = 0.62mm

; object:{"name":"Trident_Bed_Mount_Plenum_LID","id":"Trident_Bed_Mount_Plenum_LID.stl id:0 copy 0","object_center":[150.000000,148.500000,0.000000],"boundingbox_center":[150.000000,148.500000,1.399880],"boundingbox_size":[122.789543,68.537434,2.799761]}
; plater:{"center":[150.000000,148.500000,0.000000],"boundingbox_center":[150.000000,148.500000,1.399880],"boundingbox_size":[122.789543,68.537434,2.799761]}

;TYPE:Custom
M104 S0 ; Stops SuperSlicer from sending temp waits separately


; Pre-Processed for Cancel-Object support by preprocess_cancellation v0.2.0
; 1 known objects
EXCLUDE_OBJECT_DEFINE NAME=Trident_Bed_Mount_Plenum_LID_stl_id_0_copy_0 CENTER=148.578,150.337 POLYGON=[[88.833,114.441],[88.833,182.559],[211.167,182.559],[211.167,114.441]]

M140 S0

print_start EXTRUDER=248 BED=105 CHAMBER=0
G21 ; set units to millimeters
G90 ; use absolute coordinates
M83 ; use relative distances for extrusion
; Filament gcode
;_TOOLCHANGE 0
M107
;LAYER_CHANGE
;Z:0.2
;HEIGHT:0.2
TIMELAPSE_TAKE_FRAME
;BEFORE_LAYER_CHANGE
;0.2


G1 E-0.8 F3000
G1 Z0.3 F9000
;AFTER_LAYER_CHANGE
;0.2
G92 E0
G1 Z0.5
G1 X88.085 Y112.178
G1 Z0.2
G1 E0.8 F1800
;TYPE:Skirt
;WIDTH:0.52
G1 F1950
G1 X86.989 Y113.088 E0.05652
G1 X86.465 Y113.947 E0.03993
G1 X86.144 Y115.068 E0.04626
G1 X86.043 Y125.849 E0.4277
G1 X86.14 Y160.815 E1.38706
G1 X86.404 Y161.985 E0.0476
G1 X98.317 Y182.693 E0.94771
G1 X99.147 Y183.717 E0.05227
G1 X99.791 Y184.252 E0.03322
G1 X100.791 Y184.83 E0.04584
G1 X102.035 Y185.225 E0.05176
G1 X103.14 Y185.342 E0.0441
G1 X196.845 Y185.342 E3.71721
G1 X197.938 Y185.227 E0.04358
G1 X199.047 Y184.893 E0.04595
G1 X199.876 Y184.469 E0.03695
G1 X200.527 Y183.994 E0.03196
G1 X201.167 Y183.362 E0.03566
G1 X201.813 Y182.474 E0.0436
G1 X213.461 Y162.286 E0.92459
G1 X213.703 Y161.663 E0.02648
G1 X213.86 Y160.72 E0.03794
G1 X213.961 Y125.863 E1.38275
G1 X213.861 Y115.276 E0.42
G1 X213.758 Y114.633 E0.02585
G1 X213.534 Y113.929 E0.02932
G1 X212.83 Y112.893 E0.04966
G1 X212.031 Y112.242 E0.04088
G1 X210.648 Y111.749 E0.05825
G1 X202.388 Y111.739 E0.32767
G1 X89.649 Y111.739 E4.47227
G1 X88.874 Y111.88 E0.03126
G1 X88.142 Y112.157 E0.03107
G1 X88.31 Y112.603 F9000
G1 F1950
G1 X88.254 Y112.625 E0.00238
G1 X87.396 Y113.336 E0.04422
G1 X86.872 Y114.195 E0.03993
G1 X86.621 Y115.073 E0.0362
G1 X86.52 Y125.849 E0.42752
G1 X86.617 Y160.813 E1.387
G1 X86.859 Y161.842 E0.04195
G1 X98.699 Y182.407 E0.94133
G1 X99.459 Y183.356 E0.04823
G1 X100.058 Y183.857 E0.03096
G1 X101 Y184.401 E0.04319
G1 X102.092 Y184.752 E0.04547
G1 X103.14 Y184.865 E0.04184
G1 X196.845 Y184.865 E3.71721
G1 X197.881 Y184.753 E0.04132
G1 X198.846 Y184.46 E0.04002
G1 X199.602 Y184.079 E0.0336
G1 X200.208 Y183.639 E0.0297
G1 X200.785 Y183.076 E0.03196
G1 X201.4 Y182.235 E0.04133
G1 X213.048 Y162.047 E0.92459
G1 X213.237 Y161.56 E0.02072
G1 X213.383 Y160.718 E0.0339
G1 X213.483 Y125.863 E1.38269
G1 X213.384 Y115.281 E0.41982
G1 X213.303 Y114.777 E0.02023
G1 X213.079 Y114.073 E0.02932
G1 X212.528 Y113.263 E0.03885
G1 X211.73 Y112.612 E0.04088
G1 X210.648 Y112.226 E0.04558
G1 X202.388 Y112.216 E0.32767
G1 X89.649 Y112.216 E4.47225
G1 X89.043 Y112.326 E0.02446
G1 X88.366 Y112.582 E0.02869
G1 X88.535 Y113.028 F9000
G1 F1950
G1 X88.423 Y113.071 E0.00476
G1 X87.803 Y113.584 E0.03192
G1 X87.279 Y114.444 E0.03993
G1 X87.098 Y115.077 E0.02613
G1 X86.997 Y125.849 E0.42735
G1 X87.094 Y160.812 E1.38694
G1 X87.315 Y161.7 E0.03629
G1 X98.999 Y181.997 E0.92908
G1 X99.59 Y182.801 E0.03958
G1 X100.324 Y183.462 E0.03917
G1 X101.209 Y183.973 E0.04054
G1 X102.149 Y184.278 E0.03918
G1 X103.14 Y184.388 E0.03958
G1 X196.845 Y184.388 E3.71721
G1 X197.824 Y184.279 E0.03906
G1 X198.645 Y184.027 E0.03408
G1 X199.328 Y183.688 E0.03025
G1 X199.889 Y183.284 E0.02744
G1 X200.403 Y182.79 E0.02827
G1 X200.987 Y181.997 E0.03907
G1 X212.635 Y161.809 E0.92459
G1 X212.906 Y160.717 E0.04463
G1 X213.006 Y125.863 E1.38262
G1 X212.906 Y115.285 E0.41964
G1 X212.848 Y114.922 E0.0146
G1 X212.624 Y114.218 E0.02932
G1 X212.227 Y113.633 E0.02805
G1 X211.428 Y112.982 E0.04088
G1 X210.647 Y112.703 E0.0329
G1 X202.387 Y112.693 E0.32767
G1 X89.649 Y112.693 E4.47222
G1 X89.212 Y112.773 E0.01766
G1 X88.591 Y113.007 E0.02631
G1 X89.477 Y114.675 F9000
;WIDTH:0.62
G1 F1950
G1 X89.717 Y114.589 E0.01222
G1 X89.872 Y114.566 E0.00753
G1 X97.98 Y114.575 E0.38906
G1 X99.15 Y114.605 E0.05614
G1 X100.685 Y114.721 E0.0739
G1 X102.213 Y114.913 E0.0739
G1 X103.73 Y115.182 E0.07391
G1 X105.231 Y115.527 E0.07391
G1 X106.721 Y115.948 E0.07426
G1 X108.174 Y116.439 E0.07361
G1 X111.075 Y117.586 E0.14969
G1 X112.575 Y118.103 E0.07615
G1 X114.097 Y118.551 E0.07614
G1 X115.639 Y118.93 E0.07615
G1 X117.195 Y119.238 E0.07615
G1 X118.765 Y119.474 E0.07615
G1 X120.343 Y119.639 E0.07615
G1 X121.923 Y119.73 E0.07592
G1 X124.378 Y119.73 E0.1178
G1 X125.957 Y119.639 E0.07592
G1 X127.536 Y119.474 E0.07615
G1 X129.105 Y119.238 E0.07615
G1 X130.662 Y118.93 E0.07615
G1 X132.203 Y118.552 E0.07614
G1 X133.725 Y118.104 E0.07614
G1 X135.225 Y117.586 E0.07615
G1 X138.147 Y116.431 E0.15076
G1 X139.601 Y115.942 E0.07358
G1 X141.069 Y115.527 E0.07323
G1 X142.57 Y115.182 E0.07391
G1 X144.087 Y114.913 E0.07391
G1 X145.615 Y114.721 E0.0739
G1 X147.151 Y114.605 E0.0739
G1 X148.692 Y114.566 E0.07396
G1 X151.318 Y114.566 E0.12602
G1 X152.863 Y114.605 E0.07415
G1 X154.406 Y114.721 E0.07425
G1 X155.927 Y114.913 E0.07356
G1 X157.422 Y115.178 E0.07288
G1 X158.945 Y115.527 E0.07497
G1 X160.435 Y115.948 E0.07428
G1 X161.888 Y116.439 E0.07362
G1 X164.789 Y117.587 E0.14967
G1 X166.288 Y118.104 E0.07611
G1 X167.81 Y118.552 E0.07611
G1 X169.35 Y118.93 E0.07611
G1 X170.906 Y119.238 E0.07612
G1 X172.475 Y119.474 E0.07611
G1 X174.053 Y119.639 E0.07611
G1 X175.631 Y119.73 E0.07589
G1 X178.086 Y119.73 E0.1178
G1 X179.665 Y119.639 E0.07589
G1 X181.243 Y119.474 E0.07612
G1 X182.812 Y119.238 E0.07612
G1 X184.368 Y118.931 E0.07611
G1 X185.908 Y118.552 E0.07611
G1 X187.43 Y118.104 E0.07611
G1 X188.929 Y117.587 E0.07611
G1 X191.83 Y116.439 E0.14968
G1 X193.304 Y115.942 E0.07466
G1 X194.773 Y115.527 E0.07324
G1 X196.267 Y115.184 E0.07358
G1 X197.805 Y114.911 E0.07496
G1 X199.341 Y114.719 E0.07426
G1 X200.855 Y114.605 E0.07287
G1 X202.385 Y114.566 E0.07345
G1 X210.211 Y114.575 E0.3755
G1 X210.308 Y114.592 E0.00474
G1 X210.495 Y114.659 E0.00951
G1 X210.581 Y114.707 E0.00474
G1 X210.762 Y114.855 E0.01121
G1 X210.913 Y115.055 E0.01204
G1 X211.006 Y115.31 E0.013
G1 X211.034 Y115.485 E0.0085
G1 X211.037 Y124.407 E0.42813
G1 X211.055 Y124.869 E0.02217
G1 X211.134 Y125.898 E0.04953
G1 X211.133 Y129.888 E0.19143
G1 X211.067 Y130.445 E0.02692
G1 X211.041 Y130.891 E0.02145
G1 X211.034 Y131.36 E0.02253
G1 X211.033 Y160.58 E1.4021
G1 X210.983 Y160.87 E0.01412
G1 X210.938 Y160.995 E0.00635
G1 X199.392 Y181.013 E1.10888
G1 X198.958 Y181.594 E0.03479
G1 X198.651 Y181.874 E0.01994
G1 X198.251 Y182.145 E0.02317
G1 X197.874 Y182.317 E0.01992
G1 X197.51 Y182.429 E0.01828
G1 X196.773 Y182.515 E0.03561
G1 X103.213 Y182.515 E4.4894
G1 X102.471 Y182.429 E0.03583
G1 X102.013 Y182.278 E0.02317
G1 X101.654 Y182.099 E0.0192
G1 X101.391 Y181.919 E0.01534
G1 X101.095 Y181.664 E0.01873
G1 X101.011 Y181.573 E0.00594
G1 X100.585 Y180.998 E0.03434
G1 X89.113 Y161.128 E1.10098
G1 X88.994 Y160.795 E0.01693
G1 X88.967 Y160.622 E0.00841
G1 X88.968 Y131.353 E1.40446
G1 X88.96 Y130.884 E0.0225
G1 X88.932 Y130.432 E0.02174
G1 X88.87 Y129.875 E0.02689
G1 X88.87 Y125.881 E0.19165
G1 X88.948 Y124.85 E0.04961
G1 X88.966 Y124.387 E0.02223
G1 X88.971 Y115.43 E0.4298
G1 X88.982 Y115.352 E0.00379
G1 X89.056 Y115.127 E0.01138
G1 X89.184 Y114.918 E0.01177
G1 X89.247 Y114.845 E0.00459
G1 X89.394 Y114.723 E0.00922
G1 X89.425 Y114.705 E0.00171
G1 X89.726 Y115.198 F9000
G1 F1950
G1 X89.846 Y115.152 E0.00616
G1 X89.898 Y115.143 E0.00252
G1 X97.981 Y115.152 E0.38789
G1 X99.117 Y115.181 E0.05453
G1 X100.617 Y115.294 E0.07217
G1 X102.116 Y115.482 E0.07252
G1 X103.612 Y115.747 E0.07287
G1 X105.078 Y116.083 E0.07218
G1 X106.533 Y116.494 E0.07253
G1 X107.972 Y116.979 E0.0729
G1 X110.875 Y118.127 E0.14978
G1 X112.4 Y118.653 E0.0774
G1 X113.947 Y119.109 E0.0774
G1 X115.514 Y119.493 E0.07741
G1 X117.096 Y119.806 E0.07741
G1 X118.692 Y120.047 E0.07742
G1 X120.296 Y120.214 E0.07741
G1 X121.906 Y120.307 E0.07736
G1 X124.395 Y120.307 E0.11941
G1 X126.004 Y120.214 E0.07736
G1 X127.609 Y120.047 E0.07742
G1 X129.204 Y119.807 E0.07741
G1 X130.787 Y119.494 E0.07742
G1 X132.354 Y119.109 E0.07741
G1 X133.901 Y118.653 E0.0774
G1 X135.426 Y118.128 E0.0774
G1 X138.328 Y116.979 E0.14978
G1 X139.761 Y116.496 E0.07255
G1 X141.216 Y116.085 E0.07253
G1 X142.696 Y115.745 E0.07287
G1 X144.184 Y115.482 E0.07252
G1 X145.676 Y115.294 E0.07217
G1 X147.183 Y115.181 E0.07251
G1 X148.697 Y115.143 E0.07266
G1 X151.316 Y115.143 E0.12568
G1 X152.83 Y115.181 E0.07267
G1 X154.337 Y115.294 E0.07252
G1 X155.837 Y115.483 E0.07253
G1 X157.325 Y115.747 E0.07253
G1 X158.799 Y116.085 E0.07254
G1 X160.247 Y116.494 E0.0722
G1 X161.679 Y116.978 E0.07255
G1 X164.588 Y118.128 E0.15011
G1 X166.113 Y118.653 E0.07736
G1 X167.659 Y119.109 E0.07737
G1 X169.225 Y119.494 E0.07737
G1 X170.807 Y119.806 E0.07738
G1 X172.402 Y120.047 E0.07738
G1 X174.006 Y120.214 E0.07738
G1 X175.615 Y120.307 E0.07733
G1 X178.103 Y120.307 E0.11941
G1 X179.712 Y120.214 E0.07733
G1 X181.316 Y120.047 E0.07738
G1 X182.911 Y119.807 E0.07738
G1 X184.493 Y119.494 E0.07738
G1 X186.059 Y119.11 E0.07737
G1 X187.605 Y118.654 E0.07737
G1 X189.129 Y118.128 E0.07736
G1 X192.032 Y116.98 E0.14976
G1 X193.471 Y116.494 E0.07291
G1 X194.919 Y116.085 E0.0722
G1 X196.392 Y115.747 E0.07254
G1 X197.881 Y115.483 E0.07253
G1 X199.388 Y115.294 E0.07287
G1 X200.888 Y115.181 E0.07218
G1 X202.398 Y115.143 E0.0725
G1 X210.161 Y115.152 E0.37249
G1 X210.254 Y115.186 E0.00477
G1 X210.365 Y115.276 E0.00684
G1 X210.412 Y115.345 E0.00404
G1 X210.45 Y115.463 E0.00595
G1 X210.457 Y115.507 E0.00213
G1 X210.46 Y124.419 E0.4276
G1 X210.479 Y124.902 E0.02324
G1 X210.556 Y125.904 E0.04819
G1 X210.556 Y129.878 E0.19073
G1 X210.555 Y129.897 E0.00088
G1 X210.492 Y130.391 E0.02392
G1 X210.464 Y130.87 E0.02301
G1 X210.457 Y131.356 E0.02335
G1 X210.456 Y160.565 E1.40154
G1 X210.453 Y160.596 E0.00151
G1 X210.424 Y160.724 E0.0063
G1 X210.408 Y160.765 E0.00212
G1 X198.905 Y180.702 E1.10446
G1 X198.522 Y181.214 E0.03069
G1 X198.503 Y181.235 E0.00136
G1 X198.299 Y181.417 E0.01314
G1 X198.019 Y181.614 E0.01641
G1 X197.997 Y181.627 E0.00123
G1 X197.687 Y181.771 E0.01642
G1 X197.427 Y181.857 E0.01314
G1 X197.399 Y181.863 E0.00136
G1 X196.764 Y181.938 E0.03069
G1 X103.221 Y181.938 E4.48857
G1 X102.586 Y181.863 E0.03071
G1 X102.556 Y181.856 E0.00149
G1 X102.226 Y181.741 E0.01675
G1 X101.986 Y181.626 E0.01278
G1 X101.969 Y181.615 E0.00097
G1 X101.762 Y181.476 E0.01196
G1 X101.484 Y181.237 E0.01757
G1 X101.463 Y181.215 E0.00149
G1 X101.08 Y180.702 E0.0307
G1 X89.62 Y160.853 E1.0998
G1 X89.607 Y160.824 E0.00152
G1 X89.551 Y160.643 E0.00906
G1 X89.544 Y160.6 E0.00211
G1 X89.545 Y131.348 E1.40365
G1 X89.537 Y130.861 E0.02336
G1 X89.507 Y130.38 E0.02314
G1 X89.447 Y129.867 E0.0248
G1 X89.447 Y126.884 E0.14313
G1 X89.447 Y125.887 E0.04784
G1 X89.524 Y124.884 E0.04826
G1 X89.543 Y124.399 E0.02328
G1 X89.548 Y115.47 E0.42845
G1 X89.57 Y115.394 E0.00381
G1 X89.652 Y115.259 E0.00757
G1 X89.68 Y115.236 E0.00174
M104 S248 ; set temperature
G1 E-0.8 F3000
G1 Z0.5 F9000
; printing object Trident_Bed_Mount_Plenum_LID.stl id:0 copy 0
EXCLUDE_OBJECT_START NAME=Trident_Bed_Mount_Plenum_LID_stl_id_0_copy_0
G1 X92.066 Y124.696
G1 Z0.2
G1 E0.8 F1800
;TYPE:Solid infill
;WIDTH:0.615477
G1 F3000
G1 X91.152 Y123.782 E0.06158
G1 X91.153 Y122.966 E0.03885
G1 X92.631 Y124.445 E0.09962
G1 X93.447 Y124.445 E0.03887
G1 X91.153 Y122.151 E0.15457
G1 X91.153 Y121.335 E0.03885
G1 X94.263 Y124.445 E0.20951
G1 X95.079 Y124.445 E0.03887
G1 X91.154 Y120.519 E0.26445
G1 X91.154 Y119.704 E0.03885
G1 X95.896 Y124.445 E0.3194
G1 X96.712 Y124.445 E0.03887
G1 X91.155 Y118.888 E0.37434
G1 X91.155 Y118.072 E0.03885
G1 X97.528 Y124.445 E0.42928
G1 X98.344 Y124.445 E0.03887
G1 X91.155 Y117.257 E0.48423
G1 X91.156 Y116.754 E0.02394
G1 X91.47 Y116.755 E0.01499
G1 X109.853 Y135.138 E1.23832
G1 X110.514 Y134.982 E0.03234
G1 X92.29 Y116.759 E1.22763
G1 X93.11 Y116.762 E0.03904
G1 X111.223 Y134.876 E1.22024
G1 X111.94 Y134.776 E0.03445
G1 X93.929 Y116.766 E1.21328
G1 X94.749 Y116.769 E0.03904
G1 X112.683 Y134.704 E1.20816
G1 X113.463 Y134.668 E0.0372
G1 X95.569 Y116.773 E1.20549
G1 X96.388 Y116.776 E0.03904
G1 X114.251 Y134.639 E1.20332
G1 X115.068 Y134.64 E0.03893
G1 X97.208 Y116.78 E1.20315
G1 X98.027 Y116.783 E0.03904
G1 X115.885 Y134.641 E1.20299
G1 X116.702 Y134.642 E0.03893
G1 X98.847 Y116.787 E1.20282
G1 X99.038 Y116.788 E0.00907
G1 X99.715 Y116.839 E0.03236
G1 X117.52 Y134.643 E1.19941
G1 X118.24 Y134.644 E0.03432
G1 X118.346 Y134.653 E0.00505
G1 X100.605 Y116.913 E1.19507
G1 X101.539 Y117.031 E0.04482
G1 X119.238 Y134.729 E1.19227
G1 X119.82 Y134.779 E0.02782
G1 X119.893 Y135.089 E0.01518
G1 X120.245 Y134.921 E0.0186
G1 X102.509 Y117.185 E1.19477
G1 X103.288 Y117.323 E0.03767
G1 X103.516 Y117.375 E0.01111
G1 X120.798 Y134.657 E1.16422
G1 X120.835 Y134.639 E0.00198
G1 X121.596 Y134.639 E0.03624
G1 X104.574 Y117.618 E1.14666
G1 X104.683 Y117.642 E0.0053
G1 X105.704 Y117.931 E0.05054
G1 X122.412 Y134.639 E1.12555
G1 X123.228 Y134.639 E0.03887
G1 X106.906 Y118.317 E1.09954
G1 X107.415 Y118.489 E0.0256
G1 X108.207 Y118.802 E0.04057
G1 X124.044 Y134.639 E1.06687
G1 X124.86 Y134.639 E0.03887
G1 X109.557 Y119.336 E1.0309
G1 X110.317 Y119.636 E0.0389
G1 X110.862 Y119.824 E0.02745
G1 X125.677 Y134.639 E0.99802
G1 X126.493 Y134.639 E0.03887
G1 X112.093 Y120.239 E0.97005
G1 X113.249 Y120.58 E0.05743
G1 X127.309 Y134.639 E0.94711
G1 X128.125 Y134.639 E0.03887
G1 X114.349 Y120.864 E0.928
G1 X115.166 Y121.064 E0.04005
G1 X115.415 Y121.113 E0.01211
G1 X128.941 Y134.639 E0.91117
G1 X129.757 Y134.639 E0.03887
G1 X116.433 Y121.315 E0.89761
G1 X116.82 Y121.391 E0.01883
G1 X117.415 Y121.481 E0.02864
G1 X130.573 Y134.639 E0.88641
G1 X131.389 Y134.639 E0.03887
G1 X118.376 Y121.626 E0.87665
G1 X118.488 Y121.643 E0.00542
G1 X119.293 Y121.727 E0.03852
G1 X132.205 Y134.639 E0.86986
G1 X133.022 Y134.639 E0.03887
G1 X120.202 Y121.82 E0.86359
G1 X121.068 Y121.87 E0.04134
G1 X133.838 Y134.639 E0.8602
G1 X134.654 Y134.639 E0.03887
G1 X121.93 Y121.916 E0.85711
G1 X122.747 Y121.916 E0.03887
G1 X135.481 Y134.65 E0.85785
G1 X136.268 Y134.676 E0.0375
G1 X136.335 Y134.688 E0.00327
G1 X123.563 Y121.916 E0.86042
G1 X124.379 Y121.916 E0.03887
G1 X137.504 Y135.041 E0.88416
G1 X138.052 Y134.773 E0.02907
G1 X125.154 Y121.874 E0.86891
G1 X125.925 Y121.83 E0.0368
G1 X138.734 Y134.639 E0.86291
G1 X139.551 Y134.639 E0.03889
G1 X126.673 Y121.761 E0.86753
G1 X127.412 Y121.684 E0.0354
G1 X140.367 Y134.64 E0.87274
G1 X141.184 Y134.64 E0.03889
G1 X128.137 Y121.594 E0.87887
G1 X128.847 Y121.487 E0.03417
G1 X142 Y134.641 E0.88608
G1 X142.817 Y134.641 E0.03889
G1 X129.553 Y121.377 E0.8935
G1 X130.234 Y121.243 E0.03309
G1 X143.633 Y134.641 E0.90259
G1 X144.449 Y134.642 E0.03889
G1 X130.916 Y121.108 E0.91169
G1 X131.135 Y121.065 E0.01062
G1 X131.58 Y120.956 E0.02182
G1 X145.266 Y134.642 E0.92198
G1 X146.082 Y134.642 E0.03889
G1 X132.235 Y120.795 E0.93284
G1 X132.773 Y120.663 E0.02639
G1 X132.886 Y120.629 E0.0056
G1 X146.899 Y134.643 E0.94401
G1 X147.715 Y134.643 E0.03889
G1 X133.516 Y120.444 E0.95654
G1 X134.146 Y120.258 E0.0313
G1 X148.532 Y134.643 E0.96907
G1 X149.348 Y134.644 E0.03889
G1 X134.762 Y120.058 E0.98258
G1 X135.369 Y119.848 E0.03058
G1 X150.165 Y134.644 E0.9967
G1 X150.93 Y134.644 E0.03645
G1 X150.986 Y134.649 E0.00266
G1 X135.976 Y119.639 E1.01112
G1 X136.561 Y119.408 E0.02996
G1 X147.399 Y130.246 E0.73009
G1 X146.285 Y128.316 E0.10616
