; generated by SuperSlicer 2.4 on 2023-01-26 at 01:20:51 UTC


;
;

;
;
; 

; external perimeters extrusion width = 0.52mm
; perimeters extrusion width = 0.56mm
; infill extrusion width = 0.56mm
; solid infill extrusion width = 0.56mm
; top infill extrusion width = 0.52mm
; first layer extrusion width = 0.77mm

; object:{"name":"Trident_Bed_Mount_Bracket_Right","id":"Trident_Bed_Mount_Bracket_Right.stl id:0 copy 0","object_center":[140.455867,155.845018,0.000000],"boundingbox_center":[140.455867,155.845018,10.875000],"boundingbox_size":[104.333000,157.712708,21.750000]}
; plater:{"center":[140.455867,155.845018,0.000000],"boundingbox_center":[140.455867,155.845018,10.875000],"boundingbox_size":[104.333000,157.712708,21.750000]}

;TYPE:Custom
M104 S0 ; Stops SuperSlicer from sending temp waits separately


; Pre-Processed for Cancel-Object support by preprocess_cancellation v0.2.0
; 1 known objects
EXCLUDE_OBJECT_DEFINE NAME=Trident_Bed_Mount_Bracket_Right_stl_id_0_copy_0 CENTER=149.689,144.373 POLYGON=[[88.552,77.251],[88.552,234.439],[192.36,234.439],[192.36,77.251]]

M140 S0

print_start EXTRUDER=248 BED=105 CHAMBER=0
G21 ; set units to millimeters
G90 ; use absolute coordinates
M83 ; use relative distances for extrusion
; Filament gcode
;_TOOLCHANGE 0
M107
;LAYER_CHANGE
;Z:0.2
;HEIGHT:0.2
TIMELAPSE_TAKE_FRAME
;BEFORE_LAYER_CHANGE
;0.2


G1 E-0.8 F3000
G1 Z0.3 F9000
;AFTER_LAYER_CHANGE
;0.2
G92 E0
G1 Z0.5
G1 X86.656 Y76.62
G1 Z0.2
G1 E0.8 F1800
;TYPE:Skirt
;WIDTH:0.65
G1 F1950
G1 X86.184 Y77.375 E0.04496
G1 X85.924 Y78.227 E0.04497
G1 X85.872 Y78.789 E0.02847
G1 X85.872 Y81.789 E0.15144
G1 X85.984 Y82.769 E0.0498
G1 X115.828 Y233.682 E7.76543
G1 X116.162 Y234.615 E0.05003
G1 X116.792 Y235.578 E0.05809
G1 X117.257 Y236.042 E0.03318
G1 X118.22 Y236.673 E0.05809
G1 X119.313 Y237.033 E0.05809
G1 X120.133 Y237.119 E0.04164
G1 X159.893 Y237.119 E2.00703
G1 X161.348 Y236.863 E0.07459
G1 X162.086 Y236.537 E0.0407
G1 X172.27 Y230.752 E0.59125
G1 X193.036 Y217.209 E1.25144
G1 X194.068 Y216.26 E0.07076
G1 X194.638 Y215.33 E0.05511
G1 X194.962 Y214.287 E0.05511
G1 X195.04 Y213.509 E0.03949
G1 X195.04 Y78.789 E6.80051
G1 X194.818 Y77.592 E0.06143
G1 X194.256 Y76.62 E0.0567
G1 X193.791 Y76.155 E0.03318
G1 X193.036 Y75.683 E0.04496
G1 X191.951 Y75.393 E0.05669
G1 X89.289 Y75.371 E5.18225
G1 X88.093 Y75.593 E0.06143
G1 X87.307 Y76.012 E0.04496
G1 X86.71 Y76.568 E0.04118
G1 X87.137 Y76.989 F9000
G1 F1950
G1 X86.745 Y77.607 E0.03696
G1 X86.479 Y78.789 E0.06112
G1 X86.479 Y81.789 E0.15144
G1 X86.58 Y82.651 E0.04383
G1 X116.424 Y233.564 E7.76543
G1 X116.723 Y234.383 E0.044
G1 X117.274 Y235.208 E0.05011
G1 X117.627 Y235.561 E0.02518
G1 X118.452 Y236.112 E0.05011
G1 X119.392 Y236.431 E0.05011
G1 X120.133 Y236.512 E0.03763
G1 X159.893 Y236.512 E2.00703
G1 X161.116 Y236.302 E0.06264
G1 X161.786 Y236.009 E0.03692
G1 X171.938 Y230.243 E0.58936
G1 X192.704 Y216.7 E1.25144
G1 X193.574 Y215.907 E0.05942
G1 X194.073 Y215.109 E0.04753
G1 X194.36 Y214.212 E0.04753
G1 X194.433 Y213.509 E0.03569
G1 X194.433 Y78.789 E6.80051
G1 X194.257 Y77.825 E0.04947
G1 X193.775 Y76.989 E0.0487
G1 X193.422 Y76.636 E0.02518
G1 X192.804 Y76.244 E0.03696
G1 X191.872 Y75.994 E0.04869
G1 X89.289 Y75.978 E5.17825
G1 X88.325 Y76.154 E0.04947
G1 X87.676 Y76.493 E0.03696
G1 X87.192 Y76.938 E0.03319
G1 X87.619 Y77.359 F9000
G1 F1950
G1 X87.306 Y77.84 E0.02897
G1 X87.086 Y78.789 E0.04917
G1 X87.086 Y81.789 E0.15144
G1 X87.175 Y82.533 E0.03786
G1 X117.019 Y233.446 E7.76543
G1 X117.283 Y234.15 E0.03797
G1 X117.755 Y234.838 E0.04213
G1 X118.684 Y235.551 E0.0591
G1 X119.471 Y235.829 E0.04213
G1 X120.133 Y235.905 E0.03363
G1 X159.893 Y235.905 E2.00703
G1 X160.884 Y235.741 E0.05069
G1 X161.486 Y235.481 E0.03314
G1 X171.607 Y229.735 E0.58746
G1 X192.372 Y216.192 E1.25144
G1 X193.08 Y215.554 E0.04808
G1 X193.507 Y214.888 E0.03996
G1 X193.758 Y214.137 E0.03996
G1 X193.826 Y213.509 E0.0319
G1 X193.826 Y78.789 E6.80051
G1 X193.696 Y78.057 E0.03752
G1 X193.293 Y77.359 E0.04069
G1 X192.571 Y76.805 E0.04592
G1 X191.793 Y76.596 E0.04069
G1 X89.289 Y76.585 E5.17425
G1 X88.558 Y76.715 E0.03752
G1 X88.046 Y76.975 E0.02897
G1 X87.675 Y77.309 E0.02519
M104 S248 ; set temperature
G1 E-0.8 F3000
G1 Z0.5 F9000
; printing object Trident_Bed_Mount_Bracket_Right.stl id:0 copy 0
EXCLUDE_OBJECT_START NAME=Trident_Bed_Mount_Bracket_Right_stl_id_0_copy_0
G1 X91.444 Y82.035
G1 Z0.2
G1 E0.8 F1800
;TYPE:Solid infill
;WIDTH:0.749404
G1 F3000
G1 X90.358 Y80.949 E0.09042
G1 X90.358 Y79.913 E0.06094
G1 X92.165 Y81.72 E0.1504
G1 X93.2 Y81.72 E0.06094
G1 X91.337 Y79.857 E0.15505
G1 X92.373 Y79.858 E0.06095
G1 X94.235 Y81.72 E0.15504
G1 X95.271 Y81.72 E0.06094
G1 X93.408 Y79.858 E0.15503
G1 X94.444 Y79.858 E0.06095
G1 X96.306 Y81.72 E0.15502
G1 X97.341 Y81.72 E0.06094
G1 X95.479 Y79.858 E0.15501
G1 X96.515 Y79.858 E0.06095
G1 X98.377 Y81.72 E0.155
G1 X99.412 Y81.72 E0.06094
G1 X97.55 Y79.858 E0.15499
G1 X98.585 Y79.858 E0.06095
G1 X100.447 Y81.72 E0.15498
G1 X101.483 Y81.72 E0.06094
G1 X99.621 Y79.858 E0.15497
G1 X100.656 Y79.859 E0.06095
G1 X102.518 Y81.72 E0.15496
G1 X103.553 Y81.72 E0.06094
G1 X101.692 Y79.859 E0.15495
G1 X102.727 Y79.859 E0.06095
G1 X104.589 Y81.72 E0.15494
G1 X105.624 Y81.72 E0.06094
G1 X103.763 Y79.859 E0.15493
G1 X104.798 Y79.859 E0.06095
G1 X106.659 Y81.72 E0.15492
G1 X107.694 Y81.72 E0.06094
G1 X105.834 Y79.859 E0.15491
G1 X106.869 Y79.859 E0.06095
G1 X108.73 Y81.72 E0.1549
G1 X109.765 Y81.72 E0.06094
G1 X107.904 Y79.859 E0.15489
G1 X108.94 Y79.859 E0.06095
G1 X110.8 Y81.72 E0.15488
G1 X111.526 Y81.72 E0.04271
G1 X111.883 Y81.767 E0.02117
G1 X109.975 Y79.86 E0.15878
G1 X111.011 Y79.86 E0.06095
G1 X113.368 Y82.217 E0.19625
G1 X113.452 Y82.252 E0.00535
G1 X114.205 Y82.83 E0.05587
G1 X116.961 Y85.586 E0.22944
G1 X117.082 Y85.661 E0.00834
G1 X117.13 Y85.667 E0.00287
G1 X117.853 Y85.667 E0.04258
G1 X112.046 Y79.86 E0.48342
G1 X113.082 Y79.86 E0.06095
G1 X118.889 Y85.667 E0.48341
G1 X119.924 Y85.667 E0.06094
G1 X114.117 Y79.86 E0.4834
G1 X115.152 Y79.86 E0.06095
G1 X120.959 Y85.667 E0.48339
G1 X121.995 Y85.667 E0.06094
G1 X116.188 Y79.86 E0.48338
G1 X117.223 Y79.86 E0.06095
G1 X123.03 Y85.667 E0.48337
G1 X124.065 Y85.667 E0.06094
G1 X118.259 Y79.86 E0.48336
G1 X119.294 Y79.861 E0.06095
G1 X125.101 Y85.667 E0.48335
G1 X126.136 Y85.667 E0.06094
G1 X120.33 Y79.861 E0.48334
G1 X121.365 Y79.861 E0.06095
G1 X127.171 Y85.667 E0.48333
G1 X128.207 Y85.667 E0.06094
G1 X122.4 Y79.861 E0.48332
G1 X123.436 Y79.861 E0.06095
G1 X129.242 Y85.667 E0.48331
G1 X130.277 Y85.667 E0.06094
G1 X124.471 Y79.861 E0.4833
G1 X125.507 Y79.861 E0.06095
G1 X131.312 Y85.667 E0.48329
G1 X132.348 Y85.667 E0.06094
G1 X126.542 Y79.861 E0.48329
G1 X127.578 Y79.861 E0.06095
G1 X133.383 Y85.667 E0.48328
G1 X133.56 Y85.667 E0.01041
G1 X133.608 Y85.661 E0.00287
G1 X133.729 Y85.586 E0.00834
G1 X134.033 Y85.282 E0.02533
G1 X128.613 Y79.862 E0.45118
G1 X129.648 Y79.862 E0.06095
G1 X134.551 Y84.764 E0.40808
G1 X135.068 Y84.246 E0.04309
G1 X130.684 Y79.862 E0.36498
G1 X131.719 Y79.862 E0.06095
G1 X135.586 Y83.729 E0.32187
G1 X136.104 Y83.211 E0.04309
G1 X132.755 Y79.862 E0.27877
G1 X133.79 Y79.862 E0.06095
G1 X136.639 Y82.711 E0.23717
G1 X137.225 Y82.262 E0.04346
G1 X134.826 Y79.862 E0.19974
G1 X135.861 Y79.862 E0.06095
G1 X137.954 Y81.955 E0.17422
G1 X138.223 Y81.844 E0.01713
G1 X138.802 Y81.768 E0.03437
G1 X136.896 Y79.863 E0.1586
G1 X137.932 Y79.863 E0.06095
G1 X139.789 Y81.72 E0.15462
G1 X140.825 Y81.72 E0.06094
G1 X138.967 Y79.863 E0.15461
G1 X140.003 Y79.863 E0.06095
G1 X141.86 Y81.72 E0.1546
G1 X142.895 Y81.72 E0.06094
G1 X141.038 Y79.863 E0.15459
G1 X142.074 Y79.863 E0.06095
G1 X143.931 Y81.72 E0.15458
G1 X144.966 Y81.72 E0.06094
G1 X143.109 Y79.863 E0.15457
G1 X144.144 Y79.863 E0.06095
G1 X146.001 Y81.72 E0.15456
G1 X147.036 Y81.72 E0.06094
G1 X145.18 Y79.863 E0.15455
G1 X146.215 Y79.864 E0.06095
G1 X148.072 Y81.72 E0.15454
G1 X149.107 Y81.72 E0.06094
G1 X147.251 Y79.864 E0.15453
G1 X148.286 Y79.864 E0.06095
G1 X150.142 Y81.72 E0.15452
G1 X151.178 Y81.72 E0.06094
G1 X149.322 Y79.864 E0.15451
G1 X150.357 Y79.864 E0.06095
G1 X152.213 Y81.72 E0.1545
G1 X153.248 Y81.72 E0.06094
G1 X151.392 Y79.864 E0.15449
G1 X152.428 Y79.864 E0.06095
G1 X154.284 Y81.72 E0.15448
G1 X155.319 Y81.72 E0.06094
G1 X153.463 Y79.864 E0.15447
G1 X154.499 Y79.864 E0.06095
G1 X156.354 Y81.72 E0.15446
G1 X157.39 Y81.72 E0.06094
G1 X155.534 Y79.865 E0.15445
G1 X156.57 Y79.865 E0.06095
G1 X158.425 Y81.72 E0.15445
G1 X159.46 Y81.72 E0.06094
G1 X157.605 Y79.865 E0.15444
G1 X158.64 Y79.865 E0.06095
G1 X160.496 Y81.72 E0.15443
G1 X161.531 Y81.72 E0.06094
G1 X159.676 Y79.865 E0.15442
G1 X160.711 Y79.865 E0.06095
G1 X162.566 Y81.72 E0.15441
G1 X163.602 Y81.72 E0.06094
G1 X161.747 Y79.865 E0.1544
G1 X162.782 Y79.865 E0.06095
G1 X164.637 Y81.72 E0.15439
G1 X165.672 Y81.72 E0.06094
G1 X163.818 Y79.865 E0.15438
G1 X164.853 Y79.866 E0.06095
G1 X166.707 Y81.72 E0.15437
G1 X167.743 Y81.72 E0.06094
G1 X165.888 Y79.866 E0.15436
G1 X166.924 Y79.866 E0.06095
G1 X168.778 Y81.72 E0.15435
G1 X169.813 Y81.72 E0.06094
G1 X167.959 Y79.866 E0.15434
G1 X168.995 Y79.866 E0.06095
G1 X170.941 Y81.812 E0.16199
G1 X171.464 Y81.949 E0.03181
G1 X172.027 Y82.205 E0.03645
G1 X172.81 Y82.646 E0.05283
G1 X170.03 Y79.866 E0.23136
G1 X171.066 Y79.866 E0.06095
G1 X175.176 Y83.977 E0.34216
G1 X177.542 Y85.308 E0.15982
G1 X172.101 Y79.866 E0.45296
G1 X173.136 Y79.867 E0.06095
G1 X179.909 Y86.639 E0.56376
G1 X182.275 Y87.97 E0.15982
G1 X174.172 Y79.867 E0.67455
G1 X175.207 Y79.867 E0.06095
G1 X185.467 Y90.127 E0.85407
G1 X190.869 Y81.034 F9000
G1 F3000
G1 X189.703 Y79.868 E0.09699
G1 X188.668 Y79.868 E0.06095
G1 X190.554 Y81.754 E0.15698
G1 X190.554 Y82.789 E0.06094
G1 X187.633 Y79.868 E0.24318
G1 X186.597 Y79.868 E0.06095
G1 X190.554 Y83.825 E0.32937
G1 X190.554 Y84.86 E0.06094
G1 X185.562 Y79.868 E0.41556
G1 X184.526 Y79.868 E0.06095
G1 X190.554 Y85.895 E0.50175
G1 X190.554 Y86.931 E0.06094
G1 X183.491 Y79.868 E0.58795
G1 X182.455 Y79.868 E0.06095
G1 X190.554 Y87.966 E0.67414
G1 X190.554 Y89.001 E0.06094
G1 X181.42 Y79.867 E0.76033
G1 X180.385 Y79.867 E0.06095
G1 X190.554 Y90.037 E0.84653
G1 X190.554 Y91.072 E0.06094
G1 X179.349 Y79.867 E0.93272
G1 X178.314 Y79.867 E0.06095
G1 X190.554 Y92.107 E1.01891
G1 X190.554 Y93.143 E0.06094
G1 X177.278 Y79.867 E1.10511
G1 X176.243 Y79.867 E0.06095
G1 X190.554 Y94.178 E1.1913
G1 X190.554 Y95.213 E0.06094
G1 X188.63 Y93.289 E0.16015
G1 X188.691 Y93.865 E0.03406
G1 X188.691 Y94.386 E0.03067
G1 X190.554 Y96.248 E0.15506
G1 X190.554 Y97.284 E0.06094
G1 X188.691 Y95.421 E0.15506
G1 X188.691 Y96.456 E0.06094
G1 X190.554 Y98.319 E0.15506
G1 X190.554 Y99.354 E0.06094
G1 X188.691 Y97.492 E0.15506
G1 X188.691 Y98.527 E0.06094
G1 X190.554 Y100.39 E0.15506
G1 X190.554 Y101.425 E0.06094
G1 X188.691 Y99.562 E0.15506
G1 X188.691 Y100.598 E0.06094
G1 X190.554 Y102.46 E0.15506
G1 X190.554 Y103.496 E0.06094
G1 X188.691 Y101.633 E0.15506
G1 X188.691 Y102.668 E0.06094
G1 X190.554 Y104.531 E0.15506
G1 X190.554 Y105.566 E0.06094
G1 X188.691 Y103.704 E0.15506
G1 X188.691 Y104.739 E0.06094
G1 X190.554 Y106.602 E0.15506
G1 X190.554 Y107.637 E0.06094
G1 X188.691 Y105.774 E0.15506
G1 X188.691 Y106.81 E0.06094
G1 X190.554 Y108.672 E0.15506
G1 X190.554 Y109.708 E0.06094
G1 X188.691 Y107.845 E0.15506
G1 X188.691 Y108.88 E0.06094
G1 X190.554 Y110.743 E0.15506
G1 X190.554 Y111.778 E0.06094
G1 X188.691 Y109.915 E0.15506
G1 X188.691 Y110.951 E0.06094
G1 X190.554 Y112.814 E0.15506
G1 X190.554 Y113.849 E0.06094
G1 X188.691 Y111.986 E0.15506
G1 X188.691 Y113.021 E0.06094
G1 X190.554 Y114.884 E0.15506
G1 X190.554 Y115.919 E0.06094
G1 X188.691 Y114.057 E0.15506
G1 X188.691 Y115.092 E0.06094
G1 X190.554 Y116.955 E0.15506
G1 X190.554 Y117.99 E0.06094
G1 X188.691 Y116.127 E0.15506
G1 X188.691 Y117.163 E0.06094
G1 X190.554 Y119.025 E0.15506
G1 X190.554 Y120.061 E0.06094
G1 X188.691 Y118.198 E0.15506
G1 X188.691 Y119.233 E0.06094
G1 X190.554 Y121.096 E0.15506
G1 X190.554 Y122.131 E0.06094
G1 X188.691 Y120.269 E0.15506
G1 X188.691 Y121.304 E0.06094
G1 X190.554 Y123.167 E0.15506
G1 X190.554 Y124.202 E0.06094
G1 X188.691 Y122.339 E0.15506
G1 X188.691 Y123.375 E0.06094
G1 X190.554 Y125.237 E0.15506
G1 X190.554 Y126.273 E0.06094
G1 X188.691 Y124.41 E0.15506
G1 X188.691 Y125.445 E0.06094
G1 X190.554 Y127.308 E0.15506
G1 X190.554 Y128.343 E0.06094
G1 X188.691 Y126.481 E0.15506
G1 X188.691 Y127.516 E0.06094
G1 X190.554 Y129.379 E0.15506
G1 X190.554 Y130.414 E0.06094
G1 X188.691 Y128.551 E0.15506
G1 X188.691 Y129.586 E0.06094
G1 X190.554 Y131.449 E0.15506
G1 X190.554 Y132.485 E0.06094
G1 X188.691 Y130.622 E0.15506
G1 X188.691 Y131.657 E0.06094
G1 X190.554 Y133.52 E0.15506
G1 X190.554 Y134.555 E0.06094
G1 X188.691 Y132.692 E0.15506
G1 X188.691 Y133.728 E0.06094
G1 X190.554 Y135.59 E0.15506
G1 X190.554 Y136.626 E0.06094
G1 X188.691 Y134.763 E0.15506
G1 X188.691 Y135.798 E0.06094
G1 X190.554 Y137.661 E0.15506
G1 X190.554 Y138.696 E0.06094
G1 X188.691 Y136.834 E0.15506
G1 X188.691 Y137.869 E0.06094
G1 X190.554 Y139.732 E0.15506
G1 X190.554 Y140.767 E0.06094
G1 X188.691 Y138.904 E0.15506
G1 X188.691 Y139.94 E0.06094
G1 X190.554 Y141.802 E0.15506
G1 X190.554 Y142.838 E0.06094
G1 X188.691 Y140.975 E0.15506
G1 X188.691 Y142.01 E0.06094
G1 X190.554 Y143.873 E0.15506
G1 X190.554 Y144.908 E0.06094
G1 X188.691 Y143.046 E0.15506
G1 X188.691 Y144.081 E0.06094
G1 X190.554 Y145.944 E0.15506
G1 X190.554 Y146.979 E0.06094
G1 X188.691 Y145.116 E0.15506
G1 X188.691 Y146.152 E0.06094
G1 X190.554 Y148.014 E0.15506
G1 X190.554 Y149.05 E0.06094
G1 X188.691 Y147.187 E0.15506
G1 X188.691 Y148.222 E0.06094
G1 X190.554 Y150.085 E0.15506
G1 X190.554 Y151.12 E0.06094
G1 X188.691 Y149.257 E0.15506
G1 X188.691 Y150.293 E0.06094
G1 X190.554 Y152.156 E0.15506
G1 X190.554 Y153.191 E0.06094
G1 X188.691 Y151.328 E0.15506
G1 X188.691 Y152.363 E0.06094
G1 X190.554 Y154.226 E0.15506
G1 X190.554 Y155.261 E0.06094
G1 X188.691 Y153.399 E0.15506
G1 X188.691 Y154.434 E0.06094
G1 X190.554 Y156.297 E0.15506
G1 X190.554 Y157.332 E0.06094
G1 X188.691 Y155.469 E0.15506
G1 X188.691 Y156.505 E0.06094
G1 X190.554 Y158.367 E0.15506
G1 X190.554 Y159.403 E0.06094
G1 X188.691 Y157.54 E0.15506
G1 X188.691 Y158.575 E0.06094
G1 X190.554 Y160.438 E0.15506
G1 X190.554 Y161.473 E0.06094
G1 X188.691 Y159.611 E0.15506
G1 X188.691 Y160.646 E0.06094
G1 X190.554 Y162.509 E0.15506
G1 X190.554 Y163.544 E0.06094
G1 X188.691 Y161.681 E0.15506
G1 X188.691 Y162.717 E0.06094
G1 X190.554 Y164.579 E0.15506
G1 X190.554 Y165.615 E0.06094
G1 X188.691 Y163.752 E0.15506
G1 X188.691 Y164.787 E0.06094
G1 X190.554 Y166.65 E0.15506
G1 X190.554 Y167.685 E0.06094
G1 X188.691 Y165.823 E0.15506
G1 X188.691 Y166.858 E0.06094
G1 X190.554 Y168.721 E0.15506
G1 X190.554 Y169.756 E0.06094
G1 X188.691 Y167.893 E0.15506
G1 X188.691 Y168.928 E0.06094
G1 X190.554 Y170.791 E0.15506
G1 X190.554 Y171.827 E0.06094
G1 X188.691 Y169.964 E0.15506
G1 X188.691 Y170.999 E0.06094
G1 X190.554 Y172.862 E0.15506
G1 X190.554 Y173.897 E0.06094
G1 X188.691 Y172.034 E0.15506
G1 X188.691 Y173.07 E0.06094
G1 X190.554 Y174.933 E0.15506
G1 X190.554 Y175.968 E0.06094
G1 X188.691 Y174.105 E0.15506
G1 X188.691 Y175.14 E0.06094
G1 X190.554 Y177.003 E0.15506
G1 X190.554 Y178.038 E0.06094
G1 X188.691 Y176.176 E0.15506
G1 X188.691 Y177.211 E0.06094
G1 X190.554 Y179.074 E0.15506
G1 X190.554 Y180.109 E0.06094
G1 X188.691 Y178.246 E0.15506
G1 X188.691 Y179.282 E0.06094
G1 X190.554 Y181.144 E0.15506
G1 X190.554 Y182.18 E0.06094
G1 X188.691 Y180.317 E0.15506
G1 X188.691 Y181.352 E0.06094
G1 X190.554 Y183.215 E0.15506
G1 X190.554 Y184.25 E0.06094
G1 X188.691 Y182.388 E0.15506
G1 X188.691 Y183.423 E0.06094
G1 X190.554 Y185.286 E0.15506
G1 X190.554 Y186.321 E0.06094
G1 X188.691 Y184.458 E0.15506
G1 X188.691 Y185.494 E0.06094
G1 X190.554 Y187.356 E0.15506
G1 X190.554 Y188.392 E0.06094
G1 X188.691 Y186.529 E0.15506
G1 X188.691 Y187.564 E0.06094
G1 X190.554 Y189.427 E0.15506
G1 X190.554 Y190.462 E0.06094
G1 X188.691 Y188.599 E0.15506
G1 X188.691 Y189.635 E0.06094
G1 X190.554 Y191.498 E0.15506
G1 X190.554 Y192.533 E0.06094
