; generated by SuperSlicer 2.5.59 on 2023-06-14 at 03:24:24 UTC


;
;

;
;
; 

; external perimeters extrusion width = 0.43mm
; perimeters extrusion width = 0.45mm
; infill extrusion width = 0.45mm
; solid infill extrusion width = 0.45mm
; top infill extrusion width = 0.43mm
; support material extrusion width = 0.42mm
; first layer extrusion width = 0.57mm

; external perimeters extrusion width = 0.43mm
; perimeters extrusion width = 0.45mm
; infill extrusion width = 0.45mm
; solid infill extrusion width = 0.45mm
; top infill extrusion width = 0.43mm
; support material extrusion width = 0.42mm
; first layer extrusion width = 0.57mm

; object:{"name":"V2","id":"V2.5515.stl id:0 copy 0","object_center":[150.000001,161.500001,0.000000],"boundingbox_center":[150.000001,161.500001,10.000000],"boundingbox_size":[83.230003,8.150000,20.000000]}
EXCLUDE_OBJECT_DEFINE NAME=V2_5515_stl_id_0_copy_0 CENTER=150.000001,161.500001 POLYGON=[[108.384992,157.425008],[191.615008,157.425008],[191.615008,162.597008],[191.598000,162.858000],[191.546992,163.114000],[191.462992,163.362000],[191.347008,163.597008],[191.202000,163.814000],[191.028992,164.011008],[189.615008,165.425008],[169.915008,165.574992],[127.886000,165.574992],[110.384992,165.425008],[108.971000,164.011008],[108.798008,163.814000],[108.653000,163.597008],[108.537000,163.362000],[108.453000,163.114000],[108.402000,162.858000],[108.384992,162.597008],[108.384992,157.425008]]
; object:{"name":"V2","id":"V2.5515.stl id:1 copy 0","object_center":[150.000001,141.425002,0.000000],"boundingbox_center":[150.000001,141.425002,4.075000],"boundingbox_size":[83.230003,20.000000,8.150000]}
EXCLUDE_OBJECT_DEFINE NAME=V2_5515_stl_id_1_copy_0 CENTER=150.000001,141.425002 POLYGON=[[108.384992,140.413008],[108.422000,139.848992],[108.444000,139.662000],[108.518008,139.292992],[108.619992,138.930016],[108.757992,138.580000],[108.908008,138.234016],[109.091992,137.904992],[109.302000,137.592016],[109.483000,137.375008],[109.791000,137.018992],[113.979008,132.831008],[114.256000,132.575000],[114.552000,132.342008],[115.030000,132.040008],[115.537000,131.790008],[116.072000,131.609008],[116.253000,131.558000],[116.623000,131.484008],[117.373000,131.425000],[182.626992,131.425000],[183.376992,131.484008],[183.747008,131.558000],[183.928016,131.609008],[184.462992,131.790008],[184.970000,132.040008],[185.134992,132.132008],[185.448000,132.342008],[186.020992,132.831008],[190.209008,137.018992],[190.464992,137.296000],[190.698000,137.592016],[190.908000,137.904992],[191.250000,138.576000],[191.431008,139.111008],[191.556000,139.662000],[191.598000,140.164000],[191.615008,140.413008],[191.615008,147.425008],[191.598000,147.794000],[191.546992,148.160000],[191.404000,148.695008],[191.196000,149.208016],[191.015984,149.531008],[190.807008,149.836000],[190.310000,150.380992],[190.024992,150.617008],[189.721008,150.826000],[189.398000,151.006000],[188.884992,151.214000],[188.709984,151.272000],[188.350000,151.357008],[187.984016,151.408000],[187.615008,151.425008],[112.384992,151.425008],[111.833000,151.382000],[111.650000,151.357008],[111.115008,151.214000],[110.940000,151.154992],[110.602008,151.006000],[110.279000,150.826000],[109.974000,150.617008],[109.690000,150.380992],[109.429000,150.120000],[109.089008,149.682992],[108.804000,149.208016],[108.655000,148.870016],[108.453000,148.160000],[108.384992,147.425008],[108.384992,140.413008]]
; plater:{"center":[150.000001,148.500001,0.000000],"boundingbox_center":[150.000001,148.500001,10.000000],"boundingbox_size":[83.230003,34.149999,20.000000]}

;TYPE:Custom
SET_PRINT_STATS_INFO TOTAL_LAYER=121

M104 S0 ; Stops SuperSlicer from sending temp waits separately

M109 S0

M140 S0

print_start EXTRUDER=255 BED=110 CHAMBER=0
M107
G21 ; set units to millimeters
G90 ; use absolute coordinates
M82 ; use absolute distances for extrusion
G92 E0
; Filament gcode
;_TOOLCHANGE 0
M107
;LAYER_CHANGE
;Z:0.2
;HEIGHT:0.2
TIMELAPSE_TAKE_FRAME
;BEFORE_LAYER_CHANGE
;0.2


G1 Z0.2 F12000
SET_PRINT_STATS_INFO CURRENT_LAYER=1
;AFTER_LAYER_CHANGE
;0.2
G1 E-0.6 F3000
G1 Z0.5 F12000
M204 S1500
G1 X109.814 Y128.316
G1 Z0.2
G1 E0 F2700
;TYPE:Skirt
;WIDTH:0.52
G1 X105.334 Y132.789 E0.22602
G1 X104.184 Y134.203 E0.29113
G1 X103.504 Y135.294 E0.337
G1 X102.856 Y136.785 E0.39506
G1 X101.923 Y140.155 E0.51987
G1 X101.925 Y141.569 E0.57036
G1 X108.11 Y164.129 E1.40553
G1 X108.927 Y165.438 E1.4606
G1 X109.629 Y166.008 E1.49291
G1 X110.782 Y166.595 E1.5391
G1 X111.762 Y166.82 E1.57499
G1 X112.328 Y166.86 E1.59527
G1 X182.264 Y166.901 E4.09215
G1 X188.314 Y166.848 E4.30816
G1 X189.813 Y166.376 E4.36427
G1 X190.757 Y165.643 E4.40696
G1 X191.351 Y164.993 E4.43837
G1 X191.956 Y163.901 E4.48294
G1 X197.996 Y141.621 E5.30709
G1 X198.018 Y140.304 E5.35415
G1 X197.376 Y137.561 E5.45471
G1 X197 Y136.388 E5.4987
G1 X196.119 Y134.647 E5.56835
G1 X195.563 Y133.839 E5.60336
G1 X194.725 Y132.856 E5.64949
G1 X190.269 Y128.386 E5.87483
G1 X188.826 Y127.209 E5.94131
G1 X186.997 Y126.185 E6.01616
G1 X185.645 Y125.708 E6.06734
G1 X184.751 Y125.493 E6.10015
G1 X182.974 Y125.287 E6.16403
G1 X117.15 Y125.286 E8.51409
G1 X115.861 Y125.389 E8.56026
G1 X114.601 Y125.64 E8.60614
G1 X113.386 Y126.028 E8.65168
G1 X112.041 Y126.672 E8.70493
G1 X110.83 Y127.452 E8.75634
G1 X109.86 Y128.277 E8.8018
G92 E0
G1 E-0.6 F3000
M204 S6000
G1 Z0.5 F12000
M204 S1500
G1 X110.168 Y128.64
G1 Z0.2
G1 E0 F2700
G1 X110.151 Y128.654 E0.00077
G1 X105.671 Y133.127 E0.22679
G1 X104.558 Y134.499 E0.28988
G1 X103.914 Y135.54 E0.33358
G1 X103.297 Y136.968 E0.38913
G1 X102.383 Y140.279 E0.51176
G1 X102.386 Y141.442 E0.5533
G1 X108.57 Y164.003 E1.38847
G1 X109.242 Y165.08 E1.43379
G1 X109.882 Y165.604 E1.46331
G1 X110.908 Y166.135 E1.50458
G1 X111.804 Y166.344 E1.53743
G1 X112.33 Y166.383 E1.55626
G1 X182.26 Y166.424 E4.05292
G1 X188.31 Y166.371 E4.26893
G1 X189.543 Y165.983 E4.31511
G1 X190.405 Y165.321 E4.35389
G1 X190.998 Y164.671 E4.38531
G1 X191.496 Y163.773 E4.42198
G1 X197.535 Y141.497 E5.246
G1 X197.554 Y140.412 E5.28472
G1 X196.912 Y137.67 E5.38529
G1 X196.547 Y136.538 E5.42775
G1 X195.723 Y134.913 E5.49279
G1 X195.193 Y134.14 E5.52623
G1 X194.388 Y133.193 E5.57064
G1 X189.931 Y128.723 E5.79599
G1 X188.553 Y127.601 E5.85945
G1 X186.782 Y126.611 E5.93187
G1 X185.495 Y126.162 E5.98052
G1 X184.646 Y125.959 E6.01172
G1 X182.936 Y125.763 E6.07314
G1 X117.15 Y125.763 E8.42186
G1 X115.938 Y125.86 E8.46528
G1 X114.707 Y126.106 E8.51012
G1 X113.535 Y126.481 E8.55404
G1 X112.259 Y127.096 E8.60462
G1 X111.131 Y127.822 E8.6525
G1 X110.214 Y128.601 E8.69547
G92 E0
G1 E-0.6 F3000
M204 S6000
G1 Z0.5 F12000
M204 S1500
G1 X110.517 Y128.967
G1 Z0.2
G1 E0 F2700
G1 X110.489 Y128.991 E0.00133
G1 X106.009 Y133.464 E0.22736
G1 X104.933 Y134.794 E0.28844
G1 X104.323 Y135.785 E0.32995
G1 X103.738 Y137.15 E0.383
G1 X102.844 Y140.403 E0.50345
G1 X102.846 Y141.316 E0.53604
G1 X109.03 Y163.877 E1.37122
G1 X109.557 Y164.722 E1.40677
G1 X110.572 Y165.473 E1.45184
G1 X111.541 Y165.814 E1.48853
G1 X112.332 Y165.906 E1.51695
G1 X182.24 Y165.947 E4.01285
G1 X188.306 Y165.894 E4.22941
G1 X189.274 Y165.589 E4.26564
G1 X190.053 Y165 E4.30053
G1 X190.646 Y164.35 E4.33194
G1 X191.036 Y163.645 E4.36072
G1 X197.075 Y141.372 E5.18461
G1 X197.089 Y140.521 E5.215
G1 X196.447 Y137.778 E5.31556
G1 X195.988 Y136.435 E5.36623
G1 X195.326 Y135.179 E5.41694
G1 X194.823 Y134.441 E5.44881
G1 X194.05 Y133.529 E5.4915
G1 X189.593 Y129.06 E5.71685
G1 X188.214 Y127.948 E5.7801
G1 X186.568 Y127.037 E5.84727
G1 X185.346 Y126.615 E5.89341
G1 X184.145 Y126.351 E5.93732
G1 X182.899 Y126.238 E5.98199
G1 X117.15 Y126.24 E8.32937
G1 X116.015 Y126.33 E8.37004
G1 X114.812 Y126.571 E8.41383
G1 X113.684 Y126.934 E8.45614
G1 X112.976 Y127.264 E8.48402
G1 X111.594 Y128.075 E8.54124
G1 X110.563 Y128.929 E8.58902
M104 S255 ; set temperature
G92 E0
G1 E-0.6 F3000
M204 S6000
G1 Z0.5 F12000
; printing object V2.5515.stl id:0 copy 0
EXCLUDE_OBJECT_START NAME=V2_5515_stl_id_0_copy_0
; acceleration to travel
M204 S6500
G1 X111.696 Y153.729
; decel to extrusion
M204 S1000
G1 X111.878 Y157.709
; end travel
G1 Z0.2
G1 E0 F2700
;TYPE:External perimeter
;WIDTH:0.568
G1 F3600
G1 X188.186 Y157.709 E2.9685
G1 X188.186 Y161.442 E3.11371
G1 X188.201 Y162.545 E3.15664
G1 X187.887 Y162.875 E3.17434
G1 X182.241 Y162.924 E3.394
G1 X179.678 Y162.899 E3.49371
G1 X175.587 Y162.924 E3.65285
G1 X148.806 Y162.924 E4.69468
G1 X141.833 Y162.907 E4.96596
G1 X122.877 Y162.924 E5.70337
G1 X112.398 Y162.884 E6.11101
G1 X112.229 Y162.869 E6.11761
G1 X112.015 Y162.81 E6.12627
G1 X111.857 Y162.712 E6.13348
G1 X111.822 Y162.566 E6.13932
G1 X111.893 Y158.724 E6.28879
G1 X111.879 Y157.769 E6.32595
;WIPE_START
M204 S6000
G1 X112.225 Y157.907 F12000
;WIPE_END
M204 S1500
G1 X112.411 Y158.234
;TYPE:Internal perimeter
G1 F3600
G1 X187.661 Y158.234 E9.25329
G1 X187.661 Y161.445 E9.37821
G1 X187.673 Y162.352 E9.41348
G1 X182.242 Y162.399 E9.62479
G1 X179.679 Y162.374 E9.72447
G1 X175.586 Y162.399 E9.88372
G1 X148.807 Y162.399 E10.92547
G1 X141.833 Y162.382 E11.19675
G1 X122.878 Y162.399 E11.93414
G1 X112.351 Y162.359 E12.34364
G1 X112.418 Y158.725 E12.48502
G1 X112.412 Y158.294 E12.50179
G1 X112.942 Y158.759 F12000
G1 F3600
G1 X187.136 Y158.759 E15.38801
G1 X187.136 Y161.449 E15.49265
G1 X187.141 Y161.831 E15.50753
G1 X182.242 Y161.874 E15.69811
G1 X179.68 Y161.848 E15.79777
G1 X175.584 Y161.874 E15.95712
G1 X148.807 Y161.874 E16.99879
G1 X141.834 Y161.857 E17.27006
G1 X122.878 Y161.874 E18.00745
G1 X112.886 Y161.836 E18.39618
G1 X112.941 Y158.819 E18.51355
; acceleration to travel
M204 S6500
G1 X113.543 Y161.145 F12000
; decel to extrusion
M204 S1500
G1 X113.681 Y161.681
; end travel
;TYPE:Solid infill
G1 F3600
G1 X113.279 Y161.279 E18.53565
G1 X113.293 Y160.55 E18.56402
G1 X114.2 Y161.457 E18.61392
G1 X114.945 Y161.46 E18.64292
G1 X113.306 Y159.821 E18.7331
G1 X113.319 Y159.142 E18.75951
G1 X113.37 Y159.142 E18.76151
G1 X115.691 Y161.463 E18.88918
G1 X116.436 Y161.466 E18.91818
G1 X114.113 Y159.142 E19.04602
G1 X114.855 Y159.142 E19.07491
G1 X117.182 Y161.469 E19.2029
G1 X117.927 Y161.472 E19.2319
G1 X115.598 Y159.142 E19.36005
G1 X116.34 Y159.142 E19.38894
G1 X118.673 Y161.475 E19.51725
G1 X119.418 Y161.478 E19.54625
G1 X117.083 Y159.142 E19.67472
G1 X117.826 Y159.142 E19.70361
G1 X120.164 Y161.481 E19.83224
G1 X120.909 Y161.483 E19.86124
G1 X118.568 Y159.142 E19.99003
G1 X119.311 Y159.142 E20.01892
G1 X121.655 Y161.486 E20.14786
G1 X122.4 Y161.489 E20.17686
G1 X120.053 Y159.142 E20.30597
G1 X120.796 Y159.142 E20.33485
G1 X123.144 Y161.491 E20.46406
G1 X123.887 Y161.491 E20.49293
G1 X121.538 Y159.142 E20.62211
G1 X122.281 Y159.142 E20.651
G1 X124.629 Y161.49 E20.78016
G1 X125.371 Y161.49 E20.80904
G1 X123.024 Y159.142 E20.93818
G1 X123.766 Y159.142 E20.96707
G1 X126.113 Y161.49 E21.0962
G1 X126.856 Y161.489 E21.12507
G1 X124.509 Y159.142 E21.25418
G1 X125.251 Y159.142 E21.28307
G1 X127.598 Y161.489 E21.41215
G1 X128.34 Y161.489 E21.44103
G1 X125.994 Y159.142 E21.5701
G1 X126.737 Y159.142 E21.59899
G1 X129.082 Y161.488 E21.72804
G1 X129.825 Y161.488 E21.75691
G1 X127.479 Y159.142 E21.88595
G1 X128.222 Y159.142 E21.91483
G1 X130.567 Y161.488 E22.04385
G1 X131.309 Y161.487 E22.07272
G1 X128.964 Y159.142 E22.20172
G1 X129.707 Y159.142 E22.23061
G1 X132.051 Y161.487 E22.35958
G1 X132.793 Y161.487 E22.38846
G1 X130.449 Y159.142 E22.51742
G1 X131.192 Y159.142 E22.5463
G1 X133.536 Y161.486 E22.67524
G1 X134.278 Y161.486 E22.70412
G1 X131.935 Y159.142 E22.83304
G1 X132.677 Y159.142 E22.86193
G1 X135.02 Y161.485 E22.99083
G1 X135.762 Y161.485 E23.0197
G1 X133.42 Y159.142 E23.14859
G1 X134.162 Y159.142 E23.17748
G1 X136.505 Y161.485 E23.30634
G1 X137.247 Y161.484 E23.33522
G1 X134.905 Y159.142 E23.46406
G1 X135.647 Y159.142 E23.49295
G1 X137.989 Y161.484 E23.62178
G1 X138.731 Y161.484 E23.65065
G1 X136.39 Y159.142 E23.77946
G1 X137.133 Y159.142 E23.80835
G1 X139.474 Y161.483 E23.93714
G1 X140.216 Y161.483 E23.96601
G1 X137.875 Y159.142 E24.09479
G1 X138.618 Y159.142 E24.12368
G1 X140.958 Y161.483 E24.25243
G1 X141.7 Y161.482 E24.2813
G1 X139.36 Y159.142 E24.41004
G1 X140.103 Y159.142 E24.43893
G1 X142.443 Y161.482 E24.56764
G1 X143.185 Y161.482 E24.59652
G1 X140.845 Y159.142 E24.72522
G1 X141.588 Y159.142 E24.7541
G1 X143.927 Y161.481 E24.88278
G1 X144.669 Y161.481 E24.91166
G1 X142.331 Y159.142 E25.04032
G1 X143.073 Y159.142 E25.0692
G1 X145.411 Y161.481 E25.19785
G1 X146.154 Y161.48 E25.22672
G1 X143.816 Y159.142 E25.35535
G1 X144.558 Y159.142 E25.38423
G1 X146.896 Y161.48 E25.51284
G1 X147.638 Y161.48 E25.54171
G1 X145.301 Y159.142 E25.6703
G1 X146.043 Y159.142 E25.69919
G1 X148.38 Y161.479 E25.82775
G1 X149.123 Y161.479 E25.85663
G1 X146.786 Y159.142 E25.98518
G1 X147.529 Y159.142 E26.01406
G1 X149.865 Y161.479 E26.1426
G1 X150.607 Y161.478 E26.17147
G1 X148.271 Y159.142 E26.29998
G1 X149.014 Y159.142 E26.32887
G1 X151.349 Y161.478 E26.45736
G1 X152.092 Y161.478 E26.48624
G1 X149.756 Y159.142 E26.61471
G1 X150.499 Y159.142 E26.6436
G1 X152.834 Y161.477 E26.77205
G1 X153.576 Y161.477 E26.80093
G1 X151.241 Y159.142 E26.92937
G1 X151.984 Y159.142 E26.95825
G1 X154.318 Y161.477 E27.08667
G1 X155.061 Y161.476 E27.11555
G1 X152.727 Y159.142 E27.24395
G1 X153.469 Y159.142 E27.27283
G1 X155.803 Y161.476 E27.40122
G1 X156.545 Y161.476 E27.43009
G1 X154.212 Y159.142 E27.55845
G1 X154.954 Y159.142 E27.58734
G1 X157.287 Y161.475 E27.71569
G1 X158.029 Y161.475 E27.74456
G1 X155.697 Y159.142 E27.87289
G1 X156.439 Y159.142 E27.90177
G1 X158.772 Y161.475 E28.03008
G1 X159.514 Y161.474 E28.05895
G1 X157.182 Y159.142 E28.18724
G1 X157.925 Y159.142 E28.21613
G1 X160.256 Y161.474 E28.3444
G1 X160.998 Y161.474 E28.37328
G1 X158.667 Y159.142 E28.50153
G1 X159.41 Y159.142 E28.53041
G1 X161.741 Y161.473 E28.65865
G1 X162.483 Y161.473 E28.68752
G1 X160.152 Y159.142 E28.81574
G1 X160.895 Y159.142 E28.84462
G1 X163.225 Y161.473 E28.97282
G1 X163.967 Y161.472 E29.00169
G1 X161.637 Y159.142 E29.12987
G1 X162.38 Y159.142 E29.15876
G1 X164.71 Y161.472 E29.28692
G1 X165.452 Y161.472 E29.31579
G1 X163.123 Y159.142 E29.44393
G1 X163.865 Y159.142 E29.47282
G1 X166.194 Y161.471 E29.60094
G1 X166.936 Y161.471 E29.62981
G1 X164.608 Y159.142 E29.75791
G1 X165.35 Y159.142 E29.7868
G1 X167.679 Y161.471 E29.91489
G1 X168.421 Y161.47 E29.94376
G1 X166.093 Y159.142 E30.07183
G1 X166.836 Y159.142 E30.10071
G1 X169.163 Y161.47 E30.22876
G1 X169.905 Y161.47 E30.25763
G1 X167.578 Y159.142 E30.38566
G1 X168.321 Y159.142 E30.41455
G1 X170.647 Y161.469 E30.54256
G1 X171.39 Y161.469 E30.57143
G1 X169.063 Y159.142 E30.69942
G1 X169.806 Y159.142 E30.72831
G1 X172.132 Y161.469 E30.85628
G1 X172.874 Y161.468 E30.88516
G1 X170.548 Y159.142 E31.01311
G1 X171.291 Y159.142 E31.042
G1 X173.616 Y161.468 E31.16993
G1 X174.359 Y161.468 E31.19881
G1 X172.034 Y159.142 E31.32672
G1 X172.776 Y159.142 E31.35561
G1 X175.101 Y161.467 E31.48351
G1 X175.843 Y161.467 E31.51238
G1 X173.519 Y159.142 E31.64026
G1 X174.261 Y159.142 E31.66915
G1 X176.585 Y161.467 E31.79701
G1 X177.328 Y161.466 E31.82588
G1 X175.004 Y159.142 E31.95373
G1 X175.746 Y159.142 E31.98261
G1 X178.07 Y161.466 E32.11044
G1 X178.812 Y161.466 E32.13931
G1 X176.489 Y159.142 E32.26712
G1 X177.232 Y159.142 E32.296
G1 X179.554 Y161.465 E32.42379
G1 X180.303 Y161.471 E32.45292
G1 X177.974 Y159.142 E32.58105
G1 X178.717 Y159.142 E32.60993
G1 X181.053 Y161.479 E32.73848
G1 X181.803 Y161.487 E32.76766
G1 X179.459 Y159.142 E32.89662
G1 X180.202 Y159.142 E32.92551
G1 X182.548 Y161.488 E33.05456
G1 X183.284 Y161.482 E33.0832
G1 X180.944 Y159.142 E33.2119
G1 X181.687 Y159.142 E33.24079
G1 X184.02 Y161.475 E33.36914
G1 X184.756 Y161.469 E33.39778
G1 X182.43 Y159.142 E33.52577
G1 X183.172 Y159.142 E33.55466
G1 X185.492 Y161.463 E33.6823
G1 X186.228 Y161.456 E33.71093
G1 X183.915 Y159.142 E33.83822
G1 X184.657 Y159.142 E33.86711
G1 X186.752 Y161.237 E33.98236
G1 X186.752 Y160.495 E34.01125
G1 X185.4 Y159.142 E34.08565
G1 X186.142 Y159.142 E34.11454
G1 X186.978 Y159.978 E34.16051
G92 E0
G1 E-0.6 F3000
M204 S6000
G1 Z0.5 F12000
