; generated by SuperSlicer 2.5.59 on 2023-05-11 at 07:34:21 UTC


;
;

;
;
; 

; external perimeters extrusion width = 0.43mm
; perimeters extrusion width = 0.45mm
; infill extrusion width = 0.45mm
; solid infill extrusion width = 0.45mm
; top infill extrusion width = 0.42mm
; support material extrusion width = 0.42mm
; first layer extrusion width = 0.57mm

; object:{"name":"v2_bed_wago","id":"v2_bed_wago.stl id:0 copy 0","object_center":[150.000614,148.500612,0.000000],"boundingbox_center":[150.000614,148.500612,7.500000],"boundingbox_size":[107.969337,106.671702,15.000000]}
EXCLUDE_OBJECT_DEFINE NAME=v2_bed_wago_stl_id_0_copy_0 CENTER=150.000614,148.500612 POLYGON=[[96.015944,110.828112],[96.027464,110.759336],[96.039520,110.724704],[96.050760,110.693616],[96.060600,110.674328],[96.085096,110.632936],[96.129464,110.579144],[97.652848,109.029584],[101.795624,104.815640],[109.472136,97.007264],[111.167192,95.283096],[111.220224,95.237824],[111.280304,95.202456],[111.345616,95.178048],[111.361328,95.174376],[111.414176,95.165360],[111.483904,95.164760],[111.502880,95.167176],[111.552664,95.176288],[111.618384,95.199568],[111.639280,95.210096],[111.679072,95.233920],[111.732864,95.278280],[190.637664,172.850528],[200.870688,182.910736],[203.865728,185.855200],[203.910992,185.908224],[203.915984,185.915376],[203.946352,185.968288],[203.953520,185.984208],[203.970768,186.033616],[203.976928,186.059056],[203.983456,186.102176],[203.985296,186.137024],[203.984048,186.171888],[203.983712,186.176240],[203.978256,186.215120],[203.972528,186.240656],[203.969056,186.253280],[203.956144,186.290352],[203.949248,186.306384],[203.939648,186.325968],[203.919776,186.359808],[203.914896,186.367072],[203.896656,186.391536],[203.870544,186.420848],[202.298272,188.020144],[190.601264,199.918096],[188.832816,201.716912],[188.803952,201.743520],[188.779792,201.762176],[188.772608,201.767152],[188.739120,201.787632],[188.719696,201.797552],[188.703792,201.804720],[188.666928,201.818256],[188.654384,201.821968],[188.628944,201.828112],[188.590160,201.834192],[188.585808,201.834640],[188.550976,201.836464],[188.516096,201.835232],[188.472880,201.829440],[188.447328,201.823712],[188.397648,201.807312],[188.381600,201.800416],[188.328192,201.770944],[188.320944,201.766080],[188.267152,201.721728],[175.039088,188.717072],[96.134288,111.144816],[96.089016,111.091784],[96.063808,111.050816],[96.053632,111.031696],[96.041872,111.000808],[96.029232,110.966384],[96.016544,110.897824],[96.015944,110.828112]]
; plater:{"center":[150.000614,148.500612,0.000000],"boundingbox_center":[150.000614,148.500612,7.500000],"boundingbox_size":[107.969337,106.671702,15.000000]}

;TYPE:Custom
SET_PRINT_STATS_INFO TOTAL_LAYER=75

M104 S0 ; Stops SuperSlicer from sending temp waits separately

M109 S0

M140 S0

print_start EXTRUDER=250 BED=105 CHAMBER=0
M107
G21 ; set units to millimeters
G90 ; use absolute coordinates
M82 ; use absolute distances for extrusion
G92 E0
; Filament gcode
;_TOOLCHANGE 0
M107
;LAYER_CHANGE
;Z:0.2
;HEIGHT:0.2
TIMELAPSE_TAKE_FRAME
;BEFORE_LAYER_CHANGE
;0.2


G1 Z0.2 F12000
SET_PRINT_STATS_INFO CURRENT_LAYER=1
;AFTER_LAYER_CHANGE
;0.2
G1 E-0.6 F3000
G1 Z0.5 F12000
M204 S1500
G1 X102.251 Y100.531
G1 Z0.2
G1 E0 F2400
;TYPE:Skirt
;WIDTH:0.52
G1 F2700
G1 X94.213 Y108.707 E0.45483
G1 X93.791 Y109.258 E0.48235
G1 X93.432 Y110.112 E0.51909
G1 X93.346 Y111.059 E0.55681
G1 X93.623 Y112.148 E0.60139
G1 X94.198 Y112.984 E0.64163
G1 X186.461 Y203.702 E5.77453
G1 X187.374 Y204.292 E5.81765
G1 X188.241 Y204.512 E5.85312
G1 X189.155 Y204.466 E5.88942
G1 X189.951 Y204.188 E5.92286
G1 X190.694 Y203.654 E5.95916
G1 X206.121 Y187.9 E6.83385
G1 X206.585 Y186.873 E6.87857
G1 X206.661 Y185.855 E6.91905
G1 X206.42 Y184.918 E6.95743
G1 X205.815 Y184.016 E7.00054
G1 X113.603 Y93.36 E12.13025
G1 X112.654 Y92.735 E12.17532
G1 X111.568 Y92.491 E12.21949
G1 X110.587 Y92.61 E12.25867
G1 X109.822 Y92.961 E12.29209
G1 X109.257 Y93.405 E12.32058
G1 X102.293 Y100.489 E12.71464
G92 E0
G1 E-0.6 F3000
M204 S6000
G1 Z0.5 F12000
M204 S1500
G1 X102.633 Y100.823
G1 Z0.2
G1 E0 F2400
G1 F2700
G1 X94.553 Y109.042 E0.45721
G1 X94.192 Y109.516 E0.48084
G1 X93.897 Y110.218 E0.51107
G1 X93.821 Y111.019 E0.54296
G1 X94.01 Y111.842 E0.57645
G1 X94.533 Y112.644 E0.61446
G1 X186.796 Y203.362 E5.74731
G1 X187.547 Y203.847 E5.78279
G1 X188.281 Y204.036 E5.81289
G1 X189.068 Y203.997 E5.84414
G1 X189.742 Y203.759 E5.87249
G1 X190.354 Y203.32 E5.90236
G1 X205.45 Y187.975 E6.75629
G1 X205.807 Y187.508 E6.77959
G1 X206.109 Y186.812 E6.8097
G1 X206.198 Y186.247 E6.83239
G1 X206.028 Y185.22 E6.8737
G1 X205.481 Y184.356 E6.91426
G1 X113.269 Y93.7 E12.04397
G1 X112.478 Y93.178 E12.08154
G1 X111.56 Y92.968 E12.11891
G1 X110.716 Y93.069 E12.15263
G1 X110.086 Y93.358 E12.18013
G1 X109.597 Y93.74 E12.20471
G1 X102.675 Y100.78 E12.59639
G92 E0
G1 E-0.6 F3000
M204 S6000
G1 Z0.5 F12000
M204 S1500
G1 X103.015 Y101.115
G1 Z0.2
G1 E0 F2400
G1 F2700
G1 X94.893 Y109.376 E0.45959
G1 X94.594 Y109.774 E0.47934
G1 X94.362 Y110.325 E0.50306
G1 X94.297 Y110.979 E0.52911
G1 X94.447 Y111.65 E0.55641
G1 X94.868 Y112.305 E0.58729
G1 X187.13 Y203.022 E5.7201
G1 X187.719 Y203.402 E5.74794
G1 X188.322 Y203.561 E5.77267
G1 X188.982 Y203.528 E5.79887
G1 X189.534 Y203.33 E5.82213
G1 X190.013 Y202.985 E5.84556
G1 X205.11 Y187.64 E6.69949
G1 X205.408 Y187.246 E6.7191
G1 X205.646 Y186.7 E6.74273
G1 X205.722 Y186.229 E6.76166
G1 X205.586 Y185.4 E6.79498
G1 X205.146 Y184.696 E6.8279
G1 X112.934 Y94.04 E11.95761
G1 X112.302 Y93.622 E11.98767
G1 X111.552 Y93.445 E12.01824
G1 X110.844 Y93.529 E12.04652
G1 X110.35 Y93.755 E12.0681
G1 X109.938 Y94.074 E12.08877
G1 X103.057 Y101.072 E12.47806
M104 S250 ; set temperature
G92 E0
G1 E-0.6 F3000
M204 S6000
G1 Z0.5 F12000
; printing object v2_bed_wago.stl id:0 copy 0
EXCLUDE_OBJECT_START NAME=v2_bed_wago_stl_id_0_copy_0
; acceleration to travel
M204 S6500
G1 X109.799 Y102.094
; decel to extrusion
M204 S1000
G1 X110.881 Y102.258
; end travel
G1 Z0.2
G1 E0 F2400
;TYPE:External perimeter
;WIDTH:0.568
G1 F3600
G1 X110.858 Y102.544 E0.01251
G1 X110.935 Y102.82 E0.02501
G1 X111.086 Y103.033 E0.03642
G1 X120.214 Y112.006 E0.59526
G1 X120.429 Y112.154 E0.60667
G1 X120.694 Y112.223 E0.61862
G1 X120.862 Y112.221 E0.62597
G1 X121.114 Y112.151 E0.63737
G1 X121.259 Y112.066 E0.64471
G1 X124.681 Y108.597 E0.85746
G1 X190.328 Y173.136 E4.87681
G1 X186.909 Y176.626 E5.09011
G1 X186.796 Y176.875 E5.10205
G1 X186.77 Y177.028 E5.10885
G1 X186.771 Y177.184 E5.11565
G1 X186.844 Y177.448 E5.12761
G1 X186.996 Y177.66 E5.13901
G1 X196.124 Y186.634 E5.69786
G1 X196.339 Y186.782 E5.70926
G1 X196.616 Y186.854 E5.72177
G1 X196.901 Y186.826 E5.73428
G1 X197.16 Y186.703 E5.74677
G1 X200.59 Y183.225 E5.96008
G1 X203.654 Y186.236 E6.14762
G1 X188.639 Y201.498 E7.08239
G1 X185.581 Y198.492 E7.2696
G1 X189.001 Y195.002 E7.48291
G1 X189.119 Y194.742 E7.4954
G1 X189.142 Y194.456 E7.50791
G1 X189.065 Y194.18 E7.52042
G1 X188.914 Y193.967 E7.53182
G1 X179.786 Y184.994 E8.09067
G1 X179.581 Y184.853 E8.10152
G1 X179.423 Y184.797 E8.10887
G1 X179.163 Y184.776 E8.12026
G1 X178.997 Y184.807 E8.12761
G1 X178.75 Y184.925 E8.13955
G1 X175.319 Y188.403 E8.35286
G1 X110.168 Y124.353 E12.34177
G1 X109.579 Y123.774 E12.37784
G1 X112.957 Y120.327 E12.58854
G1 X113.084 Y120.149 E12.59808
G1 X113.162 Y119.909 E12.60911
G1 X113.14 Y119.557 E12.62451
G1 X113.011 Y119.347 E12.63528
G1 X103.869 Y110.359 E13.19499
G1 X103.667 Y110.24 E13.20526
G1 X103.413 Y110.209 E13.21642
G1 X103.175 Y110.255 E13.227
G1 X102.964 Y110.363 E13.23737
G1 X99.507 Y113.871 E13.4524
G1 X96.446 Y110.857 E13.63994
G1 X111.453 Y95.592 E14.57451
G1 X114.419 Y98.508 E14.7561
G1 X110.999 Y101.998 E14.9694
G1 X110.906 Y102.204 E14.97928
;WIPE_START
M204 S6000
G1 X110.502 Y102.387 F12000
;WIPE_END
M204 S1500
G1 X110.393 Y102.063
;TYPE:Internal perimeter
G1 F3600
G1 X110.364 Y102.125 E14.98224
G1 X110.327 Y102.595 E15.00284
G1 X110.453 Y103.049 E15.02343
G1 X110.685 Y103.375 E15.04088
G1 X119.878 Y112.413 E15.60374
G1 X120.208 Y112.639 E15.62119
G1 X120.629 Y112.748 E15.6402
G1 X120.936 Y112.746 E15.65359
G1 X121.321 Y112.639 E15.67102
G1 X121.584 Y112.484 E15.68438
G1 X124.686 Y109.339 E15.87724
G1 X189.586 Y173.143 E19.85082
G1 X186.47 Y176.324 E20.04526
G1 X186.289 Y176.72 E20.06424
G1 X186.244 Y176.987 E20.07607
G1 X186.247 Y177.257 E20.08789
G1 X186.363 Y177.677 E20.1069
G1 X186.595 Y178.003 E20.12436
G1 X195.788 Y187.04 E20.68721
G1 X196.118 Y187.267 E20.70466
G1 X196.574 Y187.385 E20.72526
G1 X197.044 Y187.34 E20.74585
G1 X197.469 Y187.137 E20.76641
G1 X200.596 Y183.967 E20.96085
G1 X202.911 Y186.242 E21.10258
G1 X188.633 Y200.756 E21.99149
G1 X186.323 Y198.485 E22.1329
G1 X189.44 Y195.304 E22.32734
G1 X189.636 Y194.875 E22.3479
G1 X189.673 Y194.405 E22.36849
G1 X189.547 Y193.951 E22.38909
G1 X189.315 Y193.625 E22.40654
G1 X180.122 Y184.587 E22.96939
G1 X179.822 Y184.381 E22.98527
G1 X179.533 Y184.279 E22.99865
G1 X179.135 Y184.248 E23.01609
G1 X178.834 Y184.303 E23.02947
G1 X178.441 Y184.49 E23.04846
G1 X175.314 Y187.661 E23.2429
G1 X110.537 Y123.979 E27.20892
G1 X110.321 Y123.767 E27.2221
G1 X113.361 Y120.665 E27.41173
G1 X113.558 Y120.388 E27.42659
G1 X113.692 Y119.976 E27.44548
G1 X113.656 Y119.394 E27.47095
G1 X113.425 Y119.017 E27.49025
G1 X104.192 Y109.94 E28.05556
G1 X103.839 Y109.732 E28.07344
G1 X103.395 Y109.678 E28.093
G1 X103.002 Y109.753 E28.11044
G1 X102.649 Y109.934 E28.12777
G1 X99.501 Y113.128 E28.32357
G1 X97.188 Y110.851 E28.46528
G1 X111.459 Y96.335 E29.35402
G1 X113.677 Y98.515 E29.4898
G1 X110.56 Y101.696 E29.68424
G1 X110.418 Y102.008 E29.69921
G1 X109.838 Y102.127 F12000
G1 F3600
G1 X109.797 Y102.646 E29.72195
G1 X109.972 Y103.279 E29.75063
G1 X110.284 Y103.717 E29.77413
G1 X119.543 Y112.819 E30.34099
G1 X119.987 Y113.124 E30.36449
G1 X120.565 Y113.274 E30.39057
G1 X121.01 Y113.27 E30.40999
G1 X121.528 Y113.127 E30.43346
G1 X121.91 Y112.901 E30.45283
G1 X124.692 Y110.081 E30.62581
G1 X188.844 Y173.15 E34.55361
G1 X186.03 Y176.022 E34.72919
G1 X185.783 Y176.565 E34.75521
G1 X185.719 Y176.945 E34.77206
G1 X185.722 Y177.331 E34.78891
G1 X185.882 Y177.907 E34.81498
G1 X186.194 Y178.345 E34.83848
G1 X195.453 Y187.447 E35.40535
G1 X195.896 Y187.752 E35.42885
G1 X196.532 Y187.917 E35.45753
G1 X197.186 Y187.854 E35.4862
G1 X197.778 Y187.572 E35.51483
G1 X200.602 Y184.709 E35.69041
G1 X202.169 Y186.249 E35.78631
G1 X188.627 Y200.013 E36.62937
G1 X187.065 Y198.478 E36.72498
G1 X189.88 Y195.605 E36.90056
G1 X190.152 Y195.009 E36.92918
G1 X190.203 Y194.354 E36.95786
G1 X190.028 Y193.721 E36.98654
G1 X189.716 Y193.283 E37.01004
G1 X180.457 Y184.181 E37.5769
G1 X180.063 Y183.91 E37.5978
G1 X179.643 Y183.761 E37.61722
G1 X179.107 Y183.719 E37.64069
G1 X178.67 Y183.8 E37.66012
G1 X178.132 Y184.056 E37.68614
G1 X175.308 Y186.919 E37.86171
G1 X111.063 Y123.76 E41.79515
G1 X113.765 Y121.003 E41.96369
G1 X114.033 Y120.626 E41.98388
G1 X114.222 Y120.043 E42.01063
G1 X114.172 Y119.231 E42.04617
G1 X113.839 Y118.688 E42.07399
G1 X104.514 Y109.52 E42.64492
G1 X104.011 Y109.224 E42.6704
G1 X103.376 Y109.147 E42.69835
G1 X102.829 Y109.252 E42.72266
G1 X102.334 Y109.506 E42.74695
G1 X99.496 Y112.386 E42.92351
G1 X97.931 Y110.845 E43.01941
G1 X111.465 Y97.078 E43.86232
G1 X112.935 Y98.522 E43.95228
G1 X110.12 Y101.394 E44.12785
G1 X109.848 Y101.991 E44.15648
G1 X109.842 Y102.067 E44.1598
G1 X109.316 Y102.061 F12000
G1 F3600
G1 X109.266 Y102.697 E44.18766
G1 X109.491 Y103.508 E44.22442
G1 X109.884 Y104.059 E44.25396
G1 X119.208 Y113.226 E44.82484
G1 X119.765 Y113.609 E44.85439
G1 X120.5 Y113.8 E44.88753
G1 X121.083 Y113.795 E44.91298
G1 X121.734 Y113.614 E44.94249
G1 X122.235 Y113.319 E44.96788
G1 X124.698 Y110.823 E45.12096
G1 X188.103 Y173.157 E49.003
G1 X185.591 Y175.721 E49.15971
G1 X185.276 Y176.41 E49.19277
G1 X185.194 Y176.904 E49.21464
G1 X185.198 Y177.405 E49.23651
G1 X185.4 Y178.136 E49.26965
G1 X185.793 Y178.687 E49.2992
G1 X195.117 Y187.854 E49.87007
G1 X195.675 Y188.237 E49.89962
G1 X196.49 Y188.448 E49.93639
G1 X197.328 Y188.368 E49.97315
G1 X198.087 Y188.006 E50.00984
G1 X200.608 Y185.451 E50.16656
G1 X201.426 Y186.255 E50.21664
G1 X188.621 Y199.271 E51.01384
G1 X187.807 Y198.471 E51.06365
G1 X190.319 Y195.907 E51.22037
G1 X190.668 Y195.142 E51.25706
G1 X190.734 Y194.303 E51.29382
G1 X190.509 Y193.492 E51.33058
G1 X190.116 Y192.941 E51.36013
G1 X180.792 Y183.774 E51.931
G1 X180.303 Y183.438 E51.95693
G1 X179.753 Y183.243 E51.98239
G1 X179.08 Y183.19 E52.01189
G1 X178.506 Y183.296 E52.03735
G1 X177.823 Y183.622 E52.07041
G1 X175.302 Y186.177 E52.22713
G1 X111.805 Y123.753 E56.11478
G1 X114.169 Y121.341 E56.26225
G1 X114.508 Y120.865 E56.28776
G1 X114.752 Y120.11 E56.32238
G1 X114.688 Y119.068 E56.36798
G1 X114.253 Y118.358 E56.40433
G1 X104.836 Y109.101 E56.98087
G1 X104.184 Y108.716 E57.01395
G1 X103.358 Y108.616 E57.05029
G1 X102.656 Y108.75 E57.08147
G1 X102.02 Y109.077 E57.11272
G1 X99.49 Y111.644 E57.27004
G1 X98.673 Y110.839 E57.32012
G1 X111.472 Y97.82 E58.1172
G1 X112.193 Y98.529 E58.16135
G1 X109.681 Y101.093 E58.31806
G1 X109.332 Y101.857 E58.35475
G1 X109.321 Y102.001 E58.36104
; acceleration to travel
M204 S6500
G1 X111.05 Y99.614 F12000
; decel to extrusion
M204 S1500
G1 X111.448 Y99.064
; end travel
;TYPE:Solid infill
G1 F3600
G1 X111.115 Y98.73 E58.38165
G1 X110.747 Y99.104 E58.40457
G1 X110.921 Y99.279 E58.41536
G1 X110.554 Y99.654 E58.43829
G1 X110.378 Y99.479 E58.44911
G1 X110.01 Y99.853 E58.47204
G1 X110.186 Y100.029 E58.48291
G1 X109.819 Y100.404 E58.50583
G1 X109.642 Y100.228 E58.51674
G1 X109.274 Y100.602 E58.53966
G1 X109.451 Y100.779 E58.5506
G1 X109.36 Y100.873 E58.5563
G1 X109.185 Y101.256 E58.57469
G1 X108.906 Y100.977 E58.59193
G1 X108.538 Y101.351 E58.61486
G1 X108.955 Y101.768 E58.6406
G1 X108.9 Y102.456 E58.67074
G1 X108.17 Y101.726 E58.71586
G1 X107.802 Y102.1 E58.73879
G1 X109.048 Y103.347 E58.81576
G1 X109.139 Y103.676 E58.83067
G1 X109.591 Y104.309 E58.86464
G1 X118.963 Y113.523 E59.43844
G1 X119.604 Y113.963 E59.47241
G1 X119.686 Y113.985 E59.47613
G1 X196.459 Y190.757 E64.21646
G1 X196.09 Y191.131 E64.23938
G1 X107.433 Y102.474 E69.71354
G1 X107.065 Y102.849 E69.73647
G1 X195.722 Y191.506 E75.21062
G1 X195.354 Y191.88 E75.23354
G1 X106.697 Y103.223 E80.70768
G1 X106.329 Y103.598 E80.73061
G1 X194.986 Y192.254 E86.20474
G1 X194.617 Y192.629 E86.22767
G1 X105.961 Y103.972 E91.70179
G1 X105.593 Y104.347 E91.72472
G1 X194.249 Y193.003 E97.19883
G1 X193.881 Y193.377 E97.22176
G1 X105.225 Y104.721 E102.69587
G1 X104.857 Y105.096 E102.71879
G1 X193.513 Y193.752 E108.19289
G1 X193.144 Y194.126 E108.21582
G1 X104.488 Y105.47 E113.68991
G1 X104.12 Y105.844 E113.71284
G1 X192.776 Y194.5 E119.18692
G1 X192.408 Y194.875 E119.20985
G1 X103.752 Y106.219 E124.68393
G1 X103.384 Y106.593 E124.70685
G1 X179.64 Y182.85 E129.41532
G1 X179.06 Y182.804 E129.44075
G1 X178.884 Y182.836 E129.44853
G1 X115.069 Y119.021 E133.3888
G1 X115.118 Y119.812 E133.4234
G1 X178.283 Y182.978 E137.32357
G1 X177.78 Y183.217 E137.34789
G1 X115.037 Y120.474 E141.22199
G1 X114.856 Y121.035 E141.24773
G1 X177.363 Y183.542 E145.10726
G1 X176.994 Y183.916 E145.13019
G1 X114.548 Y121.47 E148.98595
G1 X114.464 Y121.588 E148.99225
G1 X114.196 Y121.861 E149.00896
G1 X176.625 Y184.29 E152.86366
G1 X176.257 Y184.664 E152.88658
G1 X113.829 Y122.236 E156.74121
G1 X113.461 Y122.611 E156.76413
G1 X175.888 Y185.038 E160.61868
G1 X175.519 Y185.412 E160.64161
G1 X113.094 Y122.986 E164.49608
G1 X112.726 Y123.361 E164.51901
G1 X157.694 Y168.329 E167.29556
G1 X113.757 Y125.134 E169.98564
G1 X112.199 Y123.577 E170.08183
G92 E0
G1 E-0.6 F3000
M204 S6000
G1 Z0.5 F12000
; acceleration to travel
M204 S6500
G1 X110.633 Y115.977
; decel to extrusion
M204 S1500
G1 X110.272 Y114.223
; end travel
G1 Z0.2
G1 E0 F2400
G1 F3600
G1 X103.016 Y106.968 E0.448
G1 X102.648 Y107.342 E0.47093
G1 X103.559 Y108.254 E0.52722
G1 X103.344 Y108.228 E0.53668
G1 X102.88 Y108.317 E0.55732
G1 X102.28 Y107.717 E0.59439
G1 X101.912 Y108.091 E0.61731
G1 X102.315 Y108.495 E0.64223
