; generated by SuperSlicer 2.5.59 on 2023-04-14 at 00:21:45 UTC


;
;

;
;
; 

; external perimeters extrusion width = 0.46mm
; perimeters extrusion width = 0.46mm
; infill extrusion width = 0.46mm
; solid infill extrusion width = 0.46mm
; top infill extrusion width = 0.46mm
; support material extrusion width = 0.46mm
; first layer extrusion width = 0.58mm

; object:{"name":"V2_Duo_Plenum_LID","id":"V2_Duo_Plenum_LID.stl id:0 copy 0","object_center":[150.000000,148.500000,0.000000],"boundingbox_center":[150.000000,148.500000,1.399880],"boundingbox_size":[122.789543,68.537434,2.799761]}
EXCLUDE_OBJECT_DEFINE NAME=V2_Duo_Plenum_LID_stl_id_0_copy_0 CENTER=150.000000,148.500000 POLYGON=[[88.605224,160.701280],[88.605472,114.332392],[88.608552,114.306976],[88.617904,114.283904],[88.632704,114.263848],[88.652008,114.248072],[88.674640,114.237544],[88.699216,114.233152],[88.742112,114.231288],[211.294784,114.231288],[211.320640,114.235104],[211.344816,114.244952],[211.365552,114.260736],[211.381440,114.281368],[211.391360,114.305424],[211.394528,114.331280],[211.394768,160.675968],[211.392688,160.702080],[211.200016,161.068832],[210.640656,162.037696],[199.826288,180.768720],[199.569568,181.158848],[199.426368,181.339872],[199.269136,181.516384],[198.933328,181.832880],[198.842880,181.906528],[198.362176,182.232816],[197.838080,182.486080],[197.730272,182.527504],[197.287072,182.660320],[197.056784,182.707952],[196.827808,182.741520],[196.362176,182.768720],[103.623200,182.768720],[103.157592,182.741520],[102.928608,182.707952],[102.698304,182.660320],[102.255128,182.527504],[102.147248,182.486416],[101.623200,182.232816],[101.142752,181.906304],[101.052048,181.832880],[100.716264,181.516384],[100.559024,181.339872],[100.415816,181.158848],[100.159104,180.768720],[88.799976,161.094144],[88.607312,160.727392],[88.605224,160.701280]]
; plater:{"center":[150.000000,148.500000,0.000000],"boundingbox_center":[150.000000,148.500000,1.399880],"boundingbox_size":[122.789543,68.537434,2.799761]}

;TYPE:Custom
SET_PRINT_STATS_INFO TOTAL_LAYER=14

M104 S0 ; Stops SuperSlicer from sending temp waits separately

M109 S0

M140 S0

print_start EXTRUDER=250 BED=105 CHAMBER=0
M107
G21 ; set units to millimeters
G90 ; use absolute coordinates
M82 ; use absolute distances for extrusion
G92 E0
; Filament gcode
;_TOOLCHANGE 0
M107
;LAYER_CHANGE
;Z:0.2
;HEIGHT:0.2
TIMELAPSE_TAKE_FRAME
;BEFORE_LAYER_CHANGE
;0.2


G1 Z0.2 F12000
SET_PRINT_STATS_INFO CURRENT_LAYER=1
;AFTER_LAYER_CHANGE
;0.2
G1 E-0.7 F2400
G1 Z0.4 F12000
M204 S3000
G1 X89.013 Y113.271
G1 Z0.2
G1 E0 F2280
;TYPE:Skirt
;WIDTH:0.54
G1 F3600
G1 X87.891 Y114.201 E0.06023
G1 X87.494 Y115.482 E0.11565
G1 X87.49 Y160.593 E1.9802
G1 X87.646 Y161.434 E2.01555
G1 X99.3 Y181.727 E2.98277
G1 X99.817 Y182.443 E3.01927
G1 X100.615 Y183.18 E3.06419
G1 X101.308 Y183.58 E3.09725
G1 X102.346 Y183.903 E3.14218
G1 X103.224 Y183.992 E3.17867
G1 X196.761 Y183.992 E7.04478
G1 X197.64 Y183.903 E7.08128
G1 X198.554 Y183.633 E7.12068
G1 X199.687 Y182.933 E7.17571
G1 X200.169 Y182.443 E7.20413
G1 X200.686 Y181.726 E7.24065
G1 X212.184 Y161.798 E8.19162
G1 X212.431 Y161.161 E8.21984
G1 X212.51 Y160.56 E8.24491
G1 X212.511 Y115.514 E10.10675
G1 X212.405 Y114.835 E10.13517
G1 X211.564 Y113.603 E10.19684
G1 X210.149 Y113.098 E10.25892
G1 X202.405 Y113.089 E10.579
G1 X89.905 Y113.089 E15.22888
G1 X89.071 Y113.259 E15.26405
G1 X89.188 Y113.736 F12000
G1 F3600
G1 X88.315 Y114.46 E15.31094
G1 X87.991 Y115.482 E15.35524
G1 X87.987 Y160.593 E17.2198
G1 X88.12 Y161.285 E17.24893
G1 X99.73 Y181.478 E18.21167
G1 X100.215 Y182.145 E18.24572
G1 X100.893 Y182.768 E18.28381
G1 X101.526 Y183.133 E18.314
G1 X102.405 Y183.409 E18.35209
G1 X103.224 Y183.495 E18.38613
G1 X196.761 Y183.495 E22.25224
G1 X197.581 Y183.409 E22.28629
G1 X198.345 Y183.182 E22.31924
G1 X199.355 Y182.563 E22.3682
G1 X200.255 Y181.478 E22.42649
G1 X211.754 Y161.549 E23.37746
G1 X211.946 Y161.054 E23.39943
G1 X212.013 Y160.56 E23.42003
G1 X212.014 Y115.514 E25.28188
G1 X211.932 Y114.985 E25.304
G1 X211.25 Y113.988 E25.35394
G1 X210.148 Y113.595 E25.40225
G1 X202.404 Y113.586 E25.72234
G1 X89.905 Y113.586 E30.37219
G1 X89.247 Y113.724 E30.39999
G1 X89.364 Y114.201 F12000
G1 F3600
G1 X88.74 Y114.719 E30.43352
G1 X88.488 Y115.482 E30.46673
G1 X88.484 Y160.593 E32.33128
G1 X88.595 Y161.136 E32.35419
G1 X100.161 Y181.23 E33.31246
G1 X100.612 Y181.847 E33.34405
G1 X101.171 Y182.356 E33.37532
G1 X101.743 Y182.686 E33.40262
G1 X102.464 Y182.916 E33.43389
G1 X103.224 Y182.998 E33.46548
G1 X196.761 Y182.998 E37.33159
G1 X197.521 Y182.916 E37.36318
G1 X198.135 Y182.731 E37.38969
G1 X199.023 Y182.194 E37.43257
G1 X199.825 Y181.229 E37.4844
G1 X211.323 Y161.301 E38.43537
G1 X211.516 Y160.56 E38.46702
G1 X211.517 Y115.514 E40.32887
G1 X211.458 Y115.136 E40.34469
G1 X210.935 Y114.373 E40.3829
G1 X210.148 Y114.092 E40.41746
G1 X202.404 Y114.083 E40.73754
G1 X89.905 Y114.083 E45.38737
G1 X89.423 Y114.188 E45.40778
M104 S250 ; set temperature
G92 E0
G1 E-0.7 F2400
M204 S7000
G1 Z0.4 F12000
; printing object V2_Duo_Plenum_LID.stl id:0 copy 0
EXCLUDE_OBJECT_START NAME=V2_Duo_Plenum_LID_stl_id_0_copy_0
; acceleration to travel
M204 S8000
G1 X107.603 Y133.068
; decel to extrusion
M204 S3000
G1 X114.42 Y140.148
; end travel
G1 Z0.2
G1 E0 F2280
;TYPE:Internal perimeter
;WIDTH:0.58
G1 F3600
G1 X114.776 Y140.517 E0.02289
G1 X115.216 Y140.648 E0.0434
G1 X130.488 Y140.655 E0.72541
G1 X131.155 Y140.63 E0.75523
G1 X131.611 Y140.442 E0.77725
G1 X131.91 Y140.152 E0.79587
G1 X132.262 Y140.517 E0.81849
G1 X132.702 Y140.648 E0.839
G1 X145.733 Y140.655 E1.42095
G1 X146.401 Y140.63 E1.45078
G1 X146.857 Y140.442 E1.47282
G1 X147.156 Y140.152 E1.49141
G1 X147.508 Y140.517 E1.51405
G1 X147.948 Y140.648 E1.53456
G1 X160.979 Y140.655 E2.11651
G1 X161.646 Y140.63 E2.14634
G1 X162.1 Y140.443 E2.16826
G1 X162.403 Y140.153 E2.18697
G1 X162.754 Y140.517 E2.20953
G1 X163.194 Y140.648 E2.23004
G1 X176.225 Y140.655 E2.81199
G1 X176.892 Y140.63 E2.84182
G1 X177.348 Y140.442 E2.86383
G1 X177.648 Y140.152 E2.88245
G1 X177.999 Y140.517 E2.90507
G1 X178.439 Y140.648 E2.92557
G1 X184.964 Y140.655 E3.21694
G1 X185.923 Y140.683 E3.25981
G1 X186.712 Y140.764 E3.29521
G1 X188.025 Y141.007 E3.35485
G1 X188.894 Y141.242 E3.39507
G1 X190.82 Y141.942 E3.48658
G1 X191.978 Y141.871 E3.53837
G1 X192.002 Y142.35 E3.55981
G1 X192.247 Y142.805 E3.58291
G1 X193.251 Y143.552 E3.63879
G1 X194.126 Y144.318 E3.69071
G1 X194.931 Y145.159 E3.74272
G1 X195.622 Y146.014 E3.7918
G1 X192.711 Y146.014 E3.92183
G1 X192.442 Y146.049 E3.93393
G1 X192.018 Y146.294 E3.9558
G1 X191.773 Y146.718 E3.97766
G1 X191.738 Y146.986 E3.98976
G1 X191.738 Y148.824 E4.07181
G1 X191.274 Y148.93 E4.09307
G1 X191.148 Y148.898 E4.09884
G1 X188.205 Y148.898 E4.23031
G1 X187.785 Y149.01 E4.2497
G1 X187.399 Y149.397 E4.27412
G1 X187.286 Y149.816 E4.2935
G1 X187.286 Y150.14 E4.30794
G1 X186.895 Y150.175 E4.32547
G1 X186.777 Y149.528 E4.35483
G1 X186.308 Y147.834 E4.43333
G1 X185.689 Y146.189 E4.51184
G1 X184.924 Y144.604 E4.59041
G1 X183.931 Y142.96 E4.67619
G1 X183.624 Y142.711 E4.69386
G1 X183.202 Y142.532 E4.71434
G1 X182.743 Y142.466 E4.73504
G1 X179.72 Y142.465 E4.87003
G1 X179.447 Y142.503 E4.88233
G1 X179.098 Y142.653 E4.8993
G1 X178.694 Y143.06 E4.92494
G1 X178.506 Y143.645 E4.95238
G1 X178.631 Y144.201 E4.97782
G1 X179.724 Y145.644 E5.05865
G1 X180.489 Y146.889 E5.1239
G1 X181.125 Y148.203 E5.18909
G1 X181.628 Y149.574 E5.25428
G1 X181.99 Y150.987 E5.31947
G1 X182.211 Y152.431 E5.38467
G1 X182.286 Y153.888 E5.44986
G1 X182.215 Y155.346 E5.51505
G1 X181.999 Y156.79 E5.58024
G1 X181.64 Y158.205 E5.64543
G1 X181.142 Y159.577 E5.71063
G1 X180.509 Y160.893 E5.77582
G1 X179.749 Y162.139 E5.841
G1 X178.725 Y163.49 E5.91672
G1 X178.581 Y163.834 E5.93335
G1 X178.563 Y164.276 E5.95312
G1 X178.727 Y164.71 E5.97385
G1 X179.006 Y165.032 E5.99284
G1 X179.302 Y165.22 E6.00854
G1 X179.664 Y165.316 E6.02526
G1 X182.723 Y165.319 E6.16186
G1 X183.169 Y165.267 E6.18194
G1 X183.668 Y165.068 E6.20589
G1 X184.005 Y164.754 E6.22646
G1 X184.946 Y163.174 E6.3086
G1 X185.706 Y161.589 E6.3871
G1 X186.322 Y159.943 E6.46561
G1 X186.787 Y158.247 E6.54411
G1 X186.945 Y157.371 E6.58389
G1 X187.289 Y157.356 E6.59926
G1 X187.399 Y157.765 E6.61815
G1 X187.785 Y158.152 E6.64257
G1 X188.205 Y158.264 E6.66195
G1 X191.047 Y158.264 E6.78889
G1 X191.466 Y158.152 E6.80828
G1 X191.851 Y157.766 E6.83261
G1 X192.237 Y158.152 E6.85694
G1 X192.656 Y158.264 E6.87632
G1 X195.498 Y158.264 E7.00326
G1 X195.918 Y158.152 E7.02264
G1 X196.304 Y157.765 E7.04706
G1 X196.417 Y157.346 E7.06646
G1 X196.41 Y147.916 E7.48758
G1 X196.741 Y147.837 E7.50277
G1 X197.06 Y148.473 E7.53454
G1 X197.479 Y149.527 E7.58518
G1 X197.805 Y150.61 E7.63569
G1 X198.039 Y151.722 E7.68645
G1 X198.269 Y153.343 E7.75955
G1 X198.893 Y154.332 E7.81175
G1 X198.493 Y154.53 E7.83172
G1 X198.188 Y154.995 E7.85652
G1 X198.011 Y156.235 E7.91246
G1 X197.789 Y157.228 E7.95792
G1 X197.399 Y158.479 E8.01645
G1 X197.008 Y159.422 E8.062
G1 X196.606 Y160.226 E8.10213
G1 X196.152 Y160.997 E8.14213
G1 X195.585 Y161.811 E8.18643
G1 X194.773 Y162.802 E8.24362
G1 X193.98 Y163.603 E8.29398
G1 X193.114 Y164.339 E8.34473
G1 X191.799 Y165.314 E8.41783
G1 X191.238 Y166.315 E8.46906
G1 X190.845 Y166.085 E8.4894
G1 X190.361 Y166.02 E8.51118
G1 X188.959 Y166.522 E8.57769
G1 X187.651 Y166.862 E8.63804
G1 X186.32 Y167.066 E8.69821
G1 X184.957 Y167.129 E8.75912
G1 X177.352 Y167.129 E9.09877
G1 X176.636 Y167.162 E9.13078
G1 X176.219 Y167.355 E9.15128
G1 X175.926 Y167.639 E9.16951
G1 X175.732 Y167.395 E9.18344
G1 X175.386 Y167.188 E9.20146
G1 X175.093 Y167.136 E9.21475
G1 X162.11 Y167.129 E9.79454
G1 X161.491 Y167.152 E9.82219
G1 X161.023 Y167.314 E9.84429
G1 X160.682 Y167.641 E9.86542
G1 X160.486 Y167.395 E9.87946
G1 X160.14 Y167.188 E9.89749
G1 X159.847 Y167.136 E9.91078
G1 X146.864 Y167.129 E10.49056
G1 X146.245 Y167.152 E10.51821
G1 X145.778 Y167.314 E10.54031
G1 X145.436 Y167.641 E10.56144
G1 X145.24 Y167.395 E10.57548
G1 X144.894 Y167.188 E10.59351
G1 X144.601 Y167.136 E10.6068
G1 X131.618 Y167.129 E11.18658
G1 X131 Y167.152 E11.21423
G1 X130.532 Y167.314 E11.23634
G1 X130.19 Y167.641 E11.25746
G1 X129.995 Y167.395 E11.27151
G1 X129.648 Y167.188 E11.28953
G1 X129.355 Y167.136 E11.30282
G1 X117.073 Y167.129 E11.85134
G1 X116.367 Y167.157 E11.88288
G1 X116.009 Y167.249 E11.89938
G1 X115.384 Y167.725 E11.93449
G1 X114.929 Y167.285 E11.96277
G1 X114.549 Y167.141 E11.98089
G1 X113.34 Y167.112 E12.03491
G1 X112.184 Y166.992 E12.08683
G1 X111.041 Y166.771 E12.13883
G1 X110.056 Y166.493 E12.18451
G1 X109.21 Y166.19 E12.22464
G1 X108.39 Y165.83 E12.26463
G1 X107.389 Y165.294 E12.31535
G1 X106.438 Y164.676 E12.366
G1 X105.546 Y163.981 E12.41651
G1 X104.713 Y163.208 E12.46727
G1 X103.589 Y162.018 E12.54036
G1 X102.566 Y161.595 E12.58978
G1 X102.736 Y160.987 E12.61796
G1 X102.682 Y160.585 E12.63608
G1 X102.131 Y159.509 E12.69008
G1 X101.685 Y158.435 E12.74201
G1 X101.334 Y157.324 E12.79401
G1 X101.108 Y156.326 E12.8397
G1 X100.971 Y155.438 E12.87983
G1 X100.948 Y155.153 E12.89263
G1 X101.298 Y155.112 E12.90841
G1 X100.946 Y155.135 E12.92418
G1 X100.897 Y154.546 E12.95055
G1 X100.89 Y153.41 E13.00128
G1 X100.93 Y152.896 E13.02431
G1 X101.343 Y152.912 E13.04273
G1 X101.361 Y155.108 E13.14077
G1 X101.446 Y155.671 E13.16623
G1 X101.546 Y156.061 E13.18419
G1 X101.678 Y156.404 E13.2006
G1 X101.966 Y156.929 E13.22738
G1 X102.237 Y157.288 E13.24744
G1 X102.562 Y157.61 E13.26788
G1 X102.925 Y157.872 E13.28786
G1 X103.307 Y158.077 E13.30722
G1 X103.84 Y158.277 E13.33267
G1 X104.389 Y158.418 E13.35796
G1 X104.952 Y158.503 E13.3834
G1 X106.087 Y158.539 E13.43409
G1 X106.682 Y158.527 E13.46066
G1 X107.346 Y158.485 E13.49039
G1 X107.682 Y158.43 E13.50557
G1 X108.416 Y158.236 E13.53948
G1 X109.146 Y157.917 E13.57506
G1 X109.763 Y157.496 E13.60842
G1 X109.87 Y157.893 E13.62678
G1 X110.258 Y158.278 E13.6512
G1 X110.677 Y158.39 E13.67058
G1 X113.519 Y158.383 E13.79752
G1 X113.938 Y158.27 E13.8169
G1 X114.323 Y157.884 E13.84124
G1 X114.709 Y158.268 E13.86557
G1 X115.128 Y158.38 E13.88495
G1 X118.011 Y158.373 E14.01369
G1 X118.015 Y160.395 E14.104
G1 X118.051 Y160.664 E14.11611
G1 X118.296 Y161.088 E14.13798
G1 X118.769 Y161.359 E14.16235
G1 X121.776 Y161.36 E14.29663
G1 X122.196 Y161.247 E14.31606
G1 X122.582 Y160.859 E14.34048
G1 X122.693 Y160.44 E14.35986
G1 X122.689 Y158.479 E14.44744
G1 X123.516 Y158.5 E14.4844
G1 X124.281 Y158.468 E14.5186
G1 X125.001 Y158.36 E14.55108
G1 X125.685 Y158.15 E14.58304
G1 X126.323 Y157.796 E14.61565
G1 X126.757 Y157.402 E14.6418
G1 X127.006 Y157.074 E14.6602
G1 X127.307 Y156.453 E14.69104
G1 X127.466 Y155.789 E14.72153
G1 X127.507 Y155.167 E14.74934
G1 X127.501 Y152.507 E14.86813
G1 X127.487 Y151.973 E14.89198
G1 X127.436 Y151.45 E14.91545
G1 X127.333 Y150.942 E14.93862
G1 X127.153 Y150.442 E14.96235
G1 X126.868 Y149.975 E14.98678
G1 X126.484 Y149.58 E15.01139
G1 X126.035 Y149.281 E15.03549
G1 X125.553 Y149.083 E15.05872
G1 X125.024 Y148.961 E15.08299
G1 X124.471 Y148.893 E15.10788
G1 X123.395 Y148.856 E15.15597
G1 X122.699 Y148.879 E15.18707
G1 X121.989 Y148.988 E15.21911
G1 X121.835 Y149.032 E15.22628
G1 X121.741 Y148.999 E15.23075
G1 X118.907 Y149.005 E15.3573
G1 X118.488 Y149.118 E15.37669
G1 X118.142 Y149.465 E15.39856
G1 X118.023 Y149.757 E15.41262
G1 X117.598 Y149.432 E15.4365
G1 X117.246 Y149.235 E15.45452
G1 X116.594 Y149.01 E15.48532
G1 X115.911 Y148.902 E15.51618
G1 X115.206 Y148.874 E15.5477
G1 X114.348 Y148.922 E15.58609
G1 X113.881 Y149.001 E15.60723
G1 X113.667 Y149.061 E15.61715
G1 X113.469 Y149.017 E15.6262
G1 X110.656 Y149.024 E15.75183
G1 X110.237 Y149.137 E15.77122
G1 X109.851 Y149.525 E15.79563
G1 X109.753 Y149.894 E15.8127
G1 X109.242 Y149.533 E15.84064
G1 X108.852 Y149.334 E15.86021
G1 X108.516 Y149.207 E15.87625
G1 X108.14 Y149.101 E15.89368
G1 X107.251 Y148.942 E15.93403
G1 X106.638 Y148.903 E15.96146
G1 X105.521 Y148.906 E16.01133
G1 X104.938 Y148.946 E16.03741
G1 X104.342 Y149.035 E16.06435
G1 X103.74 Y149.189 E16.0921
G1 X103.123 Y149.431 E16.1217
G1 X102.546 Y149.807 E16.15242
G1 X102.237 Y150.105 E16.1716
G1 X101.978 Y150.436 E16.19038
G1 X101.649 Y151.044 E16.22126
G1 X101.543 Y151.344 E16.23546
G1 X101.15 Y151.225 E16.25383
G1 X101.447 Y150.063 E16.30736
G1 X101.958 Y148.508 E16.38047
G1 X101.835 Y147.341 E16.43286
G1 X102.065 Y147.371 E16.44325
G1 X102.476 Y147.253 E16.46231
G1 X102.783 Y147.028 E16.4793
G1 X103.548 Y145.921 E16.5394
G1 X104.274 Y145.046 E16.59018
G1 X105.303 Y144.016 E16.65521
G1 X106.311 Y143.2 E16.71311
G1 X107.066 Y142.69 E16.7538
G1 X107.714 Y142.304 E16.78749
G1 X108.6 Y141.86 E16.83177
G1 X109.816 Y141.371 E16.89028
G1 X110.758 Y141.085 E16.93424
G1 X111.872 Y140.842 E16.98518
G1 X113.676 Y140.629 E17.0663
G1 X114.045 Y140.501 E17.08374
G1 X114.376 Y140.189 E17.10407
G92 E0
G1 E-0.7 F2400
M204 S7000
G1 Z0.4 F12000
; acceleration to travel
M204 S8000
G1 X127.115 Y140.711
; decel to extrusion
M204 S3000
G1 X131.892 Y140.907
; end travel
G1 Z0.2
G1 E0 F2280
G1 F3600
G1 X131.973 Y140.991 E0.00523
G1 X132.624 Y141.185 E0.03553
G1 X145.743 Y141.192 E0.62143
G1 X146.517 Y141.163 E0.65601
G1 X147.138 Y140.907 E0.68602
G1 X147.219 Y140.991 E0.69125
G1 X147.869 Y141.185 E0.72155
G1 X160.989 Y141.192 E1.30745
G1 X161.763 Y141.163 E1.34202
G1 X162.384 Y140.907 E1.37203
G1 X162.465 Y140.991 E1.37726
G1 X163.115 Y141.185 E1.40757
G1 X176.235 Y141.192 E1.99346
G1 X177.008 Y141.163 E2.02804
G1 X177.629 Y140.907 E2.05805
G1 X177.711 Y140.991 E2.06328
G1 X178.36 Y141.185 E2.09356
G1 X184.955 Y141.192 E2.38809
G1 X185.888 Y141.219 E2.42973
G1 X186.635 Y141.297 E2.46331
G1 X187.906 Y141.531 E2.521
G1 X188.732 Y141.755 E2.55922
G1 X190.742 Y142.485 E2.65472
G1 X191.441 Y142.442 E2.68603
G1 X191.83 Y143.165 E2.7227
G1 X192.913 Y143.97 E2.78296
G1 X193.754 Y144.707 E2.83287
G1 X194.491 Y145.477 E2.88048
G1 X192.675 Y145.477 E2.96157
G1 X192.266 Y145.53 E2.98001
G1 X191.625 Y145.901 E3.01308
G1 X191.255 Y146.542 E3.04614
G1 X191.201 Y146.951 E3.06458
G1 X191.201 Y148.361 E3.12754
