; generated by SuperSlicer 2.5.59 on 2023-03-26 at 21:47:57 UTC


;
;

;
;
; 

; external perimeters extrusion width = 0.45mm
; perimeters extrusion width = 0.45mm
; infill extrusion width = 0.45mm
; solid infill extrusion width = 0.45mm
; top infill extrusion width = 0.45mm
; support material extrusion width = 0.40mm
; first layer extrusion width = 0.60mm

; object:{"name":"V2_exhaust_grill_solid_PG7_thermistor_Bowden","id":"V2_exhaust_grill_solid_PG7_thermistor_Bowden.stl id:0 copy 0","object_center":[150.020298,148.664905,0.000000],"boundingbox_center":[150.020298,148.664905,2.799988],"boundingbox_size":[40.272957,154.992059,5.599976]}
EXCLUDE_OBJECT_DEFINE NAME=V2_exhaust_grill_solid_PG7_thermistor_Bowden_stl_id_0_copy_0 CENTER=150.020298,148.664905 POLYGON=[[129.883816,219.348416],[132.522632,76.954896],[132.636112,76.080128],[132.938600,75.251504],[133.415328,74.509320],[134.043120,73.889680],[134.791472,73.422696],[135.623984,73.131104],[139.338384,72.370712],[143.085568,71.793136],[146.856544,71.399744],[150.642224,71.191480],[154.433616,71.168880],[166.231584,71.387512],[167.119648,71.504272],[167.959472,71.815728],[168.708944,72.306248],[169.330464,72.951232],[169.792880,73.718352],[170.072992,74.569152],[170.156768,75.460936],[169.986320,84.659360],[167.607232,213.037328],[167.436768,222.235728],[167.320016,223.123808],[167.008576,223.963616],[166.518032,224.713088],[165.873040,225.334624],[165.105920,225.797024],[164.255120,226.077168],[163.363344,226.160928],[151.565392,225.942288],[147.777440,225.779216],[144.002064,225.430848],[140.248256,224.898016],[136.525040,224.182000],[132.841368,223.284480],[132.020232,222.962256],[131.289704,222.467872],[130.685288,221.825392],[130.236392,221.066064],[129.964816,220.226800],[129.883816,219.348416]]
; plater:{"center":[150.020298,148.664905,0.000000],"boundingbox_center":[150.020298,148.664905,2.799988],"boundingbox_size":[40.272957,154.992059,5.599976]}

;TYPE:Custom
SET_PRINT_STATS_INFO TOTAL_LAYER=24

M104 S0 ; Stops SuperSlicer from sending temp waits separately

M109 S0

M140 S0

print_start EXTRUDER=255 BED=108 CHAMBER=0
G21 ; set units to millimeters
G90 ; use absolute coordinates
M82 ; use absolute distances for extrusion
G92 E0
; Filament gcode
;_TOOLCHANGE 0
M107
;LAYER_CHANGE
;Z:0.23125
;HEIGHT:0.23125
TIMELAPSE_TAKE_FRAME
;BEFORE_LAYER_CHANGE
;0.23125


G1 E-0.8 F2100
G1 Z0.2 F9000
G1 Z0.23125
SET_PRINT_STATS_INFO CURRENT_LAYER=1
;AFTER_LAYER_CHANGE
;0.23125
G92 E0
G1 Z0.43125
G1 X126.586 Y72.376
G1 Z0.23125
G1 E0.8 F2100
;TYPE:Skirt
;WIDTH:0.54
G1 F2250
G1 X125.808 Y74.666 E0.91406
G1 X125.577 Y76.55 E1.00351
G1 X122.937 Y219.743 E7.75561
G1 X123.188 Y221.869 E7.85656
G1 X123.782 Y223.705 E7.9475
G1 X123.984 Y224.154 E7.97075
G1 X125.262 Y226.209 E8.08482
G1 X126.959 Y227.933 E8.19888
G1 X128.557 Y229.014 E8.28982
G1 X130.587 Y229.869 E8.39367
G1 X135.099 Y230.987 E8.61282
G1 X139.157 Y231.764 E8.80763
G1 X143.248 Y232.342 E9.00243
G1 X147.254 Y232.712 E9.19208
G1 X151.321 Y232.89 E9.38399
G1 X163.766 Y233.107 E9.97083
G1 X165.925 Y232.848 E10.07334
G1 X168.24 Y232.027 E10.18918
G1 X170.315 Y230.71 E10.30501
G1 X171.726 Y229.351 E10.39736
G1 X173.118 Y227.327 E10.5132
G1 X173.343 Y226.88 E10.5368
G1 X174.024 Y225.043 E10.62915
G1 X174.363 Y222.895 E10.73166
G1 X177.103 Y75.058 E17.70274
G1 X176.844 Y72.899 E17.80526
G1 X176.231 Y71.039 E17.8976
G1 X175.011 Y68.906 E18.01344
G1 X173.347 Y67.099 E18.12928
G1 X172.962 Y66.779 E18.15288
G1 X170.876 Y65.481 E18.26872
G1 X169.039 Y64.8 E18.36106
G1 X166.891 Y64.461 E18.46358
G1 X154.501 Y64.217 E19.04783
G1 X150.376 Y64.244 E19.24233
G1 X146.25 Y64.474 E19.43714
G1 X142.249 Y64.891 E19.62678
G1 X138.165 Y65.518 E19.82159
G1 X133.906 Y66.387 E20.02655
G1 X131.999 Y67.033 E20.12146
G1 X129.918 Y68.268 E20.23553
G1 X128.158 Y69.928 E20.34959
G1 X127.848 Y70.311 E20.37284
G1 X126.618 Y72.324 E20.48408
G1 X127.047 Y72.544 F9000
G1 F2250
G1 X126.295 Y74.73 E20.59306
G1 X126.068 Y76.559 E20.67996
G1 X123.426 Y219.698 E27.42951
G1 X123.655 Y221.718 E27.52538
G1 X124.249 Y223.554 E27.61631
G1 X125.62 Y225.872 E27.74332
G1 X127.234 Y227.527 E27.85231
G1 X128.832 Y228.608 E27.94324
G1 X130.766 Y229.413 E28.04201
G1 X135.191 Y230.505 E28.25692
G1 X139.226 Y231.279 E28.45059
G1 X143.293 Y231.854 E28.64426
G1 X147.299 Y232.224 E28.83391
G1 X151.342 Y232.4 E29.02469
G1 X163.72 Y232.619 E29.60837
G1 X165.771 Y232.382 E29.70573
G1 X167.987 Y231.606 E29.8164
G1 X169.975 Y230.357 E29.92708
G1 X171.385 Y228.998 E30.01942
G1 X172.883 Y226.709 E30.1484
G1 X173.564 Y224.873 E30.24074
G1 X173.877 Y222.831 E30.3381
G1 X176.614 Y75.104 E37.304
G1 X176.378 Y73.053 E37.40135
G1 X175.765 Y71.192 E37.4937
G1 X174.591 Y69.16 E37.60438
G1 X172.994 Y67.439 E37.71506
G1 X170.705 Y65.941 E37.84402
G1 X168.868 Y65.26 E37.93637
G1 X166.827 Y64.947 E38.03373
G1 X154.492 Y64.708 E38.61539
G1 X150.488 Y64.731 E38.80416
G1 X146.386 Y64.955 E38.99783
G1 X142.3 Y65.379 E39.1915
G1 X138.156 Y66.018 E39.38921
G1 X134.004 Y66.868 E39.58901
G1 X132.161 Y67.496 E39.6808
G1 X130.178 Y68.684 E39.78979
G1 X128.261 Y70.576 E39.91679
G1 X127.079 Y72.493 E40.02295
G92 E0
G1 E-0.8 F2100
G1 Z0.43125 F9000
G1 X167.489 Y218.942
G1 Z0.23125
G1 E0 F2100
;WIDTH:0.6
;HEIGHT:0.23
G1 F2250
G1 X168.124 Y219.026 E0.03372
G1 X168.656 Y219.246 E0.06403
G1 X169.13 Y219.443 E0.09106
G1 X169.994 Y220.106 E0.1484
G1 X170.657 Y220.97 E0.20574
G1 X170.853 Y221.444 E0.23277
G1 X171.074 Y221.976 E0.26308
G1 X171.216 Y223.055 E0.32043
G1 X171.074 Y224.135 E0.37777
G1 X170.657 Y225.141 E0.43511
G1 X169.994 Y226.005 E0.49245
G1 X169.13 Y226.668 E0.54979
G1 X168.656 Y226.865 E0.57682
G1 X168.124 Y227.085 E0.60713
G1 X167.044 Y227.227 E0.66447
G1 X165.964 Y227.085 E0.72182
G1 X164.958 Y226.668 E0.77916
G1 X164.201 Y226.087 E0.8294
G1 X164.254 Y226.07 E0.83231
G1 X164.654 Y225.938 E0.85449
G1 X165.103 Y225.79 E0.87939
G1 X165.869 Y225.329 E0.92646
G1 X166.512 Y224.708 E0.97354
G1 X167.002 Y223.96 E1.02062
G1 X167.313 Y223.122 E1.06769
G1 X167.427 Y222.251 E1.11395
G1 X167.488 Y219.002 E1.28504
G92 E0
G1 E-0.8 F2100
G1 Z0.43125 F9000
G1 X169.509 Y219.768
G1 Z0.23125
G1 E0 F2100
G1 F2250
G1 X167.738 Y219.768 E0.09326
G1 X167.728 Y220.319 E0.12226
G1 X169.824 Y220.319 E0.23266
G1 X170.247 Y220.87 E0.26921
G1 X167.717 Y220.87 E0.40239
G1 X167.707 Y221.42 E0.43139
G1 X170.557 Y221.42 E0.58146
G1 X170.609 Y221.545 E0.58857
G1 X170.785 Y221.971 E0.61285
G1 X167.697 Y221.971 E0.77546
G1 X167.691 Y222.271 E0.79126
G1 X167.658 Y222.522 E0.80457
G1 X170.879 Y222.522 E0.97413
G1 X170.949 Y223.055 E1.00249
G1 X170.947 Y223.072 E1.00338
G1 X167.586 Y223.072 E1.18034
G1 X167.571 Y223.186 E1.18638
G1 X167.409 Y223.623 E1.21091
G1 X170.874 Y223.623 E1.39337
G1 X170.816 Y224.066 E1.41691
G1 X170.772 Y224.173 E1.42303
G1 X167.178 Y224.173 E1.61222
G1 X166.818 Y224.724 E1.64687
G1 X170.543 Y224.724 E1.84303
G1 X170.426 Y225.008 E1.85921
G1 X170.221 Y225.275 E1.87691
G1 X166.306 Y225.275 E2.08308
G1 X166.031 Y225.54 E2.10319
G1 X165.557 Y225.825 E2.13232
G1 X169.794 Y225.825 E2.35542
G1 X169.076 Y226.376 E2.40305
G1 X165.012 Y226.376 E2.61708
G1 X165.091 Y226.437 E2.62238
G1 X166.033 Y226.827 E2.67606
G1 X166.787 Y226.927 E2.71608
G1 X168.434 Y226.927 E2.8028
G92 E0
G1 E-0.8 F2100
G1 Z0.43125 F9000
G1 X132.121 Y223.022
G1 Z0.23125
G1 E0 F2100
G1 F2250
G1 X131.551 Y223.258 E0.03249
G1 X131.248 Y223.383 E0.04976
G1 X130.168 Y223.525 E0.1071
G1 X129.088 Y223.383 E0.16444
G1 X128.082 Y222.966 E0.22178
G1 X127.218 Y222.304 E0.27912
G1 X126.555 Y221.44 E0.33647
G1 X126.139 Y220.433 E0.39381
G1 X125.996 Y219.354 E0.45115
G1 X126.139 Y218.274 E0.50849
G1 X126.555 Y217.268 E0.56583
G1 X127.218 Y216.404 E0.62317
G1 X128.082 Y215.741 E0.68051
G1 X128.557 Y215.544 E0.70754
G1 X129.088 Y215.324 E0.73786
G1 X129.97 Y215.208 E0.78465
G1 X129.893 Y219.364 E1.0035
G1 X129.972 Y220.225 E1.04905
G1 X130.243 Y221.063 E1.09542
G1 X130.691 Y221.821 E1.14178
G1 X131.294 Y222.462 E1.18814
G1 X132.024 Y222.956 E1.2345
G1 X132.071 Y222.988 E1.23752
G1 X131.636 Y223.193 F9000
G1 F2250
G1 X129.665 Y223.193 E1.34132
G1 X129.157 Y223.126 E1.36827
G1 X128.216 Y222.736 E1.42195
G1 X128.093 Y222.642 E1.43006
G1 X131.101 Y222.642 E1.58839
G1 X130.583 Y222.091 E1.6282
G1 X127.389 Y222.091 E1.79637
G1 X126.966 Y221.541 E1.83292
G1 X130.218 Y221.541 E2.00416
G1 X130.001 Y221.172 E2.02669
G1 X129.942 Y220.99 E2.03678
G1 X126.655 Y220.99 E2.20982
G1 X126.427 Y220.439 E2.2412
G1 X129.763 Y220.439 E2.41687
G1 X129.712 Y220.279 E2.42576
G1 X129.676 Y219.889 E2.44639
G1 X126.333 Y219.889 E2.62236
G1 X126.263 Y219.354 E2.65077
G1 X126.265 Y219.338 E2.6516
G1 X129.629 Y219.338 E2.82871
G1 X129.639 Y218.787 E2.85771
G1 X126.338 Y218.787 E3.03153
G1 X126.396 Y218.343 E3.05513
G1 X126.44 Y218.237 E3.06119
G1 X129.649 Y218.237 E3.23015
G1 X129.659 Y217.686 E3.25915
G1 X126.668 Y217.686 E3.41664
G1 X126.786 Y217.401 E3.43288
G1 X126.99 Y217.135 E3.45052
G1 X129.67 Y217.135 E3.5916
G1 X129.68 Y216.585 E3.6206
G1 X127.417 Y216.585 E3.73975
G1 X128.134 Y216.034 E3.78738
G1 X129.927 Y216.034 E3.88176
G92 E0
G1 E-0.8 F2100
G1 Z0.43125 F9000
G1 X132.47 Y80.261
G1 Z0.23125
G1 E0 F2100
G1 F2250
G1 X132.125 Y80.216 E0.01832
G1 X131.833 Y80.177 E0.03387
G1 X130.827 Y79.76 E0.09121
G1 X129.963 Y79.097 E0.14855
G1 X129.3 Y78.233 E0.20589
G1 X128.883 Y77.227 E0.26323
G1 X128.741 Y76.148 E0.32057
G1 X128.883 Y75.068 E0.37792
G1 X129.3 Y74.062 E0.43526
G1 X129.963 Y73.198 E0.4926
G1 X130.827 Y72.535 E0.54994
G1 X131.301 Y72.338 E0.57697
G1 X131.833 Y72.118 E0.60728
G1 X132.912 Y71.976 E0.66462
G1 X133.992 Y72.118 E0.72196
G1 X134.524 Y72.338 E0.75227
G1 X134.998 Y72.535 E0.77931
G1 X135.735 Y73.1 E0.82819
G1 X135.614 Y73.142 E0.83491
G1 X134.795 Y73.429 E0.88064
G1 X134.048 Y73.895 E0.927
G1 X133.421 Y74.514 E0.97337
G1 X132.945 Y75.255 E1.01973
G1 X132.686 Y75.965 E1.05952
G1 X132.643 Y76.082 E1.06609
G1 X132.532 Y76.94 E1.11164
G1 X132.472 Y80.201 E1.28339
G1 X131.381 Y79.96 F9000
G1 F2250
G1 X132.212 Y79.96 E1.32712
G1 X132.222 Y79.41 E1.35611
G1 X130.804 Y79.41 E1.43079
G1 X130.151 Y78.909 E1.4741
G1 X130.113 Y78.859 E1.47741
G1 X132.232 Y78.859 E1.589
G1 X132.242 Y78.308 E1.61799
G1 X129.69 Y78.308 E1.75237
G1 X129.53 Y78.1 E1.76619
G1 X129.389 Y77.758 E1.7857
G1 X132.252 Y77.758 E1.93649
G1 X132.263 Y77.207 E1.96549
G1 X129.161 Y77.207 E2.12882
G1 X129.14 Y77.158 E2.1316
G1 X129.074 Y76.656 E2.15826
G1 X132.302 Y76.656 E2.32822
G1 X132.374 Y76.106 E2.35746
G1 X129.013 Y76.106 E2.53442
G1 X129.085 Y75.555 E2.56366
G1 X132.554 Y75.555 E2.74631
G1 X132.707 Y75.137 E2.76977
G1 X132.792 Y75.004 E2.77804
G1 X129.195 Y75.004 E2.96741
G1 X129.423 Y74.454 E2.99879
G1 X133.146 Y74.454 E3.19478
G1 X133.215 Y74.346 E3.20151
G1 X133.664 Y73.903 E3.23473
G1 X129.754 Y73.903 E3.44056
G1 X130.151 Y73.386 E3.47487
G1 X130.195 Y73.353 E3.47778
G1 X134.418 Y73.353 E3.70016
G1 X134.68 Y73.19 E3.71637
G1 X135.186 Y73.012 E3.74463
G1 X134.912 Y72.802 E3.76282
G1 X130.913 Y72.802 E3.97341
G1 X130.96 Y72.766 E3.97654
G1 X131.402 Y72.583 E4.00174
G1 X131.902 Y72.376 E4.03022
G1 X132.846 Y72.251 E4.08035
G1 X134.242 Y72.251 E4.15386
G92 E0
G1 E-0.8 F2100
G1 Z0.43125 F9000
G1 X162.101 Y71.32
G1 Z0.23125
G1 E0 F2100
G1 F2250
G1 X162.197 Y70.592 E0.03866
G1 X162.614 Y69.586 E0.096
G1 X163.277 Y68.722 E0.15334
G1 X164.14 Y68.059 E0.21068
G1 X164.615 Y67.863 E0.23771
G1 X165.147 Y67.642 E0.26802
G1 X166.226 Y67.5 E0.32536
G1 X167.306 Y67.642 E0.3827
G1 X167.838 Y67.863 E0.41301
G1 X168.312 Y68.059 E0.44005
G1 X169.176 Y68.722 E0.49739
G1 X169.839 Y69.586 E0.55473
G1 X170.256 Y70.592 E0.61207
G1 X170.398 Y71.672 E0.66941
G1 X170.256 Y72.752 E0.72675
G1 X169.839 Y73.758 E0.78409
G1 X169.822 Y73.78 E0.78559
G1 X169.325 Y72.956 E0.83629
G1 X168.704 Y72.312 E0.88337
G1 X168.512 Y72.186 E0.89546
G1 X167.956 Y71.822 E0.93044
G1 X167.118 Y71.511 E0.97752
G1 X166.247 Y71.397 E1.02378
G1 X162.161 Y71.321 E1.23895
G92 E0
G1 E-0.8 F2100
G1 Z0.43125 F9000
G1 X167.556 Y67.776
G1 Z0.23125
G1 E0 F2100
G1 F2250
G1 X166.16 Y67.776 E0.07351
G1 X165.216 Y67.9 E0.12364
G1 X164.716 Y68.107 E0.15212
G1 X164.274 Y68.29 E0.17732
G1 X164.227 Y68.326 E0.18046
G1 X168.226 Y68.326 E0.39105
G1 X168.944 Y68.877 E0.43867
G1 X163.509 Y68.877 E0.72484
G1 X163.465 Y68.911 E0.72775
G1 X163.068 Y69.427 E0.76206
G1 X169.384 Y69.427 E1.09462
G1 X169.608 Y69.719 E1.11399
G1 X169.715 Y69.978 E1.12874
G1 X162.737 Y69.978 E1.49617
G1 X162.509 Y70.529 E1.52755
G1 X169.943 Y70.529 E1.919
G1 X169.998 Y70.661 E1.92654
G1 X170.053 Y71.079 E1.94875
G1 X163.382 Y71.079 E2.30005
G1 X166.267 Y71.133 E2.45198
G1 X167.182 Y71.253 E2.50059
G1 X168.076 Y71.585 E2.5508
G1 X168.145 Y71.63 E2.55515
G1 X170.126 Y71.63 E2.65944
G1 X170.131 Y71.672 E2.66166
G1 X170.064 Y72.181 E2.68869
G1 X168.945 Y72.181 E2.74763
G1 X169.476 Y72.731 E2.7879
G1 X170.231 Y72.731 E2.82766
M104 S255 ; set temperature
; printing object V2_exhaust_grill_solid_PG7_thermistor_Bowden.stl id:0 copy 0
EXCLUDE_OBJECT_START NAME=V2_exhaust_grill_solid_PG7_thermistor_Bowden_stl_id_0_copy_0
G1 X169.26 Y73.963 F9000
;TYPE:External perimeter
;HEIGHT:0.23125
G1 F2400
G1 X169.499 Y74.689 E2.86811
G1 X169.572 Y75.467 E2.90946
G1 X166.853 Y222.208 E10.67549
G1 X166.751 Y222.983 E10.71684
G1 X166.485 Y223.7 E10.75729
G1 X166.067 Y224.339 E10.79774
G1 X165.516 Y224.87 E10.83819
G1 X164.861 Y225.264 E10.87864
G1 X164.135 Y225.503 E10.91909
G1 X163.357 Y225.576 E10.96044
G1 X151.58 Y225.358 E11.58374
G1 X147.817 Y225.196 E11.78304
G1 X144.07 Y224.85 E11.98214
G1 X140.345 Y224.322 E12.18125
G1 X136.649 Y223.611 E12.38036
G1 X133.006 Y222.723 E12.57878
G1 X132.293 Y222.443 E12.6193
G1 X131.67 Y222.022 E12.65914
G1 X131.154 Y221.473 E12.69897
G1 X130.771 Y220.825 E12.73881
G1 X130.539 Y220.109 E12.77864
G1 X130.468 Y219.343 E12.81936
G1 X133.107 Y76.982 E20.35356
G1 X133.206 Y76.219 E20.39427
G1 X133.464 Y75.512 E20.43411
G1 X133.871 Y74.879 E20.47394
G1 X134.406 Y74.35 E20.51378
G1 X135.045 Y73.951 E20.55362
G1 X135.768 Y73.698 E20.59414
G1 X139.442 Y72.946 E20.79256
G1 X143.16 Y72.373 E20.99167
G1 X146.903 Y71.982 E21.19077
G1 X150.66 Y71.776 E21.38988
G1 X154.426 Y71.753 E21.58918
G1 X156.11 Y71.784 E21.67828
G1 X166.204 Y71.971 E22.21248
G1 X166.979 Y72.073 E22.25383
G1 X167.695 Y72.339 E22.29428
G1 X168.335 Y72.758 E22.33473
G1 X168.865 Y73.308 E22.37518
G1 X169.229 Y73.912 E22.41245
;WIPE_START
G1 X169.017 Y74.28 F9000
;WIPE_END
G92 E0
G1 E-0.8 F2100
G1 Z0.43125 F9000
G1 X134.277 Y146.401
G1 Z0.23125
G1 E0 F2100
G1 F2400
G1 X133.839 Y146.725 E0.02883
G1 X133.499 Y147.151 E0.05766
G1 X133.281 Y147.65 E0.08648
G1 X133.2 Y148.189 E0.11531
G1 X133.261 Y148.73 E0.14414
G1 X133.461 Y149.237 E0.17297
G1 X133.784 Y149.675 E0.2018
G1 X134.21 Y150.015 E0.23062
G1 X134.71 Y150.233 E0.25945
G1 X135.248 Y150.314 E0.28828
G1 X135.79 Y150.253 E0.31711
G1 X136.297 Y150.054 E0.34594
G1 X136.735 Y149.73 E0.37476
G1 X137.075 Y149.304 E0.40359
G1 X137.292 Y148.805 E0.43242
G1 X137.374 Y148.266 E0.46125
G1 X137.312 Y147.725 E0.49008
G1 X137.113 Y147.218 E0.5189
G1 X136.79 Y146.779 E0.54773
G1 X136.364 Y146.44 E0.57656
G1 X135.864 Y146.222 E0.60539
G1 X135.326 Y146.141 E0.63422
G1 X135.265 Y146.148 E0.63747
G1 X134.784 Y146.202 E0.66304
G1 X134.333 Y146.379 E0.6887
;WIPE_START
G1 X133.926 Y146.21 F9000
;WIPE_END
G92 E0
G1 E-0.8 F2100
G1 Z0.43125 F9000
G1 X133.744 Y76.351
G1 Z0.23125
G1 E0 F2100
;TYPE:Internal perimeter
G1 F2400
G1 X133.96 Y75.758 E0.03337
G1 X134.301 Y75.227 E0.06675
G1 X134.75 Y74.784 E0.10012
G1 X135.285 Y74.45 E0.13349
G1 X135.915 Y74.23 E0.16882
G1 X139.539 Y73.488 E0.36456
G1 X143.231 Y72.919 E0.56224
G1 X146.947 Y72.531 E0.75992
G1 X150.677 Y72.326 E0.9576
G1 X154.423 Y72.304 E1.15583
G1 X156.1 Y72.335 E1.24457
G1 X166.163 Y72.521 E1.77714
G1 X166.845 Y72.611 E1.81357
G1 X167.446 Y72.834 E1.84745
G1 X167.982 Y73.184 E1.88134
G1 X168.426 Y73.645 E1.91523
G1 X168.757 Y74.194 E1.94911
G1 X168.957 Y74.802 E1.983
G1 X169.021 Y75.488 E2.01943
G1 X166.303 Y222.167 E9.7822
G1 X166.213 Y222.85 E9.81863
G1 X165.991 Y223.45 E9.85251
G1 X165.64 Y223.986 E9.8864
