; generated by SuperSlicer 2.4 on 2023-02-15 at 09:29:31 UTC


;
;

;
;
; 

; external perimeters extrusion width = 0.42mm
; perimeters extrusion width = 0.47mm
; infill extrusion width = 0.45mm
; solid infill extrusion width = 0.47mm
; top infill extrusion width = 0.45mm
; support material extrusion width = 0.40mm
; first layer extrusion width = 0.61mm

; object:{"name":"VHB_Din_Mount","id":"VHB_Din_Mount.stl id:0 copy 0","object_center":[130.000001,148.500001,0.000000],"boundingbox_center":[130.000001,148.500001,2.800003],"boundingbox_size":[14.000000,35.000000,5.600006]}
; object:{"name":"VHB_Din_Mount","id":"VHB_Din_Mount.stl id:0 copy 1","object_center":[150.000001,148.500001,0.000000],"boundingbox_center":[150.000001,148.500001,2.800003],"boundingbox_size":[14.000000,35.000000,5.600006]}
; object:{"name":"VHB_Din_Mount","id":"VHB_Din_Mount.stl id:0 copy 2","object_center":[170.000001,148.500001,0.000000],"boundingbox_center":[170.000001,148.500001,2.800003],"boundingbox_size":[14.000000,35.000000,5.600006]}
; plater:{"center":[150.000001,148.500001,0.000000],"boundingbox_center":[150.000001,148.500001,2.800003],"boundingbox_size":[54.000000,35.000000,5.600006]}

;TYPE:Custom
M104 S0 ; Stops SuperSlicer from sending temp waits separately


; Pre-Processed for Cancel-Object support by preprocess_cancellation v0.2.0
; 3 known objects
EXCLUDE_OBJECT_DEFINE NAME=VHB_Din_Mount_stl_id_0_copy_0 CENTER=129.972,149.356 POLYGON=[[123.212,131.212],[123.212,165.788],[136.788,165.788],[136.788,131.212]]
EXCLUDE_OBJECT_DEFINE NAME=VHB_Din_Mount_stl_id_0_copy_1 CENTER=149.994,149.353 POLYGON=[[143.212,131.212],[143.212,165.788],[156.788,165.788],[156.788,131.212]]
EXCLUDE_OBJECT_DEFINE NAME=VHB_Din_Mount_stl_id_0_copy_2 CENTER=169.983,149.357 POLYGON=[[163.212,131.212],[163.212,165.788],[176.788,165.788],[176.788,131.212]]

M140 S0

print_start EXTRUDER=250 BED=105 CHAMBER=0
M107
G21 ; set units to millimeters
G90 ; use absolute coordinates
M83 ; use relative distances for extrusion
; Filament gcode
;_TOOLCHANGE 0
M107
;LAYER_CHANGE
;Z:0.21875
;HEIGHT:0.21875
TIMELAPSE_TAKE_FRAME
;BEFORE_LAYER_CHANGE
;0.21875


G1 Z0.21875 F8400
;AFTER_LAYER_CHANGE
;0.21875
G92 E0
G1 E-0.9 F3000
G1 Z0.71875 F8400
G1 X120.534 Y126.96
G1 Z0.21875
G1 E0.9 F3000
;TYPE:Skirt
;WIDTH:0.44
G1 F1800
G1 X118.96 Y128.534 E0.07956
G1 X118.201 Y130.364 E0.07084
G1 X118.201 Y166.636 E1.29657
G1 X118.96 Y168.466 E0.07084
G1 X120.534 Y170.04 E0.07956
G1 X122.364 Y170.799 E0.07084
G1 X177.636 Y170.799 E1.97576
G1 X179.466 Y170.04 E0.07084
G1 X181.04 Y168.466 E0.07956
G1 X181.799 Y166.636 E0.07084
G1 X181.799 Y130.364 E1.29657
G1 X181.04 Y128.534 E0.07084
G1 X179.466 Y126.96 E0.07956
G1 X177.636 Y126.201 E0.07084
G1 X122.364 Y126.201 E1.97576
G1 X120.589 Y126.937 E0.06869
G1 X120.811 Y127.238 F8400
G1 F1800
G1 X119.238 Y128.811 E0.07956
G1 X118.594 Y130.364 E0.06009
G1 X118.594 Y166.636 E1.29657
G1 X119.238 Y168.189 E0.06009
G1 X120.811 Y169.762 E0.07956
G1 X122.364 Y170.406 E0.06009
G1 X177.636 Y170.406 E1.97576
G1 X179.189 Y169.762 E0.06009
G1 X180.762 Y168.189 E0.07956
G1 X181.406 Y166.636 E0.06009
G1 X181.406 Y130.364 E1.29657
G1 X180.762 Y128.811 E0.06009
G1 X179.189 Y127.238 E0.07956
G1 X177.636 Y126.594 E0.06009
G1 X122.364 Y126.594 E1.97576
G1 X120.867 Y127.215 E0.05795
G1 E-0.9 F3000
G1 Z0.71875 F8400
G1 X161.328 Y131.234
G1 Z0.21875
G1 E0.9 F3000
;WIDTH:0.608
;HEIGHT:0.22
G1 F1800
G1 X161.414 Y130.802 E0.02257
G1 X161.54 Y130.499 E0.01686
G1 X161.708 Y130.224 E0.01652
G1 X162.171 Y129.751 E0.03394
G1 X162.495 Y129.541 E0.01984
G1 X162.802 Y129.414 E0.01704
G1 X163.234 Y129.328 E0.02258
G1 X176.825 Y129.333 E0.69709
G1 X177.207 Y129.417 E0.0201
G1 X177.613 Y129.599 E0.02279
G1 X177.873 Y129.788 E0.01648
G1 X178.215 Y130.13 E0.0248
G1 X178.433 Y130.447 E0.01976
G1 X178.586 Y130.802 E0.01985
G1 X178.672 Y131.234 E0.02257
G1 X178.672 Y165.766 E1.77125
G1 X178.586 Y166.198 E0.02257
G1 X178.46 Y166.501 E0.01686
G1 X178.292 Y166.776 E0.01652
G1 X177.829 Y167.249 E0.03394
G1 X177.505 Y167.459 E0.01984
G1 X177.198 Y167.586 E0.01704
G1 X176.766 Y167.672 E0.02257
G1 X163.234 Y167.672 E0.6941
G1 X162.802 Y167.586 E0.02257
G1 X162.499 Y167.46 E0.01686
G1 X162.224 Y167.292 E0.01652
G1 X161.751 Y166.829 E0.03394
G1 X161.541 Y166.505 E0.01984
G1 X161.414 Y166.198 E0.01704
G1 X161.328 Y165.766 E0.02257
G1 X161.328 Y131.294 E1.76817
G1 X161.889 Y131.294 F8400
G1 F1800
G1 X161.889 Y131.261 E0.00166
G1 X161.942 Y130.991 E0.01412
G1 X162.048 Y130.735 E0.01421
G1 X162.166 Y130.549 E0.01131
G1 X162.507 Y130.201 E0.02496
G1 X162.735 Y130.048 E0.01412
G1 X162.991 Y129.942 E0.01421
G1 X163.261 Y129.889 E0.01412
G1 X176.793 Y129.894 E0.69409
G1 X177.009 Y129.942 E0.01131
G1 X177.313 Y130.074 E0.01703
G1 X177.493 Y130.201 E0.01131
G1 X177.799 Y130.507 E0.02215
G1 X177.952 Y130.735 E0.01412
G1 X178.058 Y130.991 E0.01421
G1 X178.111 Y131.261 E0.01412
G1 X178.111 Y165.739 E1.76842
G1 X178.058 Y166.008 E0.01412
G1 X177.952 Y166.265 E0.01421
G1 X177.834 Y166.451 E0.01131
G1 X177.493 Y166.799 E0.02496
G1 X177.265 Y166.952 E0.01412
G1 X177.009 Y167.058 E0.01421
G1 X176.739 Y167.111 E0.01412
G1 X163.261 Y167.111 E0.69128
G1 X162.991 Y167.058 E0.01412
G1 X162.735 Y166.952 E0.01421
G1 X162.549 Y166.834 E0.01131
G1 X162.201 Y166.493 E0.02496
G1 X162.048 Y166.264 E0.01412
G1 X161.942 Y166.008 E0.01421
G1 X161.889 Y165.739 E0.01412
G1 X161.889 Y131.354 E1.76368
G1 X162.449 Y131.354 F8400
G1 F1800
G1 X162.449 Y131.289 E0.00333
G1 X162.471 Y131.181 E0.00567
G1 X162.556 Y130.976 E0.01139
G1 X162.617 Y130.884 E0.00567
G1 X162.884 Y130.617 E0.01932
G1 X162.976 Y130.556 E0.00567
G1 X163.181 Y130.471 E0.01139
G1 X163.289 Y130.449 E0.00567
G1 X176.711 Y130.449 E0.68845
G1 X176.819 Y130.471 E0.00567
G1 X177.024 Y130.556 E0.01139
G1 X177.116 Y130.617 E0.00567
G1 X177.383 Y130.884 E0.01932
G1 X177.444 Y130.976 E0.00567
G1 X177.529 Y131.181 E0.01139
G1 X177.551 Y131.289 E0.00567
G1 X177.551 Y165.711 E1.7656
G1 X177.529 Y165.819 E0.00567
G1 X177.444 Y166.024 E0.01139
G1 X177.383 Y166.116 E0.00567
G1 X177.116 Y166.383 E0.01932
G1 X177.024 Y166.444 E0.00567
G1 X176.819 Y166.529 E0.01139
G1 X176.711 Y166.551 E0.00567
G1 X163.289 Y166.551 E0.68845
G1 X163.181 Y166.529 E0.00567
G1 X162.976 Y166.444 E0.01139
G1 X162.884 Y166.383 E0.00567
G1 X162.617 Y166.116 E0.01932
G1 X162.556 Y166.024 E0.00567
G1 X162.471 Y165.819 E0.01139
G1 X162.449 Y165.711 E0.00567
G1 X162.449 Y131.414 E1.75919
G1 X163.01 Y131.414 F8400
G1 F1800
G1 X163.01 Y131.344 E0.00357
G1 X163.053 Y131.241 E0.00572
G1 X163.241 Y131.053 E0.01366
G1 X163.344 Y131.01 E0.00572
G1 X176.656 Y131.01 E0.68279
G1 X176.759 Y131.053 E0.00572
G1 X176.947 Y131.241 E0.01366
G1 X176.99 Y131.344 E0.00572
G1 X176.99 Y165.656 E1.75993
G1 X176.947 Y165.759 E0.00572
G1 X176.759 Y165.947 E0.01366
G1 X176.656 Y165.99 E0.00572
G1 X163.344 Y165.99 E0.68279
G1 X163.241 Y165.947 E0.00572
G1 X163.053 Y165.759 E0.01366
G1 X163.01 Y165.656 E0.00572
G1 X163.01 Y131.474 E1.75328
G1 E-0.9 F3000
G1 Z0.71875 F8400
G1 X158.672 Y131.474
G1 Z0.21875
G1 E0.9 F3000
G1 F1800
G1 X158.672 Y165.766 E1.75894
G1 X158.586 Y166.198 E0.02257
G1 X158.46 Y166.501 E0.01686
G1 X158.292 Y166.776 E0.01652
G1 X157.829 Y167.249 E0.03394
G1 X157.505 Y167.459 E0.01984
G1 X157.198 Y167.586 E0.01704
G1 X156.766 Y167.672 E0.02257
G1 X143.234 Y167.672 E0.6941
G1 X142.802 Y167.586 E0.02257
G1 X142.499 Y167.46 E0.01686
G1 X142.224 Y167.292 E0.01652
G1 X141.751 Y166.829 E0.03394
G1 X141.541 Y166.505 E0.01984
G1 X141.414 Y166.198 E0.01704
G1 X141.328 Y165.766 E0.02257
G1 X141.328 Y131.234 E1.77125
G1 X141.414 Y130.802 E0.02257
G1 X141.54 Y130.499 E0.01686
G1 X141.708 Y130.224 E0.01652
G1 X142.171 Y129.751 E0.03394
G1 X142.495 Y129.541 E0.01984
G1 X142.802 Y129.414 E0.01704
G1 X143.234 Y129.328 E0.02258
G1 X156.825 Y129.333 E0.69709
G1 X157.207 Y129.417 E0.0201
G1 X157.613 Y129.599 E0.02279
G1 X157.873 Y129.788 E0.01648
G1 X158.215 Y130.13 E0.0248
G1 X158.433 Y130.447 E0.01976
G1 X158.586 Y130.802 E0.01985
G1 X158.672 Y131.234 E0.02257
G1 X158.672 Y131.414 E0.00923
G1 X158.111 Y131.414 F8400
G1 F1800
G1 X158.111 Y165.739 E1.7606
G1 X158.058 Y166.008 E0.01412
G1 X157.952 Y166.265 E0.01421
G1 X157.834 Y166.451 E0.01131
G1 X157.493 Y166.799 E0.02496
G1 X157.265 Y166.952 E0.01412
G1 X157.009 Y167.058 E0.01421
G1 X156.739 Y167.111 E0.01412
G1 X143.261 Y167.111 E0.69128
G1 X142.991 Y167.058 E0.01412
G1 X142.735 Y166.952 E0.01421
G1 X142.549 Y166.834 E0.01131
G1 X142.201 Y166.493 E0.02496
G1 X142.048 Y166.264 E0.01412
G1 X141.942 Y166.008 E0.01421
G1 X141.889 Y165.739 E0.01412
G1 X141.889 Y131.261 E1.76842
G1 X141.942 Y130.991 E0.01412
G1 X142.048 Y130.735 E0.01421
G1 X142.166 Y130.549 E0.01131
G1 X142.507 Y130.201 E0.02496
G1 X142.735 Y130.048 E0.01412
G1 X142.991 Y129.942 E0.01421
G1 X143.261 Y129.889 E0.01412
G1 X156.793 Y129.894 E0.69409
G1 X157.009 Y129.942 E0.01131
G1 X157.313 Y130.074 E0.01703
G1 X157.493 Y130.201 E0.01131
G1 X157.799 Y130.507 E0.02215
G1 X157.952 Y130.735 E0.01412
G1 X158.058 Y130.991 E0.01421
G1 X158.111 Y131.261 E0.01412
G1 X158.111 Y131.354 E0.00474
G1 X157.551 Y131.354 F8400
G1 F1800
G1 X157.551 Y165.711 E1.76227
G1 X157.529 Y165.819 E0.00567
G1 X157.444 Y166.024 E0.01139
G1 X157.383 Y166.116 E0.00567
G1 X157.116 Y166.383 E0.01932
G1 X157.024 Y166.444 E0.00567
G1 X156.819 Y166.529 E0.01139
G1 X156.711 Y166.551 E0.00567
G1 X143.289 Y166.551 E0.68845
G1 X143.181 Y166.529 E0.00567
G1 X142.976 Y166.444 E0.01139
G1 X142.884 Y166.383 E0.00567
G1 X142.617 Y166.116 E0.01932
G1 X142.556 Y166.024 E0.00567
G1 X142.471 Y165.819 E0.01139
G1 X142.449 Y165.711 E0.00567
G1 X142.449 Y131.289 E1.7656
G1 X142.471 Y131.181 E0.00567
G1 X142.556 Y130.976 E0.01139
G1 X142.617 Y130.884 E0.00567
G1 X142.884 Y130.617 E0.01932
G1 X142.976 Y130.556 E0.00567
G1 X143.181 Y130.471 E0.01139
G1 X143.289 Y130.449 E0.00567
G1 X156.711 Y130.449 E0.68845
G1 X156.819 Y130.471 E0.00567
G1 X157.024 Y130.556 E0.01139
G1 X157.116 Y130.617 E0.00567
G1 X157.383 Y130.884 E0.01932
G1 X157.444 Y130.976 E0.00567
G1 X157.529 Y131.181 E0.01139
G1 X157.551 Y131.294 E0.00591
G1 X156.99 Y131.344 F8400
G1 F1800
G1 X156.99 Y165.656 E1.75993
G1 X156.947 Y165.759 E0.00572
G1 X156.759 Y165.947 E0.01366
G1 X156.656 Y165.99 E0.00572
G1 X143.344 Y165.99 E0.68279
G1 X143.241 Y165.947 E0.00572
G1 X143.053 Y165.759 E0.01366
G1 X143.01 Y165.656 E0.00572
G1 X143.01 Y131.344 E1.75993
G1 X143.053 Y131.241 E0.00572
G1 X143.241 Y131.053 E0.01366
G1 X143.344 Y131.01 E0.00572
G1 X156.656 Y131.01 E0.68279
G1 X156.759 Y131.053 E0.00572
G1 X156.947 Y131.241 E0.01366
G1 X156.967 Y131.289 E0.00264
G1 E-0.9 F3000
G1 Z0.71875 F8400
G1 X138.672 Y131.289
G1 Z0.21875
G1 E0.9 F3000
G1 F1800
G1 X138.672 Y165.766 E1.76843
G1 X138.586 Y166.198 E0.02257
G1 X138.46 Y166.501 E0.01686
G1 X138.292 Y166.776 E0.01652
G1 X137.829 Y167.249 E0.03394
G1 X137.505 Y167.459 E0.01984
G1 X137.198 Y167.586 E0.01704
G1 X136.766 Y167.672 E0.02257
G1 X123.234 Y167.672 E0.6941
G1 X122.802 Y167.586 E0.02257
G1 X122.499 Y167.46 E0.01686
G1 X122.224 Y167.292 E0.01652
G1 X121.751 Y166.829 E0.03394
G1 X121.541 Y166.505 E0.01984
G1 X121.414 Y166.198 E0.01704
G1 X121.328 Y165.766 E0.02257
G1 X121.328 Y131.234 E1.77125
G1 X121.414 Y130.802 E0.02257
G1 X121.54 Y130.499 E0.01686
G1 X121.708 Y130.224 E0.01652
G1 X122.171 Y129.751 E0.03394
G1 X122.495 Y129.541 E0.01984
G1 X122.802 Y129.414 E0.01704
G1 X123.234 Y129.328 E0.02258
G1 X136.825 Y129.333 E0.69709
G1 X137.207 Y129.417 E0.0201
G1 X137.613 Y129.599 E0.02279
G1 X137.873 Y129.788 E0.01648
G1 X138.215 Y130.13 E0.0248
G1 X138.433 Y130.447 E0.01976
G1 X138.586 Y130.802 E0.01985
G1 X138.671 Y131.229 E0.02231
G1 X138.111 Y131.261 F8400
G1 F1800
G1 X138.111 Y165.739 E1.76842
G1 X138.058 Y166.008 E0.01412
G1 X137.952 Y166.265 E0.01421
G1 X137.834 Y166.451 E0.01131
G1 X137.493 Y166.799 E0.02496
G1 X137.265 Y166.952 E0.01412
G1 X137.009 Y167.058 E0.01421
G1 X136.739 Y167.111 E0.01412
G1 X123.261 Y167.111 E0.69128
G1 X122.991 Y167.058 E0.01412
G1 X122.735 Y166.952 E0.01421
G1 X122.549 Y166.834 E0.01131
G1 X122.201 Y166.493 E0.02496
G1 X122.048 Y166.264 E0.01412
G1 X121.942 Y166.008 E0.01421
G1 X121.889 Y165.739 E0.01412
G1 X121.889 Y131.261 E1.76842
G1 X121.942 Y130.991 E0.01412
G1 X122.048 Y130.735 E0.01421
G1 X122.166 Y130.549 E0.01131
G1 X122.507 Y130.201 E0.02496
G1 X122.735 Y130.048 E0.01412
G1 X122.991 Y129.942 E0.01421
G1 X123.261 Y129.889 E0.01412
G1 X136.793 Y129.894 E0.69409
G1 X137.009 Y129.942 E0.01131
G1 X137.313 Y130.074 E0.01703
G1 X137.493 Y130.201 E0.01131
G1 X137.799 Y130.507 E0.02215
G1 X137.952 Y130.735 E0.01412
G1 X138.058 Y130.991 E0.01421
G1 X138.1 Y131.203 E0.01104
G1 X137.551 Y131.289 F8400
G1 F1800
G1 X137.551 Y165.711 E1.7656
G1 X137.529 Y165.819 E0.00567
G1 X137.444 Y166.024 E0.01139
G1 X137.383 Y166.116 E0.00567
G1 X137.116 Y166.383 E0.01932
G1 X137.024 Y166.444 E0.00567
G1 X136.819 Y166.529 E0.01139
G1 X136.711 Y166.551 E0.00567
G1 X123.289 Y166.551 E0.68845
G1 X123.181 Y166.529 E0.00567
G1 X122.976 Y166.444 E0.01139
G1 X122.884 Y166.383 E0.00567
G1 X122.617 Y166.116 E0.01932
G1 X122.556 Y166.024 E0.00567
G1 X122.471 Y165.819 E0.01139
G1 X122.449 Y165.711 E0.00567
G1 X122.449 Y131.289 E1.7656
G1 X122.471 Y131.181 E0.00567
G1 X122.556 Y130.976 E0.01139
G1 X122.617 Y130.884 E0.00567
G1 X122.884 Y130.617 E0.01932
G1 X122.976 Y130.556 E0.00567
G1 X123.181 Y130.471 E0.01139
G1 X123.289 Y130.449 E0.00567
G1 X136.711 Y130.449 E0.68845
G1 X136.819 Y130.471 E0.00567
G1 X137.024 Y130.556 E0.01139
G1 X137.116 Y130.617 E0.00567
G1 X137.383 Y130.884 E0.01932
G1 X137.444 Y130.976 E0.00567
G1 X137.529 Y131.181 E0.01139
G1 X137.539 Y131.23 E0.00259
G1 X136.99 Y131.344 F8400
G1 F1800
G1 X136.99 Y165.656 E1.75993
G1 X136.947 Y165.759 E0.00572
G1 X136.759 Y165.947 E0.01366
G1 X136.656 Y165.99 E0.00572
G1 X123.344 Y165.99 E0.68279
G1 X123.241 Y165.947 E0.00572
G1 X123.053 Y165.759 E0.01366
G1 X123.01 Y165.656 E0.00572
G1 X123.01 Y131.344 E1.75993
G1 X123.053 Y131.241 E0.00572
G1 X123.241 Y131.053 E0.01366
G1 X123.344 Y131.01 E0.00572
G1 X136.656 Y131.01 E0.68279
G1 X136.759 Y131.053 E0.00572
G1 X136.947 Y131.241 E0.01366
G1 X136.967 Y131.289 E0.00264
M104 S250 ; set temperature
; printing object VHB_Din_Mount.stl id:0 copy 0
EXCLUDE_OBJECT_START NAME=VHB_Din_Mount_stl_id_0_copy_0
G1 X136.405 Y131.595 F8400
;TYPE:External perimeter
;HEIGHT:0.21875
G1 F1800
G1 X136.405 Y165.405 E1.70796
G1 X123.595 Y165.405 E0.64714
G1 X123.595 Y131.595 E1.70796
G1 X136.345 Y131.595 E0.64411
;WIPE_START
G1 X136.205 Y131.941 F8400
;WIPE_END
G1 X135.844 Y132.156
;TYPE:Internal perimeter
G1 F1800
G1 X135.844 Y164.844 E1.65128
G1 X124.156 Y164.844 E0.59046
G1 X124.156 Y132.156 E1.65128
G1 X135.784 Y132.156 E0.58743
G1 X135.283 Y132.717 F8400
G1 F1800
G1 X135.283 Y164.283 E1.59459
G1 X124.717 Y164.283 E0.53377
G1 X124.717 Y132.717 E1.59459
G1 X135.223 Y132.717 E0.53074
G1 X134.722 Y133.278 F8400
G1 F1800
G1 X134.722 Y163.722 E1.53791
G1 X125.278 Y163.722 E0.47709
G1 X125.278 Y133.278 E1.53791
G1 X134.662 Y133.278 E0.47406
G1 X134.554 Y134.58 F8400
;TYPE:Solid infill
;WIDTH:0.601242
G1 F1800
G1 X133.661 Y133.687 E0.06308
G1 X132.868 Y133.687 E0.03964
G1 X134.313 Y135.132 E0.10209
G1 X134.313 Y135.926 E0.03964
G1 X132.074 Y133.687 E0.15814
G1 X131.281 Y133.687 E0.03964
G1 X134.313 Y136.719 E0.2142
G1 X134.313 Y137.513 E0.03964
G1 X130.487 Y133.687 E0.27025
G1 X129.694 Y133.687 E0.03964
G1 X134.313 Y138.306 E0.3263
G1 X134.313 Y139.1 E0.03964
G1 X128.9 Y133.687 E0.38236
G1 X128.107 Y133.687 E0.03964
G1 X134.313 Y139.893 E0.43841
G1 X134.313 Y140.687 E0.03964
G1 X127.313 Y133.687 E0.49447
G1 X126.52 Y133.687 E0.03964
G1 X134.313 Y141.48 E0.55052
G1 X134.313 Y142.273 E0.03964
G1 X125.727 Y133.687 E0.60657
G1 X125.687 Y133.687 E0.00196
G1 X125.687 Y134.442 E0.03768
G1 X134.313 Y143.067 E0.60934
G1 X134.313 Y143.86 E0.03964
G1 X125.687 Y135.235 E0.60934
G1 X125.687 Y136.029 E0.03964
G1 X134.313 Y144.654 E0.60934
G1 X134.313 Y145.447 E0.03964
G1 X125.687 Y136.822 E0.60934
G1 X125.687 Y137.615 E0.03964
G1 X134.313 Y146.241 E0.60934
