; generated by SuperSlicer 2.4 on 2023-02-16 at 20:45:34 UTC


;
;

;
;
; 

; external perimeters extrusion width = 0.42mm
; perimeters extrusion width = 0.46mm
; infill extrusion width = 0.44mm
; solid infill extrusion width = 0.46mm
; top infill extrusion width = 0.44mm
; support material extrusion width = 0.40mm
; first layer extrusion width = 0.60mm

; object:{"name":"Voron Sticky Tap","id":"Voron Sticky Tap.stl id:0 copy 0","object_center":[95.526127,165.143951,0.000000],"boundingbox_center":[95.526127,165.143951,5.969000],"boundingbox_size":[51.310001,57.529999,11.938000]}
; plater:{"center":[95.526127,165.143951,0.000000],"boundingbox_center":[95.526127,165.143951,5.969000],"boundingbox_size":[51.310001,57.529999,11.938000]}

;TYPE:Custom
M104 S0 ; Stops SuperSlicer from sending temp waits separately


; Pre-Processed for Cancel-Object support by preprocess_cancellation v0.2.0
; 1 known objects
EXCLUDE_OBJECT_DEFINE NAME=Voron_Sticky_Tap_stl_id_0_copy_0 CENTER=95.627,162.916 POLYGON=[[70.025,136.59],[70.025,193.699],[121.033,193.699],[121.033,136.59]]

M140 S0

print_start EXTRUDER=245 BED=85 CHAMBER=0
M107
G21 ; set units to millimeters
G90 ; use absolute coordinates
M83 ; use relative distances for extrusion
; Filament gcode
;_TOOLCHANGE 0
M107
;LAYER_CHANGE
;Z:0.2
;HEIGHT:0.2
TIMELAPSE_TAKE_FRAME
;BEFORE_LAYER_CHANGE
;0.2


G1 Z0.2 F12000
;AFTER_LAYER_CHANGE
;0.2
G92 E0
G1 E-0.4 F2700
G1 Z0.7 F12000
M204 S1000
G1 X70.439 Y133.187
G1 Z0.2
G1 E0.4 F2700
;TYPE:Skirt
;WIDTH:0.44
G1 F1800
G1 X69.145 Y134.199 E0.05422
G1 X67.958 Y136.378 E0.08193
G1 X65.081 Y143.418 E0.25111
G1 X64.804 Y144.769 E0.04554
G1 X64.785 Y160.693 E0.52576
G1 X67.815 Y188.892 E0.9364
G1 X68.083 Y189.715 E0.02859
G1 X72.667 Y197.657 E0.30276
G1 X73.264 Y198.314 E0.02932
G1 X74.482 Y198.705 E0.04224
G1 X116.51 Y198.705 E1.38765
G1 X117.378 Y198.516 E0.02932
G1 X118.325 Y197.657 E0.04224
G1 X122.909 Y189.715 E0.30275
G1 X123.177 Y188.896 E0.02846
G1 X126.264 Y160.763 E0.93447
G1 X126.277 Y145.275 E0.51137
G1 X126.127 Y144.056 E0.04054
G1 X125.789 Y142.975 E0.0374
G1 X123.038 Y136.365 E0.23638
G1 X121.876 Y134.235 E0.08011
G1 X120.631 Y133.237 E0.05269
G1 X118.168 Y132.52 E0.08471
G1 X115.942 Y132.037 E0.0752
G1 X113.117 Y131.665 E0.09408
G1 X111.165 Y131.585 E0.06448
G1 X80.246 Y131.585 E1.02086
G1 X76.779 Y131.794 E0.1147
G1 X74.106 Y132.215 E0.08934
G1 X70.497 Y133.172 E0.12327
G1 X70.599 Y133.555 F12000
G1 F1800
G1 X70.541 Y133.571 E0.00198
G1 X69.493 Y134.391 E0.04394
G1 X68.326 Y136.528 E0.0804
G1 X65.449 Y143.568 E0.25111
G1 X65.196 Y144.834 E0.04263
G1 X65.18 Y160.655 E0.52235
G1 X68.209 Y188.849 E0.93626
G1 X68.427 Y189.517 E0.02317
G1 X73.011 Y197.458 E0.30276
G1 X73.401 Y197.919 E0.01995
G1 X74.482 Y198.307 E0.03792
G1 X116.51 Y198.307 E1.38765
G1 X117.105 Y198.2 E0.01995
G1 X117.981 Y197.458 E0.03792
G1 X122.565 Y189.517 E0.30275
G1 X122.782 Y188.853 E0.02306
G1 X125.87 Y160.719 E0.93447
G1 X125.88 Y145.275 E0.50994
G1 X125.747 Y144.171 E0.0367
G1 X125.422 Y143.127 E0.03608
G1 X122.671 Y136.518 E0.23638
G1 X121.529 Y134.427 E0.07866
G1 X120.519 Y133.618 E0.04271
G1 X118.079 Y132.907 E0.08392
G1 X115.89 Y132.43 E0.07398
G1 X113.065 Y132.058 E0.09408
G1 X111.151 Y131.982 E0.06323
G1 X80.142 Y131.985 E1.02383
G1 X76.708 Y132.199 E0.1136
G1 X74.038 Y132.637 E0.08935
G1 X70.657 Y133.54 E0.11553
G1 E-0.4 F2700
G1 Z0.7 F12000
; acceleration to travel
M204 S1500
G1 X71.273 Y134.785
; decel to extrusion
M204 S1000
G1 X71.683 Y135.615
; end travel
G1 Z0.2
G1 E0.4 F2700
;WIDTH:0.604
G1 F1800
G1 X72.097 Y135.41 E0.02155
G1 X74.545 Y134.752 E0.11823
G1 X76.218 Y134.448 E0.07932
G1 X76.989 Y134.357 E0.03625
G1 X80.233 Y134.158 E0.15164
G1 X80.706 Y134.157 E0.02206
G1 X82.397 Y134.258 E0.07901
G1 X84.508 Y134.532 E0.09932
G1 X84.907 Y134.664 E0.01963
G1 X85.724 Y135.091 E0.04298
G1 X86.032 Y135.349 E0.01871
G1 X86.286 Y135.625 E0.01754
G1 X86.531 Y135.996 E0.02076
G1 X86.731 Y136.487 E0.02471
G1 X86.82 Y136.958 E0.02238
G1 X86.822 Y137.608 E0.03031
G1 X86.731 Y138.098 E0.02325
G1 X86.512 Y138.631 E0.02689
G1 X85.137 Y140.607 E0.1123
G1 X105.557 Y140.603 E0.95266
G1 X104.278 Y138.767 E0.1044
G1 X104.045 Y138.153 E0.03062
G1 X103.978 Y137.637 E0.0243
G1 X104.033 Y137.041 E0.02794
G1 X104.262 Y136.385 E0.03238
G1 X104.657 Y135.715 E0.03629
G1 X104.99 Y135.336 E0.02352
G1 X105.324 Y135.063 E0.02015
G1 X106.007 Y134.694 E0.0362
G1 X106.462 Y134.542 E0.02241
G1 X107.851 Y134.329 E0.06555
G1 X109.276 Y134.203 E0.06674
G1 X111.089 Y134.156 E0.08463
G1 X112.857 Y134.224 E0.08253
G1 X115.613 Y134.588 E0.12972
G1 X117.532 Y135.012 E0.09167
G1 X118.964 Y135.434 E0.06965
G1 X119.359 Y135.635 E0.02066
G1 X119.739 Y135.928 E0.02239
G1 X120.141 Y136.409 E0.02927
G1 X120.463 Y137.038 E0.03294
G1 X120.621 Y137.714 E0.0324
G1 X120.627 Y141.416 E0.17272
G1 X120.909 Y141.521 E0.01402
G1 X121.644 Y141.974 E0.04028
G1 X122.872 Y143.185 E0.08046
G1 X123.374 Y143.949 E0.04267
G1 X123.519 Y144.307 E0.01801
G1 X123.671 Y144.927 E0.02976
G1 X123.706 Y145.371 E0.02078
G1 X123.705 Y160.395 E0.70091
G1 X123.62 Y161.02 E0.02947
G1 X123.497 Y161.45 E0.02085
G1 X123.158 Y162.145 E0.03608
G1 X122.753 Y162.657 E0.03046
G1 X121.639 Y163.737 E0.07237
G1 X120.906 Y164.189 E0.04018
G1 X120.623 Y164.293 E0.01409
G1 X120.607 Y188.147 E1.11288
G1 X120.58 Y188.31 E0.00769
G1 X120.369 Y188.974 E0.0325
G1 X116.835 Y195.096 E0.32979
G1 X116.322 Y195.623 E0.03432
G1 X116.259 Y195.67 E0.00368
G1 X115.738 Y195.958 E0.02773
G1 X115.102 Y196.126 E0.03069
G1 X111.48 Y196.134 E0.16898
G1 X110.829 Y195.992 E0.03111
G1 X110.306 Y195.738 E0.0271
G1 X105.459 Y192.176 E0.28065
G1 X95.496 Y192.05 E0.46485
G1 X85.533 Y192.176 E0.46485
G1 X80.686 Y195.738 E0.28065
G1 X80.169 Y195.99 E0.02681
G1 X79.581 Y196.126 E0.02819
G1 X75.879 Y196.124 E0.17269
G1 X75.237 Y195.951 E0.03104
G1 X74.727 Y195.666 E0.02725
G1 X74.157 Y195.096 E0.0376
G1 X70.632 Y188.989 E0.32899
G1 X70.43 Y188.414 E0.0284
G1 X70.386 Y188.143 E0.01284
G1 X70.374 Y164.271 E1.11368
G1 X70.16 Y164.215 E0.01033
G1 X69.578 Y163.915 E0.03053
G1 X69.135 Y163.553 E0.0267
G1 X68.1 Y162.482 E0.06948
G1 X67.701 Y161.862 E0.0344
G1 X67.55 Y161.508 E0.01794
G1 X67.395 Y160.925 E0.02816
G1 X67.347 Y160.422 E0.02359
G1 X67.363 Y145.072 E0.71615
G1 X67.563 Y144.17 E0.04306
G1 X67.899 Y143.496 E0.03516
G1 X68.275 Y143.018 E0.02837
G1 X69.298 Y142.014 E0.06689
G1 X69.879 Y141.624 E0.03263
G1 X70.262 Y141.447 E0.01969
G1 X70.374 Y141.413 E0.00546
G1 X70.382 Y137.693 E0.17353
G1 X70.578 Y136.939 E0.03637
G1 X70.874 Y136.386 E0.02926
G1 X71.281 Y135.91 E0.02922
G1 X71.631 Y135.644 E0.02051
G1 X71.961 Y136.098 F12000
G1 F1800
G1 X72.317 Y135.927 E0.01843
G1 X74.656 Y135.302 E0.11298
G1 X76.309 Y135.001 E0.07838
G1 X77.031 Y134.916 E0.03392
G1 X80.243 Y134.719 E0.15012
G1 X80.682 Y134.717 E0.02047
G1 X82.334 Y134.815 E0.07724
G1 X84.407 Y135.084 E0.09751
G1 X84.704 Y135.188 E0.01465
G1 X85.388 Y135.542 E0.03592
G1 X85.657 Y135.767 E0.01638
G1 X85.857 Y135.987 E0.01386
G1 X86.024 Y136.238 E0.01408
G1 X86.186 Y136.625 E0.0196
G1 X86.259 Y136.987 E0.01722
G1 X86.26 Y137.583 E0.02781
G1 X86.199 Y137.917 E0.01585
G1 X86.033 Y138.337 E0.02108
G1 X84.322 Y140.795 E0.13971
G1 X84.322 Y141.142 E0.01618
G1 X84.348 Y141.168 E0.00171
G1 X106.631 Y141.164 E1.03958
G1 X104.758 Y138.475 E0.15289
G1 X104.596 Y138.044 E0.02149
G1 X104.54 Y137.65 E0.01859
G1 X104.576 Y137.188 E0.02161
G1 X104.761 Y136.643 E0.02685
G1 X105.098 Y136.062 E0.03133
G1 X105.367 Y135.752 E0.01918
G1 X105.616 Y135.543 E0.01513
G1 X106.251 Y135.2 E0.03367
G1 X106.613 Y135.083 E0.01775
G1 X107.926 Y134.886 E0.06196
G1 X109.317 Y134.763 E0.06513
G1 X111.077 Y134.717 E0.08216
G1 X112.797 Y134.782 E0.08027
G1 X115.504 Y135.139 E0.12742
G1 X117.402 Y135.557 E0.09065
G1 X118.779 Y135.964 E0.06699
G1 X119.075 Y136.12 E0.01561
G1 X119.37 Y136.351 E0.0175
G1 X119.656 Y136.693 E0.02078
G1 X119.947 Y137.261 E0.02979
G1 X120.067 Y137.805 E0.02599
G1 X120.066 Y141.836 E0.18805
G1 X120.178 Y141.854 E0.0053
G1 X120.641 Y142.014 E0.02282
G1 X121.321 Y142.435 E0.03734
G1 X122.455 Y143.562 E0.07461
G1 X122.866 Y144.188 E0.0349
G1 X122.98 Y144.464 E0.01394
G1 X123.113 Y144.996 E0.02557
G1 X123.145 Y145.382 E0.0181
G1 X123.144 Y160.375 E0.69946
G1 X123.067 Y160.924 E0.02585
G1 X122.982 Y161.227 E0.01471
G1 X122.668 Y161.871 E0.03343
G1 X122.349 Y162.268 E0.02374
G1 X121.318 Y163.276 E0.06725
G1 X120.638 Y163.695 E0.03727
G1 X120.171 Y163.855 E0.02306
G1 X120.062 Y163.873 E0.00515
G1 X120.048 Y188.087 E1.1297
G1 X120.037 Y188.166 E0.00371
G1 X119.867 Y188.721 E0.02706
G1 X116.367 Y194.783 E0.3266
G1 X115.953 Y195.198 E0.02737
G1 X115.499 Y195.449 E0.02418
G1 X115 Y195.573 E0.02397
G1 X111.512 Y195.573 E0.16275
G1 X110.986 Y195.452 E0.02519
G1 X110.618 Y195.271 E0.0191
G1 X105.646 Y191.617 E0.28789
G1 X95.496 Y191.489 E0.47358
G1 X85.346 Y191.617 E0.47358
G1 X80.374 Y195.271 E0.28789
G1 X80.006 Y195.452 E0.0191
G1 X79.547 Y195.565 E0.02206
G1 X75.919 Y195.563 E0.16927
G1 X75.425 Y195.421 E0.02397
G1 X75.04 Y195.198 E0.02077
G1 X74.625 Y194.783 E0.02737
G1 X71.131 Y188.731 E0.32605
G1 X70.979 Y188.294 E0.02159
G1 X70.947 Y188.118 E0.00835
G1 X70.935 Y163.821 E1.13355
G1 X70.381 Y163.698 E0.02646
G1 X69.908 Y163.46 E0.02469
G1 X69.525 Y163.149 E0.02301
G1 X68.556 Y162.155 E0.06478
G1 X68.187 Y161.58 E0.03191
G1 X68.075 Y161.311 E0.01355
G1 X67.944 Y160.807 E0.02434
G1 X67.907 Y160.386 E0.01971
G1 X67.918 Y145.159 E0.71037
G1 X68.081 Y144.389 E0.03675
G1 X68.388 Y143.773 E0.0321
G1 X68.702 Y143.382 E0.02341
G1 X69.635 Y142.464 E0.06106
G1 X70.135 Y142.124 E0.02822
G1 X70.476 Y141.966 E0.01751
G1 X70.934 Y141.842 E0.02216
G1 X70.943 Y137.732 E0.19177
G1 X71.11 Y137.119 E0.02964
G1 X71.352 Y136.682 E0.02328
G1 X71.644 Y136.338 E0.02105
G1 X71.913 Y136.134 E0.01573
G1 X72.236 Y136.588 F12000
G1 F1800
G1 X72.489 Y136.462 E0.01317
G1 X74.79 Y135.847 E0.11113
G1 X76.401 Y135.555 E0.07637
G1 X77.074 Y135.476 E0.0316
G1 X80.269 Y135.279 E0.14937
G1 X80.657 Y135.278 E0.01811
G1 X82.273 Y135.373 E0.07551
G1 X84.254 Y135.625 E0.09315
G1 X84.468 Y135.697 E0.01054
G1 X85.055 Y135.995 E0.0307
G1 X85.255 Y136.159 E0.01208
G1 X85.426 Y136.347 E0.01185
G1 X85.539 Y136.521 E0.00966
G1 X85.655 Y136.81 E0.01454
G1 X85.703 Y137.064 E0.01206
G1 X85.7 Y137.555 E0.02291
G1 X85.665 Y137.744 E0.009
G1 X85.552 Y138.046 E0.01501
G1 X83.761 Y140.619 E0.14628
G1 X83.762 Y141.375 E0.03524
G1 X84.116 Y141.729 E0.02339
G1 X107.005 Y141.725 E1.06786
G1 X107.359 Y141.371 E0.02335
G1 X107.359 Y141.225 E0.00682
G1 X105.268 Y138.239 E0.17009
G1 X105.147 Y137.932 E0.01535
G1 X105.1 Y137.603 E0.0155
G1 X105.131 Y137.274 E0.01544
G1 X105.26 Y136.901 E0.01839
G1 X105.569 Y136.369 E0.02874
G1 X105.772 Y136.141 E0.01423
G1 X105.95 Y135.994 E0.01076
G1 X106.49 Y135.708 E0.02852
G1 X106.758 Y135.626 E0.01305
G1 X108 Y135.442 E0.05859
G1 X109.34 Y135.324 E0.06277
G1 X111.065 Y135.278 E0.08052
G1 X112.736 Y135.34 E0.07801
G1 X115.419 Y135.693 E0.12623
G1 X117.271 Y136.103 E0.08849
G1 X118.59 Y136.493 E0.06419
G1 X118.782 Y136.599 E0.01024
G1 X118.998 Y136.772 E0.01287
G1 X119.174 Y136.981 E0.01278
G1 X119.409 Y137.425 E0.02339
G1 X119.506 Y137.837 E0.01978
G1 X119.505 Y142.337 E0.20992
G1 X120.031 Y142.396 E0.02468
G1 X120.374 Y142.509 E0.01685
G1 X120.999 Y142.895 E0.03425
G1 X122.037 Y143.938 E0.06868
G1 X122.359 Y144.43 E0.02742
G1 X122.442 Y144.625 E0.00989
G1 X122.556 Y145.066 E0.02127
G1 X122.584 Y145.394 E0.01534
G1 X122.583 Y160.354 E0.69796
G1 X122.514 Y160.826 E0.02223
G1 X122.465 Y161.006 E0.00868
G1 X122.178 Y161.595 E0.03061
G1 X121.926 Y161.899 E0.01839
G1 X120.997 Y162.815 E0.06088
G1 X120.372 Y163.2 E0.03423
G1 X120.025 Y163.313 E0.01705
G1 X119.501 Y163.37 E0.02458
G1 X119.487 Y188.047 E1.15128
G1 X119.364 Y188.469 E0.02051
G1 X115.9 Y194.471 E0.32331
G1 X115.64 Y194.731 E0.01713
G1 X115.318 Y194.917 E0.01734
G1 X114.964 Y195.012 E0.01713
G1 X111.546 Y195.012 E0.15946
G1 X111.15 Y194.915 E0.01902
G1 X110.932 Y194.805 E0.0114
G1 X105.833 Y191.058 E0.29519
G1 X95.496 Y190.928 E0.48231
G1 X85.159 Y191.058 E0.48231
G1 X80.061 Y194.805 E0.29519
G1 X79.842 Y194.915 E0.0114
G1 X79.446 Y195.012 E0.01902
G1 X76.029 Y195.012 E0.15946
G1 X75.674 Y194.917 E0.01713
G1 X75.352 Y194.731 E0.01734
G1 X75.092 Y194.471 E0.01713
G1 X71.631 Y188.475 E0.32302
G1 X71.518 Y188.138 E0.01656
G1 X71.505 Y188.053 E0.004
G1 X71.496 Y163.363 E1.15192
G1 X70.595 Y163.178 E0.0429
G1 X70.236 Y163.003 E0.01864
G1 X69.914 Y162.745 E0.01925
G1 X69.011 Y161.825 E0.06012
G1 X68.693 Y161.337 E0.02719
G1 X68.612 Y161.147 E0.00966
G1 X68.5 Y160.732 E0.02001
G1 X68.468 Y160.373 E0.01682
G1 X68.473 Y145.242 E0.70594
G1 X68.6 Y144.606 E0.03027
G1 X68.876 Y144.052 E0.02886
G1 X69.125 Y143.75 E0.01827
G1 X69.973 Y142.912 E0.05563
G1 X70.396 Y142.621 E0.02395
G1 X70.647 Y142.501 E0.01297
G1 X71.182 Y142.356 E0.02584
G1 X71.495 Y142.343 E0.01465
G1 X71.495 Y137.837 E0.21021
G1 X71.619 Y137.359 E0.02305
G1 X71.829 Y136.978 E0.02031
G1 X72.012 Y136.763 E0.01317
G1 X72.189 Y136.625 E0.01047
G1 X72.535 Y137.067 F12000
G1 F1800
G1 X72.56 Y137.047 E0.00148
G1 X72.661 Y136.997 E0.00529
G1 X74.924 Y136.392 E0.10927
G1 X76.492 Y136.108 E0.07435
G1 X77.116 Y136.035 E0.0293
G1 X80.296 Y135.84 E0.14863
G1 X80.633 Y135.839 E0.01575
G1 X82.213 Y135.931 E0.07383
G1 X84.106 Y136.167 E0.08902
G1 X84.238 Y136.209 E0.00644
G1 X84.729 Y136.452 E0.02555
G1 X84.855 Y136.553 E0.00754
G1 X84.993 Y136.705 E0.0096
G1 X85.048 Y136.793 E0.00484
G1 X85.123 Y136.988 E0.00972
G1 X85.142 Y137.09 E0.00484
G1 X85.142 Y137.491 E0.01871
G1 X85.129 Y137.575 E0.00401
G1 X85.039 Y137.817 E0.01201
G1 X83.2 Y140.443 E0.14957
G1 X83.201 Y141.607 E0.05434
G1 X83.884 Y142.29 E0.04507
G1 X107.238 Y142.286 E1.08955
G1 X107.92 Y141.603 E0.04505
G1 X107.92 Y141.048 E0.0259
G1 X105.747 Y137.944 E0.17679
G1 X105.698 Y137.821 E0.00617
G1 X105.66 Y137.557 E0.01243
G1 X105.673 Y137.425 E0.00617
G1 X105.781 Y137.111 E0.01549
G1 X106.037 Y136.681 E0.02337
G1 X106.169 Y136.537 E0.0091
G1 X106.28 Y136.449 E0.00661
G1 X106.686 Y136.234 E0.02143
G1 X106.863 Y136.177 E0.00866
G1 X108.074 Y135.998 E0.05712
G1 X109.381 Y135.883 E0.0612
G1 X111.071 Y135.839 E0.0789
G1 X112.676 Y135.898 E0.07493
G1 X115.333 Y136.248 E0.12504
G1 X117.14 Y136.649 E0.08635
G1 X118.355 Y137.004 E0.05906
G1 X118.453 Y137.054 E0.00513
G1 X118.625 Y137.193 E0.01031
G1 X118.696 Y137.277 E0.00513
G1 X118.874 Y137.599 E0.01718
G1 X118.945 Y137.873 E0.01319
G1 X118.944 Y142.985 E0.23849
G1 X119.349 Y142.906 E0.01924
G1 X119.481 Y142.898 E0.0062
G1 X119.936 Y142.95 E0.02134
G1 X120.161 Y143.029 E0.01112
G1 X120.626 Y143.315 E0.02548
G1 X121.585 Y144.272 E0.06321
G1 X121.855 Y144.679 E0.0228
G1 X121.906 Y144.792 E0.00579
G1 X122 Y145.14 E0.0168
G1 X122.023 Y145.406 E0.01248
G1 X122.022 Y160.333 E0.69639
G1 X121.962 Y160.724 E0.01845
G1 X121.932 Y160.831 E0.00516
G1 X121.724 Y161.265 E0.02247
G1 X121.522 Y161.509 E0.01478
G1 X120.626 Y162.393 E0.05872
G1 X120.16 Y162.68 E0.02551
G1 X119.932 Y162.758 E0.01126
G1 X119.468 Y162.81 E0.02176
G1 X119.337 Y162.801 E0.00615
G1 X118.94 Y162.723 E0.01886
G1 X118.936 Y187.938 E1.17637
G1 X118.86 Y188.221 E0.01367
G1 X115.432 Y194.159 E0.31988
G1 X115.328 Y194.263 E0.00689
G1 X115.07 Y194.412 E0.01391
G1 X114.927 Y194.451 E0.00689
G1 X111.583 Y194.451 E0.15601
G1 X111.325 Y194.381 E0.01246
G1 X111.246 Y194.34 E0.00416
G1 X106.021 Y190.499 E0.30255
G1 X95.496 Y190.366 E0.49105
G1 X84.972 Y190.499 E0.49105
G1 X79.746 Y194.34 E0.30255
G1 X79.667 Y194.381 E0.00416
G1 X79.409 Y194.451 E0.01246
G1 X76.065 Y194.451 E0.15601
G1 X75.923 Y194.412 E0.00689
G1 X75.664 Y194.263 E0.01391
G1 X75.56 Y194.159 E0.00689
G1 X72.132 Y188.221 E0.31988
G1 X72.066 Y188.01 E0.01029
G1 X72.056 Y162.705 E1.18059
G1 X71.773 Y162.797 E0.0139
G1 X71.544 Y162.804 E0.0107
G1 X70.8 Y162.655 E0.0354
G1 X70.561 Y162.545 E0.01228
G1 X70.279 Y162.318 E0.0169
G1 X69.464 Y161.493 E0.05407
G1 X69.197 Y161.088 E0.02262
G1 X69.147 Y160.976 E0.00576
G1 X69.057 Y160.655 E0.01552
G1 X69.029 Y160.36 E0.01382
G1 X69.034 Y145.269 E0.70409
G1 X69.121 Y144.816 E0.02148
