; generated by SuperSlicer 2.5.59 on 2023-04-14 at 19:26:56 UTC


;
;

;
;
; 

; external perimeters extrusion width = 0.46mm
; perimeters extrusion width = 0.46mm
; infill extrusion width = 0.46mm
; solid infill extrusion width = 0.46mm
; top infill extrusion width = 0.46mm
; support material extrusion width = 0.46mm
; first layer extrusion width = 0.58mm

; external perimeters extrusion width = 0.46mm
; perimeters extrusion width = 0.46mm
; infill extrusion width = 0.46mm
; solid infill extrusion width = 0.46mm
; top infill extrusion width = 0.46mm
; support material extrusion width = 0.46mm
; first layer extrusion width = 0.58mm

; external perimeters extrusion width = 0.46mm
; perimeters extrusion width = 0.46mm
; infill extrusion width = 0.46mm
; solid infill extrusion width = 0.46mm
; top infill extrusion width = 0.46mm
; support material extrusion width = 0.46mm
; first layer extrusion width = 0.58mm

; object:{"name":"Voron_Door_Handle_Font_left","id":"Voron_Door_Handle_Font_left.stl id:0 copy 0","object_center":[150.000001,124.436051,0.000000],"boundingbox_center":[150.000001,124.436051,0.582000],"boundingbox_size":[51.986200,13.127899,1.164000]}
EXCLUDE_OBJECT_DEFINE NAME=Voron_Door_Handle_Font_left_stl_id_0_copy_0 CENTER=150.000001,124.436051 POLYGON=[[124.006896,121.169600],[124.221864,121.021800],[129.669328,117.872104],[129.762344,117.872104],[175.993104,120.382496],[175.993104,128.938296],[129.731232,131.000000],[129.700120,131.000000],[124.267288,127.866400],[124.006896,127.702496],[124.006896,121.169600]]
; object:{"name":"Voron_Door_Handle_Font_right","id":"Voron_Door_Handle_Font_right.stl id:1 copy 0","object_center":[150.000000,172.563949,0.000000],"boundingbox_center":[150.000000,172.563949,0.582000],"boundingbox_size":[51.986198,13.127899,1.164000]}
EXCLUDE_OBJECT_DEFINE NAME=Voron_Door_Handle_Font_right_stl_id_1_copy_0 CENTER=150.000000,172.563949 POLYGON=[[124.006896,169.297504],[124.221864,169.149696],[129.669328,166.000000],[129.762344,166.000000],[175.993104,168.510400],[175.993104,177.066192],[129.731232,179.127904],[129.700120,179.127904],[124.267280,175.994288],[124.267000,175.994112],[124.006896,175.830400],[124.006896,169.297504]]
; object:{"name":"Cool Bruticus","id":"Cool Bruticus.stl id:2 copy 0","object_center":[150.000000,148.500000,0.000000],"boundingbox_center":[150.000000,148.500000,4.000000],"boundingbox_size":[116.614998,23.000000,8.000000]}
EXCLUDE_OBJECT_DEFINE NAME=Cool_Bruticus_stl_id_2_copy_0 CENTER=150.000000,148.500000 POLYGON=[[91.692504,141.600000],[91.713504,141.176000],[91.777496,140.755008],[91.883496,140.341008],[92.124496,139.744000],[92.216488,139.550000],[92.573504,139.003008],[92.850496,138.664000],[92.998504,138.501008],[93.324496,138.201008],[93.502504,138.065008],[93.681504,137.929008],[94.061504,137.688992],[94.465504,137.482000],[94.888504,137.310000],[95.326504,137.176000],[95.776504,137.078000],[96.695496,137.000000],[203.304512,137.000000],[203.765504,137.020000],[204.448496,137.126000],[204.673488,137.176000],[205.111504,137.310000],[205.534496,137.482000],[205.938512,137.688992],[206.318496,137.929008],[206.675504,138.201008],[207.001488,138.501008],[207.149504,138.664000],[207.296496,138.826992],[207.558496,139.178000],[207.783504,139.550000],[208.043504,140.139008],[208.116496,140.341008],[208.253488,140.964992],[208.307488,141.600000],[208.307488,149.664000],[208.284496,150.145008],[208.216496,150.622000],[208.159504,150.858000],[207.944512,151.550992],[207.503488,152.424000],[207.204496,152.818000],[206.902496,153.212000],[206.548496,153.567008],[201.310496,158.382992],[200.923488,158.709008],[200.508496,159.002000],[200.287504,159.130992],[200.060496,159.251008],[199.601504,159.483008],[199.113488,159.656992],[198.618496,159.811008],[198.106512,159.916000],[197.587488,159.979008],[197.065488,160.000000],[102.934496,160.000000],[102.413496,159.968992],[101.893496,159.916000],[101.383496,159.802000],[100.882496,159.668000],[100.402496,159.474000],[99.932496,159.261008],[99.076504,158.709008],[98.689496,158.382992],[93.451504,153.567008],[93.097504,153.212000],[92.938496,153.020992],[92.496496,152.424000],[92.255496,151.996000],[91.976504,151.322000],[91.783496,150.622000],[91.736496,150.143008],[91.692504,149.650000],[91.692504,141.600000]]
; plater:{"center":[150.000000,148.500000,0.000000],"boundingbox_center":[150.000000,148.500000,4.000000],"boundingbox_size":[116.614998,61.255797,8.000000]}

;TYPE:Custom
SET_PRINT_STATS_INFO TOTAL_LAYER=58

M104 S0 ; Stops SuperSlicer from sending temp waits separately

M109 S0

M140 S0

print_start EXTRUDER=249 BED=105 CHAMBER=0
M107
G21 ; set units to millimeters
G90 ; use absolute coordinates
M82 ; use absolute distances for extrusion
G92 E0
; Filament gcode
;_TOOLCHANGE 0
M107
;LAYER_CHANGE
;Z:0.21875
;HEIGHT:0.21875
TIMELAPSE_TAKE_FRAME
;BEFORE_LAYER_CHANGE
;0.21875


G1 Z0.21875 F12000
SET_PRINT_STATS_INFO CURRENT_LAYER=1
;AFTER_LAYER_CHANGE
;0.21875
G1 E-0.7 F2400
G1 Z0.41875 F12000
M204 S3000
G1 X92.175 Y135.677
G1 Z0.21875
G1 E0 F2280
;TYPE:Skirt
;WIDTH:0.54
G1 F3600
G1 X91.66 Y136.048 E0.02847
G1 X90.751 Y136.916 E0.08481
G1 X90.001 Y137.951 E0.14214
G1 X89.381 Y139.243 E0.20639
G1 X86.372 Y148.733 E0.65282
G1 X86.338 Y150.259 E0.72125
G1 X86.996 Y152.728 E0.83584
G1 X87.527 Y154.089 E0.90134
G1 X88.241 Y155.36 E0.96669
G1 X89.103 Y156.502 E1.03086
G1 X89.889 Y157.322 E1.0818
G1 X95.865 Y162.762 E1.44419
G1 X97.376 Y163.758 E1.52534
G1 X128.342 Y181.498 E3.12561
G1 X129.853 Y181.857 E3.19524
G1 X176.115 Y179.795 E5.27174
G1 X177.432 Y179.389 E5.33354
G1 X203.451 Y163.259 E6.70628
G1 X204.731 Y162.269 E6.77885
G1 X210.264 Y157.171 E7.11624
G1 X211.063 Y156.293 E7.16946
G1 X211.764 Y155.358 E7.22185
G1 X212.652 Y153.713 E7.30567
G1 X213.636 Y150.552 E7.45411
G1 X213.627 Y148.976 E7.52479
G1 X210.731 Y139.552 E7.9669
G1 X210.119 Y138.132 E8.03621
G1 X209.293 Y136.969 E8.10018
G1 X208.873 Y136.545 E8.12695
G1 X207.321 Y135.335 E8.21519
G1 X177.36 Y118.017 E9.76695
G1 X176.141 Y117.655 E9.82398
G1 X129.91 Y115.144 E11.90008
G1 X129.669 Y115.14 E11.91089
G1 X128.338 Y115.487 E11.9726
G1 X92.227 Y135.647 E13.82712
G1 X92.467 Y136.078 F12000
G1 F3600
G1 X92.415 Y136.107 E13.82981
G1 X91.993 Y136.412 E13.85314
G1 X91.13 Y137.231 E13.90648
G1 X90.402 Y138.237 E13.96221
G1 X89.812 Y139.49 E14.02429
G1 X86.842 Y148.882 E14.46597
G1 X86.814 Y150.132 E14.52206
G1 X87.472 Y152.601 E14.63665
G1 X87.983 Y153.903 E14.69937
G1 X88.496 Y154.847 E14.74753
G1 X89.28 Y155.946 E14.80804
G1 X90.222 Y156.959 E14.8701
G1 X96.183 Y162.386 E15.23155
G1 X97.621 Y163.33 E15.30873
G1 X128.587 Y181.071 E16.909
G1 X129.831 Y181.365 E16.96632
G1 X176.093 Y179.303 E19.04282
G1 X177.172 Y178.97 E19.09347
G1 X203.152 Y162.868 E20.46407
G1 X204.397 Y161.906 E20.53461
G1 X209.905 Y156.834 E20.87035
G1 X210.669 Y155.998 E20.92114
G1 X211.369 Y155.062 E20.97354
G1 X212.214 Y153.488 E21.05366
G1 X213.163 Y150.413 E21.19797
G1 X213.156 Y149.121 E21.2559
G1 X210.185 Y139.49 E21.70786
G1 X209.477 Y138.023 E21.78088
G1 X208.562 Y136.928 E21.84487
G1 X207.075 Y135.761 E21.92964
G1 X177.114 Y118.444 E23.48141
G1 X176.115 Y118.147 E23.52815
G1 X129.884 Y115.636 E25.60425
G1 X128.578 Y115.917 E25.66415
G1 X92.52 Y136.049 E27.51598
G1 X92.768 Y136.494 F12000
G1 F3600
G1 X92.45 Y136.671 E27.53233
G1 X91.412 Y137.671 E27.59695
G1 X90.701 Y138.684 E27.65247
G1 X90.269 Y139.675 E27.7009
G1 X87.312 Y149.03 E28.14086
G1 X87.29 Y150.005 E28.1846
G1 X87.949 Y152.474 E28.2992
G1 X88.44 Y153.718 E28.35913
G1 X88.925 Y154.605 E28.40449
G1 X89.677 Y155.655 E28.4624
G1 X90.555 Y156.596 E28.52012
G1 X96.68 Y162.142 E28.89063
G1 X97.866 Y162.903 E28.95382
G1 X128.832 Y180.643 E30.55409
G1 X129.809 Y180.873 E30.59909
G1 X176.071 Y178.811 E32.67559
G1 X176.913 Y178.551 E32.71509
G1 X202.853 Y162.476 E34.08355
G1 X204.064 Y161.543 E34.15207
G1 X209.545 Y156.497 E34.48615
G1 X210.274 Y155.702 E34.53452
G1 X210.975 Y154.767 E34.58691
G1 X211.776 Y153.262 E34.66335
G1 X212.691 Y150.273 E34.80353
G1 X212.685 Y149.266 E34.84871
G1 X209.789 Y139.841 E35.29082
G1 X209.275 Y138.642 E35.3493
G1 X208.45 Y137.498 E35.41258
G1 X206.828 Y136.188 E35.50606
G1 X176.867 Y118.871 E37.05782
G1 X176.088 Y118.639 E37.09427
G1 X129.857 Y116.128 E39.17038
G1 X128.818 Y116.347 E39.21799
G1 X92.821 Y136.464 E41.06712
M104 S249 ; set temperature
G92 E0
G1 E-0.7 F2400
M204 S7000
G1 Z0.41875 F12000
; printing object Voron_Door_Handle_Font_left.stl id:0 copy 0
EXCLUDE_OBJECT_START NAME=Voron_Door_Handle_Font_left_stl_id_0_copy_0
; acceleration to travel
M204 S8000
G1 X126.666 Y129.301
; decel to extrusion
M204 S2000
G1 X135.127 Y127.51
; end travel
G1 Z0.21875
G1 E0 F2280
;TYPE:External perimeter
;WIDTH:0.58
G1 F3600
G1 X135.089 Y127.577 E0.00377
G1 X129.716 Y130.674 E0.30439
G1 X124.297 Y127.535 E0.60799
G1 X124.297 Y121.322 E0.9092
G1 X129.709 Y118.184 E1.21248
G1 X129.739 Y118.204 E1.2142
G1 X135.128 Y121.314 E1.51585
G1 X135.127 Y127.45 E1.81331
;WIPE_START
M204 S7000
G1 X134.733 Y127.581 F12000
;WIPE_END
G92 E0
G1 E-0.7 F2400
G1 Z0.41875 F12000
; acceleration to travel
M204 S8000
G1 X134.32 Y125.284
; decel to extrusion
M204 S2000
G1 X134.216 Y124.71
; end travel
G1 Z0.21875
G1 E0 F2280
G1 F3600
G1 X133.869 Y124.096 E0.03422
G1 X131.653 Y120.736 E0.22932
G1 X131.51 Y120.629 E0.23798
G1 X131.342 Y120.569 E0.24666
G1 X129.134 Y120.563 E0.35367
G1 X131.607 Y124.316 E0.57154
G1 X131.768 Y124.561 E0.58578
G1 X131.979 Y124.698 E0.59795
G1 X132.202 Y124.729 E0.60889
G1 X134.156 Y124.711 E0.70363
;WIPE_START
M204 S7000
G1 X134.593 Y124.574 F12000
;WIPE_END
G92 E0
G1 E-0.7 F2400
G1 Z0.41875 F12000
; acceleration to travel
M204 S8000
G1 X133.694 Y127.559
; decel to extrusion
M204 S2000
G1 X133.469 Y128.306
; end travel
G1 Z0.21875
G1 E0 F2280
G1 F3600
G1 X128.558 Y120.835 E0.43343
G1 X128.41 Y120.669 E0.44421
G1 X128.182 Y120.569 E0.45626
G1 X126.026 Y120.563 E0.56078
G1 X126.349 Y121.151 E0.59329
G1 X130.89 Y128.049 E0.99368
G1 X131.042 Y128.205 E1.00424
G1 X131.261 Y128.297 E1.01576
G1 X133.409 Y128.306 E1.11987
;WIPE_START
M204 S7000
G1 X133.839 Y128.155 F12000
;WIPE_END
G92 E0
G1 E-0.7 F2400
G1 Z0.41875 F12000
; acceleration to travel
M204 S8000
G1 X131.005 Y128.273
; decel to extrusion
M204 S2000
G1 X130.296 Y128.303
; end travel
G1 Z0.21875
G1 E0 F2280
G1 F3600
G1 X127.673 Y124.316 E0.23137
G1 X127.456 Y124.172 E0.24399
G1 X127.22 Y124.138 E0.25553
G1 X125.878 Y124.142 E0.32062
G1 X125.223 Y124.142 E0.35238
G1 X125.519 Y124.703 E0.38313
G1 X127.781 Y128.135 E0.58241
G1 X127.984 Y128.272 E0.59428
G1 X128.203 Y128.306 E0.60504
G1 X130.236 Y128.303 E0.7036
;WIPE_START
M204 S7000
G1 X130.667 Y128.151 F12000
;WIPE_END
G92 E0
G1 E-0.7 F2400
G1 Z0.41875 F12000
; acceleration to travel
M204 S8000
G1 X133.523 Y124.896
; decel to extrusion
M204 S3000
G1 X134.594 Y123.676
; end travel
G1 Z0.21875
G1 E0 F2280
;TYPE:Internal perimeter
G1 F3600
G1 X134.29 Y123.767 E0.01538
G1 X132.222 Y120.632 E0.19746
G1 X132.454 Y120.386 E0.21382
G1 X134.595 Y121.622 E0.33365
G1 X134.594 Y123.616 E0.43031
G92 E0
G1 E-0.7 F2400
M204 S7000
G1 Z0.41875 F12000
; acceleration to travel
M204 S8000
G1 X132.132 Y121.009
; decel to extrusion
M204 S3000
G1 X131.212 Y120.035
; end travel
G1 Z0.21875
G1 E0 F2280
G1 F3518.7951
G1 X128.221 Y120.027 E0.145
G1 X128.137 Y119.712 E0.16083
G1 X129.707 Y118.801 E0.24886
G1 X131.297 Y119.719 E0.33784
G1 X131.228 Y119.977 E0.35082
G92 E0
G1 E-0.7 F2400
M204 S7000
G1 Z0.41875 F12000
; acceleration to travel
M204 S8000
G1 X126.58 Y122.533
; decel to extrusion
M204 S3000
G1 X124.83 Y123.496
; end travel
G1 Z0.21875
G1 E0 F2280
G1 F3600
G1 X124.83 Y121.629 E0.09048
G1 X125.72 Y121.113 E0.14038
G1 X125.893 Y121.426 E0.1577
G1 X127.327 Y123.605 E0.28416
G1 X124.83 Y123.609 E0.40521
G1 X124.83 Y123.556 E0.4078
; acceleration to travel
M204 S8000
G1 X125.219 Y123.032 F12000
; decel to extrusion
M204 S3000
G1 X125.363 Y122.839
; end travel
G1 F3300
G1 X125.363 Y122.144 E0.44147
G1 X125.667 Y122.053 E0.45686
G1 X126.339 Y123.073 E0.51609
G1 X125.363 Y123.075 E0.5634
G1 X125.363 Y122.899 E0.57195
G92 E0
G1 E-0.7 F2400
M204 S7000
G1 Z0.41875 F12000
; acceleration to travel
M204 S8000
G1 X124.977 Y124.55
; decel to extrusion
M204 S3000
G1 X124.83 Y125.179
; end travel
G1 Z0.21875
G1 E0 F2280
G1 F3600
G1 X125.134 Y125.088 E0.01538
G1 X127.199 Y128.22 E0.19726
G1 X126.967 Y128.466 E0.21363
G1 X124.83 Y127.228 E0.33335
G1 X124.83 Y125.239 E0.42978
G92 E0
G1 E-0.7 F2400
M204 S7000
G1 Z0.41875 F12000
; acceleration to travel
M204 S8000
G1 X127.314 Y127.861
; decel to extrusion
M204 S3000
G1 X128.241 Y128.839
; end travel
G1 Z0.21875
G1 E0 F2280
G1 F3509.3967
G1 X131.206 Y128.834 E0.14377
G1 X131.291 Y129.151 E0.15966
G1 X129.717 Y130.058 E0.24777
G1 X128.156 Y129.155 E0.33519
G1 X128.225 Y128.897 E0.34812
G92 E0
G1 E-0.7 F2400
M204 S7000
G1 Z0.41875 F12000
; acceleration to travel
M204 S8000
G1 X132.851 Y126.32
; decel to extrusion
M204 S3000
G1 X134.594 Y125.349
; end travel
G1 Z0.21875
G1 E0 F2280
G1 F3600
G1 X134.594 Y127.247 E0.09204
G1 X133.736 Y127.742 E0.14004
G1 X132.107 Y125.263 E0.28383
G1 X134.594 Y125.24 E0.40443
G1 X134.594 Y125.289 E0.40681
; acceleration to travel
M204 S8000
G1 X134.205 Y125.81 F12000
; decel to extrusion
M204 S3000
G1 X134.061 Y126.003
; end travel
G1 F3300
G1 X134.061 Y126.712 E0.4412
G1 X133.757 Y126.803 E0.45659
G1 X133.089 Y125.787 E0.51553
G1 X134.061 Y125.778 E0.56266
G1 X134.061 Y125.943 E0.57066
G92 E0
G1 E-0.7 F2400
M204 S7000
G1 Z0.41875 F12000
; acceleration to travel
M204 S8000
G1 X134.241 Y124.012
; decel to extrusion
M204 S3000
G1 X134.309 Y123.277
; end travel
G1 Z0.21875
G1 E0 F2280
;TYPE:Gap fill
;WIDTH:0.158304
G1 F3600
G1 X134.267 Y123.137 E0.00148
;WIDTH:0.2145
G1 X134.241 Y123.05 E0.00287
;WIDTH:0.270696
G1 X134.215 Y122.963 E0.00471
;WIDTH:0.326892
G1 X134.189 Y122.876 E0.00702
;WIDTH:0.383088
G1 X134.163 Y122.789 E0.0098
;WIDTH:0.439284
G1 X134.137 Y122.702 E0.01303
;WIDTH:0.49548
G1 X134.11 Y122.615 E0.01674
;WIDTH:0.551676
G1 X134.084 Y122.528 E0.0209
;WIDTH:0.607872
G1 X134.058 Y122.441 E0.02553
;WIDTH:0.664068
G1 X134.032 Y122.354 E0.03062
;WIDTH:0.720264
G1 X134.006 Y122.267 E0.03618
;WIDTH:0.77646
G1 X133.98 Y122.18 E0.0422
;WIDTH:0.832656
G1 X133.954 Y122.094 E0.04869
;WIDTH:0.888852
G1 X133.928 Y122.007 E0.05563
G1 X133.845 Y121.929 E0.06432
;WIDTH:0.832656
G1 X133.763 Y121.851 E0.07243
;WIDTH:0.77646
G1 X133.68 Y121.773 E0.07995
;WIDTH:0.720264
G1 X133.598 Y121.696 E0.0869
;WIDTH:0.664068
G1 X133.515 Y121.618 E0.09326
;WIDTH:0.607871
G1 X133.432 Y121.54 E0.09905
;WIDTH:0.551675
G1 X133.35 Y121.462 E0.10426
;WIDTH:0.495479
G1 X133.267 Y121.384 E0.10888
;WIDTH:0.439283
G1 X133.185 Y121.307 E0.11293
;WIDTH:0.383087
G1 X133.102 Y121.229 E0.1164
;WIDTH:0.326891
G1 X133.02 Y121.151 E0.11929
;WIDTH:0.270694
G1 X132.937 Y121.073 E0.1216
;WIDTH:0.214498
G1 X132.855 Y120.996 E0.12332
;WIDTH:0.146677
G1 X132.731 Y120.88 E0.12486
G92 E0
G1 E-0.7 F2400
M204 S7000
G1 Z0.41875 F12000
; acceleration to travel
M204 S8000
G1 X131.307 Y120.056
; decel to extrusion
M204 S3000
G1 X130.772 Y119.747
; end travel
G1 Z0.21875
G1 E0 F2280
;WIDTH:0.14541
G1 F3600
G1 X130.627 Y119.708 E0.00135
;WIDTH:0.212181
G1 X130.535 Y119.683 E0.00278
;WIDTH:0.266058
G1 X130.443 Y119.658 E0.00468
;WIDTH:0.319935
G1 X130.351 Y119.634 E0.00704
;WIDTH:0.373811
G1 X130.259 Y119.609 E0.00986
;WIDTH:0.427688
G1 X130.167 Y119.584 E0.01316
;WIDTH:0.481565
G1 X130.076 Y119.559 E0.01692
;WIDTH:0.535442
G1 X129.984 Y119.535 E0.02114
;WIDTH:0.589319
G1 X129.892 Y119.51 E0.02583
;WIDTH:0.643195
G1 X129.8 Y119.485 E0.03099
;WIDTH:0.697072
G1 X129.708 Y119.461 E0.03662
G1 X129.617 Y119.485 E0.04216
;WIDTH:0.643195
G1 X129.527 Y119.509 E0.04725
;WIDTH:0.589319
G1 X129.436 Y119.533 E0.05188
;WIDTH:0.535442
G1 X129.346 Y119.558 E0.05605
;WIDTH:0.481565
G1 X129.255 Y119.582 E0.05976
;WIDTH:0.427688
G1 X129.164 Y119.606 E0.06301
;WIDTH:0.373811
G1 X129.074 Y119.63 E0.0658
;WIDTH:0.319935
G1 X128.983 Y119.655 E0.06813
;WIDTH:0.266058
G1 X128.892 Y119.679 E0.07
;WIDTH:0.212181
