; generated by SuperSlicer 2.5.59 on 2023-03-21 at 09:12:58 UTC


;
;

;
;
; 

; external perimeters extrusion width = 0.78mm
; perimeters extrusion width = 0.79mm
; infill extrusion width = 0.79mm
; solid infill extrusion width = 0.79mm
; top infill extrusion width = 0.78mm
; support material extrusion width = 0.70mm
; first layer extrusion width = 1.05mm

; object:{"name":"Voron 0","id":"Voron 0.1 Hardware Organizer small extension.STL id:0 copy 0","object_center":[150.000000,148.500000,0.000000],"boundingbox_center":[150.000000,148.500000,30.000000],"boundingbox_size":[199.000000,136.650009,60.000000]}
EXCLUDE_OBJECT_DEFINE NAME=Voron_0_1_Hardware_Organizer_small_extension_STL_id_0_copy_0 CENTER=150.000000,148.500000 POLYGON=[[50.500000,113.656056],[51.500008,84.175008],[51.540720,83.605752],[51.662040,83.048072],[51.861480,82.513328],[52.134988,82.012440],[52.477012,81.555568],[52.880568,81.152000],[53.337440,80.809976],[53.838340,80.536480],[54.373084,80.337032],[54.930748,80.215720],[55.500016,80.174992],[244.499984,80.174992],[245.069264,80.215720],[245.626928,80.337032],[246.161664,80.536480],[246.662560,80.809976],[247.119424,81.152000],[247.522992,81.555568],[247.865024,82.012440],[248.138512,82.513328],[248.337968,83.048072],[248.459296,83.605752],[248.500000,84.175008],[249.500000,113.656056],[249.500000,181.389408],[248.500000,212.175008],[248.459296,212.744256],[248.337968,213.301936],[248.138512,213.836672],[247.865024,214.337568],[247.522992,214.794448],[247.119424,215.198000],[246.662560,215.540016],[246.161664,215.813536],[245.626928,216.012976],[245.069264,216.134288],[244.499984,216.175008],[177.624720,216.825008],[122.375280,216.825008],[55.500016,216.175008],[54.930748,216.134288],[54.373084,216.012976],[53.838340,215.813536],[53.337440,215.540016],[52.880568,215.198000],[52.477012,214.794448],[52.134988,214.337568],[51.861480,213.836672],[51.662040,213.301936],[51.540720,212.744256],[51.500008,212.175008],[50.500000,181.389408],[50.500000,113.656056]]
; plater:{"center":[150.000000,148.500000,0.000000],"boundingbox_center":[150.000000,148.500000,30.000000],"boundingbox_size":[199.000000,136.650009,60.000000]}

;TYPE:Custom
SET_PRINT_STATS_INFO TOTAL_LAYER=200

M104 S0 ; Stops SuperSlicer from sending temp waits separately

M109 S0

M140 S0

print_start EXTRUDER=255 BED=108 CHAMBER=0
G21 ; set units to millimeters
G90 ; use absolute coordinates
M82 ; use absolute distances for extrusion
G92 E0
; Filament gcode
;_TOOLCHANGE 0
M107
;LAYER_CHANGE
;Z:0.3
;HEIGHT:0.3
TIMELAPSE_TAKE_FRAME
;BEFORE_LAYER_CHANGE
;0.3


G1 E-0.8 F2100
G1 Z0.2 F9000
G1 Z0.3
SET_PRINT_STATS_INFO CURRENT_LAYER=1
;AFTER_LAYER_CHANGE
;0.3
G92 E0
M204 S1500
G1 Z0.5
G1 X49.479 Y75.178
G1 Z0.3
G1 E0.8 F2100
;TYPE:Skirt
;WIDTH:0.945
G1 X48.26 Y76.127 E0.96966
G1 X47.188 Y77.239 E1.13929
G1 X45.738 Y79.496 E1.43393
G1 X45.058 Y81.319 E1.64765
G1 X44.679 Y84.032 E1.94858
G1 X44.679 Y212.318 E16.03893
G1 X44.815 Y213.915 E16.21495
G1 X45.171 Y215.418 E16.3846
G1 X45.738 Y216.854 E16.55424
G1 X46.503 Y218.196 E16.72391
G1 X47.452 Y219.415 E16.89356
G1 X48.564 Y220.487 E17.06321
G1 X50.821 Y221.937 E17.35784
G1 X52.644 Y222.617 E17.57155
G1 X55.357 Y222.996 E17.87249
G1 X244.643 Y222.996 E38.66281
G1 X246.24 Y222.86 E38.83883
G1 X247.743 Y222.504 E39.00848
G1 X249.179 Y221.937 E39.17813
G1 X250.521 Y221.172 E39.3478
G1 X251.74 Y220.223 E39.51744
G1 X252.812 Y219.111 E39.68708
G1 X254.262 Y216.854 E39.98174
G1 X254.942 Y215.031 E40.19543
G1 X255.321 Y212.318 E40.49637
G1 X255.314 Y83.831 E54.60882
G1 X254.942 Y81.319 E54.88777
G1 X254.429 Y79.862 E55.05742
G1 X253.715 Y78.492 E55.22707
G1 X252.548 Y76.935 E55.44079
G1 X250.521 Y75.178 E55.73541
G1 X249.179 Y74.413 E55.90509
G1 X247.356 Y73.733 E56.11879
G1 X244.844 Y73.361 E56.39772
G1 X55.357 Y73.354 E77.21017
G1 X53.76 Y73.49 E77.38618
G1 X52.257 Y73.846 E77.55583
G1 X50.821 Y74.413 E77.72547
G1 X49.57 Y75.126 E77.88361
G1 X50.007 Y75.883 F9000
G1 F2100
G1 X48.882 Y76.749 E78.03949
G1 X47.893 Y77.767 E78.19535
G1 X46.511 Y79.918 E78.47618
G1 X45.918 Y81.506 E78.66237
G1 X45.56 Y84.032 E78.94263
G1 X45.56 Y212.318 E93.03298
G1 X45.675 Y213.727 E93.18833
G1 X45.996 Y215.11 E93.3442
G1 X46.511 Y216.432 E93.50006
G1 X47.208 Y217.668 E93.65595
G1 X48.074 Y218.793 E93.81182
G1 X49.092 Y219.782 E93.96769
G1 X51.243 Y221.164 E94.24852
G1 X52.831 Y221.757 E94.4347
G1 X55.357 Y222.115 E94.71497
G1 X244.643 Y222.115 E115.50529
G1 X246.052 Y222 E115.66064
G1 X247.435 Y221.679 E115.81651
G1 X248.757 Y221.164 E115.97239
G1 X249.993 Y220.467 E116.12827
G1 X251.118 Y219.601 E116.28414
G1 X252.107 Y218.583 E116.44
G1 X253.489 Y216.432 E116.72085
G1 X254.082 Y214.844 E116.90702
G1 X254.44 Y212.318 E117.18729
G1 X254.44 Y84.032 E131.27764
G1 X254.325 Y82.623 E131.43298
G1 X253.604 Y80.169 E131.7138
G1 X252.942 Y78.914 E131.86968
G1 X251.926 Y77.557 E132.05587
G1 X249.993 Y75.883 E132.33669
G1 X248.757 Y75.186 E132.49258
G1 X247.169 Y74.593 E132.67876
G1 X244.781 Y74.24 E132.94389
G1 X55.357 Y74.235 E153.74943
G1 X53.948 Y74.35 E153.90478
G1 X52.565 Y74.671 E154.06064
G1 X51.243 Y75.186 E154.21651
G1 X50.098 Y75.831 E154.36086
G92 E0
G1 E-0.8
G1 Z0.5 F9000
G1 X51.338 Y77.997
G1 Z0.3
G1 E0 F2100
;WIDTH:1.05
G1 X52.288 Y77.453 E0.13451
G1 X53.283 Y77.063 E0.2659
G1 X54.319 Y76.819 E0.39675
G1 X55.444 Y76.725 E0.53556
G1 X244.576 Y76.726 E23.78595
G1 X245.717 Y76.826 E23.92677
G1 X246.575 Y77.02 E24.03484
G1 X247.457 Y77.337 E24.15009
G1 X248.561 Y77.929 E24.30404
G1 X249.492 Y78.646 E24.44858
G1 X250.147 Y79.315 E24.56361
G1 X250.682 Y80.018 E24.67216
G1 X251.321 Y81.178 E24.83502
G1 X251.637 Y82.038 E24.94767
G1 X251.849 Y82.958 E25.06367
G1 X251.949 Y84.099 E25.20449
G1 X251.949 Y212.245 E40.95773
G1 X251.881 Y213.188 E41.07393
G1 X251.698 Y214.088 E41.18694
G1 X251.587 Y214.463 E41.23498
G1 X251.206 Y215.418 E41.36139
G1 X250.704 Y216.299 E41.48599
G1 X250.112 Y217.074 E41.60588
G1 X249.419 Y217.77 E41.72661
G1 X248.664 Y218.352 E41.84379
G1 X247.712 Y218.897 E41.97862
G1 X246.717 Y219.287 E42.11002
G1 X245.681 Y219.531 E42.24087
G1 X244.556 Y219.625 E42.37968
G1 X55.448 Y219.625 E65.62703
G1 X54.489 Y219.556 E65.74532
G1 X53.56 Y219.367 E65.86185
G1 X52.588 Y219.03 E65.98828
G1 X52.233 Y218.868 E66.03632
G1 X51.376 Y218.379 E66.15753
G1 X50.601 Y217.787 E66.27741
G1 X49.905 Y217.094 E66.39815
G1 X49.323 Y216.339 E66.51533
G1 X48.778 Y215.387 E66.65017
G1 X48.388 Y214.392 E66.78157
G1 X48.144 Y213.356 E66.91242
G1 X48.05 Y212.231 E67.05122
G1 X48.05 Y84.123 E82.79973
G1 X48.119 Y83.164 E82.91802
G1 X48.308 Y82.235 E83.03455
G1 X48.645 Y81.263 E83.16098
G1 X48.807 Y80.908 E83.20902
G1 X49.296 Y80.051 E83.33023
G1 X49.888 Y79.276 E83.45011
G1 X50.581 Y78.58 E83.57085
G1 X51.255 Y78.061 E83.67545
G1 X51.856 Y78.842 F9000
G1 F2100
G1 X51.91 Y78.8 E83.68376
G1 X52.742 Y78.329 E83.80137
G1 X53.605 Y77.995 E83.91514
G1 X54.505 Y77.788 E84.02857
G1 X55.464 Y77.711 E84.14685
G1 X244.555 Y77.711 E107.39225
G1 X245.533 Y77.795 E107.51285
G1 X246.327 Y77.974 E107.6129
G1 X247.086 Y78.251 E107.71233
G1 X247.994 Y78.737 E107.83888
G1 X248.815 Y79.363 E107.96575
G1 X249.382 Y79.938 E108.06498
G1 X249.876 Y80.586 E108.16521
G1 X250.409 Y81.553 E108.30092
G1 X250.701 Y82.348 E108.40504
G1 X250.88 Y83.142 E108.50515
G1 X250.964 Y84.12 E108.62575
G1 X250.964 Y212.228 E124.37431
G1 X250.908 Y213.023 E124.4723
G1 X250.736 Y213.871 E124.57873
G1 X250.662 Y214.123 E124.61093
G1 X250.331 Y214.964 E124.72211
G1 X249.899 Y215.731 E124.83029
G1 X249.388 Y216.405 E124.9342
G1 X248.791 Y217.009 E125.03869
G1 X248.09 Y217.55 E125.14749
G1 X247.258 Y218.021 E125.2651
G1 X246.395 Y218.355 E125.37887
G1 X245.495 Y218.562 E125.49231
G1 X244.536 Y218.639 E125.61059
G1 X55.465 Y218.639 E148.85345
G1 X54.653 Y218.584 E148.95352
G1 X53.79 Y218.408 E149.06185
G1 X52.937 Y218.107 E149.17303
G1 X52.698 Y217.999 E149.20524
G1 X51.944 Y217.574 E149.31162
G1 X51.27 Y217.063 E149.41554
G1 X50.666 Y216.466 E149.52003
G1 X50.125 Y215.765 E149.62883
G1 X49.654 Y214.933 E149.74644
G1 X49.32 Y214.07 E149.86022
G1 X49.113 Y213.17 E149.97365
G1 X49.036 Y212.211 E150.09193
G1 X49.036 Y84.14 E165.83595
G1 X49.091 Y83.328 E165.93602
G1 X49.267 Y82.465 E166.04434
G1 X49.568 Y81.612 E166.15553
G1 X49.676 Y81.373 E166.18773
G1 X50.101 Y80.619 E166.29412
G1 X50.612 Y79.945 E166.39803
G1 X51.209 Y79.341 E166.50252
G1 X51.773 Y78.906 E166.59012
G1 X52.37 Y79.689 F9000
G1 F2100
G1 X52.48 Y79.605 E166.60707
G1 X53.192 Y79.206 E166.70747
G1 X53.923 Y78.928 E166.80356
G1 X54.685 Y78.757 E166.89965
G1 X55.482 Y78.697 E166.99791
G1 X244.535 Y78.697 E190.23852
G1 X245.349 Y78.764 E190.33891
G1 X246.077 Y78.928 E190.43068
G1 X246.711 Y79.164 E190.51382
G1 X247.491 Y79.585 E190.62284
G1 X248.14 Y80.082 E190.72324
G1 X248.617 Y80.561 E190.80638
G1 X249.07 Y81.155 E190.89815
G1 X249.498 Y81.931 E191.00717
G1 X249.747 Y82.598 E191.09463
G1 X249.911 Y83.326 E191.1864
G1 X249.978 Y84.14 E191.2868
G1 X249.978 Y212.21 E207.03073
G1 X249.928 Y212.92 E207.11818
G1 X249.775 Y213.651 E207.20996
G1 X249.735 Y213.786 E207.22726
G1 X249.453 Y214.514 E207.32333
G1 X249.09 Y215.166 E207.4151
G1 X248.663 Y215.736 E207.50256
G1 X248.114 Y216.292 E207.59865
G1 X247.52 Y216.745 E207.69042
G1 X246.808 Y217.144 E207.79082
G1 X246.077 Y217.422 E207.88691
G1 X245.315 Y217.593 E207.983
G1 X244.518 Y217.653 E208.08126
G1 X55.482 Y217.653 E231.3197
G1 X54.755 Y217.603 E231.40932
G1 X54.024 Y217.45 E231.50109
G1 X53.289 Y217.186 E231.59717
G1 X53.161 Y217.128 E231.61447
G1 X52.509 Y216.765 E231.70624
G1 X51.939 Y216.338 E231.7937
G1 X51.383 Y215.789 E231.88979
G1 X50.93 Y215.195 E231.98156
G1 X50.531 Y214.483 E232.08196
G1 X50.253 Y213.752 E232.17805
G1 X50.082 Y212.99 E232.27414
G1 X50.022 Y212.193 E232.37239
G1 X50.022 Y84.157 E248.112
G1 X50.072 Y83.43 E248.20161
G1 X50.225 Y82.699 E248.29339
G1 X50.489 Y81.964 E248.38946
G1 X50.547 Y81.836 E248.40676
G1 X50.91 Y81.184 E248.49853
G1 X51.337 Y80.614 E248.58599
G1 X51.886 Y80.058 E248.68208
G1 X52.286 Y79.753 E248.74399
G1 X52.876 Y80.54 F9000
G1 F2100
G1 X53.056 Y80.405 E248.77169
G1 X53.086 Y80.386 E248.77602
G1 X53.618 Y80.096 E248.8505
G1 X53.65 Y80.081 E248.85483
G1 X54.217 Y79.869 E248.92932
G1 X54.251 Y79.859 E248.93364
G1 X54.843 Y79.73 E249.00813
G1 X54.878 Y79.725 E249.01246
G1 X55.474 Y79.683 E249.08586
G1 X55.491 Y79.682 E249.08802
G1 X244.509 Y79.682 E272.32431
G1 X244.526 Y79.683 E272.32647
G1 X245.122 Y79.725 E272.39988
G1 X245.157 Y79.73 E272.40421
G1 X245.749 Y79.859 E272.47869
G1 X245.783 Y79.869 E272.48302
G1 X246.35 Y80.081 E272.55751
G1 X246.382 Y80.096 E272.56183
G1 X246.914 Y80.386 E272.63632
G1 X246.944 Y80.405 E272.64065
G1 X247.429 Y80.768 E272.71513
G1 X247.455 Y80.791 E272.71946
G1 X247.884 Y81.22 E272.79395
G1 X247.907 Y81.246 E272.79827
G1 X248.27 Y81.731 E272.87276
G1 X248.289 Y81.761 E272.87709
G1 X248.579 Y82.293 E272.95157
G1 X248.594 Y82.325 E272.9559
G1 X248.806 Y82.892 E273.03039
G1 X248.816 Y82.926 E273.03472
G1 X248.945 Y83.518 E273.1092
G1 X248.95 Y83.553 E273.11353
G1 X248.992 Y84.149 E273.18694
G1 X248.993 Y84.166 E273.1891
G1 X248.993 Y212.184 E288.92654
G1 X248.992 Y212.201 E288.92871
G1 X248.95 Y212.797 E289.00211
G1 X248.945 Y212.832 E289.00644
G1 X248.816 Y213.424 E289.08092
G1 X248.806 Y213.458 E289.08525
G1 X248.594 Y214.025 E289.15974
G1 X248.579 Y214.057 E289.16406
G1 X248.289 Y214.589 E289.23855
G1 X248.27 Y214.619 E289.24288
G1 X247.907 Y215.104 E289.31737
G1 X247.884 Y215.13 E289.32169
G1 X247.455 Y215.559 E289.39618
G1 X247.429 Y215.582 E289.40051
G1 X246.944 Y215.945 E289.47499
G1 X246.914 Y215.964 E289.47932
G1 X246.382 Y216.254 E289.55381
G1 X246.35 Y216.269 E289.55813
G1 X245.783 Y216.481 E289.63262
G1 X245.749 Y216.491 E289.63695
G1 X245.157 Y216.62 E289.71143
G1 X245.122 Y216.625 E289.71576
G1 X244.526 Y216.667 E289.78917
G1 X244.509 Y216.668 E289.79133
G1 X55.491 Y216.668 E313.02762
G1 X55.474 Y216.667 E313.02978
G1 X54.878 Y216.625 E313.10318
G1 X54.843 Y216.62 E313.10751
G1 X54.251 Y216.491 E313.182
G1 X54.217 Y216.481 E313.18632
G1 X53.65 Y216.269 E313.26081
G1 X53.618 Y216.254 E313.26514
G1 X53.086 Y215.964 E313.33962
G1 X53.056 Y215.945 E313.34395
G1 X52.571 Y215.582 E313.41844
G1 X52.545 Y215.559 E313.42277
G1 X52.116 Y215.13 E313.49725
G1 X52.093 Y215.104 E313.50158
G1 X51.73 Y214.619 E313.57607
G1 X51.711 Y214.589 E313.58039
G1 X51.421 Y214.057 E313.65488
G1 X51.406 Y214.025 E313.65921
G1 X51.194 Y213.458 E313.73369
G1 X51.184 Y213.424 E313.73802
G1 X51.055 Y212.832 E313.81251
G1 X51.05 Y212.797 E313.81684
G1 X51.008 Y212.201 E313.89024
G1 X51.007 Y212.184 E313.8924
G1 X51.007 Y84.166 E329.62985
G1 X51.008 Y84.149 E329.63201
G1 X51.05 Y83.553 E329.70541
G1 X51.055 Y83.518 E329.70974
G1 X51.184 Y82.926 E329.78423
G1 X51.194 Y82.892 E329.78855
G1 X51.406 Y82.325 E329.86304
G1 X51.421 Y82.293 E329.86737
G1 X51.711 Y81.761 E329.94185
G1 X51.73 Y81.731 E329.94618
G1 X52.093 Y81.246 E330.02067
G1 X52.116 Y81.22 E330.025
G1 X52.545 Y80.791 E330.09948
G1 X52.571 Y80.768 E330.10381
G1 X52.792 Y80.603 E330.13769
M104 S255 ; set temperature
G92 E0
G1 E-0.8
G1 Z0.5 F9000
; printing object Voron 0.1 Hardware Organizer small extension.STL id:0 copy 0
EXCLUDE_OBJECT_START NAME=Voron_0_1_Hardware_Organizer_small_extension_STL_id_0_copy_0
G1 X52.062 Y83.681
G1 Z0.3
G1 E0 F2100
;TYPE:External perimeter
G1 F2400
G1 X52.167 Y83.196 E0.06093
G1 X52.34 Y82.732 E0.12186
G1 X52.578 Y82.297 E0.18278
G1 X52.875 Y81.9 E0.24371
G1 X53.225 Y81.55 E0.30464
G1 X53.622 Y81.253 E0.36556
G1 X54.057 Y81.015 E0.42649
G1 X54.521 Y80.842 E0.48742
G1 X55.006 Y80.737 E0.54834
G1 X55.519 Y80.7 E0.61158
G1 X244.481 Y80.7 E23.8411
G1 X244.774 Y80.721 E23.87723
G1 X244.994 Y80.737 E23.90433
G1 X245.479 Y80.842 E23.96526
G1 X245.943 Y81.015 E24.02619
G1 X246.378 Y81.253 E24.08712
G1 X246.775 Y81.55 E24.14804
G1 X247.125 Y81.9 E24.20897
G1 X247.422 Y82.297 E24.2699
G1 X247.66 Y82.732 E24.33082
G1 X247.833 Y83.196 E24.39175
G1 X247.938 Y83.681 E24.45268
G1 X247.975 Y84.194 E24.51592
G1 X247.975 Y212.156 E40.24659
G1 X247.938 Y212.669 E40.30982
G1 X247.833 Y213.154 E40.37075
G1 X247.66 Y213.618 E40.43168
G1 X247.422 Y214.053 E40.49261
G1 X247.125 Y214.45 E40.55353
G1 X246.775 Y214.8 E40.61446
G1 X246.378 Y215.097 E40.67539
G1 X245.943 Y215.335 E40.73631
G1 X245.479 Y215.508 E40.79724
G1 X244.994 Y215.613 E40.85817
G1 X244.481 Y215.65 E40.92141
G1 X55.519 Y215.65 E64.15092
G1 X55.006 Y215.613 E64.21416
G1 X54.521 Y215.508 E64.27508
G1 X54.057 Y215.335 E64.33601
G1 X53.622 Y215.097 E64.39694
G1 X53.225 Y214.8 E64.45787
G1 X52.875 Y214.45 E64.51879
G1 X52.578 Y214.053 E64.57972
G1 X52.34 Y213.618 E64.64065
G1 X52.167 Y213.154 E64.70158
G1 X52.062 Y212.669 E64.7625
G1 X52.025 Y212.156 E64.82574
G1 X52.025 Y84.194 E80.55641
G1 X52.054 Y83.785 E80.60674
;WIPE_START
G1 X52.718 Y83.436 F9000
;WIPE_END
G1 X53.04 Y83.821
;TYPE:Internal perimeter
G1 F2400
G1 X53.115 Y83.475 E80.65034
G1 X53.239 Y83.142 E80.69394
G1 X53.409 Y82.831 E80.73752
G1 X53.622 Y82.547 E80.78112
G1 X53.872 Y82.297 E80.82472
G1 X54.156 Y82.084 E80.86831
G1 X54.467 Y81.914 E80.91191
G1 X54.8 Y81.79 E80.95551
G1 X55.146 Y81.715 E80.9991
G1 X55.554 Y81.686 E81.04935
G1 X244.446 Y81.686 E104.2702
G1 X244.704 Y81.704 E104.30201
G1 X244.854 Y81.715 E104.32045
G1 X245.2 Y81.79 E104.36404
G1 X245.533 Y81.914 E104.40765
G1 X245.844 Y82.084 E104.45124
G1 X246.128 Y82.297 E104.49483
G1 X246.378 Y82.547 E104.53843
G1 X246.591 Y82.831 E104.58202
G1 X246.761 Y83.142 E104.62561
G1 X246.885 Y83.475 E104.66921
G1 X246.96 Y83.821 E104.71281
G1 X246.989 Y84.229 E104.76305
G1 X246.989 Y212.121 E120.48507
G1 X246.96 Y212.529 E120.53531
G1 X246.885 Y212.875 E120.57891
G1 X246.761 Y213.208 E120.62251
G1 X246.591 Y213.519 E120.6661
G1 X246.378 Y213.803 E120.70969
G1 X246.128 Y214.053 E120.75329
G1 X245.844 Y214.266 E120.79689
G1 X245.533 Y214.436 E120.84048
G1 X245.2 Y214.56 E120.88408
G1 X244.854 Y214.635 E120.92767
G1 X244.446 Y214.664 E120.97792
G1 X55.554 Y214.664 E144.19878
G1 X55.146 Y214.635 E144.24902
G1 X54.8 Y214.56 E144.29262
