; generated by SuperSlicer 2.5.59 on 2023-05-14 at 22:27:38 UTC


;
;

;
;
; 

; external perimeters extrusion width = 0.43mm
; perimeters extrusion width = 0.45mm
; infill extrusion width = 0.45mm
; solid infill extrusion width = 0.45mm
; top infill extrusion width = 0.42mm
; support material extrusion width = 0.42mm
; first layer extrusion width = 0.57mm

; object:{"name":"voron 2","id":"voron 2.4r2 Z indicator v5.stl id:0 copy 0","object_center":[157.546349,135.405240,0.000000],"boundingbox_center":[157.546349,135.405240,6.750000],"boundingbox_size":[24.249063,27.868347,13.500000]}
EXCLUDE_OBJECT_DEFINE NAME=voron_2_4r2_Z_indicator_v5_stl_id_0_copy_0 CENTER=157.546349,135.405240 POLYGON=[[145.421824,128.620512],[145.422752,128.544752],[145.442432,128.471592],[145.479664,128.405608],[145.532096,128.350920],[145.596448,128.310944],[157.366448,121.525712],[157.433056,121.489664],[157.506496,121.471072],[157.582240,121.471072],[157.655680,121.489664],[157.722304,121.525712],[169.496256,128.310944],[169.560368,128.350984],[169.612624,128.405576],[169.649808,128.471360],[169.669648,128.544296],[169.670880,128.619856],[169.667568,142.177760],[169.659152,142.283440],[169.647520,142.328416],[169.629968,142.369152],[169.605776,142.406368],[169.574192,142.440832],[169.485680,142.504512],[157.711712,149.287104],[157.648496,149.321616],[157.578720,149.339424],[157.506720,149.339424],[157.436928,149.321616],[157.373712,149.287104],[145.607024,142.505184],[145.520080,142.443376],[145.518144,142.441568],[145.488592,142.409984],[145.486320,142.407120],[145.463792,142.373312],[145.461936,142.369920],[145.445344,142.332320],[145.444272,142.329232],[145.433056,142.286656],[145.432624,142.284368],[145.424464,142.179072],[145.421824,128.620512]]
; object:{"name":"voron 2","id":"voron 2.4r2 Z indicator v5.stl id:0 copy 1","object_center":[159.001966,104.282375,0.000000],"boundingbox_center":[159.001966,104.282375,6.750000],"boundingbox_size":[24.249063,27.868347,13.500000]}
EXCLUDE_OBJECT_DEFINE NAME=voron_2_4r2_Z_indicator_v5_stl_id_0_copy_1 CENTER=159.001966,104.282375 POLYGON=[[146.877440,97.497632],[146.878352,97.421880],[146.898048,97.348728],[146.935280,97.282728],[146.987696,97.228040],[147.052064,97.188080],[158.822048,90.402840],[158.888672,90.366792],[158.962112,90.348200],[159.037856,90.348200],[159.111296,90.366792],[159.177920,90.402840],[170.951872,97.188080],[171.015984,97.228112],[171.068240,97.282696],[171.105424,97.348496],[171.125264,97.421416],[171.126496,97.496976],[171.123200,111.054888],[171.114784,111.160544],[171.103136,111.205544],[171.085584,111.246280],[171.061392,111.283504],[171.029808,111.317952],[171.029712,111.318040],[170.941280,111.381656],[159.167328,118.164248],[159.104112,118.198744],[159.034336,118.216544],[158.962320,118.216544],[158.892544,118.198744],[158.829328,118.164248],[147.062656,111.382312],[146.975696,111.320512],[146.973760,111.318712],[146.944192,111.287120],[146.941920,111.284248],[146.919408,111.250432],[146.917536,111.247040],[146.900960,111.209448],[146.899888,111.206368],[146.888672,111.163784],[146.888240,111.161488],[146.880080,111.056216],[146.877440,97.497632]]
; plater:{"center":[158.274158,119.843807,0.000000],"boundingbox_center":[158.274158,119.843807,6.750000],"boundingbox_size":[25.704681,58.991213,13.500000]}

;TYPE:Custom
SET_PRINT_STATS_INFO TOTAL_LAYER=68

M104 S0 ; Stops SuperSlicer from sending temp waits separately

M109 S0

M140 S0

print_start EXTRUDER=250 BED=105 CHAMBER=0
M107
G21 ; set units to millimeters
G90 ; use absolute coordinates
M83 ; use relative distances for extrusion
; Filament gcode
;_TOOLCHANGE 0
M107
;LAYER_CHANGE
;Z:0.2
;HEIGHT:0.2
TIMELAPSE_TAKE_FRAME
;BEFORE_LAYER_CHANGE
;0.2


G1 Z0.2 F12000
SET_PRINT_STATS_INFO CURRENT_LAYER=1
;AFTER_LAYER_CHANGE
;0.2
G92 E0
G1 E-0.7 F3300
G1 Z0.5 F12000
M204 S1500
G1 X144.553 Y96.026
G1 Z0.2
G1 E0.7 F2700
;TYPE:Skirt
;WIDTH:0.52
G1 X144.232 Y96.968 E0.03948
G1 X144.188 Y97.367 E0.01592
G1 X142.732 Y128.495 E1.23617
G1 X142.74 Y142.393 E0.55134
G1 X142.925 Y143.271 E0.0356
G1 X143.363 Y144.058 E0.03572
G1 X144.262 Y144.838 E0.04723
G1 X156.029 Y151.62 E0.53876
G1 X156.521 Y151.845 E0.02147
G1 X157.507 Y152.032 E0.03979
G1 X158.564 Y151.845 E0.0426
G1 X159.056 Y151.62 E0.02145
G1 X170.83 Y144.838 E0.53902
G1 X171.755 Y144.023 E0.0489
G1 X172.272 Y142.888 E0.04947
G1 X172.357 Y142.304 E0.02344
G1 X173.813 Y111.181 E1.23597
G1 X173.819 Y97.498 E0.5428
G1 X173.771 Y96.97 E0.02101
G1 X173.412 Y95.958 E0.04262
G1 X172.767 Y95.194 E0.03967
G1 X172.296 Y94.855 E0.02302
G1 X160.455 Y88.034 E0.54208
G1 X159.444 Y87.695 E0.0423
G1 X157.983 Y87.84 E0.05824
G1 X157.477 Y88.07 E0.02206
G1 X145.707 Y94.855 E0.53894
G1 X145.24 Y95.191 E0.02282
G1 X144.591 Y95.979 E0.04052
G1 E-0.7 F3300
M204 S6000
G1 Z0.5 F12000
M204 S1500
G1 X144.968 Y96.26
G1 Z0.2
G1 E0.7 F2700
G1 X144.705 Y97.035 E0.03248
G1 X144.664 Y97.389 E0.01412
G1 X143.209 Y128.517 E1.23617
G1 X143.209 Y142.18 E0.54198
G1 X143.344 Y143.025 E0.03399
G1 X143.735 Y143.759 E0.03299
G1 X144.501 Y144.425 E0.04023
G1 X156.267 Y151.207 E0.53876
G1 X156.696 Y151.401 E0.01867
G1 X157.507 Y151.555 E0.03274
G1 X158.39 Y151.401 E0.03555
G1 X158.818 Y151.207 E0.01865
G1 X170.592 Y144.424 E0.53902
G1 X171.378 Y143.73 E0.04163
G1 X171.804 Y142.796 E0.0407
G1 X173.336 Y111.158 E1.25653
G1 X173.342 Y97.498 E0.54192
G1 X173.299 Y97.037 E0.01834
G1 X172.997 Y96.192 E0.03559
G1 X172.466 Y95.564 E0.03264
G1 X172.058 Y95.268 E0.01999
G1 X160.217 Y88.447 E0.54208
G1 X159.385 Y88.168 E0.03481
G1 X158.157 Y88.284 E0.04895
G1 X157.715 Y88.483 E0.01921
G1 X145.945 Y95.269 E0.53894
G1 X145.54 Y95.561 E0.01983
G1 X145.006 Y96.214 E0.03344
G1 E-0.7 F3300
M204 S6000
G1 Z0.5 F12000
M204 S1500
G1 X145.384 Y96.495
G1 Z0.2
G1 E0.7 F2700
G1 X145.141 Y97.411 E0.03762
G1 X143.685 Y128.539 E1.23617
G1 X143.686 Y142.179 E0.5411
G1 X143.794 Y142.866 E0.02759
G1 X144.107 Y143.461 E0.02666
G1 X144.739 Y144.011 E0.03323
G1 X156.506 Y150.793 E0.53876
G1 X156.87 Y150.957 E0.01587
G1 X157.507 Y151.078 E0.02569
G1 X158.215 Y150.957 E0.0285
G1 X158.58 Y150.794 E0.01585
G1 X170.353 Y144.011 E0.53902
G1 X171.002 Y143.437 E0.03435
G1 X171.336 Y142.704 E0.03194
G1 X172.86 Y111.136 E1.25375
G1 X172.865 Y97.497 E0.54104
G1 X172.827 Y97.104 E0.01567
G1 X172.582 Y96.427 E0.02856
G1 X172.165 Y95.934 E0.02561
G1 X171.82 Y95.682 E0.01697
G1 X159.979 Y88.86 E0.54208
G1 X159.326 Y88.642 E0.02731
G1 X158.33 Y88.729 E0.03966
G1 X157.954 Y88.897 E0.01636
G1 X146.184 Y95.682 E0.53894
G1 X145.841 Y95.932 E0.01685
G1 X145.422 Y96.448 E0.02637
M104 S250 ; set temperature
G1 E-0.7 F3300
M204 S6000
G1 Z0.5 F12000
; printing object voron 2.4r2 Z indicator v5.stl id:0 copy 0
EXCLUDE_OBJECT_START NAME=voron_2_4r2_Z_indicator_v5_stl_id_0_copy_0
; acceleration to travel
M204 S6500
G1 X155.875 Y118.257
; decel to extrusion
M204 S1000
G1 X157.552 Y121.758
; end travel
G1 Z0.2
G1 E0.7 F2700
;TYPE:External perimeter
;WIDTH:0.568
G1 F3600
G1 X169.335 Y128.546 E0.59368
G1 X169.379 Y128.581 E0.00247
G1 X169.387 Y128.64 E0.00258
G1 X169.384 Y142.15 E0.58986
G1 X169.366 Y142.241 E0.00404
G1 X169.331 Y142.266 E0.00184
G1 X157.543 Y149.048 E0.59382
G1 X145.714 Y142.232 E0.59606
G1 X145.706 Y128.636 E0.59365
G1 X145.714 Y128.582 E0.00238
G1 X145.758 Y128.546 E0.00248
G1 X157.5 Y121.788 E0.59153
;WIPE_START
M204 S6000
G1 X157.689 Y122.134 F12000
;WIPE_END
G1 E-0.7 F3300
G1 Z0.5 F12000
; acceleration to travel
M204 S6500
G1 X163.782 Y140.468
; decel to extrusion
M204 S1000
G1 X164.72 Y143.289
; end travel
G1 Z0.2
G1 E0.7 F2700
G1 F3600
G1 X164.583 Y142.795 E0.02239
G1 X154.637 Y127.702 E0.78916
G1 X154.472 Y127.564 E0.00941
G1 X154.247 Y127.52 E0.01
G1 X150.808 Y127.524 E0.15015
G1 X150.234 Y127.588 E0.0252
G1 X160.437 Y143.095 E0.81044
G1 X160.662 Y143.249 E0.01188
G1 X160.826 Y143.291 E0.00742
G1 X164.66 Y143.289 E0.16738
;WIPE_START
M204 S6000
G1 X165.113 Y143.217 F12000
;WIPE_END
; acceleration to travel
M204 S6500
G1 X168.156 Y142.173
; decel to extrusion
M204 S1500
G1 X168.859 Y141.932
; end travel
;TYPE:Internal perimeter
G1 F3600
G1 X165.435 Y143.902 E0.17246
G1 X165.067 Y142.575 E0.06012
G1 X155.033 Y127.348 E0.79616
G1 X154.704 Y127.075 E0.01867
G1 X154.298 Y126.995 E0.01809
G1 X150.778 Y126.999 E0.15365
G1 X150.021 Y127.084 E0.03327
G1 X149.915 Y126.759 E0.01491
G1 X157.552 Y122.364 E0.38473
G1 X168.862 Y128.879 E0.56985
G1 X168.859 Y141.872 E0.56727
G1 X168.334 Y141.628 F12000
G1 F3600
G1 X165.76 Y143.109 E0.12965
G1 X165.551 Y142.355 E0.03417
G1 X161.803 Y136.668 E0.29736
G1 X162.61 Y136.745 E0.03541
G1 X166.182 Y136.749 E0.15594
G1 X167.044 Y136.488 E0.03934
G1 X167.511 Y135.343 E0.05399
G1 X167.233 Y134.667 E0.0319
G1 X162.283 Y127.161 E0.39255
G1 X161.963 Y126.781 E0.0217
G1 X161.457 Y126.523 E0.02478
G1 X161.06 Y126.47 E0.0175
G1 X155.508 Y126.477 E0.2424
G1 X155.611 Y126.734 E0.01211
G1 X155.347 Y126.926 E0.01428
G1 X154.937 Y126.586 E0.02327
G1 X154.348 Y126.47 E0.02619
G1 X152.091 Y126.473 E0.09857
G1 X152.007 Y126.161 E0.01409
G1 X157.552 Y122.97 E0.27932
G1 X168.337 Y129.183 E0.5434
G1 X168.334 Y141.568 E0.54076
G1 E-0.7 F3300
M204 S6000
G1 Z0.5 F12000
; acceleration to travel
M204 S6500
G1 X162.408 Y128.874
; decel to extrusion
M204 S1500
G1 X161.041 Y125.945
; end travel
G1 Z0.2
G1 E0.7 F2700
G1 F3600
G1 X154.439 Y125.953 E0.28824
G1 X154.06 Y125.945 E0.01657
G1 X153.976 Y125.633 E0.01409
G1 X157.552 Y123.576 E0.18012
G1 X161.124 Y125.634 E0.17999
G1 X161.057 Y125.887 E0.01145
; acceleration to travel
M204 S6500
G1 X162.456 Y126.759 F12000
; decel to extrusion
M204 S1500
G1 X162.779 Y126.96
; end travel
G1 F3600
G1 X163.007 Y126.718 E0.0145
G1 X167.811 Y129.486 E0.24209
G1 X167.81 Y134.045 E0.19905
G1 X167.511 Y134.135 E0.01364
G1 X162.812 Y127.01 E0.37263
G1 E-0.7 F3300
M204 S6000
G1 Z0.5 F12000
; acceleration to travel
M204 S6500
G1 X163.134 Y135.347
; decel to extrusion
M204 S1500
G1 X163.208 Y137.271
; end travel
G1 Z0.2
G1 E0.7 F2700
G1 F3600
G1 X166.259 Y137.274 E0.13324
G1 X167.436 Y136.918 E0.05369
G1 X167.47 Y136.835 E0.00393
G1 X167.81 Y136.901 E0.0151
G1 X167.809 Y141.324 E0.19312
G1 X166.135 Y142.287 E0.08431
G1 X162.829 Y137.27 E0.26233
G1 X163.148 Y137.271 E0.01392
; acceleration to travel
M204 S6500
G1 X165.846 Y135.847 F12000
; decel to extrusion
M204 S1000
G1 X166.261 Y135.628
; end travel
;TYPE:External perimeter
G1 F3600
G1 X166.376 Y135.345 E0.01336
G1 X166.3 Y135.16 E0.0087
G1 X161.44 Y127.791 E0.38544
G1 X161.296 Y127.62 E0.00974
G1 X161.14 Y127.54 E0.00768
G1 X160.99 Y127.52 E0.00659
G1 X157.06 Y127.525 E0.1716
G1 X157.275 Y128.061 E0.02522
G1 X162.099 Y135.388 E0.38304
G1 X162.252 Y135.566 E0.01023
G1 X162.482 Y135.678 E0.01115
G1 X162.661 Y135.695 E0.00786
G1 X166.027 Y135.699 E0.14697
G1 X166.203 Y135.646 E0.00804
;WIPE_START
M204 S6000
G1 X166.656 Y135.692 F12000
;WIPE_END
M204 S1500
G1 X166.59 Y136.077
;TYPE:Internal perimeter
G1 F3600
G1 X166.653 Y136.058 E0.00284
G1 X166.944 Y135.344 E0.03367
G1 X166.767 Y134.914 E0.0203
G1 X161.862 Y127.476 E0.389
G1 X161.63 Y127.201 E0.01572
G1 X161.298 Y127.032 E0.01623
G1 X161.025 Y126.995 E0.01204
G1 X156.284 Y127.001 E0.207
G1 X156.807 Y128.306 E0.06138
G1 X161.679 Y135.705 E0.3868
G1 X161.924 Y135.991 E0.01645
G1 X162.338 Y136.192 E0.02005
G1 X162.636 Y136.22 E0.01308
G1 X166.105 Y136.224 E0.15146
G1 X166.533 Y136.094 E0.01954
; acceleration to travel
M204 S6500
G1 X165.299 Y142.525 F12000
; decel to extrusion
M204 S1500
G1 X165.014 Y144.009
; end travel
G1 F3600
G1 X165.046 Y144.126 E0.00529
G1 X157.543 Y148.443 E0.37793
G1 X146.239 Y141.929 E0.56962
G1 X146.231 Y128.879 E0.56976
G1 X149.295 Y127.116 E0.15434
G1 X160.055 Y143.47 E0.85471
G1 X160.441 Y143.734 E0.02039
G1 X160.759 Y143.816 E0.01437
G1 X164.962 Y143.814 E0.18351
G1 X164.999 Y143.951 E0.00618
; acceleration to travel
M204 S6500
G1 X159.077 Y143.38 F12000
; decel to extrusion
M204 S1000
G1 X158.166 Y143.292
; end travel
;TYPE:External perimeter
G1 F3600
G1 X152.971 Y135.398 E0.4126
G1 X152.83 Y135.238 E0.00931
G1 X152.679 Y135.155 E0.00753
G1 X152.466 Y135.122 E0.0094
G1 X149.207 Y135.126 E0.14228
G1 X148.652 Y135.124 E0.02424
G1 X148.79 Y135.644 E0.02352
G1 X153.693 Y143.088 E0.38917
G1 X153.82 Y143.199 E0.00735
G1 X154.065 Y143.295 E0.01148
G1 X158.106 Y143.292 E0.17643
;WIPE_START
M204 S6000
G1 X158.536 Y143.141 F12000
;WIPE_END
M204 S1500
G1 X159.139 Y143.817
;TYPE:Internal perimeter
G1 F3600
G1 X153.389 Y135.079 E0.45668
G1 X153.164 Y134.822 E0.01495
G1 X152.849 Y134.65 E0.01564
G1 X152.505 Y134.597 E0.01519
G1 X147.969 Y134.596 E0.19806
G1 X148.304 Y135.862 E0.05716
G1 X153.293 Y143.435 E0.39597
G1 X153.542 Y143.655 E0.01448
G1 X153.966 Y143.82 E0.01986
G1 X159.079 Y143.817 E0.22324
; acceleration to travel
M204 S6500
G1 X160.362 Y144.236 F12000
; decel to extrusion
M204 S1500
G1 X160.658 Y144.333
; end travel
G1 F3600
G1 X160.692 Y144.342 E0.00153
G1 X162.995 Y144.34 E0.10053
G1 X163.078 Y144.652 E0.01409
G1 X157.543 Y147.837 E0.27881
G1 X146.763 Y141.625 E0.54318
G1 X146.756 Y129.183 E0.54325
G1 X149.128 Y127.818 E0.11948
G1 X153.321 Y134.19 E0.33306
G1 X152.545 Y134.072 E0.03428
G1 X147.286 Y134.071 E0.2296
G1 X147.819 Y136.079 E0.0907
G1 X152.893 Y143.783 E0.40277
G1 X153.265 Y144.11 E0.02161
G1 X153.868 Y144.345 E0.02825
G1 X160.113 Y144.341 E0.27268
G1 X159.994 Y144.16 E0.00947
G1 X160.6 Y144.318 E0.02736
G1 X161.111 Y145.178 F12000
G1 F3600
G1 X157.543 Y147.231 E0.1797
G1 X153.987 Y145.182 E0.1792
G1 X154.07 Y144.87 E0.01407
G1 X160.625 Y144.867 E0.2862
G1 X161.027 Y144.866 E0.01756
G1 X161.095 Y145.12 E0.01147
; acceleration to travel
M204 S6500
G1 X153.949 Y144.077 F12000
; decel to extrusion
M204 S1500
G1 X152.3 Y143.837
; end travel
G1 F3600
G1 X152.072 Y144.078 E0.0145
G1 X147.288 Y141.322 E0.24107
G1 X147.286 Y136.769 E0.19878
G1 X147.585 Y136.679 E0.01365
G1 X152.267 Y143.787 E0.37159
G1 E-0.7 F3300
M204 S6000
G1 Z0.5 F12000
; acceleration to travel
M204 S6500
G1 X152.269 Y135.467
; decel to extrusion
M204 S1500
G1 X152.269 Y133.547
; end travel
G1 Z0.2
G1 E0.7 F2700
G1 F3600
G1 X147.284 Y133.546 E0.21767
G1 X147.282 Y129.486 E0.17724
G1 X148.961 Y128.52 E0.08462
G1 X152.236 Y133.497 E0.26014
; acceleration to travel
M204 S6500
G1 X153.011 Y134.243 F12000
; decel to extrusion
M204 S1500
G1 X153.189 Y134.415
; end travel
;TYPE:Gap fill
;WIDTH:0.356994
G1 F3600
G1 X153.487 Y134.562 E0.00867
G1 X153.6 Y134.642 E0.00362
;WIDTH:0.428084
G1 X153.645 Y134.675 E0.00179
;WIDTH:0.475854
G1 X153.69 Y134.708 E0.00201
;WIDTH:0.527199
G1 X153.78 Y134.802 E0.00523
G1 X159.534 Y143.546 E0.42151
;WIDTH:0.491365
G1 X159.598 Y143.605 E0.00325
;WIDTH:0.397342
G1 X159.663 Y143.663 E0.00257
;WIDTH:0.326554
G1 X160.098 Y143.937 E0.01211
; acceleration to travel
M204 S6500
G1 X160.13 Y145.253 F12000
; decel to extrusion
M204 S1500
G1 X160.137 Y145.557
; end travel
;TYPE:Solid infill
;WIDTH:0.568
G1 F3600
G1 X159.831 Y145.25 E0.01892
G1 X159.088 Y145.251 E0.0324
G1 X159.5 Y145.663 E0.02543
G1 X159.029 Y145.934 E0.02374
G1 X158.346 Y145.251 E0.04215
G1 X157.604 Y145.252 E0.0324
G1 X158.558 Y146.205 E0.05887
G1 X158.086 Y146.476 E0.02374
G1 X156.862 Y145.252 E0.07559
G1 X156.12 Y145.252 E0.0324
G1 X157.615 Y146.747 E0.09231
G1 X157.543 Y146.788 E0.0036
G1 X156.057 Y145.932 E0.07492
G1 X155.152 Y145.027 E0.05586
; acceleration to travel
M204 S6500
G1 X154.047 Y144.985 F12000
; decel to extrusion
M204 S1500
G1 X153.791 Y144.975
; end travel
;TYPE:Gap fill
;WIDTH:0.691002
G1 F3600
G1 X153.596 Y144.881 E0.01171
;WIDTH:0.727009
G1 X153.253 Y144.712 E0.02175
;WIDTH:0.653893
G1 X153.026 Y144.604 E0.01274
G1 X152.785 Y144.442 E0.01478
;WIDTH:0.716591
G1 X152.398 Y144.166 E0.02661
;WIDTH:0.762603
G1 X152.354 Y144.132 E0.0033
; acceleration to travel
M204 S6500
G1 X150.44 Y142.97 F12000
; decel to extrusion
M204 S1500
G1 X149.998 Y142.701
; end travel
;TYPE:Solid infill
;WIDTH:0.568
G1 F3600
G1 X147.671 Y140.374 E0.14369
G1 X147.671 Y139.631 E0.03244
G1 X151.135 Y143.096 E0.21394
G1 X151.487 Y143.299 E0.0177
G1 X150.341 Y141.559 E0.09095
G1 X147.67 Y138.888 E0.16489
