; generated by SuperSlicer 2.5.59 on 2023-04-14 at 17:39:39 UTC


;
;

;
;
; 

; external perimeters extrusion width = 0.46mm
; perimeters extrusion width = 0.46mm
; infill extrusion width = 0.46mm
; solid infill extrusion width = 0.46mm
; top infill extrusion width = 0.46mm
; support material extrusion width = 0.46mm
; first layer extrusion width = 0.58mm

; external perimeters extrusion width = 0.46mm
; perimeters extrusion width = 0.46mm
; infill extrusion width = 0.46mm
; solid infill extrusion width = 0.46mm
; top infill extrusion width = 0.46mm
; support material extrusion width = 0.46mm
; first layer extrusion width = 0.58mm

; external perimeters extrusion width = 0.46mm
; perimeters extrusion width = 0.46mm
; infill extrusion width = 0.46mm
; solid infill extrusion width = 0.46mm
; top infill extrusion width = 0.46mm
; support material extrusion width = 0.46mm
; first layer extrusion width = 0.58mm

; external perimeters extrusion width = 0.46mm
; perimeters extrusion width = 0.46mm
; infill extrusion width = 0.46mm
; solid infill extrusion width = 0.46mm
; top infill extrusion width = 0.46mm
; support material extrusion width = 0.46mm
; first layer extrusion width = 0.58mm

; object:{"name":"Voron_linear_rail_cap_base","id":"Voron_linear_rail_cap_base id:0 copy 0","object_center":[125.162006,186.412867,0.000000],"boundingbox_center":[125.162006,186.412867,1.750000],"boundingbox_size":[17.675991,13.306200,3.500000]}
EXCLUDE_OBJECT_DEFINE NAME=Voron_linear_rail_cap_base_id_0_copy_0 CENTER=125.162006,186.412867 POLYGON=[[116.324008,183.099344],[119.663584,179.759760],[131.288576,179.759760],[134.000000,182.471184],[134.000000,193.065984],[116.324008,193.065984],[116.324008,183.099344]]
; object:{"name":"Voron_linear_rail_cap_base","id":"Voron_linear_rail_cap_base id:0 copy 1","object_center":[174.837997,186.412866,0.000000],"boundingbox_center":[174.837997,186.412866,1.750000],"boundingbox_size":[17.675991,13.306200,3.500000]}
EXCLUDE_OBJECT_DEFINE NAME=Voron_linear_rail_cap_base_id_0_copy_1 CENTER=174.837997,186.412866 POLYGON=[[166.000000,183.099344],[169.339568,179.759760],[180.964576,179.759760],[183.676000,182.471184],[183.676000,193.065984],[166.000000,193.065984],[166.000000,183.099344]]
; object:{"name":"Voron_linear_rail_cap_base","id":"Voron_linear_rail_cap_base id:0 copy 2","object_center":[198.513988,179.245055,0.000000],"boundingbox_center":[198.513988,179.245055,1.750000],"boundingbox_size":[17.675991,13.306200,3.500000]}
EXCLUDE_OBJECT_DEFINE NAME=Voron_linear_rail_cap_base_id_0_copy_2 CENTER=198.513988,179.245055 POLYGON=[[189.676000,175.931536],[193.015568,172.591952],[204.640560,172.591952],[207.351984,175.303376],[207.351984,185.898160],[189.676000,185.898160],[189.676000,175.931536]]
; object:{"name":"Voron_linear_rail_cap_base","id":"Voron_linear_rail_cap_base id:0 copy 3","object_center":[101.486014,179.758815,0.000000],"boundingbox_center":[101.486014,179.758815,1.750000],"boundingbox_size":[17.675991,13.306200,3.500000]}
EXCLUDE_OBJECT_DEFINE NAME=Voron_linear_rail_cap_base_id_0_copy_3 CENTER=101.486014,179.758815 POLYGON=[[92.648016,176.445296],[95.987592,173.105712],[107.612592,173.105712],[110.324016,175.817136],[110.324016,186.411920],[92.648016,186.411920],[92.648016,176.445296]]
; object:{"name":"Voron_linear_rail_cap_cover","id":"Voron_linear_rail_cap_cover id:1 copy 0","object_center":[152.478823,109.433614,0.000000],"boundingbox_center":[152.478823,109.433614,4.250000],"boundingbox_size":[20.000000,18.000000,8.500000]}
EXCLUDE_OBJECT_DEFINE NAME=Voron_linear_rail_cap_cover_id_1_copy_0 CENTER=152.478823,109.433614 POLYGON=[[142.478816,104.933616],[143.482112,103.930312],[144.425184,102.987240],[146.978816,100.433616],[158.603824,100.433616],[161.474464,103.304248],[162.478816,104.308616],[162.478816,118.433616],[142.478816,118.433616],[142.478816,104.933616]]
; object:{"name":"Voron_linear_rail_cap_cover","id":"Voron_linear_rail_cap_cover id:1 copy 1","object_center":[150.000001,188.759766,0.000000],"boundingbox_center":[150.000001,188.759766,4.250000],"boundingbox_size":[20.000000,18.000000,8.500000]}
EXCLUDE_OBJECT_DEFINE NAME=Voron_linear_rail_cap_cover_id_1_copy_1 CENTER=150.000001,188.759766 POLYGON=[[140.000000,184.259760],[144.500000,179.759760],[156.125008,179.759760],[160.000000,183.634768],[160.000000,197.759760],[140.000000,197.759760],[140.000000,184.259760]]
; object:{"name":"Voron_linear_rail_cap_cover","id":"Voron_linear_rail_cap_cover id:1 copy 2","object_center":[126.478822,108.240234,0.000000],"boundingbox_center":[126.478822,108.240234,4.250000],"boundingbox_size":[20.000000,18.000000,8.500000]}
EXCLUDE_OBJECT_DEFINE NAME=Voron_linear_rail_cap_cover_id_1_copy_2 CENTER=126.478822,108.240234 POLYGON=[[116.478824,103.740232],[120.978824,99.240232],[132.603824,99.240232],[135.474464,102.110864],[136.478816,103.115232],[136.478816,117.240232],[116.478824,117.240232],[116.478824,103.740232]]
; object:{"name":"Voron_linear_rail_cap_cover","id":"Voron_linear_rail_cap_cover id:1 copy 3","object_center":[178.478823,111.087032,0.000000],"boundingbox_center":[178.478823,111.087032,4.250000],"boundingbox_size":[20.000000,18.000000,8.500000]}
EXCLUDE_OBJECT_DEFINE NAME=Voron_linear_rail_cap_cover_id_1_copy_3 CENTER=178.478823,111.087032 POLYGON=[[168.478816,106.587032],[169.482112,105.583728],[170.425184,104.640656],[172.978816,102.087032],[184.603824,102.087032],[185.489728,102.972928],[187.474464,104.957656],[188.478816,105.962032],[188.478816,120.087032],[168.478816,120.087032],[168.478816,106.587032]]
; object:{"name":"Voron_Door_Handle_left","id":"Voron_Door_Handle_left.stl id:2 copy 0","object_center":[150.000000,134.390234,0.000000],"boundingbox_center":[150.000000,134.390234,8.000000],"boundingbox_size":[102.000004,22.300000,16.000000]}
EXCLUDE_OBJECT_DEFINE NAME=Voron_Door_Handle_left_stl_id_2_copy_0 CENTER=150.000000,134.390234 POLYGON=[[99.000000,123.240224],[122.375000,123.240224],[201.000000,128.240232],[201.000000,130.240232],[200.967568,130.266192],[185.700000,142.480224],[185.239760,142.827008],[184.746816,143.157216],[184.222832,143.469744],[183.669520,143.763520],[183.088800,144.037584],[182.482608,144.291008],[181.852960,144.522928],[181.201968,144.732608],[180.531840,144.919280],[179.844816,145.082352],[179.143200,145.221280],[178.429360,145.335568],[177.705664,145.424880],[176.974560,145.488896],[176.238528,145.527392],[175.986208,145.534672],[175.500000,145.540224],[124.500000,145.540224],[124.260104,145.540160],[124.214960,145.539856],[124.000000,145.537056],[123.715408,145.530032],[123.704112,145.529680],[122.934256,145.490624],[122.911680,145.489088],[122.157096,145.421472],[122.123648,145.417840],[121.340928,145.315392],[120.615000,145.189680],[120.563752,145.179648],[119.863184,145.029920],[119.125352,144.840112],[118.410880,144.623504],[117.729448,144.385712],[117.652120,144.355712],[117.079952,144.128816],[117.019048,144.102880],[116.487168,143.865408],[116.434472,143.839904],[115.945792,143.595312],[115.901640,143.571344],[115.456112,143.320128],[115.425984,143.301824],[115.018384,143.041504],[115.000584,143.029312],[114.632928,142.760992],[114.625296,142.755040],[99.000000,130.240232],[99.000000,123.240224]]
; object:{"name":"Voron_Door_Handle_right","id":"Voron_Door_Handle_right.stl id:3 copy 0","object_center":[150.000000,162.609766,0.000000],"boundingbox_center":[150.000000,162.609766,8.000000],"boundingbox_size":[102.000004,22.300000,16.000000]}
EXCLUDE_OBJECT_DEFINE NAME=Voron_Door_Handle_right_stl_id_3_copy_0 CENTER=150.000000,162.609766 POLYGON=[[99.000000,156.459776],[177.625008,151.459776],[201.000000,151.459776],[201.000000,158.459776],[185.700000,170.699776],[185.239760,171.046560],[184.746816,171.376752],[184.222816,171.689280],[183.669520,171.983056],[183.088800,172.257120],[182.482608,172.510560],[181.852960,172.742480],[181.201968,172.952144],[180.531824,173.138832],[179.844816,173.301888],[179.143200,173.440832],[178.429360,173.555120],[177.705664,173.644432],[176.974576,173.708432],[176.238528,173.746928],[175.986208,173.754208],[175.500000,173.759760],[124.500000,173.759760],[124.260104,173.759712],[124.214960,173.759392],[124.000000,173.756608],[123.715408,173.749568],[123.704112,173.749216],[122.934256,173.710176],[122.911680,173.708640],[122.157104,173.641024],[122.123648,173.637392],[121.340928,173.534928],[120.615000,173.409232],[120.563752,173.399184],[119.863184,173.249472],[119.125352,173.059664],[118.410880,172.843056],[117.729448,172.605248],[117.652120,172.575264],[117.079952,172.348352],[117.019048,172.322416],[116.487168,172.084944],[116.434472,172.059456],[115.945784,171.814848],[115.901640,171.790896],[115.456112,171.539680],[115.425984,171.521360],[115.018384,171.261040],[115.000584,171.248864],[114.632936,170.980528],[114.625304,170.974576],[99.000000,158.459776],[99.000000,156.459776]]
; plater:{"center":[150.000001,148.500000,0.000000],"boundingbox_center":[150.000001,148.500000,8.000000],"boundingbox_size":[114.703965,98.519532,16.000000]}

;TYPE:Custom
SET_PRINT_STATS_INFO TOTAL_LAYER=73

M104 S0 ; Stops SuperSlicer from sending temp waits separately

M109 S0

M140 S0

print_start EXTRUDER=249 BED=105 CHAMBER=0
M107
G21 ; set units to millimeters
G90 ; use absolute coordinates
M82 ; use absolute distances for extrusion
G92 E0
; Filament gcode
;_TOOLCHANGE 0
M107
;LAYER_CHANGE
;Z:0.21875
;HEIGHT:0.21875
TIMELAPSE_TAKE_FRAME
;BEFORE_LAYER_CHANGE
;0.21875


G1 Z0.21875 F12000
SET_PRINT_STATS_INFO CURRENT_LAYER=1
;AFTER_LAYER_CHANGE
;0.21875
G1 E-0.7 F2400
G1 Z0.41875 F12000
M204 S3000
G1 X109.913 Y100.839
G1 Z0.21875
G1 E0 F2280
;TYPE:Skirt
;WIDTH:0.54
G1 F3600
G1 X94.725 Y117.393 E1.00738
G1 X94.034 Y118.852 E1.07975
G1 X86.076 Y174.268 E3.59015
G1 X86.049 Y190.412 E4.31409
G1 X86.789 Y192.282 E4.40429
G1 X88.041 Y193.042 E4.46997
G1 X111.717 Y199.696 E5.57276
G1 X135.466 Y204.439 E6.65871
G1 X164 Y204.492 E7.93822
G1 X188.332 Y199.681 E9.05042
G1 X212.008 Y192.513 E10.15967
G1 X213.556 Y191.309 E10.24759
G1 X213.948 Y189.898 E10.31327
G1 X213.909 Y173.046 E11.06895
G1 X206.667 Y131.127 E12.97648
G1 X204.6 Y125.143 E13.26038
G1 X194.981 Y103.208 E14.33439
G1 X194.411 Y102.373 E14.37972
G1 X188.192 Y96.155 E14.77404
G1 X186.434 Y95.361 E14.86057
G1 X160.386 Y93.705 E16.03096
G1 X134.386 Y92.511 E17.19806
G1 X119.322 Y92.508 E17.87355
G1 X117.39 Y93.308 E17.96731
G1 X110.466 Y100.236 E18.40654
G1 X109.953 Y100.795 E18.44053
G1 X110.316 Y101.128 F12000
G1 F3600
G1 X95.088 Y117.726 E19.4506
G1 X94.522 Y118.922 E19.50992
G1 X86.564 Y174.338 E22.02032
G1 X86.541 Y190.412 E22.74111
G1 X87.063 Y191.849 E22.80968
G1 X88.175 Y192.568 E22.86902
G1 X111.851 Y199.222 E23.97181
G1 X135.562 Y203.956 E25.05605
G1 X164 Y203.999 E26.33124
G1 X188.189 Y199.209 E27.43698
G1 X211.865 Y192.041 E28.54623
G1 X213.065 Y191.162 E28.6129
G1 X213.456 Y189.898 E28.67224
G1 X213.423 Y173.13 E29.42416
G1 X206.181 Y131.211 E31.33169
G1 X204.148 Y125.341 E31.61026
G1 X194.53 Y103.406 E32.68426
G1 X194.062 Y102.722 E32.72142
G1 X187.844 Y96.504 E33.11574
G1 X186.403 Y95.852 E33.18666
G1 X160.403 Y94.199 E34.35489
G1 X134.363 Y93.003 E35.52376
G1 X119.322 Y93.001 E36.19824
G1 X117.739 Y93.657 E36.27508
G1 X110.829 Y100.57 E36.71336
G1 X110.357 Y101.084 E36.74467
G1 X110.72 Y101.417 F12000
G1 F3600
G1 X95.451 Y118.06 E37.75743
G1 X95.01 Y118.992 E37.80369
G1 X87.052 Y174.408 E40.31409
G1 X87.034 Y190.412 E41.03174
G1 X87.356 Y191.422 E41.07928
G1 X88.308 Y192.093 E41.13152
G1 X111.984 Y198.747 E42.23431
G1 X135.659 Y203.472 E43.31684
G1 X164 Y203.506 E44.58771
G1 X188.047 Y198.737 E45.68699
G1 X211.723 Y191.57 E46.79624
G1 X212.574 Y190.996 E46.84228
G1 X212.963 Y189.898 E46.89452
G1 X212.937 Y173.214 E47.64267
G1 X205.696 Y131.295 E49.55021
G1 X203.697 Y125.539 E49.82343
G1 X194.078 Y103.604 E50.89744
G1 X193.714 Y103.07 E50.92642
G1 X187.496 Y96.852 E51.32074
G1 X186.372 Y96.344 E51.37605
G1 X160.341 Y94.689 E52.54566
G1 X134.341 Y93.496 E53.71276
G1 X119.322 Y93.494 E54.38623
G1 X118.087 Y94.005 E54.44616
G1 X111.192 Y100.903 E54.88349
G1 X110.761 Y101.373 E54.9121
G92 E0
G1 E-0.7 F2400
M204 S7000
G1 Z0.41875 F12000
; acceleration to travel
M204 S8000
G1 X131.424 Y169.226
; decel to extrusion
M204 S3000
G1 X139.172 Y194.67
; end travel
G1 Z0.21875
G1 E0 F2280
;WIDTH:0.58
;HEIGHT:0.22
G1 F3600
G1 X139.453 Y194.633 E0.0138
G1 X139.734 Y194.596 E0.0276
G1 X139.734 Y198.026 E0.19474
G1 X143.163 Y198.026 E0.36188
G1 X143.09 Y198.588 E0.38948
G1 X142.77 Y199.359 E0.43017
G1 X142.262 Y200.021 E0.47086
G1 X141.599 Y200.53 E0.51155
G1 X140.828 Y200.849 E0.55224
G1 X140 Y200.958 E0.59293
G1 X139.172 Y200.849 E0.63362
G1 X138.401 Y200.53 E0.67431
G1 X137.738 Y200.021 E0.715
G1 X137.23 Y199.359 E0.75569
G1 X136.91 Y198.588 E0.79638
G1 X136.801 Y197.76 E0.83707
G1 X136.91 Y196.932 E0.87776
G1 X137.23 Y196.161 E0.91845
G1 X137.738 Y195.498 E0.95914
G1 X138.401 Y194.99 E0.99983
G1 X139.117 Y194.693 E1.03759
; acceleration to travel
M204 S8000
G1 X139.546 Y195.204 F12000
; decel to extrusion
M204 S3000
G1 X139.707 Y195.396
; end travel
G1 F3600
G1 X138.292 Y195.396 E1.10654
G1 X137.921 Y195.68 E1.12935
G1 X137.731 Y195.928 E1.14458
G1 X139.478 Y195.928 E1.22973
G1 X139.478 Y196.461 E1.25569
G1 X137.382 Y196.461 E1.35781
G1 X137.162 Y196.994 E1.38592
G1 X139.478 Y196.994 E1.49879
G1 X139.478 Y197.527 E1.52475
G1 X137.09 Y197.527 E1.64111
G1 X137.059 Y197.76 E1.65257
G1 X137.099 Y198.059 E1.6673
G1 X139.478 Y198.059 E1.78323
G1 X139.478 Y198.282 E1.79407
G1 X142.872 Y198.282 E1.95947
G1 X142.84 Y198.521 E1.97121
G1 X142.811 Y198.592 E1.97498
G1 X137.189 Y198.592 E2.24893
G1 X137.41 Y199.125 E2.27703
G1 X142.59 Y199.125 E2.52947
G1 X142.547 Y199.23 E2.53501
G1 X142.218 Y199.658 E2.56128
G1 X137.782 Y199.658 E2.77749
G1 X137.921 Y199.839 E2.78862
G1 X138.379 Y200.191 E2.81677
G1 X141.997 Y200.191 E2.99311
G92 E0
G1 E-0.7 F2400
M204 S7000
G1 Z0.41875 F12000
; acceleration to travel
M204 S8000
G1 X152.809 Y198.767
; decel to extrusion
M204 S3000
G1 X156.864 Y198.233
; end travel
G1 Z0.21875
G1 E0 F2280
G1 F3600
G1 X156.837 Y198.026 E0.01019
G1 X160.266 Y198.026 E0.17733
G1 X160.266 Y194.596 E0.34447
G1 X160.547 Y194.633 E0.35827
G1 X160.828 Y194.67 E0.37207
G1 X161.599 Y194.99 E0.41276
G1 X162.262 Y195.498 E0.45345
G1 X162.77 Y196.161 E0.49414
G1 X163.09 Y196.932 E0.53483
G1 X163.199 Y197.76 E0.57552
G1 X163.09 Y198.588 E0.61621
G1 X162.77 Y199.359 E0.6569
G1 X162.262 Y200.021 E0.69759
G1 X161.599 Y200.53 E0.73828
G1 X160.828 Y200.849 E0.77897
G1 X160 Y200.958 E0.81966
G1 X159.172 Y200.849 E0.86035
G1 X158.401 Y200.53 E0.90104
G1 X157.738 Y200.021 E0.94173
G1 X157.23 Y199.359 E0.98242
G1 X156.91 Y198.588 E1.02311
G1 X156.872 Y198.293 E1.03759
G92 E0
G1 E-0.7 F2400
M204 S7000
G1 Z0.41875 F12000
; acceleration to travel
M204 S8000
G1 X160.6 Y199.673
; decel to extrusion
M204 S3000
G1 X161.997 Y200.191
; end travel
G1 Z0.21875
G1 E0 F2280
G1 F3600
G1 X158.379 Y200.191 E0.17634
G1 X157.921 Y199.839 E0.20448
G1 X157.782 Y199.658 E0.21562
G1 X162.218 Y199.658 E0.43182
G1 X162.547 Y199.23 E0.4581
G1 X162.59 Y199.125 E0.46364
G1 X157.41 Y199.125 E0.71608
G1 X157.189 Y198.592 E0.74418
G1 X162.811 Y198.592 E1.01813
G1 X162.84 Y198.521 E1.0219
G1 X162.901 Y198.059 E1.04457
G1 X160.522 Y198.059 E1.16051
G1 X160.522 Y197.527 E1.18647
G1 X162.91 Y197.527 E1.30283
G1 X162.838 Y196.994 E1.32902
G1 X160.522 Y196.994 E1.4419
G1 X160.522 Y196.461 E1.46786
G1 X162.618 Y196.461 E1.56998
G1 X162.547 Y196.289 E1.57904
G1 X162.269 Y195.928 E1.60122
G1 X160.522 Y195.928 E1.68637
G1 X160.522 Y195.396 E1.71234
G1 X162.084 Y195.396 E1.78846
G92 E0
G1 E-0.7 F2400
M204 S7000
G1 Z0.41875 F12000
; acceleration to travel
M204 S8000
G1 X143.887 Y193.701
; decel to extrusion
M204 S3000
G1 X137.063 Y193.066
; end travel
G1 Z0.21875
G1 E0 F2280
G1 F3600
G1 X136.954 Y193.894 E0.04069
G1 X136.634 Y194.665 E0.08138
G1 X136.126 Y195.328 E0.12207
G1 X135.464 Y195.836 E0.16276
G1 X134.692 Y196.156 E0.20345
G1 X133.864 Y196.264 E0.24414
G1 X133.037 Y196.155 E0.28483
