; generated by SuperSlicer 2.5.59 on 2023-04-14 at 02:40:18 UTC


;
;

;
;
; 

; external perimeters extrusion width = 0.46mm
; perimeters extrusion width = 0.46mm
; infill extrusion width = 0.46mm
; solid infill extrusion width = 0.46mm
; top infill extrusion width = 0.46mm
; support material extrusion width = 0.46mm
; first layer extrusion width = 0.58mm

; external perimeters extrusion width = 0.46mm
; perimeters extrusion width = 0.46mm
; infill extrusion width = 0.46mm
; solid infill extrusion width = 0.46mm
; top infill extrusion width = 0.46mm
; support material extrusion width = 0.46mm
; first layer extrusion width = 0.58mm

; object:{"name":"Voron_Door_Handle_left","id":"Voron_Door_Handle_left.stl id:0 copy 0","object_center":[149.072119,134.531161,0.000000],"boundingbox_center":[149.072119,134.531161,8.000000],"boundingbox_size":[102.010975,22.803987,16.000000]}
EXCLUDE_OBJECT_DEFINE NAME=Voron_Door_Handle_left_stl_id_0_copy_0 CENTER=149.072119,134.531161 POLYGON=[[98.066632,140.260640],[98.079816,138.260688],[113.460208,126.121840],[113.922720,125.778088],[114.417832,125.451152],[114.943880,125.142088],[115.499088,124.851960],[116.081608,124.581736],[116.689464,124.332304],[117.320632,124.104536],[117.972992,123.899176],[118.644336,123.716920],[119.332416,123.558392],[120.034936,123.424088],[120.749528,123.314496],[121.473784,123.229968],[122.205288,123.170776],[122.941560,123.137136],[123.193928,123.131520],[123.680160,123.129168],[124.322264,123.133400],[124.686368,123.135800],[132.630368,123.188184],[141.543392,123.246960],[171.063440,123.441632],[172.588048,123.451688],[173.417392,123.457160],[174.679040,123.465488],[174.918944,123.467128],[174.964080,123.467736],[175.179024,123.471944],[175.463568,123.480856],[175.474848,123.481280],[176.244432,123.525400],[176.266992,123.527096],[177.021120,123.599680],[177.054544,123.603528],[177.836576,123.711160],[178.561664,123.841640],[178.612832,123.852024],[179.312416,124.006344],[180.048960,124.201016],[180.762000,124.422336],[181.441856,124.664616],[181.518960,124.695128],[182.089632,124.925808],[182.150368,124.952136],[182.680672,125.193104],[182.733200,125.218960],[183.220240,125.466768],[183.264240,125.491024],[183.708096,125.745160],[183.738096,125.763680],[184.143984,126.026688],[184.161696,126.038992],[184.527584,126.309728],[184.535168,126.315744],[200.077600,138.933312],[200.064416,140.933264],[200.031440,145.933152],[178.156928,145.788912],[176.656960,145.779008],[98.066632,140.260640]]
; object:{"name":"Voron_Door_Handle_right","id":"Voron_Door_Handle_right.stl id:1 copy 0","object_center":[150.893921,162.552919,0.000000],"boundingbox_center":[150.893921,162.552919,8.000000],"boundingbox_size":[102.000004,22.300000,16.000000]}
EXCLUDE_OBJECT_DEFINE NAME=Voron_Door_Handle_right_stl_id_1_copy_0 CENTER=150.893921,162.552919 POLYGON=[[99.893920,156.402928],[178.518928,151.402928],[201.893920,151.402928],[201.893920,158.402928],[186.593920,170.642912],[186.133680,170.989696],[185.640736,171.319904],[185.116736,171.632432],[184.563440,171.926208],[183.982720,172.200272],[183.376528,172.453712],[182.746880,172.685616],[182.095888,172.895296],[181.425744,173.081968],[180.738736,173.245040],[180.037120,173.383968],[179.323280,173.498256],[178.599584,173.587568],[177.868496,173.651584],[177.132448,173.690080],[176.880128,173.697360],[176.393920,173.702912],[125.393920,173.702912],[125.154024,173.702848],[125.108880,173.702544],[124.893920,173.699760],[124.609328,173.692720],[124.598032,173.692368],[123.828176,173.653328],[123.805600,173.651776],[123.051024,173.584160],[123.017568,173.580544],[122.234848,173.478080],[121.508920,173.352368],[121.457672,173.342336],[120.757104,173.192608],[120.019272,173.002816],[119.304800,172.786192],[118.623368,172.548400],[118.546040,172.518400],[117.973872,172.291504],[117.912968,172.265568],[117.381088,172.028096],[117.328392,172.002592],[116.839704,171.758000],[116.795560,171.734032],[116.350032,171.482816],[116.319912,171.464512],[115.912312,171.204192],[115.894512,171.192000],[115.526856,170.923680],[115.519224,170.917728],[99.893920,158.402928],[99.893920,156.402928]]
; plater:{"center":[149.980277,148.416043,0.000000],"boundingbox_center":[149.980277,148.416043,8.000000],"boundingbox_size":[103.827292,50.573752,16.000000]}

;TYPE:Custom
SET_PRINT_STATS_INFO TOTAL_LAYER=80

M104 S0 ; Stops SuperSlicer from sending temp waits separately

M109 S0

M140 S0

print_start EXTRUDER=250 BED=105 CHAMBER=0
M107
G21 ; set units to millimeters
G90 ; use absolute coordinates
M82 ; use absolute distances for extrusion
G92 E0
; Filament gcode
;_TOOLCHANGE 0
M107
;LAYER_CHANGE
;Z:0.2
;HEIGHT:0.2
TIMELAPSE_TAKE_FRAME
;BEFORE_LAYER_CHANGE
;0.2


G1 Z0.2 F12000
SET_PRINT_STATS_INFO CURRENT_LAYER=1
;AFTER_LAYER_CHANGE
;0.2
G1 E-0.7 F2400
G1 Z0.4 F12000
M204 S3000
G1 X101.693 Y128.849
G1 Z0.2
G1 E0 F2280
;TYPE:Skirt
;WIDTH:0.54
G1 F3600
G1 X93.736 Y135.129 E0.41896
G1 X93.18 Y135.773 E0.45415
G1 X92.89 Y137.066 E0.50889
G1 X94.695 Y159.929 E1.45683
G1 X95.529 Y161.503 E1.53045
G1 X113.508 Y175.849 E2.48113
G1 X115.55 Y176.997 E2.57797
G1 X117.236 Y177.705 E2.65355
G1 X119.786 Y178.475 E2.76364
G1 X121.543 Y178.818 E2.83763
G1 X122.73 Y178.974 E2.88712
G1 X125.347 Y179.106 E2.99541
G1 X178.064 Y179.051 E5.17435
G1 X180.734 Y178.726 E5.2855
G1 X182.519 Y178.334 E5.36105
G1 X184.938 Y177.544 E5.46625
G1 X187.174 Y176.487 E5.56847
G1 X189.328 Y175.05 E5.6755
G1 X205.545 Y162.077 E6.53386
G1 X206.387 Y160.325 E6.61417
G1 X206.387 Y147.403 E7.14829
G1 X204.55 Y136.643 E7.59945
G1 X203.754 Y135.286 E7.66448
G1 X187.276 Y121.908 E8.54175
G1 X186.008 Y121.029 E8.60552
G1 X183.679 Y119.844 E8.7135
G1 X182.007 Y119.215 E8.78735
G1 X180.318 Y118.731 E8.85996
G1 X177.515 Y118.227 E8.9777
G1 X174.762 Y118.063 E9.09167
G1 X122.045 Y117.77 E11.27062
G1 X119.374 Y118.078 E11.38177
G1 X117.586 Y118.458 E11.45731
G1 X115.161 Y119.232 E11.56251
G1 X112.918 Y120.274 E11.66474
G1 X110.755 Y121.697 E11.77176
G1 X101.74 Y128.812 E12.24643
G1 X102.048 Y129.202 F12000
G1 F3600
G1 X94.044 Y135.519 E12.66787
G1 X93.385 Y137.027 E12.73588
G1 X95.19 Y159.89 E13.68382
G1 X95.839 Y161.115 E13.74112
G1 X113.685 Y175.368 E14.6851
G1 X115.119 Y176.227 E14.7542
G1 X117.332 Y177.21 E14.85429
G1 X119.004 Y177.757 E14.927
G1 X120.895 Y178.203 E15.0073
G1 X122.766 Y178.478 E15.08544
G1 X125.347 Y178.609 E15.19225
G1 X176.524 Y178.607 E17.30755
G1 X179.711 Y178.383 E17.43958
G1 X182.245 Y177.892 E17.5463
G1 X184.677 Y177.113 E17.65181
G1 X186.278 Y176.4 E17.72424
G1 X187.659 Y175.622 E17.78975
G1 X188.978 Y174.693 E17.85646
G1 X205.234 Y161.689 E18.71691
G1 X205.89 Y160.325 E18.77942
G1 X205.89 Y147.403 E19.31354
G1 X204.06 Y136.728 E19.76119
G1 X203.44 Y135.672 E19.8118
G1 X186.962 Y122.294 E20.68907
G1 X185.738 Y121.447 E20.75059
G1 X184.32 Y120.68 E20.81725
G1 X182.764 Y120.011 E20.88725
G1 X180.19 Y119.211 E20.99867
G1 X177.445 Y118.719 E21.11391
G1 X174.759 Y118.56 E21.22514
G1 X122.059 Y118.267 E23.40337
G1 X119.449 Y118.569 E23.51197
G1 X117.726 Y118.935 E23.5848
G1 X115.42 Y119.665 E23.68475
G1 X113.815 Y120.367 E23.75718
G1 X112.351 Y121.184 E23.82646
G1 X111.063 Y122.087 E23.89149
G1 X102.095 Y129.165 E24.36368
G1 X102.403 Y129.555 F12000
G1 F3600
G1 X94.352 Y135.909 E24.7876
G1 X93.881 Y136.987 E24.83624
G1 X95.686 Y159.851 E25.78418
G1 X96.15 Y160.727 E25.82516
G1 X113.977 Y174.966 E26.76818
G1 X115.341 Y175.782 E26.83388
G1 X117.515 Y176.748 E26.9322
G1 X119.13 Y177.276 E27.00243
G1 X120.979 Y177.713 E27.08095
G1 X122.801 Y177.982 E27.1571
G1 X125.347 Y178.111 E27.26243
G1 X176.507 Y178.111 E29.37701
G1 X179.659 Y177.889 E29.5076
G1 X182.14 Y177.406 E29.61208
G1 X184.505 Y176.646 E29.71475
G1 X186.044 Y175.961 E29.7844
G1 X187.459 Y175.161 E29.85159
G1 X188.707 Y174.274 E29.91488
G1 X204.924 Y161.3 E30.77324
G1 X205.392 Y160.325 E30.81795
G1 X205.392 Y147.403 E31.35207
G1 X203.57 Y136.813 E31.79619
G1 X203.127 Y136.058 E31.8324
G1 X186.649 Y122.68 E32.70967
G1 X185.469 Y121.865 E32.76895
G1 X184.095 Y121.123 E32.83347
G1 X182.578 Y120.472 E32.90171
G1 X180.061 Y119.691 E33.01065
G1 X177.376 Y119.211 E33.12337
G1 X174.755 Y119.057 E33.23187
G1 X122.073 Y118.764 E35.40939
G1 X119.525 Y119.061 E35.51545
G1 X117.865 Y119.412 E35.58555
G1 X115.589 Y120.133 E35.68423
G1 X114.045 Y120.807 E35.75389
G1 X112.625 Y121.599 E35.82108
G1 X111.371 Y122.477 E35.88437
G1 X102.45 Y129.518 E36.35408
G92 E0
G1 E-0.7 F2400
M204 S7000
G1 Z0.4 F12000
; acceleration to travel
M204 S8000
G1 X171.821 Y152.118
; decel to extrusion
M204 S3000
G1 X197.836 Y160.593
; end travel
G1 Z0.2
G1 E0 F2280
;WIDTH:0.58
G1 F3600
G1 X200.412 Y158.532 E0.14737
G1 X200.412 Y155.246 E0.29411
G1 X200.711 Y155.286 E0.30755
G1 X200.97 Y155.32 E0.31922
G1 X201.74 Y155.639 E0.35644
G1 X202.401 Y156.146 E0.39365
G1 X202.908 Y156.807 E0.43086
G1 X203.227 Y157.577 E0.46808
G1 X203.336 Y158.403 E0.50529
G1 X203.227 Y159.229 E0.54251
G1 X202.908 Y159.999 E0.57972
G1 X202.401 Y160.66 E0.61693
G1 X202.13 Y160.868 E0.63221
G1 X201.74 Y161.167 E0.65415
G1 X200.97 Y161.486 E0.69136
G1 X200.144 Y161.595 E0.72857
G1 X199.318 Y161.486 E0.76579
G1 X198.548 Y161.167 E0.803
G1 X198.049 Y160.785 E0.83108
G1 X197.887 Y160.66 E0.84021
G1 X197.872 Y160.641 E0.84128
G92 E0
G1 E-0.7 F2400
M204 S7000
G1 Z0.4 F12000
; acceleration to travel
M204 S8000
G1 X200.92 Y160.819
; decel to extrusion
M204 S3000
G1 X202.063 Y160.886
; end travel
G1 Z0.2
G1 E0 F2280
G1 F3600
G1 X198.604 Y160.886 E0.15447
G1 X198.236 Y160.603 E0.17518
G1 X198.555 Y160.349 E0.19339
G1 X202.315 Y160.349 E0.36133
G1 X202.683 Y159.869 E0.38833
G1 X202.707 Y159.811 E0.39111
G1 X199.226 Y159.811 E0.54657
G1 X199.897 Y159.274 E0.58496
G1 X202.929 Y159.274 E0.72038
G1 X202.976 Y159.162 E0.72582
G1 X203.032 Y158.737 E0.74494
G1 X200.569 Y158.737 E0.85495
G1 X200.67 Y158.656 E0.86077
G1 X200.67 Y158.2 E0.88112
G1 X203.049 Y158.2 E0.98736
G1 X202.979 Y157.663 E1.01155
G1 X200.67 Y157.663 E1.11464
G1 X200.67 Y157.126 E1.13862
G1 X202.761 Y157.126 E1.23202
G1 X202.683 Y156.937 E1.24116
G1 X202.416 Y156.589 E1.26074
G1 X200.67 Y156.589 E1.33871
G1 X200.67 Y156.052 E1.3627
G1 X202.235 Y156.052 E1.43256
G92 E0
G1 E-0.7 F2400
M204 S7000
G1 Z0.4 F12000
; acceleration to travel
M204 S8000
G1 X131.374 Y157.566
; decel to extrusion
M204 S3000
G1 X104.801 Y158.134
; end travel
G1 Z0.2
G1 E0 F2280
G1 F3600
G1 X100.879 Y158.134 E0.17513
G1 X101.327 Y158.494 E0.20079
G1 X103.951 Y160.595 E0.3509
G1 X103.901 Y160.66 E0.35457
G1 X103.673 Y160.835 E0.36742
G1 X103.24 Y161.167 E0.39178
G1 X102.47 Y161.486 E0.429
G1 X101.644 Y161.595 E0.46621
G1 X100.818 Y161.486 E0.50342
G1 X100.048 Y161.167 E0.54064
G1 X99.387 Y160.66 E0.57785
G1 X98.88 Y159.999 E0.61506
G1 X98.561 Y159.229 E0.65228
G1 X98.452 Y158.403 E0.68949
G1 X98.561 Y157.577 E0.7267
G1 X98.88 Y156.807 E0.76392
G1 X98.96 Y156.702 E0.76983
G1 X99.387 Y156.146 E0.80113
G1 X99.658 Y155.937 E0.81641
G1 X100.048 Y155.639 E0.83835
G1 X100.818 Y155.32 E0.87556
G1 X101.644 Y155.211 E0.91277
G1 X102.47 Y155.32 E0.94999
G1 X103.24 Y155.639 E0.9872
G1 X103.901 Y156.146 E1.02441
G1 X104.408 Y156.807 E1.06163
G1 X104.727 Y157.577 E1.09884
G1 X104.761 Y157.836 E1.11051
G1 X104.793 Y158.075 E1.12128
G92 E0
G1 E-0.7 F2400
M204 S7000
G1 Z0.4 F12000
; acceleration to travel
M204 S8000
G1 X103.333 Y156.187
; decel to extrusion
M204 S3000
G1 X102.786 Y155.479
; end travel
G1 Z0.2
G1 E0 F2280
G1 F3600
G1 X101.579 Y155.479 E0.0539
G1 X100.885 Y155.571 E0.08515
G1 X100.178 Y155.864 E0.11933
G1 X99.979 Y156.017 E0.13054
G1 X103.309 Y156.017 E0.27927
G1 X103.717 Y156.33 E0.30224
G1 X103.889 Y156.554 E0.31485
G1 X99.399 Y156.554 E0.51538
G1 X99.165 Y156.859 E0.53256
G1 X99.105 Y156.937 E0.53695
G1 X99.041 Y157.091 E0.54439
G1 X104.247 Y157.091 E0.77687
G1 X104.469 Y157.628 E0.80283
G1 X98.819 Y157.628 E1.05519
G1 X98.812 Y157.644 E1.05597
G1 X98.743 Y158.165 E1.07943
G1 X100.595 Y158.165 E1.16214
G1 X100.575 Y158.221 E1.16481
G1 X101.175 Y158.702 E1.19914
G1 X98.751 Y158.702 E1.30739
G1 X98.812 Y159.162 E1.32811
G1 X98.844 Y159.239 E1.33184
G1 X101.846 Y159.239 E1.46591
G1 X102.516 Y159.776 E1.50427
G1 X99.066 Y159.776 E1.65835
G1 X99.105 Y159.869 E1.66284
G1 X99.446 Y160.313 E1.68785
G1 X103.187 Y160.313 E1.85493
G1 X103.55 Y160.604 E1.87572
G1 X103.516 Y160.631 E1.87767
G1 X103.23 Y160.85 E1.89377
G1 X99.679 Y160.85 E2.05235
G92 E0
G1 E-0.7 F2400
M204 S7000
G1 Z0.4 F12000
; acceleration to travel
M204 S8000
G1 X169.147 Y150.594
; decel to extrusion
M204 S3000
G1 X195.198 Y146.748
; end travel
G1 Z0.2
G1 E0 F2280
G1 F3600
G1 X195.122 Y146.169 E0.02606
G1 X198.548 Y146.192 E0.17907
G1 X198.571 Y142.768 E0.33199
G1 X198.858 Y142.805 E0.34494
G1 X199.108 Y142.838 E0.35617
G1 X199.878 Y143.157 E0.39339
G1 X200.539 Y143.664 E0.4306
G1 X201.046 Y144.326 E0.46782
G1 X201.365 Y145.095 E0.50503
G1 X201.474 Y145.922 E0.54224
G1 X201.365 Y146.748 E0.57946
G1 X201.046 Y147.518 E0.61667
G1 X200.539 Y148.179 E0.65388
G1 X200.48 Y148.255 E0.65818
G1 X200.97 Y148.32 E0.68026
G1 X201.74 Y148.639 E0.71747
G1 X202.401 Y149.146 E0.75468
G1 X202.908 Y149.807 E0.7919
G1 X203.227 Y150.577 E0.82911
G1 X203.336 Y151.403 E0.86632
G1 X203.227 Y152.229 E0.90354
G1 X202.908 Y152.999 E0.94075
G1 X202.401 Y153.66 E0.97797
G1 X202.13 Y153.868 E0.99325
G1 X201.74 Y154.167 E1.01518
G1 X200.97 Y154.486 E1.05239
G1 X200.711 Y154.52 E1.06407
G1 X200.412 Y154.56 E1.07751
G1 X200.412 Y151.134 E1.23048
G1 X196.987 Y151.134 E1.38344
G1 X197.027 Y150.836 E1.39689
G1 X197.061 Y150.577 E1.40856
G1 X197.38 Y149.807 E1.44577
G1 X197.945 Y149.069 E1.48729
G1 X197.455 Y149.005 E1.50936
G1 X196.685 Y148.686 E1.54657
G1 X196.024 Y148.179 E1.58379
G1 X195.517 Y147.518 E1.621
G1 X195.221 Y146.803 E1.65553
G92 E0
G1 E-0.7 F2400
M204 S7000
G1 Z0.4 F12000
; acceleration to travel
M204 S8000
G1 X198.97 Y144.454
; decel to extrusion
M204 S3000
G1 X200.376 Y143.573
; end travel
G1 Z0.2
G1 E0 F2280
G1 F3600
G1 X198.823 Y143.573 E0.06933
G1 X198.82 Y144.11 E0.09331
G1 X200.556 Y144.11 E0.17084
G1 X200.821 Y144.456 E0.19027
G1 X200.9 Y144.647 E0.19955
G1 X198.816 Y144.647 E0.29261
G1 X198.813 Y145.185 E0.3166
G1 X201.116 Y145.185 E0.41948
G1 X201.187 Y145.722 E0.44367
G1 X198.809 Y145.722 E0.54987
G1 X198.806 Y146.259 E0.57386
G1 X201.169 Y146.259 E0.67941
G1 X201.114 Y146.68 E0.69841
G1 X201.066 Y146.796 E0.70398
G1 X195.497 Y146.796 E0.95267
G1 X195.72 Y147.333 E0.97863
G1 X200.843 Y147.333 E1.20745
G1 X200.821 Y147.388 E1.2101
G1 X200.451 Y147.87 E1.23725
G1 X196.112 Y147.87 E1.43099
G1 X196.208 Y147.995 E1.43802
G1 X196.745 Y148.407 E1.46826
G1 X200.039 Y148.407 E1.61533
G1 X200.004 Y148.452 E1.61788
G1 X200.903 Y148.571 E1.65838
G1 X201.61 Y148.864 E1.69256
G1 X201.715 Y148.944 E1.69846
G1 X198.366 Y148.944 E1.84799
G1 X197.954 Y149.481 E1.87822
G1 X202.333 Y149.481 E2.07378
G1 X202.683 Y149.937 E2.09944
G1 X202.717 Y150.018 E2.10337
G1 X197.571 Y150.018 E2.33317
G1 X197.349 Y150.555 E2.35913
G1 X202.939 Y150.555 E2.60881
G1 X202.976 Y150.644 E2.6131
G1 X203.035 Y151.092 E2.63329
G1 X200.67 Y151.092 E2.7389
G1 X200.67 Y151.629 E2.76289
G1 X203.046 Y151.629 E2.86899
G1 X202.974 Y152.167 E2.89319
G1 X200.67 Y152.167 E2.99607
G1 X200.67 Y152.704 E3.02006
G1 X202.752 Y152.704 E3.11301
G1 X202.683 Y152.869 E3.121
G1 X202.398 Y153.241 E3.14193
G1 X200.67 Y153.241 E3.21908
G1 X200.67 Y153.778 E3.24306
G1 X202.203 Y153.778 E3.31153
G92 E0
G1 E-0.7 F2400
M204 S7000
G1 Z0.4 F12000
; acceleration to travel
M204 S8000
G1 X188.292 Y151.855
; decel to extrusion
M204 S3000
G1 X183.076 Y151.134
; end travel
G1 Z0.2
G1 E0 F2280
G1 F3600
G1 X179.65 Y151.134 E0.15297
G1 X179.65 Y154.56 E0.30593
G1 X179.093 Y154.486 E0.33105
G1 X178.323 Y154.167 E0.36826
G1 X177.662 Y153.66 E0.40548
G1 X177.155 Y152.999 E0.44269
G1 X176.836 Y152.229 E0.4799
G1 X176.727 Y151.403 E0.51712
G1 X176.836 Y150.577 E0.55433
G1 X177.155 Y149.807 E0.59155
G1 X177.813 Y148.948 E0.63988
G1 X177.231 Y148.872 E0.66612
G1 X176.461 Y148.553 E0.70334
G1 X175.8 Y148.045 E0.74055
G1 X175.293 Y147.384 E0.77776
G1 X174.974 Y146.614 E0.81498
