; generated by SuperSlicer 2.5.59 on 2023-03-20 at 05:09:06 UTC


;
;

;
;
; 

; external perimeters extrusion width = 0.45mm
; perimeters extrusion width = 0.45mm
; infill extrusion width = 0.45mm
; solid infill extrusion width = 0.45mm
; top infill extrusion width = 0.45mm
; support material extrusion width = 0.40mm
; first layer extrusion width = 0.60mm

; object:{"name":"Voron V0","id":"Voron V0.2 X-Carriage for endstop.stl id:0 copy 0","object_center":[150.000000,148.500000,0.000000],"boundingbox_center":[150.000000,148.500000,13.015000],"boundingbox_size":[34.020000,37.452000,26.030001]}
EXCLUDE_OBJECT_DEFINE NAME=Voron_V0_2_X_Carriage_for_endstop_stl_id_0_copy_0 CENTER=150.000000,148.500000 POLYGON=[[132.990008,133.427000],[133.390000,133.026992],[147.274992,129.774992],[152.702000,129.774000],[166.610000,135.277008],[167.010000,135.677008],[167.010000,141.414992],[166.990000,146.026000],[166.892000,146.904992],[166.890000,146.916000],[162.422000,165.744000],[162.356000,165.994992],[162.136000,166.388000],[162.062000,166.486000],[161.992000,166.568000],[161.654992,166.864000],[161.356000,167.036000],[161.330992,167.048992],[161.009008,167.162992],[160.608992,167.222000],[160.510000,167.226000],[139.490000,167.226000],[139.462000,167.225008],[139.389008,167.220000],[139.203008,167.202000],[138.972000,167.158000],[138.785008,167.090000],[138.490000,166.958016],[138.076000,166.640000],[137.758000,166.226000],[137.558000,165.744000],[133.090000,146.916000],[133.088000,146.904992],[132.990008,146.026000],[132.990008,133.427000]]
; plater:{"center":[150.000000,148.500000,0.000000],"boundingbox_center":[150.000000,148.500000,13.015000],"boundingbox_size":[34.020000,37.452000,26.030001]}

;TYPE:Custom
SET_PRINT_STATS_INFO TOTAL_LAYER=119

M104 S0 ; Stops SuperSlicer from sending temp waits separately

M109 S0

M140 S0

print_start EXTRUDER=250 BED=105 CHAMBER=0
G21 ; set units to millimeters
G90 ; use absolute coordinates
M82 ; use absolute distances for extrusion
G92 E0
; Filament gcode
;_TOOLCHANGE 0
M107
;LAYER_CHANGE
;Z:0.21875
;HEIGHT:0.21875
TIMELAPSE_TAKE_FRAME
;BEFORE_LAYER_CHANGE
;0.21875


G1 E-0.8 F2400
G1 Z0.2 F9000
G1 Z0.21875
SET_PRINT_STATS_INFO CURRENT_LAYER=1
;AFTER_LAYER_CHANGE
;0.21875
G92 E0
G1 Z0.41875
G1 X130.433 Y133.303
G1 Z0.21875
G1 E0.8 F2400
;TYPE:Skirt
;WIDTH:0.54
G1 F2100
G1 X130.041 Y134.568 E0.85934
G1 X130.041 Y146.082 E1.37566
G1 X130.279 Y147.816 E1.45415
G1 X130.709 Y149.012 E1.51116
G1 X138.693 Y166.268 E2.36372
G1 X139.271 Y167.03 E2.40661
G1 X140.185 Y167.811 E2.46053
G1 X141.166 Y168.297 E2.50964
G1 X142.688 Y168.575 E2.57898
G1 X157.292 Y168.575 E3.23387
G1 X158.775 Y168.306 E3.30144
G1 X159.625 Y167.924 E3.34322
G1 X160.626 Y167.091 E3.40163
G1 X161.296 Y166.19 E3.45195
G1 X169.269 Y149.015 E4.30105
G1 X169.701 Y147.816 E4.35819
G1 X169.939 Y146.082 E4.43668
G1 X169.939 Y134.568 E4.953
G1 X169.463 Y133.188 E5.01844
G1 X168.376 Y132.433 E5.07778
G1 X153.36 Y127.674 E5.78414
G1 X152.683 Y127.569 E5.81486
G1 X147.295 Y127.57 E6.05646
G1 X146.619 Y127.675 E6.08713
G1 X131.604 Y132.433 E6.79341
G1 X130.481 Y133.268 E6.85617
G1 X130.923 Y133.469 F9000
G1 F2100
G1 X130.534 Y134.568 E6.9084
G1 X130.534 Y146.082 E7.42472
G1 X130.744 Y147.653 E7.4958
G1 X131.157 Y148.805 E7.55068
G1 X139.14 Y166.061 E8.40325
G1 X139.591 Y166.656 E8.4367
G1 X140.505 Y167.437 E8.49062
G1 X141.27 Y167.816 E8.52892
G1 X142.688 Y168.082 E8.59358
G1 X157.292 Y168.082 E9.24846
G1 X158.671 Y167.824 E9.31136
G1 X159.334 Y167.526 E9.34394
G1 X160.256 Y166.765 E9.39756
G1 X160.849 Y165.983 E9.44159
G1 X168.822 Y148.807 E10.29069
G1 X169.236 Y147.653 E10.34567
G1 X169.446 Y146.082 E10.41675
G1 X169.446 Y134.568 E10.93307
G1 X169.157 Y133.605 E10.97814
G1 X168.227 Y132.903 E11.03037
G1 X153.211 Y128.143 E11.73674
G1 X152.683 Y128.062 E11.7607
G1 X147.295 Y128.063 E12.00229
G1 X146.768 Y128.145 E12.02621
G1 X131.753 Y132.903 E12.73249
G1 X130.972 Y133.436 E12.77487
G92 E0
G1 E-0.8 F2400
G1 Z0.41875 F9000
G1 X133.004 Y135.453
G1 Z0.21875
G1 E0 F2400
;WIDTH:0.6
;HEIGHT:0.22
G1 F2100
G1 X133.166 Y135.291 E0.01158
G1 X144.47 Y135.291 E0.58312
G1 X144.598 Y135.365 E0.59061
G1 X147.039 Y139.589 E0.83725
G1 X152.944 Y139.588 E1.13584
G1 X155.38 Y135.365 E1.38234
G1 X155.509 Y135.291 E1.38983
G1 X166.814 Y135.291 E1.96143
G1 X166.976 Y135.453 E1.97301
G1 X166.976 Y146.034 E2.50797
G1 X166.88 Y146.898 E2.55192
G1 X166.873 Y146.928 E2.5535
G1 X166.587 Y147.742 E2.59709
G1 X166.574 Y147.769 E2.59865
G1 X166.116 Y148.499 E2.64221
G1 X166.097 Y148.524 E2.64378
G1 X165.488 Y149.133 E2.68734
G1 X165.463 Y149.152 E2.68892
G1 X164.733 Y149.61 E2.73248
G1 X164.706 Y149.623 E2.73404
G1 X163.889 Y149.91 E2.77777
G1 X163.853 Y149.917 E2.77964
G1 X161.503 Y150.082 E2.89877
G1 X160.824 Y150.262 E2.93427
G1 X160.025 Y150.659 E2.97937
G1 X158.959 Y151.995 E3.06578
G1 X158.941 Y152.026 E3.06762
G1 X158.876 Y152.543 E3.09393
G1 X158.876 Y163.93 E3.66971
G1 X158.875 Y163.948 E3.67061
G1 X158.838 Y164.23 E3.68498
G1 X158.834 Y164.249 E3.68596
G1 X158.745 Y164.574 E3.70299
G1 X158.643 Y164.845 E3.71765
G1 X158.617 Y164.888 E3.72018
G1 X158.44 Y165.09 E3.7338
G1 X158.426 Y165.104 E3.73475
G1 X158.24 Y165.265 E3.74719
G1 X158.023 Y165.425 E3.76085
G1 X157.97 Y165.449 E3.76379
G1 X157.229 Y165.609 E3.80208
G1 X157.2 Y165.612 E3.80357
G1 X142.78 Y165.612 E4.53267
G1 X142.751 Y165.609 E4.53416
G1 X142.005 Y165.448 E4.57271
G1 X141.944 Y165.417 E4.57618
G1 X141.399 Y164.951 E4.61244
G1 X141.354 Y164.881 E4.61666
G1 X141.109 Y163.976 E4.66405
G1 X141.104 Y163.94 E4.6659
G1 X141.1 Y152.429 E5.24787
G1 X140.968 Y151.845 E5.27815
G1 X140.935 Y151.779 E5.28187
G1 X139.96 Y150.662 E5.35685
G1 X139.156 Y150.262 E5.40227
G1 X138.477 Y150.082 E5.43776
G1 X136.127 Y149.917 E5.5569
G1 X136.091 Y149.91 E5.55876
G1 X135.274 Y149.623 E5.6025
G1 X135.247 Y149.61 E5.60406
G1 X134.517 Y149.152 E5.64762
G1 X134.492 Y149.133 E5.64919
G1 X133.883 Y148.524 E5.69276
G1 X133.864 Y148.499 E5.69433
G1 X133.406 Y147.769 E5.73789
G1 X133.393 Y147.742 E5.73945
G1 X133.107 Y146.928 E5.78304
G1 X133.1 Y146.898 E5.78461
G1 X133.004 Y146.034 E5.82856
G1 X133.004 Y135.513 E6.3605
G92 E0
G1 E-0.8 F2400
G1 Z0.41875 F9000
G1 X145.481 Y134.55
G1 Z0.21875
G1 E0 F2400
G1 F2100
G1 X145.481 Y134.402 E0.00749
G1 X147.671 Y130.607 E0.22903
G1 X147.799 Y130.533 E0.23652
G1 X152.18 Y130.532 E0.45803
G1 X152.308 Y130.606 E0.46552
G1 X154.499 Y134.4 E0.68704
G1 X154.499 Y134.548 E0.69453
G1 X152.31 Y138.342 E0.91601
G1 X152.182 Y138.416 E0.9235
G1 X147.8 Y138.417 E1.14506
G1 X147.672 Y138.343 E1.15255
G1 X145.511 Y134.602 E1.37099
M104 S250 ; set temperature
G92 E0
G1 E-0.8 F2400
G1 Z0.41875 F9000
; printing object Voron V0.2 X-Carriage for endstop.stl id:0 copy 0
EXCLUDE_OBJECT_START NAME=Voron_V0_2_X_Carriage_for_endstop_stl_id_0_copy_0
G1 X146.706 Y140.166
G1 Z0.21875
G1 E0 F2400
;TYPE:External perimeter
;HEIGHT:0.21875
G1 X153.277 Y140.165 E0.33051
G1 X155.756 Y135.868 E0.58003
G1 X166.399 Y135.868 E1.11537
G1 X166.399 Y146.009 E1.62547
G1 X166.312 Y146.784 E1.66469
G1 X166.06 Y147.505 E1.70309
G1 X165.654 Y148.151 E1.74147
G1 X165.115 Y148.69 E1.77983
G1 X164.469 Y149.096 E1.81821
G1 X163.754 Y149.346 E1.85629
G1 X161.408 Y149.511 E1.97458
G1 X160.62 Y149.719 E2.01558
G1 X159.654 Y150.2 E2.06983
G1 X158.481 Y151.669 E2.16441
G1 X158.384 Y151.839 E2.17427
G1 X158.299 Y152.506 E2.20808
G1 X158.299 Y163.902 E2.78127
G1 X158.271 Y164.125 E2.79259
G1 X158.132 Y164.568 E2.8159
G1 X157.876 Y164.817 E2.83387
G1 X157.757 Y164.905 E2.84132
G1 X157.153 Y165.035 E2.87238
G1 X142.827 Y165.035 E3.59298
G1 X142.235 Y164.907 E3.62345
G1 X141.875 Y164.6 E3.64723
G1 X141.681 Y163.881 E3.68469
G1 X141.676 Y152.365 E4.26393
G1 X141.515 Y151.649 E4.30084
G1 X141.417 Y151.456 E4.31176
G1 X140.32 Y150.197 E4.39576
G1 X139.36 Y149.719 E4.44967
G1 X138.572 Y149.511 E4.49066
G1 X136.226 Y149.346 E4.60896
G1 X135.511 Y149.096 E4.64704
G1 X134.865 Y148.69 E4.68542
G1 X134.326 Y148.151 E4.72378
G1 X133.92 Y147.505 E4.76215
G1 X133.668 Y146.784 E4.80056
G1 X133.581 Y146.009 E4.83978
G1 X133.581 Y135.868 E5.34988
G1 X144.223 Y135.868 E5.88517
G1 X146.676 Y140.114 E6.13182
;WIPE_START
G1 X146.776 Y140.56 F9000
;WIPE_END
G92 E0
G1 E-0.8 F2400
G1 Z0.41875 F9000
G1 X148.354 Y149.108
G1 Z0.21875
G1 E0 F2400
G1 X148.19 Y149.576 E0.02496
G1 X148.22 Y154.174 E0.25622
G1 X147.966 Y153.945 E0.27341
G1 X147.137 Y153.522 E0.32027
G1 X144.676 Y153.605 E0.44409
G1 X144.541 Y153.652 E0.45131
G1 X143.809 Y154.099 E0.49444
G1 X143.316 Y154.609 E0.53011
G1 X143.145 Y154.819 E0.54373
G1 X142.624 Y155.967 E0.60716
G1 X142.731 Y158.095 E0.71431
G1 X143.197 Y158.923 E0.76209
G1 X143.798 Y159.545 E0.8056
G1 X144.571 Y160.017 E0.85114
G1 X145.457 Y160.28 E0.89763
G1 X147.154 Y160.121 E0.98339
G1 X147.966 Y159.707 E1.02922
G1 X148.21 Y159.488 E1.04569
G1 X148.21 Y164.072 E1.27624
G1 X148.31 Y164.422 E1.29457
G1 X148.419 Y164.569 E1.30375
G1 X148.645 Y164.742 E1.31807
G1 X148.943 Y164.825 E1.33365
G1 X151.063 Y164.818 E1.44024
G1 X151.306 Y164.764 E1.45278
G1 X151.638 Y164.511 E1.47378
G1 X151.79 Y164.082 E1.49668
G1 X151.784 Y159.501 E1.72706
G1 X152.014 Y159.707 E1.74258
G1 X152.826 Y160.121 E1.78841
G1 X154.523 Y160.28 E1.87416
G1 X155.409 Y160.017 E1.92066
G1 X156.182 Y159.545 E1.9662
G1 X156.783 Y158.923 E2.00971
G1 X157.249 Y158.095 E2.05749
G1 X157.356 Y155.967 E2.16464
G1 X156.809 Y154.76 E2.23128
G1 X156.171 Y154.098 E2.27751
G1 X155.386 Y153.623 E2.32368
G1 X154.137 Y153.362 E2.38785
G1 X152.795 Y153.544 E2.45599
G1 X152.014 Y153.945 E2.50015
G1 X151.79 Y154.146 E2.51525
G1 X151.79 Y149.593 E2.74423
G1 X151.726 Y149.306 E2.75905
G1 X151.472 Y148.977 E2.77991
G1 X151.044 Y148.826 E2.80279
G1 X148.913 Y148.826 E2.90998
G1 X148.407 Y149.081 E2.93844
;WIPE_START
G1 X147.955 Y149.08 F9000
;WIPE_END
G92 E0
G1 E-0.8 F2400
G1 Z0.41875 F9000
G1 X146.48 Y140.719
G1 Z0.21875
G1 E0 F2400
;TYPE:Internal perimeter
G1 X153.597 Y140.718 E0.35793
G1 X156.076 Y136.421 E0.60744
G1 X165.846 Y136.421 E1.0989
G1 X165.846 Y145.978 E1.57962
G1 X165.77 Y146.66 E1.61414
G1 X165.558 Y147.263 E1.64628
G1 X165.219 Y147.804 E1.6784
G1 X164.768 Y148.255 E1.71047
G1 X164.227 Y148.594 E1.74258
G1 X163.641 Y148.8 E1.77382
G1 X161.317 Y148.963 E1.89099
G1 X160.424 Y149.199 E1.93745
G1 X159.298 Y149.759 E2.00069
G1 X158.023 Y151.357 E2.10355
G1 X157.849 Y151.66 E2.12112
G1 X157.746 Y152.472 E2.16226
G1 X157.746 Y154.644 E2.27152
G1 X157.397 Y154.719 E2.28948
G1 X157.273 Y154.445 E2.30462
G1 X156.519 Y153.663 E2.35927
G1 X155.591 Y153.101 E2.41383
G1 X154.157 Y152.801 E2.48753
G1 X152.343 Y153.047 E2.57961
G1 X152.343 Y149.533 E2.75637
G1 X152.24 Y149.065 E2.78047
G1 X151.81 Y148.51 E2.81576
G1 X151.138 Y148.273 E2.85159
G1 X148.781 Y148.273 E2.97016
G1 X147.905 Y148.714 E3.01949
G1 X147.636 Y149.484 E3.0605
G1 X147.661 Y153.168 E3.24583
G1 X147.261 Y152.964 E3.2684
G1 X144.572 Y153.055 E3.4037
G1 X144.302 Y153.15 E3.4181
G1 X143.46 Y153.663 E3.46772
G1 X142.902 Y154.241 E3.50813
G1 X142.671 Y154.525 E3.52653
G1 X142.579 Y154.727 E3.53771
G1 X142.23 Y154.652 E3.55566
G1 X142.229 Y152.303 E3.67378
G1 X142.039 Y151.462 E3.71719
G1 X141.88 Y151.145 E3.73503
G1 X140.664 Y149.75 E3.82807
G1 X139.556 Y149.199 E3.89034
G1 X138.663 Y148.963 E3.9368
G1 X136.339 Y148.8 E4.05398
G1 X135.753 Y148.594 E4.08521
G1 X135.212 Y148.255 E4.11733
G1 X134.761 Y147.804 E4.1494
G1 X134.422 Y147.263 E4.18152
G1 X134.21 Y146.66 E4.21366
G1 X134.134 Y145.978 E4.24817
G1 X134.134 Y136.421 E4.7289
G1 X143.904 Y136.421 E5.22032
G1 X146.387 Y140.719 E5.46999
G1 X146.42 Y140.719 E5.47167
G92 E0
G1 E-0.8
G1 Z0.41875 F9000
G1 X137.49 Y146.877
G1 Z0.21875
G1 E0 F2400
;TYPE:External perimeter
G1 X138.312 Y146.657 E0.04277
G1 X138.452 Y146.639 E0.04988
G1 X138.637 Y146.562 E0.05996
G1 X139.112 Y146.198 E0.09007
G1 X139.233 Y146.039 E0.10014
G1 X139.288 Y145.908 E0.10725
G1 X139.702 Y145.19 E0.14896
G1 X139.783 Y144.576 E0.18011
G1 X139.705 Y143.983 E0.2102
G1 X139.469 Y143.411 E0.24133
G1 X138.881 Y142.824 E0.28307
G1 X138.796 Y142.712 E0.29017
G1 X138.637 Y142.591 E0.30024
G1 X138.065 Y142.354 E0.33135
G1 X137.235 Y142.354 E0.37313
G1 X137.095 Y142.335 E0.38023
G1 X136.896 Y142.361 E0.39031
G1 X136.343 Y142.591 E0.42041
G1 X136.184 Y142.712 E0.43048
G1 X136.099 Y142.824 E0.43757
G1 X135.511 Y143.411 E0.47931
G1 X135.275 Y143.983 E0.51044
G1 X135.197 Y144.576 E0.54053
G1 X135.278 Y145.19 E0.57168
G1 X135.692 Y145.908 E0.6134
G1 X135.747 Y146.039 E0.6205
G1 X135.868 Y146.198 E0.63057
G1 X136.343 Y146.562 E0.66069
G1 X136.528 Y146.639 E0.67076
G1 X136.668 Y146.657 E0.67787
G1 X137.432 Y146.862 E0.71763
;WIPE_START
G1 X137.719 Y147.205 F9000
;WIPE_END
G1 X137.399 Y147.425
;TYPE:Internal perimeter
G1 F2400
G1 X137.49 Y147.45 E0.72235
G1 X138.42 Y147.201 E0.77075
G1 X138.596 Y147.178 E0.77971
G1 X138.916 Y147.045 E0.79711
G1 X139.506 Y146.592 E0.83455
G1 X139.717 Y146.318 E0.85193
G1 X139.785 Y146.153 E0.86088
G1 X140.236 Y145.371 E0.9063
G1 X140.341 Y144.576 E0.94665
G1 X140.243 Y143.839 E0.98405
G1 X139.938 Y143.098 E1.02438
G1 X139.298 Y142.459 E1.06984
G1 X139.19 Y142.318 E1.07877
G1 X138.916 Y142.108 E1.09616
G1 X138.176 Y141.8 E1.13647
G1 X137.271 Y141.8 E1.18196
G1 X137.095 Y141.777 E1.1909
G1 X136.751 Y141.823 E1.20832
G1 X136.064 Y142.108 E1.24574
G1 X135.79 Y142.318 E1.26313
G1 X135.682 Y142.459 E1.27206
G1 X135.042 Y143.098 E1.31752
G1 X134.737 Y143.839 E1.35785
G1 X134.639 Y144.576 E1.39525
G1 X134.744 Y145.371 E1.4356
G1 X135.195 Y146.153 E1.48102
G1 X135.263 Y146.318 E1.48997
G1 X135.474 Y146.592 E1.50735
G1 X136.064 Y147.045 E1.54479
G1 X136.384 Y147.178 E1.56219
G1 X136.56 Y147.201 E1.57115
G1 X137.341 Y147.41 E1.61181
G1 X136.998 Y147.89 F9000
G1 F2400
G1 X136.931 Y148.287 E1.63203
G1 X136.452 Y148.253 E1.65622
G1 X135.956 Y148.079 E1.68265
G1 X136.048 Y147.691 E1.70272
G1 X136.452 Y147.745 E1.72321
G1 X136.94 Y147.875 E1.74859
G92 E0
G1 E-0.8
G1 Z0.41875 F9000
G1 X163.049 Y148.287
G1 Z0.21875
G1 E0 F2400
G1 X162.982 Y147.89 E0.02022
G1 X163.528 Y147.745 E0.04862
G1 X163.932 Y147.691 E0.06911
G1 X164.024 Y148.079 E0.08918
G1 X163.528 Y148.253 E0.11561
G1 X163.108 Y148.283 E0.13678
G1 X162.294 Y147.97 F9000
G1 F2400
G1 X162.258 Y148.343 E0.15562
G1 X161.226 Y148.415 E0.20765
G1 X160.228 Y148.679 E0.25957
G1 X158.943 Y149.318 E0.3318
G1 X157.564 Y151.045 E0.44294
G1 X157.314 Y151.481 E0.4682
G1 X157.193 Y152.437 E0.51667
G1 X157.193 Y153.424 E0.56631
G1 X155.797 Y152.579 E0.6484
G1 X154.177 Y152.24 E0.73163
G1 X152.896 Y152.414 E0.79665
G1 X152.896 Y149.472 E0.94461
G1 X152.753 Y148.825 E0.97797
G1 X152.148 Y148.043 E1.02769
G1 X151.233 Y147.72 E1.07649
G1 X148.65 Y147.72 E1.20643
G1 X147.457 Y148.321 E1.2736
G1 X147.082 Y149.392 E1.33067
G1 X147.103 Y152.416 E1.4828
G1 X144.469 Y152.505 E1.61535
G1 X144.064 Y152.648 E1.63694
G1 X142.783 Y153.428 E1.7124
G1 X142.782 Y152.242 E1.77209
G1 X142.564 Y151.274 E1.822
G1 X142.343 Y150.834 E1.84677
G1 X141.009 Y149.304 E1.94884
G1 X139.752 Y148.679 E2.01948
G1 X138.754 Y148.415 E2.0714
G1 X137.722 Y148.343 E2.12343
G1 X137.686 Y147.97 E2.14226
G1 X138.528 Y147.745 E2.18609
G1 X138.741 Y147.716 E2.1969
G1 X139.195 Y147.528 E2.22162
G1 X139.901 Y146.986 E2.26638
G1 X140.2 Y146.597 E2.29109
G1 X140.282 Y146.399 E2.30187
G1 X140.77 Y145.553 E2.351
G1 X140.899 Y144.576 E2.40055
G1 X140.782 Y143.694 E2.44527
G1 X140.407 Y142.784 E2.49479
G1 X139.715 Y142.093 E2.54398
G1 X139.584 Y141.924 E2.55474
G1 X139.195 Y141.625 E2.57945
G1 X138.286 Y141.247 E2.62895
G1 X137.307 Y141.247 E2.67816
G1 X137.095 Y141.219 E2.68894
G1 X136.607 Y141.284 E2.7137
G1 X135.785 Y141.625 E2.75843
G1 X135.396 Y141.924 E2.78314
G1 X135.265 Y142.093 E2.7939
G1 X134.687 Y142.671 E2.83503
G1 X134.687 Y136.974 E3.1216
G1 X143.585 Y136.974 E3.56915
G1 X146.068 Y141.272 E3.81882
G1 X153.916 Y141.271 E4.21358
G1 X156.395 Y136.974 E4.46309
G1 X165.293 Y136.974 E4.91066
G1 X165.293 Y142.671 E5.19723
G1 X164.715 Y142.093 E5.23836
G1 X164.584 Y141.924 E5.24912
G1 X164.195 Y141.625 E5.27383
G1 X163.286 Y141.247 E5.32333
G1 X162.307 Y141.247 E5.37254
