; generated by SuperSlicer 2.4 on 2023-02-07 at 06:20:47 UTC


;
;

;
;
; 

; external perimeters extrusion width = 0.42mm
; perimeters extrusion width = 0.46mm
; infill extrusion width = 0.44mm
; solid infill extrusion width = 0.46mm
; top infill extrusion width = 0.44mm
; support material extrusion width = 0.40mm
; first layer extrusion width = 0.60mm

; object:{"name":"Voron_Design_Cube_v7","id":"Voron_Design_Cube_v7.stl id:0 copy 0","object_center":[150.000000,148.500000,0.000000],"boundingbox_center":[150.000000,148.500000,15.000000],"boundingbox_size":[30.000000,30.000000,30.000000]}
; plater:{"center":[150.000000,148.500000,0.000000],"boundingbox_center":[150.000000,148.500000,15.000000],"boundingbox_size":[30.000000,30.000000,30.000000]}

;TYPE:Custom
M104 S0 ; Stops SuperSlicer from sending temp waits separately


; Pre-Processed for Cancel-Object support by preprocess_cancellation v0.2.0
; 1 known objects
EXCLUDE_OBJECT_DEFINE NAME=Voron_Design_Cube_v7_stl_id_0_copy_0 CENTER=150.251,148.532 POLYGON=[[135.21,133.71],[135.21,163.5],[165.0,163.5],[165.0,133.71]]

M140 S0

print_start EXTRUDER=245 BED=105 CHAMBER=0
M107
G21 ; set units to millimeters
G90 ; use absolute coordinates
M83 ; use relative distances for extrusion
; Filament gcode
;_TOOLCHANGE 0
M107
;LAYER_CHANGE
;Z:0.2
;HEIGHT:0.2
TIMELAPSE_TAKE_FRAME
;BEFORE_LAYER_CHANGE
;0.2


G1 Z0.2 F8400
;AFTER_LAYER_CHANGE
;0.2
G92 E0
G1 E-0.8 F3000
G1 X135.419 Y135.419 F8400
G1 E0.8 F1800
;TYPE:Skirt
;WIDTH:0.44
G1 X133.265 Y137.574 E0.10062
G1 X132.504 Y139.41 E0.06559
G1 X132.504 Y157.59 E0.60028
G1 X133.265 Y159.426 E0.06559
G1 X139.074 Y165.235 E0.27127
G1 X140.91 Y165.996 E0.06559
G1 X159.09 Y165.996 E0.60028
G1 X160.926 Y165.235 E0.06559
G1 X166.735 Y159.426 E0.27127
G1 X167.496 Y157.59 E0.06559
G1 X167.496 Y139.41 E0.60028
G1 X166.735 Y137.574 E0.06559
G1 X160.926 Y131.765 E0.27127
G1 X159.09 Y131.004 E0.06559
G1 X140.91 Y131.004 E0.60028
G1 X139.074 Y131.765 E0.06559
G1 X135.462 Y135.377 E0.16868
G1 X135.743 Y135.658 F8400
G1 F1800
G1 X133.545 Y137.855 E0.1026
G1 X132.901 Y139.41 E0.05556
G1 X132.901 Y157.59 E0.60028
G1 X133.545 Y159.145 E0.05556
G1 X139.355 Y164.955 E0.27127
G1 X140.91 Y165.599 E0.05556
G1 X159.09 Y165.599 E0.60028
G1 X160.645 Y164.955 E0.05556
G1 X166.455 Y159.145 E0.27127
G1 X167.099 Y157.59 E0.05556
G1 X167.099 Y139.41 E0.60028
G1 X166.455 Y137.855 E0.05556
G1 X160.645 Y132.045 E0.27127
G1 X159.09 Y131.401 E0.05556
G1 X140.91 Y131.401 E0.60028
G1 X139.355 Y132.045 E0.05556
G1 X135.785 Y135.615 E0.16669
M104 S245 ; set temperature
G1 E-0.8 F3000
; printing object Voron_Design_Cube_v7.stl id:0 copy 0
EXCLUDE_OBJECT_START NAME=Voron_Design_Cube_v7_stl_id_0_copy_0
G1 X142.92 Y141.822 F8400
G1 E0.8 F1800
;TYPE:Internal perimeter
;WIDTH:0.604
G1 X142.878 Y141.864 E0.00276
G1 X142.375 Y142.443 E0.03541
G1 X141.796 Y143.255 E0.04606
G1 X141.298 Y144.13 E0.0465
G1 X140.893 Y145.052 E0.0465
G1 X140.586 Y146.01 E0.0465
G1 X140.379 Y146.995 E0.04649
G1 X140.275 Y147.997 E0.0465
G1 X140.275 Y149.003 E0.0465
G1 X140.379 Y150.005 E0.0465
G1 X140.586 Y150.99 E0.04649
G1 X140.89 Y151.94 E0.04608
G1 X141.192 Y152.644 E0.03538
G1 X141.54 Y153.322 E0.03521
G1 X142.078 Y154.162 E0.04607
G1 X142.705 Y154.95 E0.0465
G1 X143.409 Y155.669 E0.0465
G1 X144.185 Y156.311 E0.0465
G1 X145.022 Y156.869 E0.0465
G1 X145.904 Y157.334 E0.04603
G1 X146.613 Y157.627 E0.03543
G1 X147.338 Y157.866 E0.03526
G1 X148.309 Y158.09 E0.04602
G1 X149.308 Y158.213 E0.04649
G1 X150.314 Y158.233 E0.04649
G1 X151.317 Y158.148 E0.0465
G1 X152.306 Y157.961 E0.0465
G1 X153.26 Y157.675 E0.04598
G1 X153.973 Y157.388 E0.03548
G1 X154.658 Y157.05 E0.0353
G1 X155.507 Y156.531 E0.04597
G1 X156.307 Y155.919 E0.04649
G1 X157.039 Y155.229 E0.04649
G1 X157.696 Y154.466 E0.0465
G1 X158.271 Y153.639 E0.0465
G1 X158.757 Y152.758 E0.04649
G1 X159.15 Y151.831 E0.04649
G1 X159.445 Y150.869 E0.04649
G1 X159.639 Y149.881 E0.04649
G1 X159.729 Y148.891 E0.0459
G1 X159.729 Y148.109 E0.03615
G1 X159.639 Y147.119 E0.0459
G1 X159.445 Y146.131 E0.04649
G1 X159.153 Y145.181 E0.04592
G1 X158.864 Y144.472 E0.03536
G1 X158.519 Y143.785 E0.03552
G1 X157.994 Y142.94 E0.04593
G1 X157.377 Y142.144 E0.04649
G1 X156.682 Y141.417 E0.0465
G1 X155.915 Y140.765 E0.04649
G1 X155.085 Y140.195 E0.04649
G1 X154.21 Y139.72 E0.04597
G1 X153.508 Y139.419 E0.0353
G1 X152.781 Y139.169 E0.03547
G1 X151.814 Y138.933 E0.04598
G1 X150.817 Y138.797 E0.04649
G1 X149.811 Y138.764 E0.0465
G1 X148.807 Y138.836 E0.04649
G1 X147.815 Y139.01 E0.0465
G1 X146.847 Y139.287 E0.0465
G1 X145.913 Y139.661 E0.0465
G1 X145.022 Y140.131 E0.0465
G1 X144.185 Y140.689 E0.0465
G1 X143.417 Y141.325 E0.04605
G1 X142.962 Y141.78 E0.02969
G1 X143.317 Y142.219 F8400
G1 F1800
G1 X143.288 Y142.247 E0.00184
G1 X142.817 Y142.791 E0.03327
G1 X142.269 Y143.557 E0.0435
G1 X141.8 Y144.382 E0.04381
G1 X141.419 Y145.251 E0.04381
G1 X141.129 Y146.154 E0.04381
G1 X140.934 Y147.082 E0.04381
G1 X140.836 Y148.026 E0.04381
G1 X140.836 Y148.974 E0.04381
G1 X140.934 Y149.918 E0.04381
G1 X141.129 Y150.846 E0.04381
G1 X141.417 Y151.743 E0.04351
G1 X141.7 Y152.405 E0.03325
G1 X142.027 Y153.042 E0.03308
G1 X142.535 Y153.836 E0.04351
G1 X143.125 Y154.578 E0.04381
G1 X143.79 Y155.255 E0.04381
G1 X144.52 Y155.86 E0.04381
G1 X145.309 Y156.387 E0.04381
G1 X146.142 Y156.825 E0.04348
G1 X146.808 Y157.1 E0.03328
G1 X147.489 Y157.325 E0.03312
G1 X148.406 Y157.536 E0.04347
G1 X149.348 Y157.653 E0.04381
G1 X150.296 Y157.671 E0.04381
G1 X151.241 Y157.592 E0.04381
G1 X152.173 Y157.415 E0.04381
G1 X153.074 Y157.145 E0.04344
G1 X153.743 Y156.875 E0.03332
G1 X154.387 Y156.558 E0.03315
G1 X155.189 Y156.067 E0.04343
G1 X155.943 Y155.491 E0.04381
G1 X156.633 Y154.84 E0.04381
G1 X157.252 Y154.122 E0.04381
G1 X157.794 Y153.343 E0.04381
G1 X158.252 Y152.512 E0.04381
G1 X158.622 Y151.639 E0.04381
G1 X158.9 Y150.732 E0.04381
G1 X159.083 Y149.801 E0.04381
G1 X159.168 Y148.866 E0.04338
G1 X159.168 Y148.134 E0.0338
G1 X159.083 Y147.199 E0.04338
G1 X158.9 Y146.268 E0.04381
G1 X158.625 Y145.369 E0.0434
G1 X158.352 Y144.705 E0.03318
G1 X158.029 Y144.059 E0.03335
G1 X157.533 Y143.261 E0.04341
G1 X156.952 Y142.511 E0.04381
G1 X156.296 Y141.825 E0.04381
G1 X155.574 Y141.211 E0.04381
G1 X154.791 Y140.674 E0.04381
G1 X153.965 Y140.226 E0.04344
G1 X153.305 Y139.942 E0.03315
G1 X152.623 Y139.708 E0.03332
G1 X151.71 Y139.485 E0.04344
G1 X150.77 Y139.356 E0.04381
G1 X149.822 Y139.326 E0.04381
G1 X148.875 Y139.393 E0.04381
G1 X147.941 Y139.558 E0.04381
G1 X147.029 Y139.818 E0.04381
G1 X146.149 Y140.171 E0.04381
G1 X145.309 Y140.613 E0.04381
G1 X144.52 Y141.14 E0.04381
G1 X143.795 Y141.74 E0.04349
G1 X143.359 Y142.176 E0.02847
G1 X143.699 Y142.63 F8400
G1 F1800
G1 X143.258 Y143.139 E0.03113
G1 X142.742 Y143.86 E0.04094
G1 X142.302 Y144.634 E0.04113
G1 X141.944 Y145.449 E0.04113
G1 X141.672 Y146.297 E0.04113
G1 X141.489 Y147.169 E0.04113
G1 X141.397 Y148.055 E0.04113
G1 X141.397 Y148.945 E0.04113
G1 X141.489 Y149.831 E0.04113
G1 X141.672 Y150.703 E0.04113
G1 X141.943 Y151.547 E0.04095
G1 X142.208 Y152.166 E0.03112
G1 X142.514 Y152.762 E0.03095
G1 X142.992 Y153.509 E0.04094
G1 X143.546 Y154.206 E0.04113
G1 X144.17 Y154.841 E0.04113
G1 X144.856 Y155.409 E0.04113
G1 X145.597 Y155.904 E0.04113
G1 X146.381 Y156.317 E0.04093
G1 X147.004 Y156.574 E0.03114
G1 X147.64 Y156.784 E0.03097
G1 X148.504 Y156.983 E0.04092
G1 X149.388 Y157.092 E0.04113
G1 X150.278 Y157.11 E0.04113
G1 X151.165 Y157.035 E0.04113
G1 X152.04 Y156.869 E0.04113
G1 X152.889 Y156.615 E0.0409
G1 X153.514 Y156.363 E0.03116
G1 X154.116 Y156.066 E0.03099
G1 X154.872 Y155.604 E0.0409
G1 X155.579 Y155.063 E0.04113
G1 X156.227 Y154.452 E0.04113
G1 X156.808 Y153.777 E0.04113
G1 X157.316 Y153.046 E0.04113
G1 X157.747 Y152.267 E0.04113
G1 X158.094 Y151.447 E0.04113
G1 X158.355 Y150.595 E0.04113
G1 X158.527 Y149.722 E0.04113
G1 X158.607 Y148.84 E0.04087
G1 X158.607 Y148.16 E0.03145
G1 X158.527 Y147.278 E0.04087
G1 X158.355 Y146.405 E0.04113
G1 X158.096 Y145.558 E0.04088
G1 X157.841 Y144.937 E0.03101
G1 X157.539 Y144.333 E0.03118
G1 X157.072 Y143.582 E0.04088
G1 X156.526 Y142.878 E0.04113
G1 X155.911 Y142.234 E0.04113
G1 X155.232 Y141.657 E0.04113
G1 X154.498 Y141.154 E0.04113
G1 X153.72 Y140.731 E0.0409
G1 X153.103 Y140.466 E0.03099
G1 X152.465 Y140.247 E0.03116
G1 X151.605 Y140.037 E0.04091
G1 X150.723 Y139.916 E0.04113
G1 X149.833 Y139.888 E0.04113
G1 X148.944 Y139.951 E0.04113
G1 X148.067 Y140.106 E0.04113
G1 X147.211 Y140.35 E0.04113
G1 X146.384 Y140.681 E0.04113
G1 X145.597 Y141.096 E0.04113
G1 X144.856 Y141.591 E0.04113
G1 X144.173 Y142.156 E0.04094
G1 X143.742 Y142.587 E0.02818
G1 X144.11 Y143.012 F8400
;TYPE:External perimeter
G1 F1800
G1 X143.699 Y143.487 E0.02899
G1 X143.216 Y144.163 E0.03838
G1 X142.804 Y144.886 E0.03845
G1 X142.469 Y145.648 E0.03845
G1 X142.215 Y146.441 E0.03845
G1 X142.044 Y147.256 E0.03845
G1 X141.958 Y148.084 E0.03845
G1 X141.958 Y148.916 E0.03845
G1 X142.044 Y149.744 E0.03845
G1 X142.215 Y150.559 E0.03845
G1 X142.469 Y151.35 E0.03838
G1 X142.716 Y151.927 E0.02899
G1 X143.001 Y152.482 E0.02882
G1 X143.449 Y153.182 E0.03838
G1 X143.967 Y153.834 E0.03845
G1 X144.55 Y154.428 E0.03845
G1 X145.191 Y154.959 E0.03845
G1 X145.884 Y155.421 E0.03845
G1 X146.619 Y155.808 E0.03838
G1 X147.199 Y156.048 E0.02899
G1 X147.792 Y156.243 E0.02883
G1 X148.601 Y156.43 E0.03838
G1 X149.428 Y156.532 E0.03845
G1 X150.26 Y156.548 E0.03845
G1 X151.089 Y156.478 E0.03845
G1 X151.907 Y156.323 E0.03845
G1 X152.703 Y156.085 E0.03837
G1 X153.285 Y155.85 E0.029
G1 X153.845 Y155.574 E0.02883
G1 X154.554 Y155.141 E0.03837
G1 X155.215 Y154.635 E0.03845
G1 X155.821 Y154.064 E0.03845
G1 X156.364 Y153.433 E0.03845
G1 X156.839 Y152.75 E0.03845
G1 X157.241 Y152.021 E0.03844
G1 X157.566 Y151.255 E0.03845
G1 X157.81 Y150.459 E0.03844
G1 X157.97 Y149.642 E0.03845
G1 X158.046 Y148.815 E0.03835
G1 X158.046 Y148.185 E0.0291
G1 X157.97 Y147.358 E0.03835
G1 X157.81 Y146.541 E0.03845
G1 X157.567 Y145.747 E0.03836
G1 X157.33 Y145.169 E0.02885
G1 X157.049 Y144.608 E0.02901
G1 X156.61 Y143.902 E0.03836
G1 X156.1 Y143.244 E0.03845
G1 X155.525 Y142.643 E0.03845
G1 X154.891 Y142.104 E0.03844
G1 X154.204 Y141.633 E0.03845
G1 X153.475 Y141.236 E0.03837
G1 X152.901 Y140.99 E0.02884
G1 X152.307 Y140.786 E0.029
G1 X151.5 Y140.589 E0.03837
G1 X150.675 Y140.476 E0.03845
G1 X149.843 Y140.449 E0.03845
G1 X149.013 Y140.508 E0.03845
G1 X148.193 Y140.653 E0.03845
G1 X147.393 Y140.881 E0.03845
G1 X146.62 Y141.191 E0.03845
G1 X145.884 Y141.579 E0.03845
G1 X145.191 Y142.041 E0.03845
G1 X144.551 Y142.571 E0.03838
G1 X144.153 Y142.97 E0.02604
;WIPE_START
G1 X143.719 Y142.927 F8400
;WIPE_END
G1 X137.085 Y140.232
;TYPE:Internal perimeter
G1 F1800
G1 X141.732 Y135.585 E0.30352
G1 X158.268 Y135.585 E0.76376
G1 X162.915 Y140.232 E0.30352
G1 X162.915 Y156.768 E0.76376
G1 X158.268 Y161.415 E0.30352
G1 X141.732 Y161.415 E0.76376
G1 X137.085 Y156.768 E0.30352
G1 X137.085 Y140.292 E0.76099
G1 X136.524 Y140 F8400
G1 F1800
G1 X141.5 Y135.024 E0.32499
G1 X158.5 Y135.024 E0.78523
G1 X163.476 Y140 E0.32499
G1 X163.476 Y157 E0.78523
G1 X158.5 Y161.976 E0.32499
G1 X141.5 Y161.976 E0.78523
G1 X136.524 Y157 E0.32499
G1 X136.524 Y140.06 E0.78246
G1 X135.963 Y139.767 F8400
G1 F1800
G1 X141.267 Y134.463 E0.34646
G1 X158.733 Y134.463 E0.8067
G1 X164.037 Y139.767 E0.34646
G1 X164.037 Y157.233 E0.8067
G1 X158.733 Y162.537 E0.34646
G1 X141.267 Y162.537 E0.8067
G1 X135.963 Y157.233 E0.34646
G1 X135.963 Y139.827 E0.80393
G1 X135.402 Y139.535 F8400
;TYPE:External perimeter
G1 F1800
G1 X141.035 Y133.902 E0.36792
G1 X158.965 Y133.902 E0.82817
G1 X164.598 Y139.535 E0.36792
G1 X164.598 Y157.465 E0.82817
G1 X158.965 Y163.098 E0.36792
G1 X141.035 Y163.098 E0.82817
G1 X135.402 Y157.465 E0.36792
G1 X135.402 Y139.595 E0.82539
;WIPE_START
G1 X135.802 Y139.535 F8400
;WIPE_END
G1 X157.841 Y135.754
;TYPE:Solid infill
;WIDTH:0.608802
G1 F1800
G1 X162.746 Y140.659 E0.32295
G1 X162.746 Y141.452 F8400
G1 F1800
G1 X157.048 Y135.754 E0.37519
G1 X156.254 Y135.754 F8400
G1 F1800
G1 X162.746 Y142.246 E0.42744
G1 X162.746 Y143.039 F8400
G1 F1800
G1 X155.461 Y135.754 E0.47968
G1 X154.667 Y135.754 F8400
G1 F1800
G1 X162.746 Y143.833 E0.53192
G1 X162.746 Y144.626 F8400
G1 F1800
G1 X153.874 Y135.754 E0.58416
G1 X153.08 Y135.754 F8400
G1 F1800
G1 X162.746 Y145.42 E0.6364
G1 X162.746 Y146.213 F8400
G1 F1800
G1 X152.287 Y135.754 E0.68864
G1 X151.493 Y135.754 F8400
G1 F1800
G1 X162.746 Y147.007 E0.74089
G1 X162.746 Y147.8 F8400
G1 F1800
G1 X158.683 Y143.737 E0.26752
G1 X159.328 Y145.175 F8400
G1 F1800
G1 X162.746 Y148.594 E0.22508
G1 X162.746 Y149.387 F8400
G1 F1800
G1 X159.647 Y146.288 E0.20406
G1 X159.82 Y147.254 F8400
G1 F1800
G1 X162.746 Y150.181 E0.19266
G1 X162.746 Y150.974 F8400
G1 F1800
G1 X159.897 Y148.125 E0.1876
G1 X159.895 Y148.917 F8400
G1 F1800
G1 X162.746 Y151.768 E0.18771
G1 X162.746 Y152.561 F8400
G1 F1800
G1 X159.829 Y149.644 E0.19205
G1 X159.722 Y150.33 F8400
G1 F1800
G1 X162.746 Y153.355 E0.19912
G1 X162.746 Y154.148 F8400
G1 F1800
G1 X159.585 Y150.986 E0.20816
G1 X159.399 Y151.594 F8400
G1 F1800
G1 X162.746 Y154.942 E0.22041
G1 X162.746 Y155.735 F8400
G1 F1800
G1 X159.187 Y152.175 E0.23436
G1 X158.951 Y152.733 F8400
G1 F1800
G1 X162.746 Y156.529 E0.24991
G1 X162.435 Y157.01 F8400
G1 F1800
G1 X158.677 Y153.252 E0.24742
G1 X158.391 Y153.761 F8400
G1 F1800
G1 X162.038 Y157.407 E0.24007
G1 X161.641 Y157.804 F8400
G1 F1800
G1 X158.066 Y154.229 E0.23538
G1 X157.729 Y154.685 F8400
G1 F1800
G1 X161.244 Y158.2 E0.23144
G1 X160.848 Y158.597 F8400
G1 F1800
G1 X157.362 Y155.111 E0.22949
G1 X156.976 Y155.519 F8400
G1 F1800
G1 X160.451 Y158.994 E0.22877
G1 X160.054 Y159.391 F8400
G1 F1800
G1 X156.568 Y155.904 E0.22953
G1 X156.134 Y156.264 F8400
G1 F1800
G1 X159.657 Y159.787 E0.232
G1 X159.261 Y160.184 F8400
G1 F1800
G1 X155.684 Y156.607 E0.23549
G1 X155.2 Y156.916 F8400
G1 F1800
G1 X158.864 Y160.581 E0.24126
G1 X158.467 Y160.978 F8400
G1 F1800
G1 X154.705 Y157.215 E0.24771
G1 X154.173 Y157.477 F8400
G1 F1800
G1 X157.943 Y161.246 E0.24818
G1 X157.149 Y161.246 F8400
G1 F1800
G1 X153.616 Y157.713 E0.23262
G1 X153.029 Y157.92 F8400
G1 F1800
G1 X156.356 Y161.246 E0.21901
G1 X155.562 Y161.246 F8400
G1 F1800
G1 X152.418 Y158.103 E0.20698
G1 X151.758 Y158.236 F8400
G1 F1800
G1 X154.769 Y161.246 E0.19821
G1 X153.975 Y161.246 F8400
G1 F1800
G1 X151.067 Y158.338 E0.19148
G1 X150.335 Y158.4 F8400
G1 F1800
G1 X153.182 Y161.246 E0.18742
G1 X152.388 Y161.246 F8400
G1 F1800
G1 X149.527 Y158.386 E0.18835
G1 X148.65 Y158.301 F8400
G1 F1800
G1 X151.595 Y161.246 E0.19389
G1 X150.801 Y161.246 F8400
G1 F1800
G1 X147.67 Y158.115 E0.20614
G1 X146.54 Y157.778 F8400
G1 F1800
G1 X150.008 Y161.246 E0.22833
G1 X149.214 Y161.246 F8400
G1 F1800
G1 X145.033 Y157.065 E0.27527
G1 E-0.8 F3000
G1 X154.79 Y139.844 F8400
G1 E0.8 F1800
G1 X150.7 Y135.754 E0.26929
G1 X149.906 Y135.754 F8400
G1 F1800
G1 X153.333 Y139.181 E0.22563
G1 X152.217 Y138.858 F8400
G1 F1800
G1 X149.113 Y135.754 E0.20438
G1 X148.319 Y135.754 F8400
G1 F1800
G1 X151.252 Y138.686 E0.19308
G1 X150.387 Y138.614 F8400
G1 F1800
G1 X147.526 Y135.754 E0.18835
G1 X146.732 Y135.754 F8400
G1 F1800
G1 X149.59 Y138.611 E0.18814
G1 X148.849 Y138.664 F8400
G1 F1800
G1 X145.939 Y135.754 E0.19161
G1 X145.145 Y135.754 F8400
G1 F1800
G1 X148.169 Y138.777 E0.19907
G1 X147.519 Y138.92 F8400
G1 F1800
G1 X144.352 Y135.754 E0.20848
G1 X143.558 Y135.754 F8400
G1 F1800
G1 X146.901 Y139.096 E0.22008
G1 X146.326 Y139.314 F8400
G1 F1800
G1 X142.765 Y135.754 E0.23444
G1 X141.971 Y135.754 F8400
G1 F1800
G1 X145.766 Y139.548 E0.24985
G1 X145.247 Y139.822 F8400
G1 F1800
G1 X141.49 Y136.065 E0.24734
G1 X141.093 Y136.462 F8400
G1 F1800
G1 X144.745 Y140.114 E0.2404
G1 X144.269 Y140.431 F8400
G1 F1800
G1 X140.696 Y136.859 E0.23519
G1 X140.3 Y137.256 F8400
G1 F1800
G1 X143.818 Y140.774 E0.23166
G1 X143.384 Y141.134 F8400
G1 F1800
G1 X139.903 Y137.652 E0.22921
G1 X139.506 Y138.049 F8400
G1 F1800
G1 X142.981 Y141.523 E0.22875
G1 X142.596 Y141.932 F8400
G1 F1800
G1 X139.109 Y138.446 E0.22955
G1 X138.713 Y138.843 F8400
G1 F1800
