; generated by SuperSlicer 2.5.59 on 2023-04-15 at 15:15:20 UTC


;
;

;
;
; 

; external perimeters extrusion width = 0.46mm
; perimeters extrusion width = 0.46mm
; infill extrusion width = 0.46mm
; solid infill extrusion width = 0.46mm
; top infill extrusion width = 0.46mm
; support material extrusion width = 0.46mm
; first layer extrusion width = 0.58mm

; object:{"name":"voron 2","id":"voron 2.4r2 Z indicator v5.stl id:0 copy 0","object_center":[134.875466,131.565826,0.000000],"boundingbox_center":[134.875466,131.565826,6.750000],"boundingbox_size":[24.249063,27.868347,13.500000]}
EXCLUDE_OBJECT_DEFINE NAME=voron_2_4r2_Z_indicator_v5_stl_id_0_copy_0 CENTER=134.875466,131.565826 POLYGON=[[122.750936,124.781096],[122.751864,124.705336],[122.771544,124.632176],[122.808768,124.566184],[122.861208,124.511496],[122.925568,124.471536],[134.695552,117.686296],[134.762176,117.650248],[134.835616,117.631656],[134.911360,117.631656],[134.984800,117.650248],[135.051424,117.686296],[146.825376,124.471536],[146.889488,124.511568],[146.941744,124.566152],[146.978928,124.631952],[146.998768,124.704872],[147.000000,124.780432],[146.996704,138.338352],[146.988288,138.444000],[146.976640,138.488992],[146.959088,138.529744],[146.934896,138.566960],[146.903312,138.601408],[146.903216,138.601488],[146.814784,138.665104],[135.040832,145.447696],[134.977616,145.482192],[134.907840,145.500000],[134.835824,145.500000],[134.766048,145.482192],[134.702832,145.447696],[122.936152,138.665776],[122.849208,138.603952],[122.847256,138.602160],[122.817704,138.570576],[122.815424,138.567696],[122.792912,138.533888],[122.791048,138.530496],[122.774464,138.492912],[122.773392,138.489824],[122.762176,138.447232],[122.761744,138.444944],[122.753584,138.339664],[122.750936,124.781096]]
; object:{"name":"voron 2","id":"voron 2.4r2 Z indicator v5.stl id:0 copy 1","object_center":[165.124534,131.565826,0.000000],"boundingbox_center":[165.124534,131.565826,6.750000],"boundingbox_size":[24.249063,27.868347,13.500000]}
EXCLUDE_OBJECT_DEFINE NAME=voron_2_4r2_Z_indicator_v5_stl_id_0_copy_1 CENTER=165.124534,131.565826 POLYGON=[[153.000000,124.781096],[153.000912,124.705336],[153.020592,124.632176],[153.057824,124.566184],[153.110256,124.511496],[153.174624,124.471536],[164.944608,117.686296],[165.011232,117.650248],[165.084672,117.631656],[165.160416,117.631656],[165.233856,117.650248],[165.300480,117.686296],[177.074432,124.471536],[177.138528,124.511568],[177.190800,124.566152],[177.227984,124.631952],[177.247824,124.704872],[177.249056,124.780432],[177.245760,138.338352],[177.237328,138.444016],[177.225696,138.488992],[177.208144,138.529744],[177.183952,138.566960],[177.152352,138.601408],[177.152272,138.601488],[177.063840,138.665104],[165.289888,145.447696],[165.226672,145.482192],[165.156896,145.500000],[165.084880,145.500000],[165.015104,145.482192],[164.951888,145.447696],[153.185216,138.665776],[153.098256,138.603952],[153.096320,138.602160],[153.066752,138.570576],[153.064480,138.567696],[153.041968,138.533888],[153.040096,138.530496],[153.023520,138.492912],[153.022448,138.489824],[153.011232,138.447232],[153.010800,138.444944],[153.002640,138.339664],[153.000000,124.781096]]
; object:{"name":"voron 2","id":"voron 2.4r2 Z indicator v5.stl id:0 copy 2","object_center":[134.875466,165.434174,0.000000],"boundingbox_center":[134.875466,165.434174,6.750000],"boundingbox_size":[24.249063,27.868347,13.500000]}
EXCLUDE_OBJECT_DEFINE NAME=voron_2_4r2_Z_indicator_v5_stl_id_0_copy_2 CENTER=134.875466,165.434174 POLYGON=[[122.750936,158.649440],[122.751864,158.573680],[122.771544,158.500512],[122.808768,158.434544],[122.861208,158.379856],[122.925568,158.339872],[134.695552,151.554640],[134.762176,151.518592],[134.835616,151.500000],[134.911360,151.500000],[134.984800,151.518592],[135.051424,151.554640],[146.825376,158.339872],[146.889488,158.379920],[146.941744,158.434512],[146.978928,158.500288],[146.998768,158.573232],[147.000000,158.648784],[146.996704,172.206688],[146.988288,172.312352],[146.976640,172.357344],[146.959088,172.398080],[146.934896,172.435296],[146.903312,172.469760],[146.903216,172.469840],[146.814784,172.533440],[135.040832,179.316048],[134.977616,179.350544],[134.907840,179.368352],[134.835824,179.368352],[134.766048,179.350544],[134.702832,179.316048],[122.936152,172.534112],[122.849208,172.472304],[122.847256,172.470512],[122.817704,172.438912],[122.815424,172.436048],[122.792912,172.402240],[122.791048,172.398848],[122.774464,172.361248],[122.773392,172.358176],[122.762176,172.315584],[122.761744,172.313296],[122.753584,172.208016],[122.750936,158.649440]]
; object:{"name":"voron 2","id":"voron 2.4r2 Z indicator v5.stl id:0 copy 3","object_center":[165.124534,165.434175,0.000000],"boundingbox_center":[165.124534,165.434175,6.750000],"boundingbox_size":[24.249063,27.868347,13.500000]}
EXCLUDE_OBJECT_DEFINE NAME=voron_2_4r2_Z_indicator_v5_stl_id_0_copy_3 CENTER=165.124534,165.434175 POLYGON=[[153.000000,158.649440],[153.000912,158.573680],[153.020592,158.500512],[153.057824,158.434544],[153.110256,158.379856],[153.174624,158.339872],[164.944608,151.554640],[165.011232,151.518592],[165.084672,151.500000],[165.160416,151.500000],[165.233856,151.518592],[165.300480,151.554640],[177.074432,158.339872],[177.138528,158.379920],[177.190800,158.434512],[177.227984,158.500288],[177.247824,158.573232],[177.249056,158.648784],[177.245760,172.206688],[177.237328,172.312368],[177.225696,172.357344],[177.208144,172.398080],[177.183952,172.435296],[177.152352,172.469760],[177.152272,172.469840],[177.063840,172.533440],[165.289888,179.316048],[165.226672,179.350544],[165.156896,179.368352],[165.084880,179.368352],[165.015104,179.350544],[164.951888,179.316048],[153.185216,172.534112],[153.098256,172.472304],[153.096320,172.470512],[153.066752,172.438912],[153.064480,172.436048],[153.041968,172.402240],[153.040096,172.398848],[153.023520,172.361248],[153.022448,172.358176],[153.011232,172.315584],[153.010800,172.313296],[153.002640,172.208016],[153.000000,158.649440]]
; plater:{"center":[150.000000,148.500000,0.000000],"boundingbox_center":[150.000000,148.500000,6.750000],"boundingbox_size":[54.498131,61.736696,13.500000]}

;TYPE:Custom
SET_PRINT_STATS_INFO TOTAL_LAYER=68

M104 S0 ; Stops SuperSlicer from sending temp waits separately

M109 S0

M140 S0

print_start EXTRUDER=255 BED=105 CHAMBER=0
M107
G21 ; set units to millimeters
G90 ; use absolute coordinates
M82 ; use absolute distances for extrusion
G92 E0
; Filament gcode
;_TOOLCHANGE 0
M107
;LAYER_CHANGE
;Z:0.2
;HEIGHT:0.2
TIMELAPSE_TAKE_FRAME
;BEFORE_LAYER_CHANGE
;0.2


G1 Z0.2 F12000
SET_PRINT_STATS_INFO CURRENT_LAYER=1
;AFTER_LAYER_CHANGE
;0.2
G1 E-0.7 F2520
G1 Z0.4 F12000
M204 S2000
G1 X117.972 Y119.807
G1 Z0.2
G1 E0 F2340
;TYPE:Skirt
;WIDTH:0.54
G1 F3600
G1 X117.31 Y120.59 E0.04239
G1 X116.529 Y121.974 E0.10807
G1 X116.203 Y122.934 E0.14997
G1 X116.008 Y124.492 E0.21486
G1 X116.011 Y172.368 E2.19369
G1 X116.082 Y173.374 E2.23535
G1 X116.231 Y174.07 E2.2648
G1 X116.662 Y175.29 E2.31829
G1 X117.109 Y176.092 E2.3562
G1 X117.938 Y177.125 E2.41097
G1 X118.488 Y177.644 E2.44222
G1 X119.404 Y178.281 E2.48833
G1 X131.959 Y185.482 E3.08656
G1 X133.074 Y185.921 E3.13608
G1 X134.078 Y186.111 E3.17831
G1 X165.915 Y186.111 E4.49423
G1 X166.919 Y185.921 E4.53646
G1 X168.399 Y185.307 E4.60268
G1 X180.838 Y178.125 E5.19636
G1 X181.558 Y177.607 E5.23301
G1 X182.12 Y177.065 E5.26528
G1 X183.114 Y175.788 E5.33216
G1 X183.641 Y174.632 E5.38466
G1 X183.988 Y172.597 E5.47
G1 X183.992 Y124.498 E7.45804
G1 X183.798 Y122.936 E7.52311
G1 X183.47 Y121.972 E7.56521
G1 X182.689 Y120.59 E7.63082
G1 X182.031 Y119.812 E7.67291
G1 X180.718 Y118.789 E7.7417
G1 X167.9 Y111.404 E8.35317
G1 X166.87 Y111.059 E8.39806
G1 X164.914 Y110.815 E8.47953
G1 X134.325 Y110.794 E9.74382
G1 X133.328 Y110.982 E9.78575
G1 X131.59 Y111.694 E9.86339
G1 X119.283 Y118.788 E10.45052
G1 X118.019 Y119.77 E10.51668
G1 X118.325 Y120.162 F12000
G1 F3600
G1 X118.285 Y120.193 E10.51879
G1 X117.743 Y120.835 E10.5535
G1 X116.962 Y122.219 E10.61918
G1 X116.695 Y123.004 E10.65349
G1 X116.505 Y124.492 E10.71547
G1 X116.508 Y172.368 E12.69429
G1 X116.699 Y173.905 E12.75829
G1 X117.131 Y175.125 E12.81178
G1 X117.496 Y175.781 E12.84282
G1 X118.325 Y176.814 E12.89759
G1 X118.776 Y177.239 E12.92319
G1 X119.652 Y177.85 E12.96733
G1 X132.141 Y185.02 E13.56253
G1 X133.256 Y185.458 E13.61205
G1 X134.078 Y185.614 E13.64662
G1 X165.915 Y185.614 E14.96255
G1 X166.737 Y185.458 E14.99712
G1 X168.151 Y184.876 E15.06031
G1 X180.548 Y177.721 E15.65192
G1 X181.728 Y176.76 E15.71484
G1 X182.722 Y175.483 E15.78172
G1 X183.153 Y174.537 E15.8247
G1 X183.491 Y172.597 E15.90608
G1 X183.495 Y124.498 E17.89411
G1 X183.305 Y123.006 E17.95629
G1 X183.037 Y122.216 E17.99076
G1 X182.256 Y120.835 E18.05637
G1 X181.718 Y120.197 E18.09083
G1 X180.47 Y119.22 E18.15634
G1 X167.651 Y111.835 E18.76781
G1 X166.808 Y111.553 E18.80456
G1 X164.852 Y111.309 E18.88604
G1 X134.325 Y111.291 E20.14778
G1 X133.509 Y111.445 E20.18211
G1 X131.838 Y112.124 E20.25666
G1 X119.532 Y119.219 E20.84379
G1 X118.373 Y120.125 E20.90459
G1 X118.68 Y120.515 F12000
G1 F3600
G1 X118.598 Y120.579 E20.90889
G1 X118.176 Y121.079 E20.93591
G1 X117.395 Y122.463 E21.0016
G1 X117.187 Y123.075 E21.02831
G1 X117.002 Y124.492 E21.08739
G1 X117.005 Y172.368 E23.0662
G1 X117.168 Y173.739 E23.12326
G1 X117.6 Y174.959 E23.17675
G1 X117.884 Y175.47 E23.20092
G1 X119.064 Y176.834 E23.27548
G1 X119.9 Y177.419 E23.31767
G1 X132.323 Y184.557 E23.90984
G1 X133.438 Y184.996 E23.95936
G1 X134.078 Y185.117 E23.98628
G1 X165.915 Y185.117 E25.3022
G1 X166.555 Y184.996 E25.32912
G1 X167.902 Y184.445 E25.38928
G1 X180.257 Y177.318 E25.97882
G1 X181.336 Y176.454 E26.03591
G1 X182.329 Y175.178 E26.10278
G1 X182.665 Y174.441 E26.13625
G1 X182.994 Y172.597 E26.21367
G1 X182.998 Y124.498 E28.20169
G1 X182.813 Y123.076 E28.26099
G1 X182.604 Y122.461 E28.28783
G1 X181.823 Y121.079 E28.35343
G1 X181.404 Y120.583 E28.38027
G1 X180.222 Y119.651 E28.4425
G1 X167.403 Y112.266 E29.05396
G1 X166.747 Y112.046 E29.08258
G1 X164.791 Y111.802 E29.16406
G1 X134.325 Y111.789 E30.42326
G1 X133.69 Y111.908 E30.44999
G1 X132.087 Y112.555 E30.52144
G1 X119.78 Y119.65 E31.10857
G1 X118.727 Y120.478 E31.16396
G92 E0
G1 E-0.7 F2520
M204 S6000
G1 Z0.4 F12000
; acceleration to travel
M204 S7000
G1 X152.545 Y165.252
; decel to extrusion
M204 S2000
G1 X162.208 Y178.044
; end travel
G1 Z0.2
G1 E0 F2340
;WIDTH:0.58
G1 F3600
G1 X164.835 Y179.559 E0.13542
G1 X165.034 Y179.637 E0.14497
G1 X165.208 Y179.637 E0.15273
G1 X165.407 Y179.559 E0.16228
G1 X167.976 Y178.079 E0.2947
G1 X168.168 Y178.542 E0.31711
G1 X168.277 Y179.368 E0.35433
G1 X168.168 Y180.195 E0.39154
G1 X167.849 Y180.964 E0.42875
G1 X167.342 Y181.625 E0.46597
G1 X167.071 Y181.834 E0.48125
G1 X166.681 Y182.133 E0.50318
G1 X165.911 Y182.452 E0.54039
G1 X165.085 Y182.56 E0.57761
G1 X164.259 Y182.452 E0.61482
G1 X163.489 Y182.133 E0.65204
G1 X162.828 Y181.625 E0.68925
G1 X162.32 Y180.964 E0.72646
G1 X162.002 Y180.195 E0.76368
G1 X161.893 Y179.368 E0.80089
G1 X162.002 Y178.542 E0.8381
G1 X162.078 Y178.358 E0.84699
G1 X162.185 Y178.1 E0.85949
G1 X161.988 Y178.85 F12000
G1 F3600
G1 X163.089 Y178.85 E0.90867
G1 X164.021 Y179.387 E0.9567
G1 X162.155 Y179.387 E1.04002
G1 X162.226 Y179.924 E1.06422
G1 X167.944 Y179.924 E1.31956
G1 X168.014 Y179.387 E1.34375
G1 X166.221 Y179.387 E1.42385
G1 X167.153 Y178.85 E1.4719
G1 X168.182 Y178.85 E1.51782
; acceleration to travel
M204 S7000
G1 X168.063 Y180.103 F12000
; decel to extrusion
M204 S2000
G1 X168.029 Y180.461
; end travel
G1 F3600
G1 X162.391 Y180.461 E1.76958
G1 X162.546 Y180.834 E1.78762
G1 X162.672 Y180.998 E1.79685
G1 X167.498 Y180.998 E2.0124
G1 X167.158 Y181.442 E2.03735
G1 X167.036 Y181.535 E2.04424
G1 X163.134 Y181.535 E2.21849
G1 X163.619 Y181.908 E2.24579
G1 X164.017 Y182.073 E2.26504
G1 X166.715 Y182.073 E2.38554
G92 E0
G1 E-0.7 F2520
M204 S6000
G1 Z0.4 F12000
; acceleration to travel
M204 S7000
G1 X144.403 Y179.969
; decel to extrusion
M204 S2000
G1 X138.028 Y179.368
; end travel
G1 Z0.2
G1 E0 F2340
G1 F3600
G1 X137.919 Y180.195 E0.03721
G1 X137.6 Y180.964 E0.07443
G1 X137.093 Y181.625 E0.11164
G1 X136.821 Y181.834 E0.12692
G1 X136.432 Y182.133 E0.14885
G1 X135.662 Y182.452 E0.18607
G1 X134.836 Y182.56 E0.22328
G1 X134.01 Y182.452 E0.2605
G1 X133.24 Y182.133 E0.29771
G1 X132.579 Y181.625 E0.33492
G1 X132.071 Y180.964 E0.37214
G1 X131.753 Y180.195 E0.40935
G1 X131.644 Y179.368 E0.44656
G1 X131.753 Y178.542 E0.48378
G1 X131.829 Y178.358 E0.49267
G1 X131.959 Y178.044 E0.50784
G1 X134.586 Y179.559 E0.64326
G1 X134.785 Y179.637 E0.65281
G1 X134.959 Y179.637 E0.66057
G1 X135.158 Y179.559 E0.67011
G1 X137.727 Y178.079 E0.80254
G1 X137.919 Y178.542 E0.82495
G1 X138.02 Y179.309 E0.85949
G1 X137.933 Y178.85 F12000
G1 F3600
G1 X136.904 Y178.85 E0.90541
G1 X135.972 Y179.387 E0.95346
G1 X137.765 Y179.387 E1.03356
G1 X137.695 Y179.924 E1.05775
G1 X131.977 Y179.924 E1.31309
G1 X131.906 Y179.387 E1.33729
G1 X133.772 Y179.387 E1.42061
G1 X132.84 Y178.85 E1.46864
G1 X131.739 Y178.85 E1.51782
G92 E0
G1 E-0.7 F2520
M204 S6000
G1 Z0.4 F12000
; acceleration to travel
M204 S7000
G1 X135.416 Y181.356
; decel to extrusion
M204 S2000
G1 X136.466 Y182.073
; end travel
G1 Z0.2
G1 E0 F2340
G1 F3600
G1 X133.768 Y182.073 E0.1205
G1 X133.37 Y181.908 E0.13975
G1 X132.885 Y181.535 E0.16704
G1 X136.787 Y181.535 E0.3413
G1 X136.909 Y181.442 E0.34818
G1 X137.249 Y180.998 E0.37313
G1 X132.422 Y180.998 E0.58869
G1 X132.297 Y180.834 E0.59792
G1 X132.142 Y180.461 E0.61595
G1 X137.78 Y180.461 E0.86771
G92 E0
G1 E-0.7 F2520
M204 S6000
G1 Z0.4 F12000
; acceleration to travel
M204 S7000
G1 X166.544 Y175.567
; decel to extrusion
M204 S2000
G1 X174.762 Y174.169
; end travel
G1 Z0.2
G1 E0 F2340
G1 F3600
G1 X177.21 Y172.759 E0.12612
G1 X177.341 Y172.665 E0.13333
G1 X177.459 Y172.513 E0.14196
G1 X177.514 Y172.233 E0.15469
G1 X177.515 Y169.05 E0.29683
G1 X178.072 Y169.123 E0.32191
G1 X178.842 Y169.442 E0.35913
G1 X179.503 Y169.95 E0.39634
G1 X180.01 Y170.611 E0.43355
G1 X180.329 Y171.381 E0.47077
G1 X180.438 Y172.207 E0.50798
G1 X180.329 Y173.033 E0.54519
G1 X180.01 Y173.803 E0.58241
G1 X179.503 Y174.464 E0.61962
G1 X179.231 Y174.672 E0.6349
G1 X178.842 Y174.971 E0.65683
G1 X178.072 Y175.29 E0.69405
G1 X177.246 Y175.399 E0.73126
G1 X176.42 Y175.29 E0.76848
G1 X175.65 Y174.971 E0.80569
G1 X174.989 Y174.464 E0.8429
G1 X174.976 Y174.448 E0.84381
G1 X174.799 Y174.217 E0.85681
G92 E0
G1 E-0.7 F2520
M204 S6000
G1 Z0.4 F12000
; acceleration to travel
M204 S7000
G1 X178.195 Y174.584
; decel to extrusion
M204 S2000
G1 X179.165 Y174.689
; end travel
G1 Z0.2
G1 E0 F2340
G1 F3600
G1 X175.706 Y174.689 E0.15445
G1 X175.172 Y174.28 E0.18449
G1 X175.146 Y174.246 E0.18643
G1 X175.308 Y174.152 E0.19477
G1 X179.417 Y174.152 E0.37827
G1 X179.785 Y173.673 E0.40527
G1 X179.809 Y173.615 E0.40804
G1 X176.24 Y173.615 E0.5674
G1 X177.173 Y173.078 E0.61545
G1 X180.031 Y173.078 E0.74311
G1 X180.078 Y172.966 E0.74856
G1 X180.134 Y172.541 E0.76768
G1 X177.716 Y172.541 E0.87563
G1 X177.772 Y172.258 E0.88852
G1 X177.772 Y172.004 E0.89986
G1 X180.151 Y172.004 E1.0061
G1 X180.08 Y171.467 E1.03029
G1 X177.772 Y171.467 E1.13337
G1 X177.772 Y170.93 E1.15735
G1 X179.863 Y170.93 E1.25073
G1 X179.785 Y170.741 E1.25988
G1 X179.518 Y170.393 E1.27946
G1 X177.773 Y170.393 E1.35741
G1 X177.773 Y169.856 E1.3814
G1 X179.337 Y169.856 E1.45123
G92 E0
G1 E-0.7 F2520
M204 S6000
G1 Z0.4 F12000
; acceleration to travel
M204 S7000
G1 X156.666 Y171.684
; decel to extrusion
M204 S2000
G1 X150.189 Y172.207
; end travel
G1 Z0.2
G1 E0 F2340
G1 F3600
G1 X150.08 Y173.033 E0.03721
G1 X149.761 Y173.803 E0.07443
G1 X149.254 Y174.464 E0.11164
G1 X148.982 Y174.672 E0.12692
G1 X148.593 Y174.971 E0.14885
G1 X147.823 Y175.29 E0.18607
G1 X146.997 Y175.399 E0.22328
G1 X146.171 Y175.29 E0.2605
G1 X145.401 Y174.971 E0.29771
G1 X144.74 Y174.464 E0.33492
G1 X144.727 Y174.448 E0.33583
G1 X144.513 Y174.169 E0.35151
G1 X146.961 Y172.759 E0.47764
G1 X147.091 Y172.665 E0.48484
