; generated by SuperSlicer 2.4 on 2023-02-01 at 14:09:25 UTC


;
;

;
;
; 

; external perimeters extrusion width = 0.42mm
; perimeters extrusion width = 0.45mm
; infill extrusion width = 0.45mm
; solid infill extrusion width = 0.45mm
; top infill extrusion width = 0.42mm
; first layer extrusion width = 0.62mm

; object:{"name":"VT","id":"VT.913.stl id:0 copy 0","object_center":[141.243250,170.675071,0.000000],"boundingbox_center":[141.243250,170.675071,4.000000],"boundingbox_size":[143.685537,25.868184,8.000000]}
; plater:{"center":[141.243250,170.675071,0.000000],"boundingbox_center":[141.243250,170.675071,4.000000],"boundingbox_size":[143.685537,25.868184,8.000000]}

;TYPE:Custom
M104 S0 ; Stops SuperSlicer from sending temp waits separately


; Pre-Processed for Cancel-Object support by preprocess_cancellation v0.2.0
; 1 known objects
EXCLUDE_OBJECT_DEFINE NAME=VT_913_stl_id_0_copy_0 CENTER=141.155,171.992 POLYGON=[[69.61,157.951],[69.61,183.399],[212.876,183.399],[212.876,157.951]]

M140 S0

print_start EXTRUDER=248 BED=105 CHAMBER=0
M107
G21 ; set units to millimeters
G90 ; use absolute coordinates
M83 ; use relative distances for extrusion
; Filament gcode
;_TOOLCHANGE 0
M107
;LAYER_CHANGE
;Z:0.2
;HEIGHT:0.2
TIMELAPSE_TAKE_FRAME
;BEFORE_LAYER_CHANGE
;0.2


G1 E-0.4 F2400
G1 Z0.3 F9000
TIMELAPSE_TAKE_FRAME
;BEFORE_LAYER_CHANGE
;0.2
G92 E0
G1 Z0.5
G1 X80.133 Y157.085
G1 Z0.2
G1 E0.4 F2280
;TYPE:Skirt
;WIDTH:0.52
G1 F1950
G1 X78.972 Y157.797 E0.05404
G1 X71.793 Y163.053 E0.35295
G1 X70.42 Y164.382 E0.07581
G1 X69.428 Y165.73 E0.06641
G1 X69.009 Y166.564 E0.03699
G1 X68.705 Y167.423 E0.03615
G1 X68.513 Y168.307 E0.03588
G1 X68.439 Y169.153 E0.03368
G1 X68.434 Y178.517 E0.37147
G1 X68.563 Y179.71 E0.04762
G1 X68.877 Y180.763 E0.04358
G1 X69.325 Y181.682 E0.04057
G1 X70.361 Y183.027 E0.06735
G1 X71.133 Y183.705 E0.04074
G1 X72.077 Y184.326 E0.04481
G1 X73.531 Y184.96 E0.06293
G1 X74.688 Y185.253 E0.04735
G1 X76.148 Y185.396 E0.05819
G1 X206.226 Y185.399 E5.16011
G1 X207.861 Y185.241 E0.06515
G1 X209.548 Y184.741 E0.06981
G1 X210.358 Y184.354 E0.0356
G1 X211.212 Y183.811 E0.04018
G1 X211.905 Y183.242 E0.03552
G1 X212.59 Y182.507 E0.03988
G1 X213.335 Y181.367 E0.054
G1 X213.742 Y180.392 E0.04193
G1 X213.923 Y179.711 E0.02797
G1 X214.051 Y178.55 E0.04633
G1 X214.048 Y169.153 E0.37277
G1 X213.856 Y167.709 E0.05778
G1 X213.485 Y166.582 E0.04709
G1 X213.088 Y165.781 E0.03545
G1 X212.584 Y165.01 E0.03652
G1 X211.442 Y163.769 E0.0669
G1 X203.067 Y157.493 E0.41518
G1 X201.619 Y156.744 E0.06468
G1 X200.626 Y156.392 E0.04179
G1 X199.068 Y156.055 E0.0632
G1 X197.649 Y155.953 E0.05647
G1 X84.883 Y155.952 E4.47332
G1 X83.246 Y156.081 E0.06516
G1 X81.861 Y156.392 E0.0563
G1 X81.052 Y156.67 E0.03396
G1 X80.188 Y157.06 E0.03759
G1 X80.383 Y157.494 F9000
G1 F1950
G1 X80.365 Y157.502 E0.00081
G1 X79.238 Y158.193 E0.05246
G1 X72.083 Y163.432 E0.35179
G1 X70.647 Y164.846 E0.07992
G1 X69.83 Y165.987 E0.05567
G1 X69.44 Y166.77 E0.03472
G1 X69.158 Y167.573 E0.03375
G1 X68.915 Y169.183 E0.06462
G1 X68.911 Y178.517 E0.37024
G1 X69.024 Y179.588 E0.04272
G1 X69.311 Y180.565 E0.04042
G1 X69.724 Y181.42 E0.03768
G1 X70.717 Y182.71 E0.06456
G1 X71.439 Y183.339 E0.03798
G1 X72.292 Y183.9 E0.0405
G1 X73.698 Y184.513 E0.06086
G1 X74.757 Y184.78 E0.04331
G1 X76.171 Y184.919 E0.05636
G1 X206.226 Y184.921 E5.1592
G1 X207.79 Y184.77 E0.06236
G1 X209.383 Y184.294 E0.06592
G1 X210.146 Y183.927 E0.03359
G1 X210.949 Y183.413 E0.03783
G1 X211.595 Y182.88 E0.03321
G1 X212.234 Y182.189 E0.03732
G1 X212.9 Y181.17 E0.04833
G1 X213.281 Y180.27 E0.03877
G1 X213.462 Y179.588 E0.02797
G1 X213.574 Y178.55 E0.04144
G1 X213.576 Y169.305 E0.36671
G1 X213.388 Y167.801 E0.06015
G1 X213.053 Y166.785 E0.04242
G1 X212.212 Y165.309 E0.06738
G1 X211.139 Y164.137 E0.06307
G1 X202.799 Y157.887 E0.41341
G1 X201.422 Y157.179 E0.06141
G1 X200.503 Y156.853 E0.03867
G1 X199.153 Y156.55 E0.05489
G1 X197.649 Y156.43 E0.05988
G1 X84.883 Y156.429 E4.47332
G1 X83.333 Y156.55 E0.06169
G1 X81.983 Y156.853 E0.05488
G1 X81.211 Y157.12 E0.03243
G1 X80.438 Y157.469 E0.03362
G1 X80.634 Y157.902 F9000
G1 F1950
G1 X80.597 Y157.919 E0.00162
G1 X79.503 Y158.59 E0.05089
G1 X72.372 Y163.812 E0.35063
G1 X71.019 Y165.144 E0.07534
G1 X70.232 Y166.243 E0.0536
G1 X69.611 Y167.723 E0.06366
G1 X69.391 Y169.214 E0.05982
G1 X69.388 Y178.517 E0.36901
G1 X69.485 Y179.465 E0.03782
G1 X69.745 Y180.368 E0.03726
G1 X70.484 Y181.708 E0.0607
G1 X71.073 Y182.392 E0.03584
G1 X71.873 Y183.069 E0.04156
G1 X73.078 Y183.763 E0.05516
G1 X73.865 Y184.066 E0.03347
G1 X74.826 Y184.308 E0.03928
G1 X76.194 Y184.443 E0.05454
G1 X206.226 Y184.444 E5.15829
G1 X207.869 Y184.267 E0.06557
G1 X209.353 Y183.788 E0.06187
G1 X210.084 Y183.413 E0.03257
G1 X210.822 Y182.913 E0.03537
G1 X211.878 Y181.872 E0.05882
G1 X212.466 Y180.972 E0.04265
G1 X212.82 Y180.147 E0.0356
G1 X213.001 Y179.466 E0.02797
G1 X213.097 Y178.55 E0.03655
G1 X213.099 Y169.305 E0.36671
G1 X212.92 Y167.892 E0.0565
G1 X212.622 Y166.989 E0.03774
G1 X211.841 Y165.608 E0.06292
G1 X210.835 Y164.504 E0.05924
G1 X202.53 Y158.282 E0.41164
G1 X201.226 Y157.614 E0.05815
G1 X200.381 Y157.315 E0.03554
G1 X199.066 Y157.019 E0.05346
G1 X197.649 Y156.907 E0.05641
G1 X84.883 Y156.906 E4.47332
G1 X83.42 Y157.019 E0.05822
G1 X82.106 Y157.315 E0.05345
G1 X81.37 Y157.57 E0.0309
G1 X80.689 Y157.877 E0.02965
G1 X80.911 Y158.322 F9000
G1 F1950
G1 X80.336 Y158.609 E0.02549
G1 X79.739 Y159.007 E0.02847
G1 X72.661 Y164.191 E0.34801
G1 X71.391 Y165.443 E0.07077
G1 X70.635 Y166.499 E0.05153
G1 X70.064 Y167.872 E0.05899
G1 X69.867 Y169.245 E0.05502
G1 X69.919 Y179.185 E0.39432
G1 X70.128 Y180.026 E0.03435
G1 X70.522 Y180.897 E0.03795
G1 X71.429 Y182.075 E0.05897
G1 X72.051 Y182.607 E0.03246
G1 X72.722 Y183.048 E0.03187
G1 X74.033 Y183.62 E0.05671
G1 X74.894 Y183.836 E0.03525
G1 X76.217 Y183.966 E0.05271
G1 X206.226 Y183.967 E5.15738
G1 X207.748 Y183.806 E0.06071
G1 X209.141 Y183.36 E0.05804
G1 X210.512 Y182.55 E0.06316
G1 X211.522 Y181.554 E0.05626
G1 X212.032 Y180.774 E0.03697
G1 X212.359 Y180.025 E0.03243
G1 X212.54 Y179.344 E0.02797
G1 X212.619 Y178.549 E0.03166
G1 X212.621 Y169.305 E0.36671
G1 X212.452 Y167.984 E0.05284
G1 X212.19 Y167.192 E0.03307
G1 X211.469 Y165.908 E0.05845
G1 X210.531 Y164.872 E0.05542
G1 X202.262 Y158.677 E0.40988
G1 X201.029 Y158.048 E0.05489
G1 X200.259 Y157.776 E0.03242
G1 X198.979 Y157.488 E0.05204
G1 X197.649 Y157.384 E0.05294
G1 X84.883 Y157.383 E4.47332
G1 X83.507 Y157.488 E0.05475
G1 X82.228 Y157.776 E0.05203
G1 X81.457 Y158.049 E0.03244
G1 X80.965 Y158.295 E0.02184
G1 X81.153 Y158.711 F9000
G1 F1950
G1 X81.06 Y158.753 E0.00403
G1 X80.02 Y159.392 E0.04843
G1 X72.951 Y164.57 E0.34761
G1 X71.763 Y165.742 E0.06619
G1 X71.037 Y166.756 E0.04946
G1 X70.517 Y168.022 E0.05432
G1 X70.343 Y169.276 E0.05022
G1 X70.394 Y179.145 E0.39148
G1 X70.589 Y179.903 E0.03106
G1 X70.921 Y180.635 E0.0319
G1 X71.786 Y181.757 E0.05618
G1 X72.357 Y182.241 E0.0297
G1 X72.937 Y182.623 E0.02756
G1 X74.2 Y183.173 E0.05463
G1 X74.963 Y183.364 E0.03121
G1 X76.239 Y183.49 E0.05088
G1 X206.226 Y183.49 E5.15648
G1 X207.626 Y183.344 E0.05586
G1 X208.929 Y182.933 E0.05421
G1 X210.202 Y182.187 E0.05851
G1 X211.166 Y181.236 E0.0537
G1 X211.565 Y180.635 E0.02863
G1 X211.873 Y179.972 E0.02902
G1 X212.079 Y179.221 E0.03088
G1 X212.142 Y178.549 E0.02677
G1 X212.144 Y169.305 E0.36671
G1 X211.984 Y168.076 E0.04918
G1 X211.759 Y167.396 E0.0284
G1 X211.127 Y166.248 E0.05199
G1 X210.227 Y165.24 E0.05358
G1 X201.994 Y159.071 E0.40811
G1 X200.833 Y158.483 E0.05163
G1 X200.137 Y158.237 E0.02929
G1 X198.892 Y157.957 E0.05061
G1 X197.649 Y157.861 E0.04948
G1 X84.883 Y157.86 E4.47332
G1 X83.594 Y157.957 E0.05128
G1 X82.35 Y158.237 E0.05061
G1 X81.688 Y158.469 E0.02784
G1 X81.207 Y158.686 E0.02091
G1 X81.578 Y159.504 F9000
;WIDTH:0.62
G1 F1950
G1 X82.029 Y159.299 E0.02376
G1 X82.632 Y159.089 E0.03067
G1 X83.165 Y158.949 E0.02644
G1 X83.72 Y158.845 E0.02712
G1 X84.367 Y158.775 E0.03122
G1 X85.408 Y158.756 E0.04993
G1 X197.624 Y158.757 E5.38465
G1 X198.181 Y158.779 E0.02673
G1 X198.766 Y158.845 E0.02827
G1 X199.322 Y158.949 E0.02711
G1 X199.855 Y159.089 E0.02646
G1 X200.516 Y159.323 E0.03366
G1 X201.032 Y159.559 E0.0272
G1 X201.54 Y159.846 E0.02801
G1 X201.963 Y160.135 E0.0246
G1 X209.243 Y165.59 E0.43651
G1 X209.66 Y165.938 E0.02608
G1 X210.052 Y166.338 E0.02686
G1 X210.402 Y166.779 E0.02702
G1 X210.724 Y167.302 E0.02948
G1 X210.948 Y167.79 E0.02573
G1 X211.108 Y168.279 E0.0247
G1 X211.208 Y168.78 E0.02449
G1 X211.247 Y169.298 E0.02496
G1 X211.247 Y178.491 E0.44111
G1 X211.206 Y178.979 E0.0235
G1 X211.01 Y179.706 E0.03613
G1 X210.769 Y180.215 E0.02702
G1 X210.429 Y180.717 E0.02906
G1 X210.055 Y181.131 E0.02678
G1 X209.638 Y181.487 E0.0263
G1 X209.117 Y181.834 E0.03006
G1 X208.597 Y182.098 E0.02797
G1 X208.04 Y182.307 E0.02857
G1 X207.421 Y182.47 E0.0307
G1 X206.81 Y182.563 E0.02963
G1 X206.195 Y182.594 E0.02959
G1 X76.285 Y182.594 E6.23361
G1 X75.736 Y182.568 E0.02638
G1 X75.16 Y182.488 E0.02792
G1 X74.49 Y182.323 E0.03309
G1 X73.847 Y182.079 E0.033
G1 X73.367 Y181.834 E0.02586
G1 X72.94 Y181.555 E0.02446
G1 X72.389 Y181.087 E0.0347
G1 X72.041 Y180.697 E0.02507
G1 X71.729 Y180.234 E0.02682
G1 X71.45 Y179.635 E0.03166
G1 X71.28 Y178.977 E0.03264
G1 X71.238 Y178.46 E0.0249
G1 X71.239 Y169.298 E0.43961
G1 X71.279 Y168.777 E0.02506
G1 X71.389 Y168.239 E0.02637
G1 X71.569 Y167.713 E0.02668
G1 X71.837 Y167.167 E0.02918
G1 X72.109 Y166.745 E0.02409
G1 X72.438 Y166.333 E0.02533
G1 X73.562 Y165.231 E0.07552
G1 X74.055 Y164.858 E0.02967
G1 X74.867 Y164.353 E0.04589
G1 X75.203 Y164.117 E0.01968
G1 X80.556 Y160.111 E0.32083
G1 X81 Y159.814 E0.02563
G1 X81.446 Y159.563 E0.02457
G1 X81.523 Y159.528 E0.00405
G1 X81.761 Y160.053 F9000
G1 F1950
G1 X82.232 Y159.84 E0.0248
G1 X82.79 Y159.644 E0.02839
G1 X83.301 Y159.51 E0.02538
G1 X83.815 Y159.414 E0.02507
G1 X84.391 Y159.351 E0.02778
G1 X85.41 Y159.333 E0.04892
G1 X197.619 Y159.334 E5.38426
G1 X198.128 Y159.354 E0.02443
G1 X198.671 Y159.414 E0.02625
G1 X199.185 Y159.51 E0.02508
G1 X199.697 Y159.644 E0.02537
G1 X200.289 Y159.854 E0.03014
G1 X200.76 Y160.068 E0.02482
G1 X201.225 Y160.329 E0.02563
G1 X201.623 Y160.6 E0.02308
G1 X208.88 Y166.038 E0.43515
G1 X209.26 Y166.354 E0.02369
G1 X209.611 Y166.71 E0.02399
G1 X209.921 Y167.098 E0.02384
G1 X210.208 Y167.561 E0.02617
G1 X210.405 Y167.985 E0.0224
G1 X210.554 Y168.441 E0.02303
G1 X210.638 Y168.873 E0.02113
G1 X210.671 Y169.329 E0.02193
G1 X210.669 Y178.479 E0.43905
G1 X210.633 Y178.905 E0.0205
G1 X210.476 Y179.485 E0.02885
G1 X210.277 Y179.912 E0.02262
G1 X209.987 Y180.345 E0.02501
G1 X209.64 Y180.729 E0.02486
G1 X209.278 Y181.035 E0.02272
G1 X208.813 Y181.343 E0.02679
G1 X208.352 Y181.575 E0.02475
G1 X207.852 Y181.762 E0.0256
G1 X207.291 Y181.907 E0.02784
G1 X206.739 Y181.99 E0.02675
G1 X206.187 Y182.017 E0.02651
G1 X76.292 Y182.017 E6.23293
G1 X75.777 Y181.993 E0.02474
G1 X75.255 Y181.918 E0.02529
G1 X74.677 Y181.776 E0.02856
G1 X74.094 Y181.557 E0.02991
G1 X73.669 Y181.341 E0.02286
G1 X73.27 Y181.082 E0.02284
G1 X72.806 Y180.689 E0.02916
G1 X72.486 Y180.328 E0.02314
G1 X72.221 Y179.931 E0.02292
G1 X72.001 Y179.463 E0.02483
G1 X71.853 Y178.904 E0.02775
G1 X71.815 Y178.448 E0.02195
G1 X71.816 Y169.329 E0.43756
G1 X71.848 Y168.873 E0.02193
G1 X71.942 Y168.406 E0.02287
G1 X72.096 Y167.949 E0.02312
G1 X72.332 Y167.465 E0.02583
G1 X72.586 Y167.07 E0.02254
G1 X72.877 Y166.707 E0.02233
G1 X73.925 Y165.68 E0.07043
G1 X74.371 Y165.341 E0.02688
G1 X75.186 Y164.834 E0.04602
G1 X75.541 Y164.584 E0.02087
G1 X80.883 Y160.586 E0.32017
G1 X81.311 Y160.3 E0.02471
G1 X81.707 Y160.079 E0.02174
G1 X81.987 Y160.583 F9000
G1 F1950
G1 X82.003 Y160.575 E0.00087
G1 X82.441 Y160.377 E0.02306
G1 X82.932 Y160.204 E0.02499
G1 X83.423 Y160.074 E0.02435
G1 X83.915 Y159.983 E0.02404
G1 X84.408 Y159.929 E0.02377
G1 X85.415 Y159.91 E0.04836
G1 X197.616 Y159.911 E5.38389
G1 X198.08 Y159.929 E0.02228
G1 X198.571 Y159.983 E0.02371
G1 X199.064 Y160.074 E0.02404
G1 X199.543 Y160.2 E0.02379
G1 X200.045 Y160.377 E0.02555
G1 X200.495 Y160.58 E0.02365
G1 X200.895 Y160.804 E0.022
G1 X201.274 Y161.06 E0.02195
G1 X208.521 Y166.489 E0.43449
G1 X208.866 Y166.775 E0.0215
G1 X209.176 Y167.089 E0.02117
G1 X209.446 Y167.426 E0.02076
G1 X209.682 Y167.8 E0.0212
G1 X209.86 Y168.174 E0.01988
G1 X209.866 Y168.191 E0.00084
G1 X209.989 Y168.561 E0.01871
G1 X209.993 Y168.579 E0.00087
G1 X210.067 Y168.957 E0.01849
G1 X210.07 Y168.975 E0.00089
G1 X210.094 Y169.352 E0.01815
G1 X210.092 Y178.472 E0.43762
G1 X210.063 Y178.817 E0.01661
G1 X210.058 Y178.842 E0.00119
G1 X209.954 Y179.234 E0.01947
G1 X209.946 Y179.257 E0.00116
G1 X209.788 Y179.605 E0.01833
G1 X209.777 Y179.624 E0.00106
G1 X209.562 Y179.952 E0.01882
G1 X209.549 Y179.969 E0.00103
G1 X209.257 Y180.296 E0.02107
G1 X209.243 Y180.31 E0.00094
G1 X208.952 Y180.559 E0.01836
G1 X208.938 Y180.569 E0.00085
G1 X208.517 Y180.848 E0.02423
G1 X208.501 Y180.857 E0.00086
G1 X208.102 Y181.055 E0.02137
G1 X207.698 Y181.205 E0.02069
G1 X207.182 Y181.341 E0.02561
G1 X206.676 Y181.416 E0.02458
G1 X206.184 Y181.44 E0.02362
G1 X76.303 Y181.44 E6.23227
G1 X75.826 Y181.418 E0.02291
G1 X75.346 Y181.348 E0.02327
G1 X74.825 Y181.218 E0.02574
G1 X74.362 Y181.044 E0.02376
G1 X73.951 Y180.838 E0.02206
G1 X73.594 Y180.603 E0.02049
G1 X73.245 Y180.312 E0.02183
G1 X73.23 Y180.297 E0.00101
G1 X72.937 Y179.969 E0.0211
G1 X72.924 Y179.952 E0.00102
G1 X72.709 Y179.624 E0.01881
G1 X72.699 Y179.605 E0.00106
G1 X72.54 Y179.257 E0.01833
G1 X72.532 Y179.234 E0.00116
G1 X72.428 Y178.842 E0.01948
G1 X72.424 Y178.817 E0.00121
G1 X72.392 Y178.442 E0.01807
G1 X72.392 Y169.362 E0.4357
G1 X72.417 Y168.975 E0.01859
G1 X72.419 Y168.957 E0.00089
G1 X72.493 Y168.579 E0.01849
G1 X72.498 Y168.561 E0.00087
G1 X72.621 Y168.19 E0.01873
G1 X72.627 Y168.173 E0.00088
G1 X72.823 Y167.768 E0.02159
G1 X73.05 Y167.413 E0.02023
G1 X73.311 Y167.088 E0.01998
G1 X74.269 Y166.145 E0.06451
G1 X74.282 Y166.133 E0.00087
G1 X74.693 Y165.82 E0.0248
G1 X75.504 Y165.316 E0.0458
G1 X75.88 Y165.052 E0.02206
G1 X81.208 Y161.064 E0.31933
G1 X81.617 Y160.789 E0.02366
G1 X81.934 Y160.612 E0.01742
M104 S248 ; set temperature
; printing object VT.913.stl id:0 copy 0
EXCLUDE_OBJECT_START NAME=VT_913_stl_id_0_copy_0
G1 X81.521 Y162.675 F9000
;TYPE:Solid infill
;WIDTH:0.616825
G1 F2100
G1 X81.752 Y162.906 E0.01559
G1 X82.321 Y162.659 E0.02963
G1 X82.165 Y162.503 E0.01056
G1 X82.202 Y162.475 E0.00223
G1 X82.666 Y162.188 E0.02604
G1 X82.891 Y162.413 E0.01516
G1 X83.46 Y162.166 E0.02963
G1 X83.233 Y161.939 E0.01536
G1 X83.448 Y161.853 E0.01104
G1 X83.869 Y161.759 E0.02061
G1 X84.03 Y161.92 E0.01088
G1 X84.504 Y161.714 E0.02467
G1 X84.745 Y161.818 E0.01251
G1 X84.579 Y161.652 E0.01122
G1 X85.395 Y161.652 E0.03895
G1 X86.183 Y162.441 E0.05324
G1 X87.621 Y163.063 E0.07481
G1 X86.21 Y161.652 E0.09525
G1 X87.026 Y161.652 E0.03895
G1 X89.06 Y163.685 E0.13727
G1 X90.498 Y164.307 E0.07481
G1 X87.842 Y161.652 E0.17928
G1 X88.658 Y161.651 E0.03895
G1 X91.936 Y164.929 E0.2213
G1 X93.374 Y165.551 E0.07481
G1 X89.474 Y161.651 E0.26331
G1 X90.29 Y161.651 E0.03895
G1 X95.284 Y166.645 E0.33718
G1 X95.406 Y166.557 E0.00717
G1 X95.787 Y166.332 E0.02113
G1 X91.106 Y161.651 E0.31602
G1 X91.922 Y161.651 E0.03895
G1 X96.328 Y166.057 E0.29747
G1 X96.544 Y165.955 E0.01137
G1 X96.909 Y165.822 E0.01859
G1 X92.738 Y161.65 E0.28162
G1 X93.554 Y161.65 E0.03895
G1 X97.533 Y165.629 E0.26863
G1 X97.792 Y165.559 E0.01282
G1 X98.203 Y165.483 E0.01995
G1 X94.37 Y161.65 E0.25879
G1 X95.186 Y161.65 E0.03895
G1 X98.927 Y165.391 E0.25259
G1 X99.145 Y165.37 E0.01042
G1 X99.734 Y165.382 E0.02814
G1 X96.002 Y161.65 E0.25197
G1 X96.818 Y161.65 E0.03895
G1 X100.586 Y165.418 E0.25444
G1 X101.093 Y165.489 E0.02442
G1 X101.584 Y165.6 E0.02403
G1 X97.634 Y161.649 E0.2667
G1 X98.45 Y161.649 E0.03895
G1 X103.378 Y166.577 E0.33271
G1 E-0.4 F2400
G1 Z0.5 F9000
G1 X112.373 Y164.147
G1 Z0.2
G1 E0.4 F2280
G1 F2100
G1 X109.873 Y161.647 E0.16878
G1 X109.057 Y161.647 E0.03895
G1 X111.308 Y163.899 E0.15202
G1 X110.492 Y163.899 E0.03896
G1 X108.241 Y161.647 E0.15201
