; generated by SuperSlicer 2.5.59 on 2023-03-30 at 20:38:16 UTC


;
;

;
;
; 

; external perimeters extrusion width = 0.50mm
; perimeters extrusion width = 0.51mm
; infill extrusion width = 0.51mm
; solid infill extrusion width = 0.51mm
; top infill extrusion width = 0.50mm
; first layer extrusion width = 0.67mm

; object:{"name":"VT","id":"VT.913.stl id:0 copy 0","object_center":[150.000000,148.500000,0.000000],"boundingbox_center":[150.000000,148.500000,4.000000],"boundingbox_size":[145.000000,30.000000,8.000000]}
EXCLUDE_OBJECT_DEFINE NAME=VT_913_stl_id_0_copy_0 CENTER=150.000000,148.500000 POLYGON=[[77.500000,146.982304],[77.525784,146.417408],[77.602960,145.855952],[77.731184,145.301552],[77.909424,144.757360],[78.136608,144.226944],[78.411520,143.713648],[78.732432,143.220304],[79.097256,142.750352],[79.503712,142.306352],[79.949360,141.891152],[87.246056,135.608864],[87.728288,135.225152],[88.243992,134.875040],[88.789992,134.560944],[89.362824,134.284800],[89.959184,134.048096],[90.575224,133.852360],[91.207120,133.698896],[91.851208,133.588656],[92.503328,133.522200],[93.159432,133.500000],[206.840752,133.500000],[207.496864,133.522200],[208.148960,133.588656],[208.792880,133.698896],[209.424960,133.852360],[210.040992,134.048096],[210.637184,134.284800],[211.210176,134.560944],[211.756016,134.875040],[212.271712,135.225152],[212.753936,135.608864],[220.050624,141.891152],[220.496288,142.306352],[220.902928,142.750352],[221.267728,143.220304],[221.588464,143.713648],[221.863408,144.226944],[222.090752,144.757360],[222.268976,145.301552],[222.397040,145.855952],[222.474208,146.417408],[222.500000,146.982304],[222.500000,157.500000],[222.470208,158.053600],[222.381344,158.602496],[222.233984,159.141968],[222.029440,159.667456],[221.769504,160.174416],[221.456240,160.658608],[221.092464,161.115808],[220.681152,161.542176],[220.226080,161.934064],[219.730768,162.288096],[219.199760,162.601296],[218.637536,162.870976],[218.048672,163.094832],[217.438384,163.270944],[216.811712,163.397840],[216.174240,163.474416],[215.531184,163.500000],[84.468808,163.500000],[83.825936,163.474416],[83.188296,163.397840],[82.561792,163.270944],[81.951504,163.094832],[81.362640,162.870976],[80.800264,162.601296],[80.269232,162.288096],[79.773920,161.934064],[79.318856,161.542176],[78.907696,161.115808],[78.543920,160.658608],[78.230672,160.174416],[77.970568,159.667456],[77.766040,159.141968],[77.618648,158.602496],[77.529792,158.053600],[77.500000,157.500000],[77.500000,146.982304]]
; plater:{"center":[150.000000,148.500000,0.000000],"boundingbox_center":[150.000000,148.500000,4.000000],"boundingbox_size":[145.000000,30.000000,8.000000]}

;TYPE:Custom
SET_PRINT_STATS_INFO TOTAL_LAYER=37

M104 S0 ; Stops SuperSlicer from sending temp waits separately

M109 S0

M140 S0

print_start EXTRUDER=250 BED=108 CHAMBER=0
G21 ; set units to millimeters
G90 ; use absolute coordinates
M82 ; use absolute distances for extrusion
G92 E0
; Filament gcode
;_TOOLCHANGE 0
M107
;LAYER_CHANGE
;Z:0.21875
;HEIGHT:0.21875
TIMELAPSE_TAKE_FRAME
;BEFORE_LAYER_CHANGE
;0.21875


G1 E-0.8 F2100
G1 Z0.2 F8700
G1 Z0.21875
SET_PRINT_STATS_INFO CURRENT_LAYER=1
;AFTER_LAYER_CHANGE
;0.21875
G92 E0
G1 Z0.41875
G1 X84.767 Y127.698
G1 Z0.21875
G1 E0.8 F2100
;TYPE:Skirt
;WIDTH:0.6075
G1 F2250
G1 X82.754 Y129.109 E0.92532
G1 X74.915 Y135.856 E1.4526
G1 X73.142 Y137.729 E1.58408
G1 X72.233 Y139.001 E1.66378
G1 X71.301 Y140.685 E1.76192
G1 X70.769 Y141.96 E1.83236
G1 X70.29 Y143.557 E1.91735
G1 X67.296 Y156.336 E2.58647
G1 X67.316 Y157.74 E2.65804
G1 X68.623 Y162.672 E2.91816
G1 X69.691 Y164.253 E3.01544
G1 X76.048 Y169.001 E3.4199
G1 X77.543 Y169.892 E3.50862
G1 X79.567 Y170.761 E3.62095
G1 X81.302 Y171.239 E3.71268
G1 X82.963 Y171.498 E3.79839
G1 X84.249 Y171.565 E3.86402
G1 X215.751 Y171.565 E10.56803
G1 X217.384 Y171.46 E10.65144
G1 X219.123 Y171.143 E10.74156
G1 X220.762 Y170.641 E10.82893
G1 X222.368 Y169.939 E10.91832
G1 X223.959 Y168.997 E11.01257
G1 X225.392 Y167.882 E11.10513
G1 X226.69 Y166.577 E11.19897
G1 X227.885 Y165.001 E11.29978
G1 X228.701 Y163.562 E11.38412
G1 X229.436 Y161.776 E11.48261
G1 X229.936 Y159.756 E11.58868
G1 X230.107 Y157.796 E11.68895
G1 X230.107 Y146.757 E12.25176
G1 X230.004 Y145.173 E12.33265
G1 X229.71 Y143.557 E12.4164
G1 X229.244 Y141.998 E12.49935
G1 X228.604 Y140.487 E12.58301
G1 X227.779 Y139.016 E12.66899
G1 X226.858 Y137.728 E12.74971
G1 X225.842 Y136.575 E12.82805
G1 X224.981 Y135.762 E12.88843
G1 X217.285 Y129.141 E13.40596
G1 X216.257 Y128.353 E13.47202
G1 X215.014 Y127.571 E13.54687
G1 X212.524 Y126.425 E13.68664
G1 X211.14 Y125.991 E13.76057
G1 X209.76 Y125.686 E13.83263
G1 X207.06 Y125.437 E13.97085
G1 X92.992 Y125.435 E19.78603
G1 X90.482 Y125.645 E19.91446
G1 X89.099 Y125.93 E19.98641
G1 X87.477 Y126.424 E20.0729
G1 X86.059 Y127.014 E20.15115
G1 X84.827 Y127.667 E20.22226
G1 X85.087 Y128.16 F8700
G1 F2250
G1 X85.069 Y128.17 E20.22335
G1 X83.095 Y129.553 E20.34617
G1 X75.301 Y136.263 E20.8705
G1 X73.565 Y138.095 E20.99916
G1 X72.692 Y139.322 E21.07595
G1 X71.818 Y140.901 E21.16793
G1 X71.286 Y142.176 E21.23837
G1 X70.828 Y143.712 E21.32008
G1 X67.841 Y156.464 E21.98777
G1 X67.858 Y157.597 E22.04552
G1 X69.165 Y162.529 E22.30564
G1 X70.026 Y163.804 E22.38412
G1 X76.383 Y168.552 E22.78859
G1 X77.824 Y169.408 E22.87404
G1 X79.722 Y170.222 E22.97931
G1 X81.394 Y170.686 E23.0678
G1 X82.994 Y170.939 E23.15036
G1 X84.249 Y171.004 E23.21442
G1 X215.751 Y171.004 E29.91843
G1 X217.289 Y170.908 E29.997
G1 X218.965 Y170.605 E30.08381
G1 X220.544 Y170.125 E30.16792
G1 X222.089 Y169.453 E30.25383
G1 X223.621 Y168.55 E30.34449
G1 X225 Y167.482 E30.43345
G1 X226.249 Y166.231 E30.52355
G1 X227.398 Y164.725 E30.6201
G1 X228.214 Y163.286 E30.70445
G1 X228.915 Y161.57 E30.79894
G1 X229.39 Y159.63 E30.90078
G1 X229.547 Y157.796 E30.99458
G1 X229.547 Y146.757 E31.55739
G1 X229.451 Y145.267 E31.63347
G1 X229.172 Y143.712 E31.71404
G1 X228.726 Y142.211 E31.79388
G1 X228.113 Y140.756 E31.87434
G1 X227.32 Y139.338 E31.95718
G1 X226.58 Y138.282 E32.0229
G1 X225.616 Y137.148 E32.09877
G1 X224.615 Y136.187 E32.16953
G1 X216.941 Y129.583 E32.6857
G1 X215.954 Y128.825 E32.7491
G1 X214.756 Y128.068 E32.82135
G1 X212.313 Y126.944 E32.95846
G1 X209.643 Y126.234 E33.0993
G1 X207.06 Y125.997 E33.23154
G1 X92.992 Y125.996 E39.04672
G1 X90.552 Y126.201 E39.17157
G1 X89.216 Y126.478 E39.2411
G1 X87.687 Y126.944 E39.32258
G1 X86.318 Y127.511 E39.39816
G1 X85.147 Y128.129 E39.46565
G1 X85.407 Y128.623 F8700
G1 F2250
G1 X85.37 Y128.643 E39.46778
G1 X83.437 Y129.997 E39.58811
G1 X75.686 Y136.669 E40.10948
G1 X73.989 Y138.462 E40.23532
G1 X73.151 Y139.643 E40.3092
G1 X72.335 Y141.116 E40.39504
G1 X71.803 Y142.392 E40.46548
G1 X71.367 Y143.867 E40.54391
G1 X68.387 Y156.592 E41.21016
G1 X68.399 Y157.453 E41.25408
G1 X69.706 Y162.385 E41.5142
G1 X70.362 Y163.356 E41.5739
G1 X76.718 Y168.103 E41.97836
G1 X78.106 Y168.923 E42.06053
G1 X79.876 Y169.684 E42.15876
G1 X81.487 Y170.134 E42.24401
G1 X83.025 Y170.38 E42.32342
G1 X84.249 Y170.444 E42.3859
G1 X215.751 Y170.444 E49.08992
G1 X217.195 Y170.356 E49.16365
G1 X218.807 Y170.067 E49.24715
G1 X220.325 Y169.609 E49.328
G1 X221.809 Y168.967 E49.41043
G1 X223.283 Y168.103 E49.49749
G1 X224.609 Y167.081 E49.58285
G1 X225.809 Y165.885 E49.66921
G1 X226.91 Y164.449 E49.76152
G1 X227.726 Y163.009 E49.84586
G1 X228.394 Y161.365 E49.93636
G1 X228.844 Y159.504 E50.03396
G1 X228.986 Y157.796 E50.1213
G1 X228.986 Y146.757 E50.68411
G1 X228.899 Y145.361 E50.75538
G1 X228.633 Y143.867 E50.83277
G1 X228.207 Y142.423 E50.90949
G1 X227.622 Y141.025 E50.98676
G1 X226.861 Y139.659 E51.06647
G1 X226.121 Y138.604 E51.13219
G1 X225.192 Y137.515 E51.20516
G1 X224.25 Y136.611 E51.27172
G1 X216.596 Y130.024 E51.78653
G1 X214.498 Y128.566 E51.91679
G1 X212.102 Y127.463 E52.05124
G1 X209.526 Y126.782 E52.18707
G1 X207.06 Y126.558 E52.31332
G1 X92.992 Y126.556 E58.1285
G1 X90.622 Y126.757 E58.24976
G1 X89.333 Y127.025 E58.31689
G1 X87.898 Y127.463 E58.39335
G1 X86.576 Y128.008 E58.46627
G1 X85.467 Y128.592 E58.53017
G92 E0
G1 E-0.8 F2100
G1 Z0.41875 F8700
G1 X210.396 Y160.978
G1 Z0.21875
G1 E0 F2100
;WIDTH:0.675
;HEIGHT:0.22
G1 F2250
G1 X215.54 Y160.978 E0.29535
G1 X216.031 Y160.951 E0.32361
G1 X216.568 Y160.859 E0.35486
G1 X217.043 Y160.719 E0.38333
G1 X217.495 Y160.528 E0.41152
G1 X217.646 Y160.441 E0.42151
G1 X217.954 Y160.264 E0.44188
G1 X218.335 Y159.976 E0.46935
G1 X218.672 Y159.646 E0.49638
G1 X218.959 Y159.279 E0.52316
G1 X219.002 Y159.204 E0.52814
G1 X219.226 Y158.81 E0.55415
G1 X219.377 Y158.425 E0.57792
G1 X219.488 Y157.947 E0.60606
G1 X219.52 Y157.512 E0.63114
G1 X219.52 Y153.571 E0.85739
G1 X220.883 Y154.136 E0.94212
G1 X222.345 Y155.257 E1.04788
G1 X223.466 Y156.719 E1.15365
G1 X224.171 Y158.42 E1.25941
G1 X224.411 Y160.246 E1.36517
G1 X224.171 Y162.073 E1.47093
G1 X223.466 Y163.774 E1.5767
G1 X222.345 Y165.236 E1.68246
G1 X220.883 Y166.357 E1.78822
G1 X219.182 Y167.062 E1.89398
G1 X217.356 Y167.302 E1.99975
G1 X215.529 Y167.062 E2.10551
G1 X213.828 Y166.357 E2.21127
G1 X212.366 Y165.236 E2.31703
G1 X211.245 Y163.774 E2.4228
G1 X210.54 Y162.073 E2.52856
G1 X210.405 Y161.045 E2.58808
G92 E0
G1 E-0.8 F2100
G1 Z0.41875 F8700
G1 X220.598 Y166.441
G1 Z0.21875
G1 E0 F2100
G1 F2250
G1 X214.819 Y166.441 E0.33184
G1 X213.98 Y166.094 E0.38398
G1 X213.614 Y165.813 E0.41042
G1 X221.097 Y165.813 E0.84005
G1 X221.915 Y165.186 E0.89926
G1 X212.796 Y165.186 E1.42285
G1 X212.581 Y165.021 E1.43841
G1 X212.226 Y164.558 E1.47191
G1 X222.485 Y164.558 E2.06096
G1 X222.967 Y163.93 E2.1064
G1 X211.744 Y163.93 E2.75078
G1 X211.508 Y163.622 E2.77305
G1 X211.376 Y163.302 E2.79295
G1 X223.335 Y163.302 E3.47967
G1 X223.595 Y162.674 E3.51868
G1 X211.116 Y162.674 E4.23527
G1 X210.856 Y162.047 E4.27429
G1 X223.855 Y162.047 E5.02073
G1 X223.877 Y161.994 E5.02401
G1 X223.953 Y161.419 E5.05731
G1 X210.758 Y161.419 E5.81496
G1 X210.74 Y161.279 E5.82304
G1 X215.548 Y161.279 E6.09914
G1 X216.065 Y161.251 E6.12887
G1 X216.636 Y161.153 E6.16212
G1 X217.145 Y161.004 E6.19258
G1 X217.643 Y160.791 E6.22366
G1 X224.035 Y160.791 E6.59074
G1 X224.107 Y160.246 E6.62228
G1 X224.096 Y160.163 E6.6271
G1 X218.574 Y160.163 E6.94418
G1 X218.897 Y159.848 E6.97008
G1 X219.142 Y159.535 E6.99288
G1 X224.014 Y159.535 E7.27263
G1 X223.931 Y158.908 E7.30899
G1 X219.511 Y158.908 E7.56279
G1 X219.666 Y158.514 E7.58706
G1 X219.72 Y158.28 E7.60088
G1 X223.786 Y158.28 E7.83437
G1 X223.526 Y157.652 E7.87338
G1 X219.812 Y157.652 E8.08668
G1 X219.821 Y157.523 E8.09412
G1 X219.821 Y157.024 E8.12274
G1 X223.266 Y157.024 E8.32055
G1 X223.203 Y156.871 E8.33011
G1 X222.839 Y156.397 E8.36442
G1 X219.821 Y156.397 E8.53768
G1 X219.821 Y155.769 E8.57373
G1 X222.357 Y155.769 E8.71934
G1 X222.13 Y155.472 E8.74079
G1 X221.698 Y155.141 E8.77205
G1 X219.821 Y155.141 E8.87979
G1 X219.821 Y154.513 E8.91584
G1 X221.323 Y154.513 E9.00207
G92 E0
G1 E-0.8 F2100
G1 Z0.41875 F8700
G1 X87.12 Y160.978
G1 Z0.21875
G1 E0 F2100
G1 F2250
G1 X86.934 Y161.428 E0.02797
G1 X85.813 Y162.889 E0.13373
G1 X84.351 Y164.01 E0.23949
G1 X82.65 Y164.715 E0.34525
G1 X80.824 Y164.956 E0.45102
G1 X78.997 Y164.715 E0.55678
G1 X77.296 Y164.01 E0.66254
G1 X75.834 Y162.889 E0.7683
G1 X74.713 Y161.428 E0.87407
G1 X74.008 Y159.726 E0.97983
G1 X73.768 Y157.9 E1.08559
G1 X74.008 Y156.074 E1.19135
G1 X74.713 Y154.372 E1.29712
G1 X75.834 Y152.911 E1.40288
G1 X77.296 Y151.79 E1.50864
G1 X78.997 Y151.085 E1.6144
G1 X79.503 Y151.018 E1.6437
G1 X79.237 Y148.997 E1.76076
G1 X79.478 Y147.171 E1.86652
G1 X80.182 Y145.469 E1.97228
G1 X80.828 Y144.628 E2.0332
G1 X80.505 Y146.525 E2.1437
G1 X80.48 Y146.973 E2.16951
G1 X80.48 Y157.512 E2.77463
G1 X80.512 Y157.947 E2.79971
G1 X80.623 Y158.425 E2.82787
G1 X80.79 Y158.847 E2.85394
G1 X80.961 Y159.147 E2.87374
G1 X81.017 Y159.246 E2.88028
G1 X81.329 Y159.647 E2.90945
G1 X81.7 Y160.003 E2.93897
G1 X81.875 Y160.135 E2.95158
G1 X82.046 Y160.264 E2.96386
G1 X82.314 Y160.42 E2.98169
G1 X82.464 Y160.507 E2.99166
G1 X82.957 Y160.719 E3.02245
G1 X83.478 Y160.869 E3.05357
G1 X83.773 Y160.918 E3.07074
G1 X83.97 Y160.951 E3.0822
G1 X84.406 Y160.975 E3.10731
G1 X84.46 Y160.978 E3.11041
G1 X87.053 Y160.978 E3.25928
G92 E0
G1 E-0.8 F2100
G1 Z0.41875 F8700
G1 X77.95 Y164.247
G1 Z0.21875
G1 E0 F2100
G1 F2250
G1 X82.992 Y164.247 E0.28951
G1 X84.199 Y163.747 E0.36456
G1 X84.366 Y163.62 E0.3766
G1 X77.281 Y163.62 E0.78338
G1 X76.463 Y162.992 E0.84259
G1 X85.184 Y162.992 E1.34333
G1 X85.598 Y162.674 E1.37329
G1 X85.836 Y162.364 E1.39574
G1 X75.811 Y162.364 E1.97135
G1 X75.33 Y161.736 E2.01678
G1 X86.317 Y161.736 E2.64771
G1 X86.668 Y161.279 E2.68079
G1 X84.452 Y161.279 E2.80804
G1 X84.39 Y161.276 E2.81163
G1 X83.936 Y161.251 E2.83769
G1 X83.723 Y161.215 E2.85011
G1 X83.411 Y161.163 E2.86827
G1 X83.22 Y161.109 E2.87966
G1 X74.907 Y161.109 E3.35702
G1 X74.647 Y160.481 E3.39604
G1 X81.833 Y160.481 E3.80864
G1 X81.693 Y160.376 E3.81866
G1 X81.504 Y160.233 E3.83229
G1 X81.108 Y159.853 E3.86378
G1 X74.387 Y159.853 E4.24972
G1 X74.302 Y159.648 E4.26248
G1 X74.246 Y159.225 E4.28695
G1 X80.659 Y159.225 E4.65515
G1 X80.518 Y158.978 E4.67149
G1 X80.367 Y158.597 E4.695
G1 X74.164 Y158.597 E5.0512
G1 X74.081 Y157.97 E5.08756
G1 X80.212 Y157.97 E5.43959
G1 X80.179 Y157.523 E5.46531
G1 X80.179 Y157.342 E5.47571
G1 X74.145 Y157.342 E5.82214
G1 X74.228 Y156.714 E5.8585
G1 X80.179 Y156.714 E6.20018
G1 X80.179 Y156.086 E6.23623
G1 X74.329 Y156.086 E6.57209
G1 X74.59 Y155.458 E6.61111
G1 X80.179 Y155.458 E6.93204
G1 X80.179 Y154.831 E6.96809
G1 X74.85 Y154.831 E7.27409
G1 X74.976 Y154.524 E7.29313
G1 X75.223 Y154.203 E7.3164
G1 X80.179 Y154.203 E7.60095
G1 X80.179 Y153.575 E7.63699
G1 X75.705 Y153.575 E7.89388
G1 X76.049 Y153.126 E7.92639
G1 X76.282 Y152.947 E7.94324
G1 X80.179 Y152.947 E8.16697
G1 X80.179 Y152.319 E8.20302
G1 X77.1 Y152.319 E8.37977
G1 X77.448 Y152.053 E8.40491
G1 X78.32 Y151.692 E8.45912
G1 X80.179 Y151.692 E8.56585
G1 X80.179 Y151.064 E8.60189
G1 X79.813 Y151.064 E8.62288
G1 X79.73 Y150.436 E8.65924
G1 X80.179 Y150.436 E8.68497
G1 X80.179 Y149.808 E8.72102
G1 X79.648 Y149.808 E8.75149
G1 X79.565 Y149.181 E8.78785
G1 X80.179 Y149.181 E8.82307
G1 X80.179 Y148.553 E8.85912
G1 X79.6 Y148.553 E8.89237
G1 X79.682 Y147.925 E8.92873
G1 X80.179 Y147.925 E8.95724
G1 X80.179 Y147.297 E8.99328
G1 X79.765 Y147.297 E9.01704
G1 X79.771 Y147.25 E9.0198
G1 X80.011 Y146.669 E9.05586
G1 X80.466 Y146.669 E9.08194
G92 E0
G1 E-0.8 F2100
G1 Z0.41875 F8700
G1 X86.197 Y140.108
G1 Z0.21875
G1 E0 F2100
G1 F2250
G1 X86.072 Y139.946 E0.01178
G1 X85.367 Y138.244 E0.11754
G1 X85.127 Y136.418 E0.2233
G1 X85.367 Y134.592 E0.32906
G1 X86.072 Y132.89 E0.43483
G1 X87.194 Y131.429 E0.54059
G1 X88.655 Y130.307 E0.64635
G1 X90.357 Y129.603 E0.75211
G1 X92.183 Y129.362 E0.85788
G1 X94.009 Y129.603 E0.96364
G1 X95.71 Y130.307 E1.0694
G1 X97.172 Y131.429 E1.17516
G1 X98.293 Y132.89 E1.28093
G1 X98.998 Y134.592 E1.38669
G1 X99.186 Y136.022 E1.46953
G1 X93.153 Y136.022 E1.81597
G1 X92.642 Y136.043 E1.84531
G1 X92.506 Y136.061 E1.85318
G1 X92.13 Y136.108 E1.87496
G1 X91.804 Y136.178 E1.89409
G1 X91.627 Y136.215 E1.90448
G1 X91.138 Y136.364 E1.93386
G1 X90.622 Y136.574 E1.96583
G1 X90.176 Y136.805 E1.99468
G1 X89.798 Y137.047 E2.02045
G1 X89.377 Y137.371 E2.05093
G1 X86.248 Y140.064 E2.288
G1 X87.328 Y139.093 F8700
G1 F2250
G1 X86.045 Y139.093 E2.36168
G1 X85.785 Y138.465 E2.4007
G1 X87.644 Y138.465 E2.50742
G1 X88.373 Y137.837 E2.56267
G1 X85.618 Y137.837 E2.72087
G1 X85.535 Y137.21 E2.75723
G1 X89.102 Y137.21 E2.96205
G1 X89.187 Y137.137 E2.96846
G1 X89.625 Y136.8 E3.00018
G1 X89.966 Y136.582 E3.02345
G1 X85.453 Y136.582 E3.28262
G1 X85.431 Y136.418 E3.29212
G1 X85.492 Y135.954 E3.31898
G1 X91.451 Y135.954 E3.66114
G1 X91.552 Y135.923 E3.66721
G1 X91.741 Y135.883 E3.67834
G1 X92.08 Y135.811 E3.6982
G1 X92.469 Y135.762 E3.72071
G1 X92.617 Y135.743 E3.72931
G1 X93.147 Y135.721 E3.75973
G1 X98.843 Y135.721 E4.0868
G1 X98.791 Y135.326 E4.10965
G1 X85.575 Y135.326 E4.86852
G1 X85.657 Y134.698 E4.90488
G1 X98.708 Y134.698 E5.65425
G1 X98.704 Y134.67 E5.65588
