; generated by SuperSlicer 2.4 on 2023-01-25 at 14:43:32 UTC


;
;

;
;
; 

; external perimeters extrusion width = 0.52mm
; perimeters extrusion width = 0.56mm
; infill extrusion width = 0.56mm
; solid infill extrusion width = 0.56mm
; top infill extrusion width = 0.52mm
; first layer extrusion width = 0.77mm

; external perimeters extrusion width = 0.52mm
; perimeters extrusion width = 0.56mm
; infill extrusion width = 0.56mm
; solid infill extrusion width = 0.56mm
; top infill extrusion width = 0.52mm
; first layer extrusion width = 0.77mm

; external perimeters extrusion width = 0.52mm
; perimeters extrusion width = 0.56mm
; infill extrusion width = 0.56mm
; solid infill extrusion width = 0.56mm
; top infill extrusion width = 0.52mm
; first layer extrusion width = 0.77mm

; object:{"name":"X_Carriage_x1","id":"X_Carriage_x1.stl id:0 copy 0","object_center":[126.045193,165.196349,0.000000],"boundingbox_center":[126.045193,165.196349,13.000000],"boundingbox_size":[34.000000,37.452072,26.000000]}
; object:{"name":"[a]_Foot_Accent_A_x2","id":"[a]_Foot_Accent_A_x2.stl id:1 copy 0","object_center":[159.357821,168.776307,0.000000],"boundingbox_center":[159.357821,168.776307,2.000000],"boundingbox_size":[26.806396,27.549999,4.000000]}
; object:{"name":"[a]_Foot_Accent_A_x2","id":"[a]_Foot_Accent_A_x2.stl id:1 copy 1","object_center":[113.350059,129.872024,0.000000],"boundingbox_center":[113.350059,129.872024,2.000000],"boundingbox_size":[26.806396,27.549999,4.000000]}
; object:{"name":"[a]_Foot_Accent_B_x2","id":"[a]_Foot_Accent_B_x2.stl id:2 copy 0","object_center":[146.662259,142.186524,0.000000],"boundingbox_center":[146.662259,142.186524,2.000000],"boundingbox_size":[26.806396,27.549999,4.000000]}
; object:{"name":"[a]_Foot_Accent_B_x2","id":"[a]_Foot_Accent_B_x2.stl id:2 copy 1","object_center":[176.560630,152.038301,0.000000],"boundingbox_center":[176.560630,152.038301,2.000000],"boundingbox_size":[26.806396,27.549999,4.000000]}
; plater:{"center":[144.955345,150.009705,0.000000],"boundingbox_center":[144.955345,150.009705,13.000000],"boundingbox_size":[90.016968,67.825360,26.000000]}

;TYPE:Custom
M104 S0 ; Stops SuperSlicer from sending temp waits separately


; Pre-Processed for Cancel-Object support by preprocess_cancellation v0.2.0
; 5 known objects
EXCLUDE_OBJECT_DEFINE NAME=X_Carriage_x1_stl_id_0_copy_0 CENTER=126.030,159.465 POLYGON=[[109.308,146.751],[109.308,183.66],[142.783,183.66],[142.783,146.751]]
EXCLUDE_OBJECT_DEFINE NAME=a__Foot_Accent_B_x2_stl_id_2_copy_0 CENTER=152.909,137.714 POLYGON=[[133.522,128.674],[133.522,155.677],[159.803,155.677],[159.803,128.674]]
EXCLUDE_OBJECT_DEFINE NAME=a__Foot_Accent_A_x2_stl_id_1_copy_0 CENTER=165.849,173.304 POLYGON=[[146.217,155.285],[146.217,182.289],[172.499,182.289],[172.499,155.285]]
EXCLUDE_OBJECT_DEFINE NAME=a__Foot_Accent_B_x2_stl_id_2_copy_1 CENTER=182.809,147.562 POLYGON=[[163.42,138.526],[163.42,165.529],[189.701,165.529],[189.701,138.526]]
EXCLUDE_OBJECT_DEFINE NAME=a__Foot_Accent_A_x2_stl_id_1_copy_1 CENTER=119.840,134.388 POLYGON=[[100.209,116.381],[100.209,143.385],[126.491,143.385],[126.491,116.381]]

M140 S0

print_start EXTRUDER=248 BED=105 CHAMBER=0
G21 ; set units to millimeters
G90 ; use absolute coordinates
M83 ; use relative distances for extrusion
; Filament gcode
;_TOOLCHANGE 0
M107
;LAYER_CHANGE
;Z:0.2
;HEIGHT:0.2
TIMELAPSE_TAKE_FRAME
;BEFORE_LAYER_CHANGE
;0.2


G1 E-0.8 F3000
G1 Z0.3 F9000
;AFTER_LAYER_CHANGE
;0.2
G92 E0
G1 Z0.5
G1 X116.525 Y113.942
G1 Z0.2
G1 E0.8 F1800
;TYPE:Skirt
;WIDTH:0.65
G1 F1950
G1 X97.721 Y133.489 E1.36917
G1 X96.68 Y134.955 E0.09076
G1 X96.148 Y136.467 E0.08094
G1 X96.039 Y137.454 E0.05012
G1 X96.029 Y142.929 E0.27635
G1 X96.26 Y144.309 E0.07064
G1 X106.159 Y166 E1.20356
G1 X113.935 Y182.734 E0.93147
G1 X114.459 Y183.695 E0.05524
G1 X115.291 Y184.637 E0.06344
G1 X116.205 Y185.276 E0.05629
G1 X117.192 Y185.694 E0.05412
G1 X118.753 Y185.94 E0.07979
G1 X146.602 Y186.469 E1.40603
G1 X172.741 Y186.469 E1.31945
G1 X174.486 Y185.766 E0.09498
G1 X193.144 Y167.773 E1.30841
G1 X193.882 Y165.993 E0.09727
G1 X193.882 Y138.283 E1.39876
G1 X193.144 Y136.503 E0.09727
G1 X191.724 Y135.083 E0.10138
G1 X190.779 Y134.488 E0.05635
G1 X127.769 Y112.322 E3.37178
G1 X126.933 Y112.179 E0.04279
G1 X120.381 Y112.196 E0.33074
G1 X118.903 Y112.479 E0.07598
G1 X117.424 Y113.206 E0.08319
G1 X116.583 Y113.894 E0.05482
G1 X116.963 Y114.362 F9000
G1 F1950
G1 X98.158 Y133.91 E1.36921
G1 X97.241 Y135.186 E0.07936
G1 X96.749 Y136.547 E0.07301
G1 X96.646 Y137.455 E0.04617
G1 X96.636 Y142.93 E0.27635
G1 X96.825 Y144.087 E0.0592
G1 X106.71 Y165.744 E1.20169
G1 X114.94 Y183.325 E0.97989
G1 X115.661 Y184.156 E0.05553
G1 X116.471 Y184.73 E0.05012
G1 X117.337 Y185.105 E0.04764
G1 X118.766 Y185.333 E0.07302
G1 X146.614 Y185.862 E1.40598
G1 X172.741 Y185.862 E1.31888
G1 X174.065 Y185.328 E0.07208
G1 X192.715 Y167.344 E1.30781
G1 X193.274 Y165.993 E0.07382
G1 X193.274 Y138.283 E1.39876
G1 X192.715 Y136.932 E0.07382
G1 X191.295 Y135.512 E0.10138
G1 X190.578 Y135.061 E0.04277
G1 X127.567 Y112.895 E3.37178
G1 X126.933 Y112.786 E0.03247
G1 X120.451 Y112.799 E0.3272
G1 X119.077 Y113.061 E0.07062
G1 X117.798 Y113.684 E0.07181
G1 X117.022 Y114.315 E0.05051
G1 X117.4 Y114.784 F9000
G1 F1950
G1 X98.596 Y134.331 E1.36917
G1 X97.802 Y135.418 E0.06796
G1 X97.351 Y136.626 E0.06508
G1 X97.253 Y137.456 E0.04222
G1 X97.243 Y142.931 E0.27635
G1 X97.39 Y143.866 E0.04776
G1 X107.257 Y165.482 E1.19946
G1 X115.422 Y182.954 E0.97353
G1 X116.031 Y183.675 E0.04763
G1 X116.737 Y184.184 E0.04395
G1 X117.482 Y184.515 E0.04117
G1 X118.778 Y184.726 E0.06626
G1 X146.649 Y185.255 E1.40717
G1 X172.741 Y185.255 E1.31708
G1 X173.645 Y184.891 E0.04918
G1 X191.065 Y168.135 E1.22013
G1 X192.286 Y166.915 E0.0871
G1 X192.667 Y165.993 E0.05036
G1 X192.667 Y138.283 E1.39876
G1 X192.286 Y137.362 E0.05036
G1 X190.865 Y135.942 E0.10138
G1 X190.376 Y135.634 E0.02918
G1 X127.366 Y113.467 E3.37178
G1 X126.933 Y113.393 E0.02215
G1 X120.521 Y113.402 E0.32366
G1 X119.251 Y113.642 E0.06525
G1 X118.173 Y114.162 E0.06042
G1 X117.459 Y114.737 E0.04627
G1 E-0.8 F3000
G1 Z0.5 F9000
G1 X164.609 Y154.915
G1 Z0.2
G1 E0.8 F1800
;WIDTH:0.775
G1 F1950
G1 X164.705 Y154.822 E0.00818
G1 X165.127 Y154.491 E0.0326
G1 X165.274 Y154.401 E0.01051
G1 X165.752 Y154.184 E0.03197
G1 X166.141 Y154.07 E0.02467
G1 X166.746 Y154.003 E0.037
G1 X172.465 Y154.003 E0.34812
G1 X172.606 Y154.031 E0.00878
G1 X172.874 Y154.142 E0.01764
G1 X172.994 Y154.222 E0.00878
G1 X173.54 Y154.769 E0.04703
G1 X173.62 Y154.889 E0.00878
G1 X173.731 Y155.156 E0.01764
G1 X173.759 Y155.298 E0.00878
G1 X173.759 Y182.055 E1.62877
G1 X173.731 Y182.196 E0.00878
G1 X173.62 Y182.464 E0.01764
G1 X173.54 Y182.584 E0.00878
G1 X172.794 Y183.33 E0.06425
G1 X172.674 Y183.41 E0.00878
G1 X172.406 Y183.521 E0.01764
G1 X172.265 Y183.549 E0.00878
G1 X146.735 Y183.549 E1.55407
G1 X146.343 Y183.499 E0.02402
G1 X146.161 Y183.446 E0.01153
G1 X145.797 Y183.273 E0.02454
G1 X145.51 Y183.049 E0.02218
G1 X145.406 Y182.937 E0.00931
G1 X145.225 Y182.691 E0.01858
G1 X145.134 Y182.525 E0.01152
G1 X145.001 Y182.148 E0.02434
G1 X144.96 Y181.836 E0.01915
G1 X144.967 Y176.413 E0.33007
G1 X145.03 Y175.9 E0.03149
G1 X145.064 Y175.761 E0.00871
G1 X145.328 Y175.115 E0.04251
G1 X145.426 Y174.945 E0.01196
G1 X145.803 Y174.464 E0.03716
G1 X145.903 Y174.368 E0.00844
G1 X146.353 Y174.02 E0.03467
G1 X146.521 Y173.922 E0.01178
G1 X147.149 Y173.665 E0.04132
G1 X147.291 Y173.63 E0.00891
G1 X147.868 Y173.557 E0.03539
G1 X156.131 Y173.553 E0.50303
G1 X157.393 Y173.449 E0.07708
G1 X158.516 Y173.179 E0.07026
G1 X159.613 Y172.725 E0.07232
G1 X160.264 Y172.313 E0.04686
G1 X160.521 Y172.13 E0.01926
G1 X160.818 Y171.813 E0.0264
G1 X161.477 Y171.246 E0.05293
G1 X162.035 Y170.602 E0.05184
G1 X162.342 Y170.315 E0.02559
G1 X162.52 Y170.064 E0.01875
G1 X162.936 Y169.4 E0.04772
G1 X163.376 Y168.338 E0.06993
G1 X163.667 Y167.147 E0.07466
G1 X163.763 Y165.924 E0.07469
G1 X163.764 Y156.954 E0.546
G1 X163.865 Y156.248 E0.0434
G1 X163.902 Y156.11 E0.00874
G1 X164.145 Y155.544 E0.03749
G1 X164.213 Y155.424 E0.00837
G1 X164.563 Y154.974 E0.0347
G1 X165.138 Y155.422 F9000
G1 F1950
G1 X165.175 Y155.384 E0.00321
G1 X165.562 Y155.081 E0.02993
G1 X165.598 Y155.058 E0.00263
G1 X166.022 Y154.864 E0.02836
G1 X166.046 Y154.856 E0.00154
G1 X166.242 Y154.797 E0.01249
G1 X166.274 Y154.79 E0.00195
G1 X166.735 Y154.736 E0.02827
G1 X166.756 Y154.735 E0.00129
G1 X172.392 Y154.735 E0.34309
G1 X172.527 Y154.791 E0.00886
G1 X172.749 Y155.013 E0.01913
G1 X172.971 Y155.235 E0.01913
G1 X173.027 Y155.37 E0.00886
G1 X173.027 Y181.983 E1.61999
G1 X172.971 Y182.117 E0.00886
G1 X172.327 Y182.762 E0.05547
G1 X172.192 Y182.817 E0.00886
G1 X146.748 Y182.817 E1.54884
G1 X146.721 Y182.815 E0.00167
G1 X146.476 Y182.778 E0.01506
G1 X146.431 Y182.765 E0.00289
G1 X146.229 Y182.678 E0.01335
G1 X146.19 Y182.655 E0.0028
G1 X146.017 Y182.52 E0.01334
G1 X145.981 Y182.484 E0.00311
G1 X145.83 Y182.277 E0.01559
G1 X145.807 Y182.235 E0.00289
G1 X145.728 Y182.033 E0.01322
G1 X145.716 Y181.989 E0.00278
G1 X145.69 Y181.779 E0.01287
G1 X145.689 Y181.756 E0.00141
G1 X145.698 Y176.45 E0.32298
G1 X145.7 Y176.427 E0.00144
G1 X145.753 Y176.019 E0.02501
G1 X145.766 Y175.973 E0.00291
G1 X145.995 Y175.416 E0.03666
G1 X146.02 Y175.374 E0.003
G1 X146.337 Y174.966 E0.03145
G1 X146.369 Y174.933 E0.00282
G1 X146.782 Y174.613 E0.03179
G1 X146.824 Y174.589 E0.00295
G1 X147.361 Y174.366 E0.0354
G1 X147.408 Y174.353 E0.00297
G1 X147.926 Y174.287 E0.03177
G1 X147.949 Y174.285 E0.00142
G1 X156.162 Y174.285 E0.4999
G1 X157.51 Y174.174 E0.08234
G1 X158.742 Y173.878 E0.07718
G1 X159.948 Y173.379 E0.07941
G1 X160.308 Y173.156 E0.0258
G1 X160.675 Y172.919 E0.02659
G1 X161.008 Y172.682 E0.02487
G1 X161.303 Y172.362 E0.0265
G1 X161.319 Y172.348 E0.00127
G1 X161.996 Y171.766 E0.05434
G1 X162.568 Y171.104 E0.05325
G1 X162.582 Y171.089 E0.00127
G1 X162.895 Y170.801 E0.02589
G1 X163.129 Y170.47 E0.02471
G1 X163.589 Y169.737 E0.05267
G1 X164.074 Y168.567 E0.0771
G1 X164.392 Y167.263 E0.08168
G1 X164.495 Y165.952 E0.08003
G1 X164.495 Y156.995 E0.54525
G1 X164.497 Y156.968 E0.00167
G1 X164.585 Y156.381 E0.03612
G1 X164.599 Y156.335 E0.00292
G1 X164.807 Y155.857 E0.03173
G1 X164.83 Y155.818 E0.00279
G1 X165.092 Y155.481 E0.02595
G1 E-0.8 F3000
G1 Z0.5 F9000
G1 X143.743 Y155.481
G1 Z0.2
G1 E0.8 F1800
G1 F1950
G1 X143.743 Y162.737 E0.4417
G1 X143.634 Y163.728 E0.06065
G1 X143.604 Y163.847 E0.0075
G1 X143.295 Y164.724 E0.05656
G1 X143.24 Y164.834 E0.0075
G1 X142.767 Y165.586 E0.05407
G1 X142.665 Y165.714 E0.01
G1 X142.037 Y166.342 E0.05407
G1 X141.942 Y166.421 E0.0075
G1 X141.12 Y166.937 E0.05906
G1 X141.008 Y166.988 E0.0075
G1 X140.17 Y167.282 E0.05407
G1 X140.05 Y167.311 E0.0075
G1 X139.122 Y167.418 E0.05691
G1 X138.253 Y167.421 E0.05286
G1 X137.686 Y167.481 E0.03472
G1 X137.154 Y167.614 E0.03338
G1 X136.699 Y167.804 E0.03003
G1 X136.296 Y168.057 E0.02894
G1 X135.998 Y168.337 E0.0249
G1 X135.793 Y168.633 E0.02191
G1 X135.669 Y168.949 E0.02066
G1 X135.643 Y169.238 E0.01771
G1 X135.646 Y171.187 E0.11859
G1 X135.658 Y171.636 E0.02737
G1 X135.743 Y172.657 E0.06234
G1 X135.743 Y174.186 E0.09312
G1 X135.667 Y175.226 E0.06348
G1 X135.649 Y175.681 E0.02769
G1 X135.643 Y180.62 E0.30063
G1 X135.616 Y180.994 E0.02285
G1 X135.5 Y181.497 E0.03144
G1 X135.307 Y181.912 E0.02787
G1 X135.005 Y182.315 E0.03064
G1 X134.902 Y182.414 E0.00867
G1 X134.629 Y182.624 E0.02102
G1 X134.503 Y182.702 E0.00901
G1 X134.229 Y182.836 E0.01855
G1 X134.083 Y182.888 E0.00945
G1 X133.705 Y182.98 E0.02365
G1 X133.299 Y183.018 E0.02482
G1 X129.302 Y183.031 E0.2433
G1 X128.87 Y183.058 E0.02638
G1 X128.297 Y183.121 E0.03509
G1 X123.794 Y183.121 E0.27412
G1 X123.221 Y183.058 E0.03509
G1 X122.788 Y183.031 E0.02638
G1 X118.833 Y183.02 E0.24077
G1 X118.385 Y182.98 E0.02736
G1 X118.007 Y182.888 E0.02365
G1 X117.862 Y182.836 E0.00945
G1 X117.492 Y182.645 E0.02529
G1 X117.188 Y182.414 E0.02327
G1 X117.054 Y182.279 E0.01155
G1 X116.844 Y182.006 E0.02102
G1 X116.766 Y181.88 E0.00901
G1 X116.617 Y181.57 E0.02091
G1 X116.579 Y181.46 E0.00709
G1 X116.474 Y180.994 E0.02909
G1 X116.447 Y180.62 E0.02284
G1 X116.441 Y175.68 E0.30067
G1 X116.347 Y174.184 E0.09125
G1 X116.347 Y172.654 E0.09314
G1 X116.433 Y171.633 E0.06234
G1 X116.445 Y171.184 E0.02736
G1 X116.447 Y169.235 E0.11863
G1 X116.421 Y168.949 E0.01752
G1 X116.298 Y168.633 E0.02066
G1 X116.092 Y168.337 E0.02191
G1 X115.794 Y168.057 E0.0249
G1 X115.392 Y167.804 E0.02894
G1 X114.936 Y167.614 E0.03003
G1 X114.404 Y167.481 E0.03338
G1 X113.837 Y167.421 E0.03472
G1 X112.969 Y167.418 E0.05286
G1 X112.04 Y167.311 E0.05691
G1 X111.92 Y167.282 E0.0075
G1 X111.082 Y166.988 E0.05407
G1 X110.934 Y166.917 E0.01
G1 X110.182 Y166.444 E0.05407
G1 X110.084 Y166.369 E0.0075
G1 X109.426 Y165.714 E0.05656
G1 X109.347 Y165.619 E0.0075
G1 X108.831 Y164.798 E0.05906
G1 X108.779 Y164.686 E0.0075
G1 X108.486 Y163.847 E0.05407
G1 X108.449 Y163.687 E0.01
G1 X108.347 Y162.737 E0.05815
G1 X108.347 Y152.076 E0.64899
G1 X108.459 Y151.807 E0.01773
G1 X108.879 Y151.386 E0.03619
G1 X109.148 Y151.275 E0.01773
G1 X120.582 Y151.275 E0.69604
G1 X120.768 Y151.325 E0.01173
G1 X120.833 Y151.362 E0.00456
G1 X120.833 Y150.978 E0.0234
G1 X120.883 Y150.792 E0.01173
G1 X123.133 Y146.892 E0.27409
G1 X123.27 Y146.755 E0.01173
G1 X123.607 Y146.561 E0.02367
G1 X123.793 Y146.511 E0.01173
G1 X128.295 Y146.51 E0.27409
G1 X128.482 Y146.56 E0.01173
G1 X128.818 Y146.754 E0.02367
G1 X128.955 Y146.89 E0.01173
G1 X131.207 Y150.789 E0.27409
G1 X131.257 Y150.975 E0.01173
G1 X131.257 Y151.362 E0.02352
G1 X131.321 Y151.325 E0.00447
G1 X131.507 Y151.275 E0.01174
G1 X132.126 Y151.275 E0.03771
G1 X142.942 Y151.275 E0.6584
G1 X143.212 Y151.386 E0.01773
G1 X143.632 Y151.807 E0.03619
G1 X143.743 Y152.076 E0.01773
G1 X143.743 Y155.406 E0.20273
G1 X143.011 Y155.406 F9000
G1 F1950
G1 X143.011 Y162.727 E0.44564
G1 X143.01 Y162.748 E0.00125
G1 X142.916 Y163.585 E0.05128
G1 X142.907 Y163.625 E0.0025
G1 X142.627 Y164.424 E0.05157
G1 X142.609 Y164.461 E0.0025
G1 X142.158 Y165.179 E0.05157
G1 X142.133 Y165.211 E0.0025
G1 X141.534 Y165.81 E0.05157
G1 X141.502 Y165.835 E0.0025
G1 X140.784 Y166.286 E0.05157
G1 X140.747 Y166.304 E0.0025
G1 X139.948 Y166.584 E0.05157
G1 X139.908 Y166.593 E0.0025
G1 X139.07 Y166.687 E0.05128
G1 X139.05 Y166.688 E0.00125
G1 X138.214 Y166.688 E0.05086
G1 X137.558 Y166.758 E0.04021
G1 X136.923 Y166.918 E0.0398
G1 X136.361 Y167.151 E0.03708
G1 X135.847 Y167.475 E0.03699
G1 X135.441 Y167.856 E0.03389
G1 X135.142 Y168.286 E0.03183
G1 X134.961 Y168.75 E0.03037
G1 X134.919 Y168.985 E0.01454
G1 X134.911 Y169.227 E0.0147
G1 X134.914 Y171.197 E0.11996
G1 X134.927 Y171.677 E0.02922
G1 X135.011 Y172.68 E0.06126
G1 X135.011 Y174.18 E0.09129
G1 X134.936 Y175.184 E0.06131
G1 X134.916 Y175.666 E0.02934
G1 X134.911 Y180.612 E0.30109
G1 X134.887 Y180.922 E0.01892
G1 X134.883 Y180.951 E0.00182
G1 X134.805 Y181.266 E0.01975
G1 X134.792 Y181.303 E0.00236
G1 X134.675 Y181.543 E0.01624
G1 X134.655 Y181.574 E0.00225
G1 X134.471 Y181.814 E0.01845
G1 X134.437 Y181.848 E0.00289
G1 X134.197 Y182.033 E0.01845
G1 X134.165 Y182.052 E0.00225
G1 X133.925 Y182.169 E0.01624
G1 X133.889 Y182.182 E0.00236
G1 X133.574 Y182.26 E0.01975
G1 X133.544 Y182.265 E0.00182
G1 X133.235 Y182.288 E0.0189
G1 X129.278 Y182.299 E0.24085
G1 X128.804 Y182.329 E0.02894
G1 X128.308 Y182.387 E0.03042
G1 X128.286 Y182.388 E0.00131
G1 X123.804 Y182.388 E0.27281
G1 X123.783 Y182.387 E0.00131
G1 X123.287 Y182.329 E0.03042
G1 X122.812 Y182.299 E0.02894
G1 X118.842 Y182.288 E0.24169
G1 X118.546 Y182.265 E0.01805
G1 X118.516 Y182.26 E0.00182
G1 X118.201 Y182.182 E0.01975
G1 X118.165 Y182.169 E0.00236
G1 X117.925 Y182.052 E0.01624
G1 X117.894 Y182.033 E0.00225
G1 X117.653 Y181.848 E0.01845
G1 X117.62 Y181.814 E0.00289
G1 X117.435 Y181.574 E0.01845
G1 X117.416 Y181.543 E0.00225
G1 X117.299 Y181.303 E0.01624
G1 X117.285 Y181.266 E0.00236
G1 X117.208 Y180.951 E0.01975
G1 X117.203 Y180.922 E0.00182
G1 X117.18 Y180.626 E0.01806
G1 X117.173 Y175.664 E0.30203
G1 X117.153 Y175.182 E0.02936
