; generated by SuperSlicer 2.5.59 on 2023-04-13 at 21:15:51 UTC


;
;

;
;
; 

; external perimeters extrusion width = 0.46mm
; perimeters extrusion width = 0.46mm
; infill extrusion width = 0.46mm
; solid infill extrusion width = 0.46mm
; top infill extrusion width = 0.46mm
; support material extrusion width = 0.46mm
; first layer extrusion width = 0.58mm

; object:{"name":"z-chain guide umbilical (1)","id":"z-chain guide umbilical (1).stl id:0 copy 0","object_center":[150.000000,148.500000,0.000000],"boundingbox_center":[150.000000,148.500000,17.500000],"boundingbox_size":[67.998001,37.000000,35.000000]}
EXCLUDE_OBJECT_DEFINE NAME=z_chain_guide_umbilical_1_stl_id_0_copy_0 CENTER=150.000000,148.500000 POLYGON=[[116.001000,139.225552],[119.837704,137.067744],[120.078688,137.000000],[145.910000,130.304000],[146.508000,130.174000],[147.020992,130.091000],[147.782000,130.018008],[148.354992,130.000000],[169.636992,130.000000],[170.209984,130.018008],[171.066016,130.108000],[172.097008,130.309008],[172.464000,130.416992],[173.125008,130.632008],[173.385008,130.729008],[173.423008,130.748000],[173.442000,130.757992],[173.623008,130.873992],[173.654000,130.899992],[173.744992,130.990008],[183.856000,142.033008],[183.886000,142.072992],[183.914000,142.127984],[183.938000,142.196992],[183.959008,142.277008],[183.976000,142.367008],[183.988992,142.464992],[183.996000,142.567008],[183.998992,142.672000],[183.998992,154.328000],[183.996000,154.432992],[183.988992,154.535008],[183.976000,154.632992],[183.959008,154.722992],[183.938000,154.803008],[183.914000,154.872016],[183.886000,154.927008],[183.856000,154.966992],[183.824000,154.992000],[166.986992,166.007008],[166.531008,166.298000],[166.290016,166.440000],[165.925008,166.610992],[165.778000,166.669008],[165.578992,166.736992],[165.380992,166.798000],[164.892000,166.919008],[163.996000,167.000000],[153.996000,167.000000],[153.856000,166.996000],[153.529008,166.976000],[153.136992,166.918000],[152.818000,166.859008],[119.983336,160.046992],[119.742504,159.979312],[116.001000,157.875088],[116.001000,139.225552]]
; plater:{"center":[150.000000,148.500000,0.000000],"boundingbox_center":[150.000000,148.500000,17.500000],"boundingbox_size":[67.998001,37.000000,35.000000]}

;TYPE:Custom
SET_PRINT_STATS_INFO TOTAL_LAYER=175

M104 S0 ; Stops SuperSlicer from sending temp waits separately

M109 S0

M140 S0

print_start EXTRUDER=250 BED=105 CHAMBER=0
M107
G21 ; set units to millimeters
G90 ; use absolute coordinates
M82 ; use absolute distances for extrusion
G92 E0
; Filament gcode
;_TOOLCHANGE 0
M107
;LAYER_CHANGE
;Z:0.2
;HEIGHT:0.2
TIMELAPSE_TAKE_FRAME
;BEFORE_LAYER_CHANGE
;0.2


G1 Z0.2 F12000
SET_PRINT_STATS_INFO CURRENT_LAYER=1
;AFTER_LAYER_CHANGE
;0.2
G1 E-0.7 F2400
G1 Z0.4 F12000
M204 S3000
G1 X118.38 Y140.955
G1 Z0.2
G1 E0 F2400
;TYPE:Skirt
;WIDTH:0.54
G1 F3600
G1 X117.627 Y141.644 E0.04217
G1 X117.236 Y142.91 E0.09692
G1 X117.236 Y154.191 E0.5632
G1 X117.469 Y155.185 E0.60537
G1 X118.38 Y156.146 E0.66011
G1 X118.971 Y156.446 E0.68753
G1 X152.104 Y168.671 E2.14722
G1 X153.996 Y168.943 E2.22623
G1 X163.996 Y168.943 E2.63956
G1 X165.603 Y168.735 E2.70653
G1 X166.183 Y168.57 E2.73146
G1 X167.339 Y168.064 E2.78362
G1 X185.028 Y156.416 E3.65902
G1 X185.441 Y156.066 E3.6814
G1 X186.021 Y154.989 E3.73197
G1 X186.099 Y154.396 E3.75669
G1 X186.102 Y142.673 E4.24123
G1 X186.078 Y142.324 E4.25567
G1 X185.804 Y141.446 E4.29369
G1 X185.459 Y140.945 E4.31885
G1 X175.046 Y129.548 E4.95692
G1 X174.289 Y129.036 E4.99468
G1 X172.772 Y128.486 E5.06136
G1 X170.609 Y128.108 E5.15214
G1 X169.723 Y128.059 E5.1888
G1 X148.355 Y128.057 E6.072
G1 X146.757 Y128.17 E6.13819
G1 X145.134 Y128.508 E6.20672
G1 X143.724 Y129.002 E6.26849
G1 X118.745 Y140.75 E7.4094
G1 X118.432 Y140.926 E7.42424
G1 X118.672 Y141.361 F12000
G1 F3600
G1 X118.623 Y141.388 E7.42655
G1 X118.122 Y141.812 E7.45367
G1 X117.733 Y142.91 E7.50181
G1 X117.733 Y154.191 E7.96809
G1 X117.857 Y154.836 E7.99522
G1 X118.623 Y155.713 E8.04336
G1 X119.143 Y155.98 E8.06753
G1 X152.214 Y168.186 E9.52454
G1 X153.996 Y168.446 E9.59898
G1 X163.996 Y168.446 E10.0123
G1 X165.532 Y168.243 E10.07636
G1 X167.14 Y167.609 E10.14779
G1 X184.754 Y156.001 E11.01968
G1 X185.084 Y155.72 E11.03762
G1 X185.536 Y154.881 E11.07699
G1 X185.601 Y154.396 E11.09724
G1 X185.605 Y142.672 E11.58178
G1 X185.361 Y141.67 E11.62442
G1 X185.092 Y141.28 E11.64401
G1 X174.691 Y129.896 E12.28133
G1 X174.075 Y129.485 E12.31197
G1 X172.606 Y128.955 E12.37649
G1 X170.532 Y128.599 E12.46348
G1 X169.704 Y128.556 E12.49775
G1 X148.355 Y128.554 E13.38015
G1 X146.794 Y128.666 E13.44482
G1 X145.243 Y128.994 E13.51037
G1 X143.935 Y129.452 E13.56763
G1 X119.102 Y141.125 E14.70179
G1 X118.725 Y141.332 E14.71959
G1 X118.966 Y141.767 F12000
G1 F3600
G1 X118.867 Y141.822 E14.72424
G1 X118.231 Y142.91 E14.77635
G1 X118.231 Y154.191 E15.24263
G1 X118.867 Y155.279 E15.29474
G1 X119.316 Y155.514 E15.31566
G1 X152.324 Y167.701 E16.76998
G1 X153.996 Y167.949 E16.83986
G1 X163.996 Y167.949 E17.25318
G1 X165.462 Y167.751 E17.31431
G1 X166.941 Y167.153 E17.38024
G1 X184.48 Y155.587 E18.24863
G1 X184.728 Y155.374 E18.26213
G1 X185.051 Y154.774 E18.29029
G1 X185.104 Y154.395 E18.30609
G1 X185.108 Y142.672 E18.79063
G1 X184.917 Y141.894 E18.82374
G1 X174.337 Y130.244 E19.4742
G1 X173.86 Y129.933 E19.49771
G1 X172.44 Y129.423 E19.56007
G1 X170.455 Y129.091 E19.64328
G1 X169.685 Y129.052 E19.67515
G1 X148.355 Y129.051 E20.55676
G1 X146.831 Y129.162 E20.6199
G1 X145.351 Y129.479 E20.68248
G1 X144.147 Y129.902 E20.73524
G1 X119.313 Y141.574 E21.86939
G1 X119.018 Y141.738 E21.88334
M104 S250 ; set temperature
G92 E0
G1 E-0.7 F2400
M204 S7000
G1 Z0.4 F12000
; printing object z-chain guide umbilical (1).stl id:0 copy 0
EXCLUDE_OBJECT_START NAME=z_chain_guide_umbilical_1_stl_id_0_copy_0
; acceleration to travel
M204 S8000
G1 X131.247 Y149.339
; decel to extrusion
M204 S3000
G1 X135.761 Y152.146
; end travel
G1 Z0.2
G1 E0 F2400
;TYPE:Internal perimeter
;WIDTH:0.58
G1 F3300
G1 X136.565 Y152.672 E0.04288
G1 X136.473 Y152.978 E0.05718
G1 X135.761 Y152.978 E0.08898
G1 X135.761 Y152.206 E0.12349
G92 E0
G1 E-0.7 F2400
M204 S7000
G1 Z0.4 F12000
; acceleration to travel
M204 S8000
G1 X137.581 Y153.154
; decel to extrusion
M204 S3000
G1 X138.274 Y153.516
; end travel
G1 Z0.2
G1 E0 F2400
G1 F3600
G1 X135.224 Y153.516 E0.1362
G1 X135.224 Y151.152 E0.24175
G1 X138.366 Y153.209 E0.40943
G1 X138.291 Y153.458 E0.42106
G92 E0
G1 E-0.7 F2400
M204 S7000
G1 Z0.4 F12000
; acceleration to travel
M204 S8000
G1 X134.451 Y147.275
; decel to extrusion
M204 S3000
G1 X133.033 Y144.993
; end travel
G1 Z0.2
G1 E0 F2400
G1 F3300
G1 X132.09 Y144.375 E0.05032
G1 X132.182 Y144.069 E0.06462
G1 X133.033 Y144.069 E0.10263
G1 X133.033 Y144.933 E0.14122
G92 E0
G1 E-0.7 F2400
M204 S7000
G1 Z0.4 F12000
; acceleration to travel
M204 S8000
G1 X131.112 Y143.918
; decel to extrusion
M204 S3000
G1 X130.381 Y143.531
; end travel
G1 Z0.2
G1 E0 F2400
G1 F3600
G1 X133.57 Y143.531 E0.14243
G1 X133.57 Y145.986 E0.25205
G1 X130.289 Y143.838 E0.42716
G1 X130.364 Y143.589 E0.43878
G92 E0
G1 E-0.7 F2400
M204 S7000
G1 Z0.4 F12000
; acceleration to travel
M204 S8000
G1 X129.169 Y144.966
; decel to extrusion
M204 S3000
G1 X128.721 Y145.483
; end travel
G1 Z0.2
G1 E0 F2400
G1 F3600
G1 X128.721 Y151.296 E0.25964
G1 X130.821 Y152.672 E0.37176
G1 X130.73 Y152.978 E0.38606
G1 X120.843 Y152.978 E0.82758
G1 X120.843 Y144.069 E1.22548
G1 X128.721 Y144.069 E1.57727
G1 X128.721 Y145.423 E1.63773
; acceleration to travel
M204 S8000
G1 X129.111 Y146.365 F12000
; decel to extrusion
M204 S3000
G1 X129.258 Y146.719
; end travel
G1 F3600
G1 X129.258 Y151.006 E1.82921
G1 X132.622 Y153.209 E2.0088
G1 X132.531 Y153.516 E2.0231
G1 X120.306 Y153.516 E2.56902
G1 X120.306 Y143.531 E3.0149
G1 X129.258 Y143.531 E3.41465
G1 X129.258 Y146.659 E3.55431
G92 E0
G1 E-0.7 F2400
M204 S7000
G1 Z0.4 F12000
; acceleration to travel
M204 S8000
G1 X161.713 Y144.534
; decel to extrusion
M204 S3000
G1 X173.694 Y143.75
; end travel
G1 Z0.2
G1 E0 F2400
G1 F3300
G1 X175.033 Y143.75 E0.05978
G1 X175.033 Y144.993 E0.11529
G1 X173.603 Y144.056 E0.19162
G1 X173.677 Y143.807 E0.20324
; acceleration to travel
M204 S8000
G1 X172.385 Y143.376 F12000
; decel to extrusion
M204 S3000
G1 X171.893 Y143.212
; end travel
G1 F3600
G1 X175.57 Y143.212 E0.36743
G1 X175.57 Y145.986 E0.4913
G1 X171.802 Y143.519 E0.69242
G1 X171.876 Y143.27 E0.70404
G92 E0
G1 E-0.7 F2400
M204 S7000
G1 Z0.4 F12000
; acceleration to travel
M204 S8000
G1 X177.393 Y143.842
; decel to extrusion
M204 S3000
G1 X179.462 Y144.056
; end travel
G1 Z0.2
G1 E0 F2400
G1 F3600
G1 X179.554 Y143.75 E0.0143
G1 X181.816 Y143.75 E0.11534
G1 X181.99 Y143.819 E0.12369
G1 X182.495 Y143.82 E0.14622
G1 X182.494 Y146.041 E0.24543
G1 X179.513 Y144.089 E0.40456
; acceleration to travel
M204 S8000
G1 X178.166 Y143.675 F12000
; decel to extrusion
M204 S3000
G1 X177.662 Y143.519
; end travel
G1 F3600
G1 X177.753 Y143.212 E0.41887
G1 X181.92 Y143.212 E0.60494
G1 X182.094 Y143.282 E0.6133
G1 X183.032 Y143.283 E0.6552
G1 X183.029 Y153.718 E1.1212
G1 X182.095 Y153.718 E1.16292
G1 X181.92 Y153.788 E1.17133
G1 X181.532 Y153.788 E1.18867
G1 X181.532 Y146.053 E1.53408
G1 X177.712 Y143.552 E1.73798
G92 E0
G1 E-0.7 F2400
M204 S7000
G1 Z0.4 F12000
; acceleration to travel
M204 S8000
G1 X177.748 Y149.829
; decel to extrusion
M204 S3000
G1 X177.761 Y152.146
; end travel
G1 Z0.2
G1 E0 F2400
G1 F3300
G1 X178.98 Y152.944 E0.06506
G1 X178.889 Y153.25 E0.07936
G1 X177.761 Y153.25 E0.12971
G1 X177.761 Y152.206 E0.17637
; acceleration to travel
M204 S8000
G1 X177.372 Y151.443 F12000
; decel to extrusion
M204 S3000
G1 X177.224 Y151.152
; end travel
G1 F3600
G1 X180.781 Y153.481 E0.36623
G1 X180.69 Y153.788 E0.38054
G1 X177.224 Y153.788 E0.5353
G1 X177.224 Y151.212 E0.65031
G92 E0
G1 E-0.7 F2400
M204 S7000
G1 Z0.4 F12000
; acceleration to travel
M204 S8000
G1 X167.749 Y153.442
; decel to extrusion
M204 S3000
G1 X164.195 Y154.278
; end travel
G1 Z0.2
G1 E0 F2400
G1 F3600
G1 X164.174 Y154.234 E0.00217
G1 X163.878 Y153.74 E0.02791
G1 X163.535 Y153.278 E0.0536
G1 X163.149 Y152.85 E0.07934
G1 X162.721 Y152.464 E0.10508
G1 X162.259 Y152.121 E0.13077
G1 X161.765 Y151.825 E0.15651
G1 X161.245 Y151.578 E0.18219
G1 X160.702 Y151.384 E0.20796
G1 X160.143 Y151.244 E0.23369
G1 X159.573 Y151.16 E0.25942
G1 X158.999 Y151.132 E0.28509
G1 X158.425 Y151.16 E0.31075
G1 X157.855 Y151.244 E0.33649
G1 X157.296 Y151.384 E0.36221
G1 X156.753 Y151.578 E0.38798
G1 X156.233 Y151.825 E0.41366
G1 X155.739 Y152.121 E0.4394
G1 X155.277 Y152.464 E0.46509
G1 X154.849 Y152.85 E0.49083
G1 X154.463 Y153.278 E0.51657
G1 X154.12 Y153.74 E0.54226
G1 X153.824 Y154.234 E0.568
G1 X153.577 Y154.754 E0.59368
G1 X153.383 Y155.297 E0.61945
G1 X153.243 Y155.856 E0.64518
G1 X153.159 Y156.424 E0.67084
G1 X153.13 Y157 E0.69658
G1 X153.159 Y157.576 E0.72232
G1 X153.243 Y158.144 E0.74798
G1 X153.383 Y158.703 E0.77371
G1 X153.577 Y159.246 E0.79948
G1 X153.824 Y159.766 E0.82516
G1 X154.12 Y160.26 E0.8509
G1 X154.463 Y160.722 E0.87658
G1 X154.849 Y161.15 E0.90233
G1 X155.277 Y161.536 E0.92807
G1 X155.739 Y161.879 E0.95376
G1 X156.233 Y162.175 E0.97949
G1 X156.753 Y162.422 E1.00517
G1 X157.296 Y162.616 E1.03094
G1 X157.855 Y162.756 E1.05667
G1 X158.423 Y162.84 E1.08233
G1 X158.999 Y162.869 E1.10807
G1 X159.575 Y162.84 E1.13381
G1 X160.143 Y162.756 E1.15947
G1 X160.702 Y162.616 E1.1852
G1 X161.245 Y162.422 E1.21097
G1 X161.765 Y162.175 E1.23665
G1 X162.259 Y161.879 E1.26239
G1 X162.721 Y161.536 E1.28808
G1 X163.149 Y161.15 E1.31382
G1 X163.535 Y160.722 E1.33956
G1 X163.878 Y160.26 E1.36525
G1 X164.174 Y159.766 E1.39099
G1 X164.421 Y159.246 E1.41667
G1 X164.615 Y158.703 E1.44244
G1 X164.755 Y158.144 E1.46817
G1 X164.839 Y157.574 E1.4939
G1 X164.867 Y157 E1.51957
G1 X164.839 Y156.426 E1.54523
G1 X164.755 Y155.856 E1.57097
G1 X164.615 Y155.297 E1.5967
G1 X164.421 Y154.754 E1.62246
G1 X164.221 Y154.332 E1.64329
G1 X163.711 Y154.51 F12000
G1 F3600
G1 X163.7 Y154.488 E1.64438
G1 X163.431 Y154.039 E1.66775
G1 X163.119 Y153.619 E1.6911
G1 X162.769 Y153.23 E1.71448
G1 X162.38 Y152.88 E1.73785
G1 X161.96 Y152.568 E1.76121
G1 X161.511 Y152.299 E1.78458
G1 X161.039 Y152.075 E1.80791
G1 X160.546 Y151.898 E1.8313
G1 X160.038 Y151.772 E1.85468
G1 X159.521 Y151.695 E1.87804
G1 X158.999 Y151.67 E1.90137
G1 X158.477 Y151.695 E1.92469
G1 X157.96 Y151.772 E1.94806
G1 X157.452 Y151.898 E1.97144
G1 X156.959 Y152.075 E1.99483
G1 X156.487 Y152.299 E2.01816
G1 X156.038 Y152.568 E2.04153
G1 X155.618 Y152.88 E2.06489
G1 X155.229 Y153.23 E2.08826
G1 X154.879 Y153.619 E2.11164
G1 X154.567 Y154.039 E2.13499
G1 X154.298 Y154.488 E2.15836
G1 X154.074 Y154.96 E2.1817
G1 X153.897 Y155.453 E2.20509
G1 X153.771 Y155.961 E2.22846
G1 X153.694 Y156.477 E2.25179
G1 X153.668 Y157 E2.27516
G1 X153.694 Y157.523 E2.29853
G1 X153.771 Y158.039 E2.32185
G1 X153.897 Y158.547 E2.34523
G1 X154.074 Y159.04 E2.36862
G1 X154.298 Y159.512 E2.39195
G1 X154.567 Y159.961 E2.41532
G1 X154.879 Y160.381 E2.43867
G1 X155.229 Y160.77 E2.46205
G1 X155.618 Y161.12 E2.48543
G1 X156.038 Y161.432 E2.50878
G1 X156.487 Y161.701 E2.53215
G1 X156.959 Y161.925 E2.55548
G1 X157.452 Y162.102 E2.57888
G1 X157.96 Y162.228 E2.60225
G1 X158.476 Y162.305 E2.62558
G1 X158.999 Y162.331 E2.64895
G1 X159.522 Y162.305 E2.67231
G1 X160.038 Y162.228 E2.69564
G1 X160.546 Y162.102 E2.71901
G1 X161.039 Y161.925 E2.74241
G1 X161.511 Y161.701 E2.76574
G1 X161.96 Y161.432 E2.78911
G1 X162.38 Y161.12 E2.81246
G1 X162.769 Y160.77 E2.83584
G1 X163.119 Y160.381 E2.85922
G1 X163.431 Y159.961 E2.88257
G1 X163.7 Y159.512 E2.90594
G1 X163.924 Y159.04 E2.92927
G1 X164.101 Y158.547 E2.95266
G1 X164.227 Y158.039 E2.97604
G1 X164.304 Y157.522 E2.99941
G1 X164.329 Y157 E3.02273
G1 X164.304 Y156.478 E3.04606
G1 X164.227 Y155.961 E3.06943
G1 X164.101 Y155.453 E3.0928
G1 X163.924 Y154.96 E3.11619
G1 X163.736 Y154.564 E3.13576
M204 S2000
G1 X163.226 Y154.741 F12000
;TYPE:External perimeter
G1 F3600
G1 X162.984 Y154.338 E3.15677
G1 X162.704 Y153.96 E3.17778
G1 X162.388 Y153.611 E3.19879
G1 X162.039 Y153.296 E3.2198
G1 X161.661 Y153.015 E3.24082
G1 X161.258 Y152.773 E3.26182
G1 X160.833 Y152.572 E3.28281
G1 X160.39 Y152.413 E3.30383
G1 X159.934 Y152.299 E3.32484
G1 X159.468 Y152.23 E3.34585
G1 X158.999 Y152.208 E3.36683
G1 X158.53 Y152.23 E3.38781
G1 X158.064 Y152.299 E3.40882
G1 X157.608 Y152.413 E3.42984
G1 X157.165 Y152.572 E3.45085
G1 X156.74 Y152.773 E3.47184
G1 X156.337 Y153.015 E3.49284
G1 X155.959 Y153.295 E3.51386
G1 X155.61 Y153.611 E3.53487
G1 X155.294 Y153.96 E3.55588
G1 X155.014 Y154.338 E3.5769
G1 X154.772 Y154.741 E3.5979
G1 X154.571 Y155.166 E3.61889
G1 X154.412 Y155.609 E3.6399
G1 X154.298 Y156.065 E3.66092
G1 X154.229 Y156.53 E3.68191
G1 X154.206 Y157 E3.70291
G1 X154.229 Y157.47 E3.72391
G1 X154.298 Y157.935 E3.7449
G1 X154.412 Y158.391 E3.76592
G1 X154.571 Y158.834 E3.78694
G1 X154.772 Y159.259 E3.80792
G1 X155.014 Y159.662 E3.82893
G1 X155.294 Y160.04 E3.84994
G1 X155.61 Y160.389 E3.87095
G1 X155.959 Y160.704 E3.89196
G1 X156.337 Y160.985 E3.91298
G1 X156.74 Y161.227 E3.93399
G1 X157.165 Y161.428 E3.95497
G1 X157.608 Y161.587 E3.97599
G1 X158.064 Y161.701 E3.997
G1 X158.529 Y161.77 E4.018
G1 X158.999 Y161.793 E4.03899
G1 X159.469 Y161.77 E4.05999
G1 X159.934 Y161.701 E4.08098
G1 X160.39 Y161.587 E4.102
G1 X160.833 Y161.428 E4.12302
G1 X161.258 Y161.227 E4.144
G1 X161.661 Y160.985 E4.16501
G1 X162.039 Y160.704 E4.18603
G1 X162.388 Y160.389 E4.20704
G1 X162.704 Y160.04 E4.22804
G1 X162.984 Y159.662 E4.24906
G1 X163.226 Y159.259 E4.27007
G1 X163.427 Y158.834 E4.29105
G1 X163.586 Y158.391 E4.31207
G1 X163.7 Y157.935 E4.33309
G1 X163.769 Y157.469 E4.35409
G1 X163.791 Y157 E4.37507
G1 X163.769 Y156.531 E4.39606
G1 X163.7 Y156.065 E4.41706
G1 X163.586 Y155.609 E4.43808
G1 X163.427 Y155.166 E4.4591
G1 X163.252 Y154.795 E4.4774
;WIPE_START
M204 S7000
G1 X163.432 Y154.398 F12000
;WIPE_END
G92 E0
G1 E-0.7 F2400
G1 Z0.4 F12000
; acceleration to travel
M204 S8000
G1 X162.548 Y147.494
; decel to extrusion
M204 S3000
G1 X162.217 Y144.905
