; generated by SuperSlicer 2.5.59 on 2023-05-11 at 08:18:08 UTC


;
;

;
;
; 

; external perimeters extrusion width = 0.43mm
; perimeters extrusion width = 0.45mm
; infill extrusion width = 0.45mm
; solid infill extrusion width = 0.45mm
; top infill extrusion width = 0.42mm
; support material extrusion width = 0.42mm
; first layer extrusion width = 0.57mm

; external perimeters extrusion width = 0.43mm
; perimeters extrusion width = 0.45mm
; infill extrusion width = 0.45mm
; solid infill extrusion width = 0.45mm
; top infill extrusion width = 0.42mm
; support material extrusion width = 0.42mm
; first layer extrusion width = 0.57mm

; object:{"name":"z_chain_guide_umbilical_big","id":"z_chain_guide_umbilical_big.stl id:0 copy 0","object_center":[163.000155,148.500000,0.000000],"boundingbox_center":[163.000155,148.500000,10.500000],"boundingbox_size":[20.000000,41.599991,21.000000]}
EXCLUDE_OBJECT_DEFINE NAME=z_chain_guide_umbilical_big_stl_id_0_copy_0 CENTER=163.000155,148.500000 POLYGON=[[153.000160,132.700016],[153.010032,132.386048],[153.039584,132.073336],[153.088736,131.763096],[153.157248,131.456560],[153.244880,131.154920],[153.351280,130.859392],[153.476032,130.571104],[153.618624,130.291248],[153.778512,130.020872],[153.955072,129.761080],[154.147600,129.512880],[154.355312,129.277264],[154.577424,129.055160],[154.813040,128.847440],[155.061232,128.654920],[155.321024,128.478360],[155.591392,128.318464],[155.871264,128.175872],[156.159536,128.051120],[156.455072,127.944720],[156.756720,127.857088],[157.063248,127.788576],[157.373488,127.739424],[157.686208,127.709872],[158.000160,127.700016],[168.000160,127.700016],[168.314112,127.709872],[168.626832,127.739424],[168.937072,127.788576],[169.243600,127.857088],[169.545248,127.944720],[169.840784,128.051120],[170.129056,128.175872],[170.408928,128.318464],[170.679296,128.478360],[170.939088,128.654920],[171.187280,128.847440],[171.422896,129.055160],[171.645008,129.277264],[171.852720,129.512880],[172.045248,129.761080],[172.221808,130.020872],[172.381696,130.291248],[172.524288,130.571104],[172.649056,130.859392],[172.755440,131.154920],[172.843072,131.456560],[172.911584,131.763096],[172.960736,132.073336],[172.990288,132.386048],[173.000160,132.700016],[173.000160,164.309808],[172.996224,164.498752],[172.990288,164.613952],[172.985920,164.677664],[172.970272,164.846224],[172.960736,164.926672],[172.950368,165.004128],[172.927200,165.151024],[172.911584,165.236912],[172.901872,165.286560],[172.875344,165.410400],[172.848512,165.522256],[172.843072,165.543456],[172.822288,165.621856],[172.797568,165.708896],[172.775200,165.783040],[172.755808,165.844048],[172.740016,165.891760],[172.728400,165.926016],[172.721248,165.946608],[172.718848,165.953488],[172.649056,166.140624],[172.607936,166.241248],[172.524288,166.428912],[172.479488,166.521616],[172.381696,166.708768],[172.334016,166.793536],[172.221808,166.979136],[172.172048,167.055968],[172.045248,167.238944],[171.994224,167.307920],[171.852720,167.487120],[171.801184,167.548432],[171.645008,167.722752],[171.593696,167.776560],[171.422896,167.944848],[171.372528,167.991504],[171.187280,168.152576],[171.138528,168.192384],[170.939088,168.345088],[170.892608,168.378448],[170.679296,168.521648],[170.635680,168.549008],[170.408928,168.681536],[170.368736,168.703408],[170.129056,168.824144],[170.092752,168.841056],[169.840784,168.948880],[169.808816,168.961408],[169.545248,169.055280],[169.518016,169.064064],[169.243600,169.142912],[169.221440,169.148560],[168.937072,169.211440],[168.920192,169.214624],[168.626832,169.260576],[168.615472,169.262000],[168.314112,169.290144],[168.308400,169.290496],[168.000160,169.300000],[158.000160,169.300000],[157.691904,169.290496],[157.686208,169.290144],[157.384848,169.262000],[157.373488,169.260576],[157.080128,169.214624],[157.063248,169.211440],[156.778880,169.148560],[156.756720,169.142912],[156.482304,169.064064],[156.455072,169.055280],[156.191504,168.961408],[156.159536,168.948880],[155.907568,168.841056],[155.871264,168.824144],[155.631600,168.703408],[155.591392,168.681536],[155.364640,168.549008],[155.321024,168.521648],[155.107712,168.378448],[155.061232,168.345088],[154.861776,168.192384],[154.813040,168.152576],[154.627792,167.991504],[154.577424,167.944848],[154.406624,167.776560],[154.355312,167.722752],[154.199136,167.548432],[154.147600,167.487120],[154.006096,167.307920],[153.955072,167.238944],[153.828256,167.055968],[153.778512,166.979136],[153.666304,166.793536],[153.618624,166.708768],[153.520832,166.521616],[153.476032,166.428912],[153.392384,166.241248],[153.351280,166.140624],[153.281472,165.953488],[153.279072,165.946608],[153.271920,165.926016],[153.260304,165.891760],[153.244512,165.844048],[153.225136,165.783040],[153.202752,165.708896],[153.178032,165.621856],[153.157248,165.543456],[153.151808,165.522256],[153.124992,165.410400],[153.098448,165.286560],[153.088736,165.236912],[153.073104,165.151024],[153.049952,165.004128],[153.039584,164.926672],[153.030048,164.846224],[153.014400,164.677664],[153.010032,164.613952],[153.004096,164.498752],[153.000176,164.309808],[153.000160,164.300000],[153.000160,132.700016]]
; object:{"name":"z_chain_guide_umbilical_small","id":"z_chain_guide_umbilical_small.stl id:1 copy 0","object_center":[136.999991,148.500011,0.000000],"boundingbox_center":[136.999991,148.500011,5.000006],"boundingbox_size":[20.000290,22.000275,10.000011]}
EXCLUDE_OBJECT_DEFINE NAME=z_chain_guide_umbilical_small_stl_id_1_copy_0 CENTER=136.999991,148.500011 POLYGON=[[126.999848,153.981952],[126.999936,148.546560],[126.999952,147.583760],[127.000088,139.464368],[127.000136,137.499872],[147.000144,137.500208],[146.999984,146.627712],[146.999856,153.848512],[146.999840,154.510048],[146.996304,154.685664],[146.996128,154.692752],[146.993824,154.745568],[146.986336,154.867024],[146.975760,154.990320],[146.971408,155.032400],[146.952240,155.188384],[146.945712,155.233888],[146.929760,155.334496],[146.904880,155.470272],[146.903760,155.475680],[146.878528,155.595248],[146.865072,155.653520],[146.851616,155.708912],[146.838224,155.761360],[146.825040,155.810784],[146.812192,155.857184],[146.799760,155.900432],[146.787904,155.940496],[146.784512,155.951664],[146.776720,155.977184],[146.766304,156.010496],[146.756736,156.040368],[146.748096,156.066800],[146.740432,156.089776],[146.733840,156.109264],[146.728384,156.125264],[146.724096,156.137696],[146.719136,156.151936],[146.718512,156.153712],[146.707536,156.184672],[146.631184,156.384480],[146.619216,156.413648],[146.532592,156.610640],[146.519760,156.638000],[146.422960,156.831680],[146.409408,156.857216],[146.302560,157.047024],[146.288448,157.070736],[146.171696,157.256176],[146.157152,157.278080],[146.030656,157.458624],[146.015840,157.478720],[145.879808,157.653872],[145.864832,157.672176],[145.719520,157.841408],[145.704544,157.858000],[145.550160,158.020848],[145.535328,158.035744],[145.372160,158.191696],[145.357568,158.204960],[145.185936,158.353568],[145.171760,158.365248],[144.991968,158.506048],[144.978272,158.516240],[144.790720,158.648752],[144.777632,158.657552],[144.582672,158.781392],[144.570288,158.788832],[144.368336,158.903584],[144.356752,158.909792],[144.148224,159.015056],[144.137536,159.020128],[143.922896,159.115536],[143.913200,159.119584],[143.692864,159.204784],[143.684224,159.207904],[143.458720,159.282576],[143.451184,159.284880],[143.221040,159.348720],[143.214656,159.350320],[142.980368,159.403056],[142.975216,159.404096],[142.737328,159.445472],[142.733408,159.446048],[142.492464,159.475808],[142.489856,159.476080],[142.246416,159.494064],[142.245104,159.494128],[141.999760,159.500160],[131.999760,159.499984],[131.754424,159.493952],[131.753112,159.493904],[131.509672,159.475888],[131.507064,159.475632],[131.266112,159.445840],[131.262208,159.445264],[131.024304,159.403888],[131.019152,159.402864],[130.784864,159.350112],[130.778488,159.348512],[130.548344,159.284656],[130.540800,159.282368],[130.315320,159.207680],[130.306656,159.204560],[130.086352,159.119360],[130.076648,159.115312],[129.862000,159.019904],[129.851304,159.014816],[129.642792,158.909552],[129.631208,158.903328],[129.429264,158.788576],[129.416872,158.781136],[129.221928,158.657280],[129.208832,158.648496],[129.021288,158.515984],[129.007584,158.505776],[128.827824,158.364976],[128.813616,158.353280],[128.641984,158.204688],[128.627408,158.191424],[128.464248,158.035456],[128.449416,158.020560],[128.295032,157.857712],[128.280072,157.841120],[128.134736,157.671888],[128.119784,157.653568],[127.983768,157.478416],[127.968936,157.458320],[127.842456,157.277760],[127.827912,157.255872],[127.711168,157.070416],[127.697040,157.046720],[127.590192,156.856896],[127.576648,156.831360],[127.479856,156.637680],[127.467024,156.610320],[127.380416,156.413312],[127.368440,156.384160],[127.292096,156.184352],[127.280504,156.151616],[127.278640,156.146272],[127.275544,156.137376],[127.271256,156.124928],[127.265792,156.108944],[127.259200,156.089440],[127.251560,156.066480],[127.242904,156.040032],[127.233336,156.010160],[127.222928,155.976864],[127.215120,155.951328],[127.211744,155.940176],[127.199872,155.900096],[127.187456,155.856848],[127.174608,155.810464],[127.161424,155.761024],[127.148040,155.708576],[127.134584,155.653184],[127.121136,155.594912],[127.095904,155.475360],[127.094784,155.469936],[127.069904,155.334160],[127.053952,155.233552],[127.047424,155.188048],[127.028256,155.032064],[127.023912,154.989984],[127.013336,154.866688],[127.005856,154.745232],[127.003552,154.692416],[126.999848,154.509728],[126.999848,153.981952]]
; plater:{"center":[150.000001,148.500000,0.000000],"boundingbox_center":[150.000001,148.500000,10.500000],"boundingbox_size":[46.000309,41.599991,21.000000]}

;TYPE:Custom
SET_PRINT_STATS_INFO TOTAL_LAYER=105

M104 S0 ; Stops SuperSlicer from sending temp waits separately

M109 S0

M140 S0

print_start EXTRUDER=250 BED=105 CHAMBER=0
M107
G21 ; set units to millimeters
G90 ; use absolute coordinates
M82 ; use absolute distances for extrusion
G92 E0
; Filament gcode
;_TOOLCHANGE 0
M107
;LAYER_CHANGE
;Z:0.2
;HEIGHT:0.2
TIMELAPSE_TAKE_FRAME
;BEFORE_LAYER_CHANGE
;0.2


G1 Z0.2 F12000
SET_PRINT_STATS_INFO CURRENT_LAYER=1
;AFTER_LAYER_CHANGE
;0.2
G1 E-0.7 F3300
G1 Z0.5 F12000
M204 S1500
G1 X124.8 Y136.1
G1 Z0.2
G1 E0 F2700
;TYPE:Skirt
;WIDTH:0.52
G1 X124.407 Y137.5 E0.05768
G1 X124.434 Y155.117 E0.75654
G1 X124.585 Y156.122 E0.79686
G1 X124.946 Y157.302 E0.84582
G1 X125.46 Y158.355 E0.89231
G1 X126.006 Y159.157 E0.93078
G1 X126.495 Y159.726 E0.96056
G1 X127.355 Y160.504 E1.00652
G1 X128.144 Y161.04 E1.04439
G1 X129.162 Y161.541 E1.08938
G1 X155.522 Y171.475 E2.20687
G1 X156.26 Y171.687 E2.23734
G1 X158 Y171.893 E2.30684
G1 X168.703 Y171.856 E2.73143
G1 X169.603 Y171.718 E2.76756
G1 X170.742 Y171.379 E2.81466
G1 X171.677 Y170.941 E2.85562
G1 X172.635 Y170.309 E2.90117
G1 X173.717 Y169.291 E2.9601
G1 X174.547 Y168.137 E3.01649
G1 X174.981 Y167.278 E3.05467
G1 X175.301 Y166.37 E3.09285
G1 X175.548 Y165.091 E3.14455
G1 X175.548 Y131.909 E4.46084
G1 X175.288 Y130.582 E4.51449
G1 X174.786 Y129.301 E4.56905
G1 X174.063 Y128.131 E4.62362
G1 X173.159 Y127.132 E4.67709
G1 X172.032 Y126.267 E4.73344
G1 X171.022 Y125.739 E4.77864
G1 X169.794 Y125.324 E4.83008
G1 X168.313 Y125.117 E4.88937
G1 X158.003 Y125.107 E5.29839
G1 X156.26 Y125.313 E5.36799
G1 X126.276 Y134.937 E6.61722
G1 X124.847 Y136.063 E6.68938
G92 E0
G1 E-0.7 F3300
M204 S6000
G1 Z0.5 F12000
M204 S1500
G1 X125.276 Y136.243
G1 Z0.2
G1 E0 F2700
G1 X124.885 Y137.5 E0.05221
G1 X124.887 Y154.609 E0.73094
G1 X125.004 Y155.791 E0.77803
G1 X125.23 Y156.685 E0.81461
G1 X125.729 Y157.86 E0.86524
G1 X126.373 Y158.852 E0.9122
G1 X126.831 Y159.387 E0.9401
G1 X127.657 Y160.135 E0.98432
G1 X128.378 Y160.624 E1.01888
G1 X129.33 Y161.095 E1.061
G1 X155.69 Y171.029 E2.1785
G1 X156.351 Y171.219 E2.20575
G1 X158 Y171.416 E2.27165
G1 X168.675 Y171.38 E2.69513
G1 X169.484 Y171.256 E2.72757
G1 X170.578 Y170.931 E2.77287
G1 X171.435 Y170.529 E2.81042
G1 X172.329 Y169.943 E2.85279
G1 X173.37 Y168.965 E2.90947
G1 X174.146 Y167.879 E2.96241
G1 X174.55 Y167.073 E2.99819
G1 X174.848 Y166.222 E3.03398
G1 X175.072 Y165.061 E3.08088
G1 X175.072 Y131.939 E4.39477
G1 X174.825 Y130.699 E4.44494
G1 X174.368 Y129.53 E4.49472
G1 X173.688 Y128.426 E4.54617
G1 X172.844 Y127.49 E4.59618
G1 X171.787 Y126.677 E4.64909
G1 X170.848 Y126.183 E4.69118
G1 X169.694 Y125.79 E4.73952
G1 X168.313 Y125.594 E4.79485
G1 X158.002 Y125.584 E5.20387
G1 X156.351 Y125.781 E5.26985
G1 X126.422 Y135.391 E6.5168
G1 X125.324 Y136.207 E6.57109
G92 E0
G1 E-0.7 F3300
M204 S6000
G1 Z0.5 F12000
M204 S1500
G1 X125.75 Y136.404
G1 Z0.2
G1 E0 F2700
G1 X125.362 Y137.5 E0.04611
G1 X125.363 Y154.586 E0.72389
G1 X125.476 Y155.72 E0.76911
G1 X125.679 Y156.523 E0.80195
G1 X126.145 Y157.626 E0.84945
G1 X126.74 Y158.548 E0.893
G1 X127.166 Y159.047 E0.91903
G1 X127.96 Y159.766 E0.9615
G1 X128.612 Y160.208 E0.99275
G1 X129.498 Y160.648 E1.03201
G1 X156.28 Y170.711 E2.16696
G1 X157.051 Y170.868 E2.19816
G1 X158 Y170.939 E2.23592
G1 X168.647 Y170.903 E2.65829
G1 X169.364 Y170.794 E2.68704
G1 X170.415 Y170.483 E2.73054
G1 X171.194 Y170.118 E2.76467
G1 X172.022 Y169.578 E2.80387
G1 X173.022 Y168.638 E2.85829
G1 X173.745 Y167.621 E2.90779
G1 X174.119 Y166.868 E2.94118
G1 X174.395 Y166.073 E2.97456
G1 X174.596 Y165.03 E3.01667
G1 X174.596 Y131.97 E4.32816
G1 X174.363 Y130.816 E4.37484
G1 X173.95 Y129.76 E4.41985
G1 X173.313 Y128.721 E4.46817
G1 X172.529 Y127.848 E4.51473
G1 X171.541 Y127.086 E4.5642
G1 X170.673 Y126.626 E4.60317
G1 X169.594 Y126.257 E4.64842
G1 X168.312 Y126.071 E4.69979
G1 X158.002 Y126.061 E5.10881
G1 X156.441 Y126.25 E5.17118
G1 X126.568 Y135.845 E6.41585
G1 X125.8 Y136.371 E6.45278
M104 S250 ; set temperature
G92 E0
G1 E-0.7 F3300
M204 S6000
G1 Z0.5 F12000
; printing object z_chain_guide_umbilical_big.stl id:0 copy 0
EXCLUDE_OBJECT_START NAME=z_chain_guide_umbilical_big_stl_id_0_copy_0
; acceleration to travel
M204 S6500
G1 X164.257 Y130.03
; decel to extrusion
M204 S1000
G1 X170.429 Y129.013
; end travel
G1 Z0.2
G1 E0 F2700
;TYPE:External perimeter
;WIDTH:0.568
G1 F3600
G1 X170.72 Y129.222 E0.01566
G1 X171.094 Y129.551 E0.03739
G1 X171.523 Y130.039 E0.06575
G1 X171.8 Y130.452 E0.08748
G1 X171.971 Y130.768 E0.10314
G1 X172.085 Y131.024 E0.1154
G1 X172.249 Y131.501 E0.1374
G1 X172.378 Y132.125 E0.16525
G1 X172.416 Y132.709 E0.19081
G1 X172.416 Y164.291 E1.56968
G1 X172.379 Y164.87 E1.59503
G1 X172.268 Y165.431 E1.61997
G1 X172.086 Y165.973 E1.64492
G1 X171.836 Y166.486 E1.66987
G1 X171.522 Y166.962 E1.69476
G1 X171.095 Y167.449 E1.72303
G1 X170.66 Y167.824 E1.74813
G1 X170.433 Y167.985 E1.76025
G1 X169.997 Y168.237 E1.78224
G1 X169.409 Y168.485 E1.8101
G1 X168.852 Y168.633 E1.83528
G1 X168.357 Y168.7 E1.85709
G1 X167.994 Y168.716 E1.87296
G1 X158.009 Y168.716 E2.30888
G1 X157.43 Y168.678 E2.33423
G1 X156.865 Y168.567 E2.35938
G1 X156.262 Y168.358 E2.38724
G1 X155.811 Y168.134 E2.40923
G1 X155.574 Y167.989 E2.42135
G1 X155.116 Y167.642 E2.44645
G1 X154.655 Y167.181 E2.47492
G1 X154.481 Y166.966 E2.48699
G1 X154.2 Y166.548 E2.50898
G1 X153.914 Y165.973 E2.53704
G1 X153.815 Y165.708 E2.54936
G1 X153.683 Y165.222 E2.57136
G1 X153.594 Y164.59 E2.59921
G1 X153.584 Y132.709 E3.99116
G1 X153.622 Y132.13 E4.01651
G1 X153.732 Y131.569 E4.04146
G1 X153.914 Y131.027 E4.0664
G1 X154.164 Y130.514 E4.09135
G1 X154.478 Y130.038 E4.11625
G1 X154.905 Y129.551 E4.14451
G1 X155.337 Y129.179 E4.16941
G1 X155.814 Y128.864 E4.19436
G1 X156.328 Y128.614 E4.2193
G1 X156.869 Y128.432 E4.24425
G1 X157.43 Y128.322 E4.2692
G1 X158.009 Y128.284 E4.29454
G1 X168.289 Y128.294 E4.74335
G1 X168.641 Y128.333 E4.75882
G1 X169.135 Y128.433 E4.78082
G1 X169.738 Y128.642 E4.80872
G1 X170.19 Y128.866 E4.83071
G1 X170.378 Y128.981 E4.84036
;WIPE_START
M204 S6000
G1 X170.399 Y129.411 F12000
;WIPE_END
M204 S1500
G1 X170.138 Y129.45
;TYPE:Internal perimeter
G1 F3600
G1 X170.393 Y129.633 E4.85407
